TiagoOliveira98/HandTracking/DataLogging/JointData/Logs(1643071333)_Tiago_Calculator.csv
WRIST,THUMB_CMC,THUMB_MCP,THUMB_IP,THUMB_TIP,INDEX_FINGER_MCP,INDEX_FINGER_PIP,INDEX_FINGER_DIP,INDEX_FINGER_TIP,MIDDLE_FINGER_MCP,MIDDLE_FINGER_PIP,MIDDLE_FINGER_DIP,MIDDLE_FINGER_TIP,RING_FINGER_MCP,RING_FINGER_PIP,RING_FINGER_DIP,RING_FINGER_TIP,PINKY_MCP,PINKY_PIP,PINKY_DIP,PINKY_TIP,WRIST2,THUMB_CMC2,THUMB_MCP2,THUMB_IP2,THUMB_TIP2,INDEX_FINGER_MCP2,INDEX_FINGER_PIP2,INDEX_FINGER_DIP2,INDEX_FINGER_TIP2,MIDDLE_FINGER_MCP2,MIDDLE_FINGER_PIP2,MIDDLE_FINGER_DIP2,MIDDLE_FINGER_TIP2,RING_FINGER_MCP2,RING_FINGER_PIP2,RING_FINGER_DIP2,RING_FINGER_TIP2,PINKY_MCP2,PINKY_PIP2,PINKY_DIP2,PINKY_TIP2,Timestamp,Event
10 0 0,10 7.47 0,10 7.47 0,10 7.47 0,10 7.47 0,10 7.47 0,10 7.47 0,10 7.47 0,10 7.47 0,10 7.47 0,10 7.47 0,10 7.47 0,10 7.47 0,10 7.47 0,10 7.47 0,10 7.47 0,10 7.47 0,10 7.47 0,10 7.47 0,10 7.47 0,10 7.47 0,10 0 0,10 7.47 0,10 7.47 0,10 7.47 0,10 7.47 0,10 7.47 0,10 7.47 0,10 7.47 0,10 7.47 0,10 7.47 0,10 7.47 0,10 7.47 0,10 7.47 0,10 7.47 0,10 7.47 0,10 7.47 0,10 7.47 0,10 7.47 0,10 7.47 0,10 7.47 0,10 7.47 0,0.010,
2 0 -8.996844,2 0 -8.996844,2 0 -8.996844,2 0 -8.996844,2 0 -8.996844,2 0 -8.996844,2 0 -8.996844,2 0 -8.996844,2 0 -8.996844,2 0 -8.996844,2 0 -8.996844,2 0 -8.996844,2 0 -8.996844,2 0 -8.996844,2 0 -8.996844,2 0 -8.996844,2 0 -8.996844,2 0 -8.996844,2 0 -8.996844,2 0 -8.996844,2 0 -8.996844,2 0 -8.792824,2 0 -8.792824,2 0 -8.792824,2 0 -8.792824,2 0 -8.792824,2 0 -8.792824,2 0 -8.792824,2 0 -8.792824,2 0 -8.792824,2 0 -8.792824,2 0 -8.792824,2 0 -8.792824,2 0 -8.792824,2 0 -8.792824,2 0 -8.792824,2 0 -8.792824,2 0 -8.792824,2 0 -8.792824,2 0 -8.792824,2 0 -8.792824,2 0 -8.792824,0.110,
2 0 -8.996844,2 0 -8.996844,2 0 -8.996844,2 0 -8.996844,2 0 -8.996844,2 0 -8.996844,2 0 -8.996844,2 0 -8.996844,2 0 -8.996844,2 0 -8.996844,2 0 -8.996844,2 0 -8.996844,2 0 -8.996844,2 0 -8.996844,2 0 -8.996844,2 0 -8.996844,2 0 -8.996844,2 0 -8.996844,2 0 -8.996844,2 0 -8.996844,2 0 -8.996844,2 0 -8.792824,2 0 -8.792824,2 0 -8.792824,2 0 -8.792824,2 0 -8.792824,2 0 -8.792824,2 0 -8.792824,2 0 -8.792824,2 0 -8.792824,2 0 -8.792824,2 0 -8.792824,2 0 -8.792824,2 0 -8.792824,2 0 -8.792824,2 0 -8.792824,2 0 -8.792824,2 0 -8.792824,2 0 -8.792824,2 0 -8.792824,2 0 -8.792824,2 0 -8.792824,0.210,
2 0 -8.996844,2 0 -8.996844,2 0 -8.996844,2 0 -8.996844,2 0 -8.996844,2 0 -8.996844,2 0 -8.996844,2 0 -8.996844,2 0 -8.996844,2 0 -8.996844,2 0 -8.996844,2 0 -8.996844,2 0 -8.996844,2 0 -8.996844,2 0 -8.996844,2 0 -8.996844,2 0 -8.996844,2 0 -8.996844,2 0 -8.996844,2 0 -8.996844,2 0 -8.996844,2 0 -8.792824,2 0 -8.792824,2 0 -8.792824,2 0 -8.792824,2 0 -8.792824,2 0 -8.792824,2 0 -8.792824,2 0 -8.792824,2 0 -8.792824,2 0 -8.792824,2 0 -8.792824,2 0 -8.792824,2 0 -8.792824,2 0 -8.792824,2 0 -8.792824,2 0 -8.792824,2 0 -8.792824,2 0 -8.792824,2 0 -8.792824,2 0 -8.792824,2 0 -8.792824,0.310,
2 0 -8.996844,2 0 -8.996844,2 0 -8.996844,2 0 -8.996844,2 0 -8.996844,2 0 -8.996844,2 0 -8.996844,2 0 -8.996844,2 0 -8.996844,2 0 -8.996844,2 0 -8.996844,2 0 -8.996844,2 0 -8.996844,2 0 -8.996844,2 0 -8.996844,2 0 -8.996844,2 0 -8.996844,2 0 -8.996844,2 0 -8.996844,2 0 -8.996844,2 0 -8.996844,2 0 -8.792824,2 0 -8.792824,2 0 -8.792824,2 0 -8.792824,2 0 -8.792824,2 0 -8.792824,2 0 -8.792824,2 0 -8.792824,2 0 -8.792824,2 0 -8.792824,2 0 -8.792824,2 0 -8.792824,2 0 -8.792824,2 0 -8.792824,2 0 -8.792824,2 0 -8.792824,2 0 -8.792824,2 0 -8.792824,2 0 -8.792824,2 0 -8.792824,2 0 -8.792824,0.410,
2 0 -8.996844,2 0 -8.996844,2 0 -8.996844,2 0 -8.996844,2 0 -8.996844,2 0 -8.996844,2 0 -8.996844,2 0 -8.996844,2 0 -8.996844,2 0 -8.996844,2 0 -8.996844,2 0 -8.996844,2 0 -8.996844,2 0 -8.996844,2 0 -8.996844,2 0 -8.996844,2 0 -8.996844,2 0 -8.996844,2 0 -8.996844,2 0 -8.996844,2 0 -8.996844,2 0 -8.792824,2 0 -8.792824,2 0 -8.792824,2 0 -8.792824,2 0 -8.792824,2 0 -8.792824,2 0 -8.792824,2 0 -8.792824,2 0 -8.792824,2 0 -8.792824,2 0 -8.792824,2 0 -8.792824,2 0 -8.792824,2 0 -8.792824,2 0 -8.792824,2 0 -8.792824,2 0 -8.792824,2 0 -8.792824,2 0 -8.792824,2 0 -8.792824,2 0 -8.792824,0.510,
2 0 -8.996844,2 0 -8.996844,2 0 -8.996844,2 0 -8.996844,2 0 -8.996844,2 0 -8.996844,2 0 -8.996844,2 0 -8.996844,2 0 -8.996844,2 0 -8.996844,2 0 -8.996844,2 0 -8.996844,2 0 -8.996844,2 0 -8.996844,2 0 -8.996844,2 0 -8.996844,2 0 -8.996844,2 0 -8.996844,2 0 -8.996844,2 0 -8.996844,2 0 -8.996844,2 0 -8.792824,2 0 -8.792824,2 0 -8.792824,2 0 -8.792824,2 0 -8.792824,2 0 -8.792824,2 0 -8.792824,2 0 -8.792824,2 0 -8.792824,2 0 -8.792824,2 0 -8.792824,2 0 -8.792824,2 0 -8.792824,2 0 -8.792824,2 0 -8.792824,2 0 -8.792824,2 0 -8.792824,2 0 -8.792824,2 0 -8.792824,2 0 -8.792824,2 0 -8.792824,0.610,
2 0 -8.996844,2 0 -8.996844,2 0 -8.996844,2 0 -8.996844,2 0 -8.996844,2 0 -8.996844,2 0 -8.996844,2 0 -8.996844,2 0 -8.996844,2 0 -8.996844,2 0 -8.996844,2 0 -8.996844,2 0 -8.996844,2 0 -8.996844,2 0 -8.996844,2 0 -8.996844,2 0 -8.996844,2 0 -8.996844,2 0 -8.996844,2 0 -8.996844,2 0 -8.996844,2 0 -8.792824,2 0 -8.792824,2 0 -8.792824,2 0 -8.792824,2 0 -8.792824,2 0 -8.792824,2 0 -8.792824,2 0 -8.792824,2 0 -8.792824,2 0 -8.792824,2 0 -8.792824,2 0 -8.792824,2 0 -8.792824,2 0 -8.792824,2 0 -8.792824,2 0 -8.792824,2 0 -8.792824,2 0 -8.792824,2 0 -8.792824,2 0 -8.792824,2 0 -8.792824,0.710,
2 0 -8.996844,2 0 -8.996844,2 0 -8.996844,2 0 -8.996844,2 0 -8.996844,2 0 -8.996844,2 0 -8.996844,2 0 -8.996844,2 0 -8.996844,2 0 -8.996844,2 0 -8.996844,2 0 -8.996844,2 0 -8.996844,2 0 -8.996844,2 0 -8.996844,2 0 -8.996844,2 0 -8.996844,2 0 -8.996844,2 0 -8.996844,2 0 -8.996844,2 0 -8.996844,2 0 -8.792824,2 0 -8.792824,2 0 -8.792824,2 0 -8.792824,2 0 -8.792824,2 0 -8.792824,2 0 -8.792824,2 0 -8.792824,2 0 -8.792824,2 0 -8.792824,2 0 -8.792824,2 0 -8.792824,2 0 -8.792824,2 0 -8.792824,2 0 -8.792824,2 0 -8.792824,2 0 -8.792824,2 0 -8.792824,2 0 -8.792824,2 0 -8.792824,2 0 -8.792824,0.810,
-0.8393068 -12.73201 1.333378,-1.594948 -12.29346 1.565302,-2.126839 -11.36382 1.759069,-2.392694 -10.47977 1.896555,-2.605566 -9.728977 2.015725,-1.682741 -10.11986 2.174963,-2.018897 -8.757732 2.344169,-2.291681 -8.200914 2.341045,-2.538838 -7.830042 2.267025,-1.269585 -9.912493 2.091474,-1.597996 -8.35644 2.236509,-1.95205 -7.984703 2.073405,-2.259368 -7.872784 1.846416,-0.9470863 -9.89538 1.985046,-1.16621 -8.420561 2.099881,-1.529878 -8.068432 1.985405,-1.841778 -8.032015 1.879932,-0.7129092 -10.05032 1.880237,-0.8092589 -8.851746 1.92148,-1.062145 -8.494791 1.862647,-1.314183 -8.436184 1.779402,-9.535699 -12.12711 1.427965,-8.90395 -11.71884 1.792245,-8.446153 -11.12505 2.246295,-8.166868 -10.57009 2.662585,-7.948456 -10.03564 3.099334,-8.672601 -9.473543 2.258952,-8.543775 -8.184631 2.60816,-8.360033 -7.693679 2.823293,-8.181683 -7.539101 2.924065,-9.059201 -9.372799 2.273035,-8.929665 -8.047424 2.672052,-8.701521 -7.680737 2.828687,-8.47718 -7.669462 2.885462,-9.406727 -9.494316 2.267395,-9.298401 -8.306677 2.465673,-9.066966 -8.010685 2.522604,-8.84939 -8.05575 2.537936,-9.721354 -9.804491 2.294924,-9.650085 -8.879 2.397928,-9.445517 -8.624897 2.376021,-9.251051 -8.672739 2.30681,0.910,
-0.8135052 -12.27992 2.131488,-1.629175 -11.47421 2.065932,-2.16451 -10.58374 2.175201,-2.464311 -9.790068 2.396623,-2.768115 -8.973293 2.682593,-1.837533 -9.303186 2.080244,-2.092171 -8.214802 2.265608,-2.297473 -7.474108 2.499345,-2.478647 -6.725829 2.663579,-1.493619 -9.180077 2.326081,-1.662794 -8.022943 2.539668,-1.823851 -7.286926 2.753688,-1.942113 -6.620698 2.90349,-1.169021 -9.215633 2.588992,-1.221562 -8.050686 2.770513,-1.336647 -7.372028 2.937022,-1.445363 -6.794333 3.076179,-0.8438454 -9.427622 2.865413,-0.8389368 -8.442284 2.991538,-0.9196053 -7.865156 3.075921,-1.000114 -7.333341 3.137171,-9.344674 -11.83475 1.689726,-8.644624 -11.01231 1.770125,-8.186872 -10.05649 2.006319,-7.887661 -9.251425 2.299459,-7.563704 -8.589054 2.593079,-8.654469 -8.907736 2.060684,-8.565096 -7.796815 2.460132,-8.447601 -7.085943 2.76914,-8.296272 -6.418986 3.028007,-8.987301 -8.925446 2.304085,-8.890809 -7.740945 2.757085,-8.766327 -6.989095 3.078567,-8.624352 -6.277472 3.29644,-9.304906 -9.138111 2.561471,-9.282981 -8.030674 2.931393,-9.201246 -7.325894 3.178126,-9.080024 -6.640193 3.341889,-9.618781 -9.55143 2.804953,-9.67166 -8.74098 3.137415,-9.631073 -8.198748 3.301136,-9.554401 -7.656834 3.419889,1.010,
-0.8144979 -10.36466 4.310565,-1.638413 -9.540731 4.51163,-2.315035 -8.695927 4.730558,-2.770731 -7.873262 5.008852,-3.153865 -7.208841 5.30693,-1.94095 -6.829592 4.273552,-2.226315 -5.508977 4.454049,-2.374599 -4.770507 4.588426,-2.498208 -4.130476 4.659178,-1.55334 -6.63569 4.365405,-1.796868 -5.191181 4.457632,-1.948966 -4.429809 4.566872,-2.075916 -3.764889 4.65644,-1.171702 -6.658161 4.524367,-1.297036 -5.317197 4.618373,-1.426842 -4.566877 4.708144,-1.567903 -3.892738 4.770822,-0.7768507 -6.942228 4.730017,-0.7547226 -5.913919 4.815859,-0.7999802 -5.276748 4.885754,-0.8609715 -4.669429 4.924004,-9.038664 -10.96024 2.991945,-8.284012 -10.09727 3.042092,-7.805577 -9.078678 3.19768,-7.473283 -8.261084 3.409732,-7.122723 -7.675312 3.653188,-8.258627 -7.747505 3.080053,-8.195106 -6.885588 3.199848,-8.162024 -6.185419 3.307476,-8.130253 -5.518103 3.425368,-8.601146 -7.631254 3.240264,-8.562677 -6.661958 3.278897,-8.529798 -5.866453 3.321462,-8.477063 -5.169017 3.352784,-8.931043 -7.678499 3.4276,-8.95357 -6.646953 3.453852,-8.927167 -5.909204 3.441105,-8.883808 -5.281791 3.454519,-9.24686 -7.930975 3.639625,-9.331533 -7.022453 3.645473,-9.375271 -6.412254 3.624132,-9.386853 -5.819349 3.631954,1.110,
-0.8146648 -9.890236 3.806131,-1.603455 -9.183968 4.012907,-2.289495 -8.395851 4.187177,-2.76342 -7.634076 4.437275,-3.119251 -7.04609 4.737973,-1.921132 -6.547586 3.615386,-2.197956 -5.328033 3.758092,-2.33659 -4.662686 3.888897,-2.466096 -4.074061 3.961267,-1.562715 -6.311096 3.712726,-1.782472 -4.940773 3.738061,-1.924313 -4.171117 3.847825,-2.05727 -3.493143 3.932596,-1.194066 -6.307041 3.902737,-1.301519 -5.02938 3.955158,-1.423955 -4.312171 4.069646,-1.57743 -3.656239 4.154486,-0.799993 -6.556794 4.142284,-0.7588644 -5.5919 4.234671,-0.7794352 -4.979297 4.338419,-0.8378549 -4.381256 4.401184,-8.933214 -10.51468 2.89258,-8.252852 -9.788471 2.962119,-7.748208 -8.808994 3.162893,-7.424809 -8.007738 3.442072,-7.078959 -7.431169 3.761987,-8.188036 -7.320405 3.043653,-8.06892 -6.31805 3.262862,-7.986422 -5.531349 3.45816,-7.922718 -4.807887 3.637783,-8.545909 -7.220342 3.270633,-8.48311 -6.063607 3.467966,-8.408368 -5.166221 3.623066,-8.338841 -4.376499 3.754955,-8.886316 -7.325244 3.521825,-8.856575 -6.135063 3.695507,-8.805634 -5.296731 3.792597,-8.745404 -4.547094 3.876863,-9.228003 -7.658832 3.794074,-9.281233 -6.698642 3.900763,-9.311385 -6.061399 3.922051,-9.332998 -5.409977 3.96928,1.210,
-0.948411 -9.612379 2.819755,-1.662622 -9.057495 3.143302,-2.297731 -8.303162 3.392027,-2.742773 -7.572025 3.665494,-3.114631 -7.072156 3.974505,-1.904847 -6.504014 2.956258,-2.169643 -5.28543 3.165111,-2.277894 -4.60214 3.319133,-2.373343 -3.978615 3.448393,-1.543542 -6.295125 3.015905,-1.771802 -4.905641 3.171794,-1.885715 -4.145828 3.350137,-1.983096 -3.463024 3.49864,-1.187419 -6.316078 3.152521,-1.302303 -5.030364 3.337801,-1.420409 -4.30732 3.504937,-1.54528 -3.661748 3.646342,-0.8117976 -6.573994 3.334403,-0.7545481 -5.608331 3.53217,-0.774766 -4.989707 3.693784,-0.8210716 -4.406919 3.809175,-8.815605 -9.805611 2.379199,-8.173223 -9.311462 2.589283,-7.666265 -8.36656 2.820147,-7.351128 -7.568675 3.102973,-7.014981 -7.053113 3.399204,-8.116128 -6.769857 2.669772,-8.030436 -5.575585 2.894552,-8.001847 -4.872067 3.102823,-7.983697 -4.238903 3.246457,-8.482494 -6.661157 2.814009,-8.430794 -5.270679 3.004421,-8.39415 -4.419509 3.219036,-8.365663 -3.664571 3.397029,-8.834959 -6.805013 2.987217,-8.827477 -5.510379 3.18235,-8.794197 -4.696556 3.389354,-8.746743 -3.965383 3.558732,-9.189277 -7.162885 3.17845,-9.257006 -6.192201 3.365314,-9.296515 -5.574899 3.499064,-9.309325 -4.956192 3.618753,1.310,
-0.9828777 -9.577232 2.617648,-1.699658 -9.06151 2.96387,-2.325954 -8.316637 3.225255,-2.769832 -7.615697 3.517732,-3.134186 -7.11448 3.855501,-1.953603 -6.540412 2.790518,-2.223453 -5.358501 3.018589,-2.340909 -4.691669 3.191263,-2.446384 -4.083319 3.328036,-1.587507 -6.323276 2.855641,-1.80313 -4.958474 3.025748,-1.912333 -4.186307 3.222704,-2.009227 -3.496353 3.382802,-1.22089 -6.348004 3.00211,-1.333089 -5.081107 3.190656,-1.450903 -4.344472 3.388744,-1.580114 -3.692466 3.556424,-0.8367414 -6.609236 3.189966,-0.7753401 -5.654891 3.385487,-0.7952266 -5.040067 3.554,-0.842926 -4.473434 3.682981,-8.809671 -9.605509 2.231298,-8.152181 -9.127111 2.424723,-7.642836 -8.229502 2.626382,-7.317839 -7.454572 2.880434,-6.973046 -6.946607 3.150696,-8.086146 -6.634024 2.490481,-7.976516 -5.440273 2.709585,-7.934339 -4.74669 2.917507,-7.911917 -4.130964 3.059786,-8.436244 -6.503631 2.629575,-8.353197 -5.128093 2.810016,-8.30041 -4.277942 3.049927,-8.259291 -3.526496 3.243285,-8.776052 -6.626527 2.798379,-8.747881 -5.338824 2.976336,-8.699612 -4.536819 3.197402,-8.644533 -3.828948 3.3759,-9.125783 -6.965439 2.982785,-9.193833 -5.997584 3.178705,-9.221679 -5.374015 3.326825,-9.227101 -4.752294 3.446557,1.410,
-1.125522 -9.280062 2.244193,-1.840462 -8.874437 2.614928,-2.453629 -8.141483 2.863862,-2.88522 -7.442365 3.141363,-3.242275 -6.935836 3.446547,-2.111719 -6.368154 2.431417,-2.382557 -5.227947 2.631462,-2.495278 -4.577132 2.767236,-2.591599 -4.006871 2.870538,-1.761823 -6.139036 2.450355,-1.989105 -4.848598 2.595898,-2.117754 -4.114564 2.743667,-2.214269 -3.469811 2.87096,-1.401528 -6.146627 2.54722,-1.517364 -4.933631 2.687565,-1.632841 -4.23542 2.827024,-1.739347 -3.589173 2.958219,-1.018969 -6.37293 2.684618,-0.9755197 -5.416648 2.824589,-0.9959903 -4.822941 2.952115,-1.0252 -4.260339 3.056883,-8.770062 -9.170225 1.981268,-8.121467 -8.731373 2.144626,-7.609035 -7.872701 2.341695,-7.263968 -7.149501 2.594062,-6.9091 -6.701534 2.873912,-8.031468 -6.282487 2.249169,-7.904113 -5.107894 2.462412,-7.846358 -4.415098 2.665946,-7.808939 -3.791057 2.811875,-8.375257 -6.14705 2.404852,-8.26849 -4.783102 2.583312,-8.196739 -3.938022 2.822587,-8.139875 -3.181429 3.023909,-8.713225 -6.268452 2.583431,-8.665589 -4.996681 2.768482,-8.601818 -4.201982 2.985654,-8.538153 -3.480512 3.163532,-9.062868 -6.605669 2.772714,-9.116588 -5.640699 2.977331,-9.137203 -5.027336 3.127851,-9.142235 -4.40323 3.249745,1.510,
-1.254752 -9.156418 1.975024,-1.969155 -8.727819 2.313545,-2.560516 -8.012156 2.549977,-2.967426 -7.331159 2.824221,-3.303347 -6.833385 3.123263,-2.207341 -6.303503 2.135972,-2.470952 -5.184538 2.367836,-2.575391 -4.54886 2.525724,-2.665002 -3.978992 2.643177,-1.866715 -6.089651 2.189087,-2.087469 -4.824551 2.391568,-2.21 -4.100852 2.576419,-2.300308 -3.459876 2.728196,-1.510785 -6.105264 2.318676,-1.615884 -4.903841 2.518576,-1.728455 -4.207603 2.692547,-1.83352 -3.562285 2.840741,-1.12786 -6.350347 2.485353,-1.083409 -5.398225 2.680064,-1.118331 -4.787414 2.846462,-1.163908 -4.206861 2.977173,-8.735602 -9.079369 1.96568,-8.097539 -8.637907 2.134892,-7.595651 -7.795479 2.332464,-7.251952 -7.075564 2.586397,-6.891231 -6.61096 2.860463,-8.014212 -6.189572 2.21345,-7.893409 -5.019359 2.415197,-7.825235 -4.325984 2.613411,-7.778423 -3.71101 2.75619,-8.346891 -6.056467 2.363606,-8.252612 -4.692733 2.543046,-8.173931 -3.843948 2.784342,-8.112876 -3.097609 2.979848,-8.677218 -6.180639 2.541384,-8.635877 -4.905047 2.726734,-8.565677 -4.10489 2.948451,-8.497582 -3.394811 3.121046,-9.021355 -6.520781 2.729231,-9.086258 -5.557655 2.941692,-9.099853 -4.935398 3.105971,-9.100204 -4.317766 3.231206,1.610,
-1.471795 -9.027281 1.914349,-2.175598 -8.58568 2.116415,-2.769103 -7.85601 2.259442,-3.166201 -7.199458 2.4786,-3.458041 -6.779323 2.760201,-2.401011 -6.180692 1.817173,-2.641846 -5.114915 1.997717,-2.745002 -4.487958 2.129373,-2.842552 -3.934934 2.22717,-2.085516 -5.97105 1.918987,-2.288969 -4.765968 2.088227,-2.409818 -4.044755 2.257706,-2.515254 -3.429973 2.394488,-1.750115 -5.96629 2.088915,-1.872073 -4.813447 2.268013,-1.995529 -4.155534 2.416939,-2.121636 -3.578466 2.523787,-1.388651 -6.19162 2.296706,-1.353114 -5.290731 2.467507,-1.397603 -4.716709 2.609277,-1.463881 -4.146127 2.724451,-8.739182 -8.983875 1.862629,-8.102004 -8.529383 2.000583,-7.598006 -7.700904 2.173195,-7.260183 -6.982021 2.4086,-6.904786 -6.529249 2.665189,-7.995501 -6.13519 2.053393,-7.870407 -4.97912 2.211262,-7.797737 -4.29743 2.385363,-7.741967 -3.694873 2.512514,-8.325532 -5.987033 2.201722,-8.221212 -4.639984 2.332449,-8.140179 -3.803686 2.554744,-8.074671 -3.069221 2.739777,-8.649372 -6.091012 2.37419,-8.593559 -4.833692 2.521667,-8.515129 -4.050115 2.727417,-8.435501 -3.363227 2.886728,-8.988796 -6.404386 2.55408,-9.050101 -5.456081 2.749207,-9.059493 -4.846267 2.90435,-9.050403 -4.246601 3.024651,1.710,
-1.663031 -8.881458 1.400959,-2.328584 -8.521963 1.608478,-2.912212 -7.827402 1.734446,-3.299084 -7.159449 1.922136,-3.609818 -6.77585 2.143556,-2.584407 -6.182496 1.311387,-2.823887 -5.09806 1.437193,-2.943326 -4.473508 1.537804,-3.031965 -3.922715 1.605615,-2.268793 -5.973497 1.377522,-2.476168 -4.770511 1.449055,-2.577281 -4.058267 1.557958,-2.652182 -3.446058 1.646412,-1.943584 -5.96307 1.520175,-2.070249 -4.832675 1.631291,-2.173344 -4.155743 1.727193,-2.274984 -3.567247 1.813959,-1.594012 -6.16206 1.707142,-1.572125 -5.261766 1.81461,-1.605724 -4.707014 1.916084,-1.655796 -4.18997 1.987944,-8.76875 -9.071144 1.841214,-8.168237 -8.603325 1.953978,-7.683365 -7.78293 2.119093,-7.3526 -7.068097 2.351887,-7.023113 -6.620959 2.590665,-8.070152 -6.217292 2.00388,-7.939491 -5.110522 2.14495,-7.866226 -4.460999 2.296496,-7.813025 -3.883915 2.42017,-8.388672 -6.072217 2.144121,-8.279697 -4.785766 2.280658,-8.202897 -4.001583 2.496267,-8.142785 -3.296842 2.679814,-8.700632 -6.184976 2.308609,-8.650726 -4.984864 2.451632,-8.585236 -4.233797 2.646293,-8.517208 -3.572589 2.800673,-9.021873 -6.512863 2.472806,-9.096412 -5.603401 2.662903,-9.114723 -5.011681 2.821733,-9.111096 -4.431133 2.942574,1.810,
-1.750748 -8.998436 1.421773,-2.407795 -8.611401 1.571165,-2.967547 -7.888095 1.671545,-3.34016 -7.205444 1.838803,-3.681372 -6.842726 2.032183,-2.644707 -6.271508 1.243325,-2.867753 -5.251289 1.364264,-2.984097 -4.64796 1.460172,-3.07959 -4.110221 1.536202,-2.337219 -6.081495 1.337962,-2.534475 -4.946523 1.424514,-2.644904 -4.255611 1.546733,-2.739978 -3.663591 1.654938,-2.020397 -6.088857 1.505065,-2.143586 -4.99274 1.629938,-2.264893 -4.327218 1.753006,-2.384108 -3.764873 1.865423,-1.676705 -6.310436 1.715145,-1.656265 -5.438887 1.84201,-1.702154 -4.867795 1.979739,-1.764209 -4.333238 2.086881,-8.840186 -9.135769 1.686535,-8.262851 -8.692062 1.793031,-7.785068 -7.87033 1.948829,-7.456657 -7.145813 2.171036,-7.1249 -6.710792 2.394083,-8.140287 -6.322381 1.806682,-8.005458 -5.231788 1.930666,-7.931246 -4.61092 2.065264,-7.873022 -4.040103 2.175683,-8.457002 -6.177708 1.94434,-8.344131 -4.918834 2.065842,-8.266544 -4.172575 2.259619,-8.206093 -3.495952 2.418946,-8.764212 -6.281038 2.109126,-8.713264 -5.108651 2.255298,-8.644972 -4.378418 2.44049,-8.574247 -3.73543 2.580996,-9.077771 -6.593757 2.269645,-9.152467 -5.702569 2.466654,-9.175473 -5.120183 2.627809,-9.175707 -4.544881 2.743392,1.910,
-1.770536 -8.993574 1.072278,-2.402076 -8.610907 1.255833,-2.950349 -7.906868 1.379777,-3.351115 -7.265037 1.557613,-3.699221 -6.88938 1.765811,-2.624997 -6.355726 1.018412,-2.869751 -5.323749 1.146147,-3.000748 -4.723956 1.233578,-3.1103 -4.177793 1.313345,-2.325153 -6.171154 1.107528,-2.533078 -5.019163 1.228742,-2.648724 -4.321323 1.368881,-2.751813 -3.716881 1.49347,-2.014216 -6.185649 1.266913,-2.139782 -5.089804 1.435127,-2.25982 -4.398416 1.600614,-2.384019 -3.810088 1.749273,-1.678365 -6.410062 1.460347,-1.646869 -5.511539 1.625779,-1.688027 -4.937471 1.801459,-1.751308 -4.427242 1.935952,-8.871829 -9.136856 1.567946,-8.260242 -8.665529 1.682333,-7.782861 -7.854707 1.83923,-7.459435 -7.142841 2.062488,-7.121206 -6.687246 2.299242,-8.159306 -6.349311 1.686561,-8.036825 -5.254385 1.822379,-7.958174 -4.597173 1.983634,-7.897579 -4.017323 2.112633,-8.464841 -6.21643 1.827251,-8.361831 -4.970403 1.939472,-8.28104 -4.196058 2.153689,-8.219636 -3.511302 2.331385,-8.766069 -6.31997 1.996502,-8.720464 -5.158182 2.132695,-8.649492 -4.429341 2.336086,-8.578693 -3.799185 2.490543,-9.082277 -6.618026 2.169765,-9.151156 -5.729087 2.35409,-9.173814 -5.148713 2.504383,-9.174465 -4.573736 2.617091,2.010,
-1.768718 -8.957661 0.7296811,-2.396867 -8.636429 0.9597947,-2.93296 -7.991466 1.113041,-3.320494 -7.347407 1.307499,-3.654986 -6.918228 1.528931,-2.611262 -6.426927 0.7714611,-2.872094 -5.39709 0.9097424,-3.007728 -4.794527 1.006879,-3.113312 -4.248119 1.092493,-2.314025 -6.235258 0.8427635,-2.535876 -5.078048 0.9666118,-2.65287 -4.370908 1.105489,-2.745584 -3.778436 1.226254,-2.00457 -6.247026 0.9823937,-2.14383 -5.144393 1.148964,-2.276114 -4.453387 1.310812,-2.399711 -3.864233 1.459125,-1.668476 -6.467599 1.159091,-1.650764 -5.559785 1.323124,-1.703117 -4.983118 1.494849,-1.771464 -4.471985 1.626814,-8.884645 -9.150206 1.379692,-8.287527 -8.717661 1.521281,-7.809772 -7.909689 1.689413,-7.485889 -7.195327 1.918374,-7.155606 -6.739385 2.160214,-8.188472 -6.424062 1.546859,-8.062287 -5.348096 1.696348,-7.987852 -4.713565 1.85392,-7.928457 -4.151723 1.97551,-8.495745 -6.284347 1.665795,-8.383672 -5.051492 1.791805,-8.300458 -4.290258 1.999178,-8.230737 -3.614814 2.1792,-8.802077 -6.382368 1.810918,-8.743457 -5.229379 1.950428,-8.670235 -4.502832 2.154955,-8.593202 -3.865052 2.31583,-9.121689 -6.676385 1.959973,-9.178885 -5.80171 2.141804,-9.196249 -5.232986 2.297745,-9.189701 -4.668144 2.421326,2.110,
-1.777596 -8.960279 0.6844365,-2.394445 -8.634314 0.9039799,-2.921016 -7.978971 1.058374,-3.297606 -7.349634 1.26372,-3.614021 -6.906888 1.496116,-2.591038 -6.428157 0.7470067,-2.839545 -5.396263 0.9144151,-2.975788 -4.801299 1.02641,-3.086683 -4.260828 1.118443,-2.297863 -6.248489 0.8447856,-2.50685 -5.089911 0.9944885,-2.627419 -4.383063 1.150669,-2.729074 -3.787546 1.281243,-1.989995 -6.273349 1.010227,-2.116765 -5.162969 1.202096,-2.239838 -4.463913 1.380978,-2.360611 -3.866713 1.534874,-1.655774 -6.510649 1.210469,-1.629543 -5.596268 1.390657,-1.676549 -5.006114 1.564806,-1.741915 -4.480458 1.698211,-8.89106 -9.170748 1.316134,-8.300475 -8.756807 1.481741,-7.824654 -7.953599 1.662906,-7.488537 -7.232058 1.905648,-7.145493 -6.756975 2.166443,-8.209814 -6.456647 1.460732,-8.089305 -5.378725 1.602262,-8.013458 -4.731455 1.758459,-7.95234 -4.162962 1.882337,-8.52029 -6.317572 1.567227,-8.413633 -5.073783 1.684218,-8.332195 -4.301511 1.885857,-8.265109 -3.620873 2.059833,-8.829911 -6.419267 1.704685,-8.780928 -5.25745 1.836858,-8.705206 -4.519687 2.032305,-8.625858 -3.871373 2.184182,-9.153915 -6.719541 1.851749,-9.219814 -5.831851 2.030922,-9.237985 -5.252685 2.185024,-9.233143 -4.679253 2.303242,2.210,
-1.71592 -8.951401 0.6068473,-2.323944 -8.677666 0.8432173,-2.850511 -8.010986 0.9850209,-3.224815 -7.360395 1.170255,-3.558777 -6.944541 1.388862,-2.542999 -6.474163 0.6631209,-2.788797 -5.448558 0.806942,-2.917224 -4.844589 0.9060649,-3.02166 -4.294574 0.9885271,-2.248182 -6.263105 0.7409715,-2.464148 -5.103492 0.8663512,-2.590135 -4.401853 1.003438,-2.694486 -3.804605 1.126474,-1.934918 -6.267041 0.888711,-2.063205 -5.142374 1.063565,-2.188938 -4.446834 1.223829,-2.313548 -3.837907 1.369656,-1.594857 -6.488679 1.077749,-1.580795 -5.5802 1.244654,-1.631111 -4.995558 1.410219,-1.699505 -4.468357 1.541484,-8.891626 -9.225704 1.291766,-8.285524 -8.810642 1.47342,-7.812654 -8.00432 1.648396,-7.489869 -7.275446 1.877148,-7.156522 -6.797851 2.131075,-8.19828 -6.530308 1.46125,-8.0765 -5.444255 1.616176,-8.004954 -4.786834 1.783878,-7.950557 -4.195772 1.911484,-8.5146 -6.38231 1.563598,-8.413465 -5.159086 1.677969,-8.336255 -4.390082 1.887571,-8.275486 -3.712817 2.067669,-8.827691 -6.476779 1.697044,-8.774391 -5.320999 1.827328,-8.702968 -4.595791 2.036673,-8.630036 -3.962829 2.204282,-9.158235 -6.764381 1.841659,-9.223414 -5.888632 2.023557,-9.239107 -5.317325 2.183729,-9.230346 -4.746097 2.312047,2.310,
-1.699891 -8.922401 0.6047846,-2.307682 -8.667543 0.860715,-2.828452 -8.030867 1.003446,-3.179699 -7.374218 1.187051,-3.48769 -6.927995 1.397934,-2.537189 -6.456832 0.6622857,-2.778759 -5.429328 0.8041967,-2.897039 -4.825296 0.904661,-2.988475 -4.277017 0.9908259,-2.237082 -6.235143 0.7272768,-2.451236 -5.067576 0.8468888,-2.568629 -4.36615 0.9828275,-2.660003 -3.775379 1.101037,-1.920159 -6.235807 0.8632991,-2.050873 -5.119569 1.03573,-2.172512 -4.42534 1.202348,-2.290512 -3.819164 1.350875,-1.575559 -6.455692 1.039302,-1.565993 -5.553755 1.209315,-1.616381 -4.975996 1.380288,-1.684224 -4.45347 1.510304,-8.899933 -9.21279 1.22571,-8.294258 -8.807621 1.410231,-7.82255 -7.992717 1.587162,-7.501378 -7.268825 1.817113,-7.163841 -6.794246 2.07348,-8.194904 -6.539425 1.41128,-8.067496 -5.466398 1.582465,-7.992026 -4.821702 1.760438,-7.936739 -4.238863 1.893251,-8.507873 -6.392988 1.521835,-8.400127 -5.183866 1.64997,-8.316465 -4.418731 1.865133,-8.250022 -3.744781 2.0478,-8.821249 -6.484084 1.665481,-8.761096 -5.337612 1.809261,-8.684669 -4.617151 2.022883,-8.608312 -3.984777 2.190489,-9.155437 -6.765687 1.819284,-9.210383 -5.887052 2.009681,-9.221922 -5.3181 2.166448,-9.211056 -4.74928 2.294752,2.410,
-1.669738 -8.987324 0.6574579,-2.288047 -8.684061 0.9298493,-2.800224 -8.042826 1.098202,-3.15453 -7.3774 1.303811,-3.487155 -6.923913 1.540017,-2.493057 -6.492424 0.7566823,-2.732555 -5.4647 0.9255595,-2.851984 -4.861591 1.045668,-2.948114 -4.311838 1.142215,-2.193465 -6.284224 0.820832,-2.40889 -5.111219 0.960032,-2.529806 -4.400415 1.106492,-2.630703 -3.79737 1.232984,-1.879213 -6.296014 0.9574464,-2.004471 -5.169533 1.138926,-2.128802 -4.474882 1.30101,-2.251521 -3.867279 1.453251,-1.540755 -6.532144 1.135582,-1.522267 -5.628759 1.31771,-1.573214 -5.048128 1.497185,-1.642956 -4.523111 1.636858,-8.985087 -9.223633 1.127367,-8.379794 -8.803307 1.314768,-7.912901 -8.021542 1.485904,-7.604704 -7.284492 1.71565,-7.282824 -6.741995 1.966476,-8.251085 -6.565959 1.192463,-8.067588 -5.571624 1.35485,-7.948442 -4.988814 1.527015,-7.841583 -4.450516 1.650198,-8.57005 -6.425003 1.294746,-8.41469 -5.361095 1.388436,-8.308619 -4.747894 1.583687,-8.21529 -4.212528 1.734023,-8.877704 -6.493987 1.443308,-8.797757 -5.453039 1.543468,-8.718123 -4.841711 1.728799,-8.627935 -4.314444 1.872825,-9.202046 -6.745151 1.605561,-9.205826 -5.941089 1.764103,-9.174234 -5.424184 1.899261,-9.116477 -4.933714 2.015124,2.510,
-1.653771 -9.02739 0.7069473,-2.253881 -8.715965 0.9780748,-2.756888 -8.077507 1.145433,-3.100709 -7.41695 1.350158,-3.415934 -6.938356 1.579747,-2.458695 -6.51671 0.797556,-2.697499 -5.484851 0.9559398,-2.81023 -4.86627 1.080981,-2.888807 -4.306321 1.184692,-2.158694 -6.305662 0.8590064,-2.372037 -5.122909 0.9872988,-2.49125 -4.407613 1.132479,-2.579026 -3.799714 1.260863,-1.844891 -6.315311 0.9932376,-1.971017 -5.185133 1.160912,-2.096535 -4.487118 1.326184,-2.213669 -3.871505 1.478855,-1.506327 -6.547342 1.169204,-1.496572 -5.634157 1.33849,-1.550292 -5.049387 1.510876,-1.619442 -4.51806 1.647516,-9.052567 -9.254463 0.6046746,-8.463484 -8.806173 0.6639937,-8.021254 -8.065729 0.801324,-7.741957 -7.338966 0.9773449,-7.43165 -6.759859 1.141654,-8.270583 -6.750667 0.5449069,-8.122738 -5.763626 0.6420519,-8.030886 -5.131687 0.7496637,-7.973655 -4.573791 0.8697637,-8.578081 -6.613405 0.6976477,-8.483801 -5.47887 0.9247741,-8.409493 -5.63062 1.155356,-8.421405 -5.971553 1.31807,-8.877171 -6.634851 0.859926,-8.809067 -5.584598 1.051113,-8.710732 -5.784194 1.208181,-8.712523 -6.201278 1.308237,-9.221699 -6.791601 1.02703,-9.161577 -5.916028 1.236252,-9.028194 -5.879237 1.36603,-8.954269 -6.161241 1.44788,2.610,
-1.614241 -9.046759 0.7032223,-2.223742 -8.716726 0.9909865,-2.724732 -8.076006 1.164243,-3.054454 -7.404418 1.375066,-3.357819 -6.897611 1.607799,-2.445231 -6.54483 0.8214817,-2.678327 -5.513311 1.013447,-2.786856 -4.893165 1.151189,-2.86399 -4.343652 1.25566,-2.139214 -6.331428 0.8810343,-2.354108 -5.15117 1.031685,-2.476898 -4.443095 1.186315,-2.568202 -3.847851 1.31787,-1.819864 -6.340883 1.016971,-1.941417 -5.210517 1.207812,-2.059842 -4.522164 1.372728,-2.17341 -3.914181 1.526406,-1.475542 -6.576686 1.193851,-1.455995 -5.683582 1.378266,-1.501917 -5.108976 1.552137,-1.563413 -4.58566 1.685902,-9.072487 -9.254383 0.106008,-8.46879 -8.848923 0.1818187,-8.06578 -8.106178 0.2934538,-7.847009 -7.401503 0.4117292,-7.596416 -6.909935 0.536454,-8.247254 -6.891693 0.2762629,-8.121732 -5.892701 0.4977385,-8.043041 -5.344228 0.6538922,-7.988351 -4.912801 0.7414482,-8.580122 -6.773633 0.365951,-8.525896 -6.065019 0.6602773,-8.471209 -6.852043 0.8180859,-8.468613 -7.443777 0.8518219,-8.917536 -6.829797 0.4894657,-8.871533 -6.29928 0.7615758,-8.788129 -7.096231 0.9095173,-8.771077 -7.642765 0.9496655,-9.287867 -7.016084 0.6090283,-9.239973 -6.494565 0.8809239,-9.127457 -7.037437 1.031465,-9.072636 -7.491413 1.085872,2.710,
-1.574289 -9.121647 0.9488122,-2.192509 -8.784859 1.26084,-2.694582 -8.074118 1.439398,-3.006929 -7.337997 1.648486,-3.29594 -6.795241 1.882818,-2.392953 -6.544757 1.088553,-2.596947 -5.485479 1.271863,-2.696383 -4.853412 1.40796,-2.768425 -4.285016 1.509962,-2.075572 -6.330429 1.125902,-2.258636 -5.134954 1.265859,-2.378118 -4.419977 1.410823,-2.463974 -3.824301 1.533987,-1.750123 -6.343742 1.241753,-1.852603 -5.208795 1.419464,-1.972306 -4.521173 1.577195,-2.080366 -3.907142 1.72833,-1.401003 -6.5865 1.400367,-1.377243 -5.682239 1.573439,-1.424842 -5.11198 1.736456,-1.485058 -4.591541 1.866384,-9.155683 -9.019089 -0.3455778,-8.65373 -8.636677 -0.03308597,-8.278714 -7.982547 0.2236735,-8.18549 -7.262857 0.480378,-8.294275 -6.633774 0.7554734,-8.408005 -6.752208 -0.1546093,-8.280713 -5.941516 0.1635948,-8.235331 -5.491007 0.442121,-8.202081 -5.134081 0.6298484,-8.741475 -6.654053 -0.1017443,-8.674688 -6.242176 0.3895048,-8.674329 -7.078166 0.6835654,-8.691202 -7.68843 0.7614375,-9.060861 -6.721313 0.0199523,-8.995836 -6.448219 0.4722259,-8.967459 -7.286581 0.678836,-8.954812 -7.839292 0.6967572,-9.412051 -6.912881 0.1699407,-9.371386 -6.536611 0.542623,-9.297756 -7.126366 0.7332797,-9.248702 -7.568215 0.7759651,2.810,
-1.539 -9.220657 1.227217,-2.157087 -8.859367 1.552031,-2.653045 -8.137943 1.738707,-2.957765 -7.40066 1.959168,-3.25507 -6.860214 2.198259,-2.348468 -6.594249 1.381376,-2.570047 -5.499045 1.58738,-2.667799 -4.873024 1.735128,-2.748141 -4.314373 1.842888,-2.055071 -6.351869 1.416253,-2.228781 -5.151716 1.557562,-2.345626 -4.440013 1.713529,-2.441194 -3.850208 1.851615,-1.729414 -6.371938 1.526493,-1.822547 -5.237113 1.712916,-1.935881 -4.551919 1.8774,-2.047688 -3.944496 2.037598,-1.38182 -6.619451 1.683422,-1.353732 -5.719524 1.862017,-1.395039 -5.155023 2.02313,-1.454161 -4.639627 2.154179,-9.164014 -8.932192 -0.8342084,-8.678438 -8.561436 -0.4750187,-8.316493 -7.958608 -0.2081085,-8.264259 -7.260753 0.04892671,-8.441787 -6.696794 0.3011191,-8.448621 -6.774486 -0.6857916,-8.317202 -5.973564 -0.3473021,-8.273252 -5.503425 -0.04634601,-8.239842 -5.104455 0.1536955,-8.78539 -6.699472 -0.6304297,-8.699074 -6.225112 -0.06618172,-8.710218 -7.09728 0.2005683,-8.731117 -7.766365 0.2208,-9.108906 -6.77288 -0.4896469,-9.023024 -6.414487 0.04674685,-8.998289 -7.271879 0.228973,-8.990326 -7.846359 0.1797273,-9.458738 -6.949636 -0.3152245,-9.39898 -6.455772 0.09914649,-9.325144 -7.019876 0.2699221,-9.280303 -7.481275 0.2714376,2.910,
-1.508021 -9.226492 1.175934,-2.132785 -8.866728 1.506058,-2.639589 -8.140182 1.697022,-2.954847 -7.401579 1.919995,-3.247073 -6.855018 2.161911,-2.320797 -6.583037 1.33714,-2.528936 -5.534202 1.527026,-2.637518 -4.912239 1.660354,-2.727017 -4.347164 1.768444,-1.996452 -6.368669 1.378416,-2.181513 -5.159927 1.522093,-2.308741 -4.456125 1.675894,-2.409482 -3.862257 1.807838,-1.672897 -6.399145 1.498905,-1.760198 -5.247571 1.686683,-1.875387 -4.559619 1.863426,-1.99021 -3.940931 2.030282,-1.3295 -6.663799 1.658565,-1.294115 -5.75271 1.848373,-1.334481 -5.180575 2.025079,-1.396478 -4.653482 2.158563,-9.128064 -8.869791 -0.5062651,-8.694704 -8.560131 -0.1371871,-8.290983 -7.929101 0.1493135,-8.26895 -7.239267 0.4230891,-8.550437 -6.80931 0.7114682,-8.452666 -6.698516 -0.2991066,-8.362238 -6.107111 0.1827508,-8.340688 -5.771619 0.5775596,-8.302547 -5.484336 0.801446,-8.795549 -6.539846 -0.2509048,-8.725086 -6.35552 0.3344908,-8.750494 -7.22628 0.5341735,-8.767868 -7.81263 0.5119594,-9.139997 -6.61864 -0.1015959,-9.058143 -6.561572 0.4676472,-9.049912 -7.438984 0.5573474,-9.046865 -7.967383 0.4496132,-9.510889 -6.82098 0.08091027,-9.407774 -6.595653 0.508395,-9.332882 -7.24481 0.6031768,-9.298053 -7.690959 0.53722,3.010,
-1.496677 -9.218328 1.222562,-2.137333 -8.845417 1.553602,-2.643674 -8.095606 1.74087,-2.943998 -7.334356 1.967108,-3.216759 -6.772104 2.216359,-2.324523 -6.547231 1.370902,-2.519576 -5.473884 1.564724,-2.62339 -4.852628 1.692188,-2.710655 -4.294063 1.791034,-1.995637 -6.348119 1.415066,-2.172496 -5.126123 1.568918,-2.298686 -4.422914 1.718536,-2.399856 -3.836093 1.851543,-1.666708 -6.388752 1.537796,-1.747366 -5.229829 1.741026,-1.860235 -4.53783 1.927257,-1.973526 -3.915519 2.100136,-1.318098 -6.662998 1.702049,-1.270528 -5.756435 1.910766,-1.30832 -5.176442 2.103346,-1.368001 -4.634353 2.250538,-9.137201 -8.794676 -0.6836973,-8.725008 -8.549253 -0.1760956,-8.338683 -7.971208 0.1963838,-8.324542 -7.341926 0.5226587,-8.598243 -6.935171 0.8670566,-8.470086 -6.708831 -0.214402,-8.394015 -6.225187 0.422761,-8.398705 -5.979255 0.9302272,-8.406367 -5.830498 1.207013,-8.83217 -6.545839 -0.2177694,-8.812201 -6.391502 0.5050159,-8.814261 -7.253408 0.7194209,-8.811454 -7.853195 0.6947399,-9.196424 -6.651304 -0.1187838,-9.154399 -6.632285 0.5413851,-9.117306 -7.50729 0.6018163,-9.088778 -8.021152 0.4489955,-9.570762 -6.89916 0.01562971,-9.510733 -6.720887 0.5142466,-9.421097 -7.392446 0.5762095,-9.360529 -7.819197 0.4570383,3.110,
-1.47264 -9.206978 1.258405,-2.105772 -8.826893 1.550875,-2.616464 -8.077885 1.728499,-2.92653 -7.32925 1.952854,-3.209146 -6.775457 2.197984,-2.303677 -6.522867 1.3514,-2.501294 -5.460737 1.530129,-2.608759 -4.850635 1.655321,-2.696795 -4.301963 1.749523,-1.977305 -6.324953 1.411464,-2.157547 -5.099357 1.541898,-2.283154 -4.396862 1.687654,-2.379873 -3.819767 1.813608,-1.65107 -6.363076 1.548738,-1.73758 -5.196049 1.732448,-1.850739 -4.503139 1.901212,-1.961168 -3.893575 2.059653,-1.302042 -6.633695 1.728033,-1.265805 -5.716332 1.909382,-1.304972 -5.143087 2.076462,-1.363685 -4.620521 2.201746,-9.190914 -8.842356 -0.9462407,-8.790653 -8.65597 -0.4885344,-8.384991 -8.075642 -0.099603,-8.455494 -7.595465 0.2347418,-8.779018 -7.366977 0.5650153,-8.609602 -6.862088 -0.2959915,-8.546827 -6.341588 0.3345717,-8.500729 -6.116859 0.7891414,-8.504314 -6.153774 1.058691,-8.956118 -6.718799 -0.2673451,-8.948055 -6.46161 0.4554769,-8.913127 -7.07633 0.7395861,-8.925832 -7.6189 0.8491359,-9.310929 -6.832936 -0.1708291,-9.294615 -6.888219 0.4793994,-9.223915 -7.613107 0.5268115,-9.209037 -8.05912 0.4210854,-9.667213 -7.132221 -0.04249322,-9.64025 -7.043554 0.4282439,-9.522676 -7.610301 0.4849418,-9.453856 -7.971782 0.4072052,3.210,
-1.465477 -9.224733 1.32746,-2.11002 -8.828243 1.6205,-2.621138 -8.080378 1.793636,-2.924621 -7.316064 2.010718,-3.210873 -6.753595 2.246648,-2.298531 -6.521379 1.399038,-2.491131 -5.455493 1.557472,-2.599495 -4.842423 1.671255,-2.693758 -4.295562 1.76156,-1.968418 -6.320673 1.444658,-2.143619 -5.093613 1.543416,-2.273304 -4.386872 1.673172,-2.378077 -3.805553 1.79406,-1.63935 -6.352745 1.56724,-1.722078 -5.183515 1.71512,-1.838542 -4.487258 1.863875,-1.951909 -3.872866 2.013145,-1.288595 -6.617303 1.735831,-1.252563 -5.697278 1.885556,-1.292383 -5.119332 2.038828,-1.349622 -4.589714 2.158292,-9.242372 -8.893986 -1.247191,-8.850813 -8.72179 -0.7261212,-8.473326 -8.152672 -0.319711,-8.551209 -7.735439 0.00856936,-8.858408 -7.531597 0.312259,-8.747629 -6.987358 -0.4855745,-8.717146 -6.502038 0.08396912,-8.686121 -6.240983 0.4951777,-8.664103 -6.147921 0.7629349,-9.090476 -6.884609 -0.4812163,-9.09748 -6.455415 0.2215912,-9.047732 -6.781351 0.6200477,-9.03571 -7.180946 0.8662646,-9.427733 -7.003812 -0.4267615,-9.407798 -6.983112 0.2134395,-9.317093 -7.699963 0.288542,-9.28734 -8.190144 0.214311,-9.756463 -7.345953 -0.34285,-9.738156 -7.157175 0.1493845,-9.626812 -7.657087 0.239512,-9.559609 -8.047604 0.1912501,3.310,
-1.462223 -9.252478 1.416427,-2.099057 -8.846956 1.720231,-2.609736 -8.072645 1.898321,-2.91547 -7.299459 2.118578,-3.220781 -6.741288 2.361571,-2.280894 -6.517177 1.497156,-2.476255 -5.445197 1.675786,-2.582979 -4.820314 1.808053,-2.669354 -4.264715 1.912093,-1.950136 -6.320509 1.544069,-2.1234 -5.0904 1.66476,-2.251534 -4.376211 1.809253,-2.3529 -3.785923 1.937555,-1.622811 -6.35991 1.670178,-1.699718 -5.192588 1.830657,-1.814714 -4.500761 1.987405,-1.92276 -3.889265 2.140346,-1.277026 -6.631811 1.841736,-1.227584 -5.714866 2.002239,-1.261527 -5.136405 2.162114,-1.30848 -4.603767 2.283267,-9.241735 -8.916979 -1.140659,-8.892282 -8.767376 -0.4497429,-8.547701 -8.323183 0.1142846,-8.600935 -8.138456 0.561599,-8.893887 -7.981138 0.9747807,-8.813486 -7.123689 0.03849721,-8.789257 -6.79727 0.7850592,-8.819735 -6.569068 1.288774,-8.841227 -6.37565 1.615742,-9.191507 -7.05439 0.002860546,-9.225967 -6.710977 0.963297,-9.222126 -6.710459 1.549591,-9.199507 -6.737022 1.921779,-9.538227 -7.166135 -0.005521774,-9.542521 -7.236394 0.7959975,-9.383581 -7.974739 0.8191452,-9.25769 -8.382151 0.6666219,-9.827906 -7.60662 0.03511524,-9.882895 -7.466737 0.639678,-9.761679 -7.863256 0.7442027,-9.645819 -8.151167 0.6742616,3.410,
-1.441455 -9.245258 1.438178,-2.087143 -8.825636 1.7447,-2.601753 -8.063892 1.920681,-2.914352 -7.302825 2.138528,-3.222198 -6.758459 2.375505,-2.26738 -6.496 1.532022,-2.471255 -5.42941 1.709257,-2.578646 -4.807613 1.832474,-2.66453 -4.245133 1.927727,-1.934822 -6.308391 1.576779,-2.108347 -5.074537 1.703335,-2.231437 -4.363928 1.845255,-2.322831 -3.771087 1.968892,-1.605999 -6.350146 1.701663,-1.68223 -5.189535 1.869195,-1.795851 -4.494817 2.038415,-1.902318 -3.878456 2.19855,-1.257607 -6.620231 1.869281,-1.214218 -5.711653 2.035976,-1.253764 -5.135601 2.207294,-1.310492 -4.600564 2.335723,-9.298875 -8.898125 -0.8011784,-8.938545 -8.773806 -0.127635,-8.520418 -8.369064 0.4945676,-8.614953 -8.257713 0.9928384,-8.979364 -8.128231 1.390068,-8.805351 -7.161712 0.5178816,-8.770943 -6.864145 1.301718,-8.821864 -6.693599 1.732128,-8.886944 -6.610487 1.993508,-9.203604 -7.016443 0.4885534,-9.221073 -6.715902 1.490373,-9.20906 -6.80504 2.010363,-9.209707 -6.957459 2.329799,-9.568059 -7.05871 0.4810787,-9.578953 -7.303152 1.266765,-9.401844 -8.086287 1.172937,-9.289167 -8.503635 0.9550273,-9.8729 -7.439628 0.5339528,-9.907438 -7.513031 1.065853,-9.739542 -8.03299 1.074721,-9.605272 -8.364801 0.9226178,3.510,
-1.439771 -9.225252 1.419261,-2.097754 -8.801081 1.692055,-2.609989 -8.044224 1.84968,-2.921733 -7.284948 2.056284,-3.230804 -6.758377 2.2878,-2.268431 -6.478918 1.458345,-2.471618 -5.413494 1.620071,-2.577215 -4.798404 1.734951,-2.662705 -4.235181 1.827718,-1.937133 -6.292953 1.518748,-2.110766 -5.060511 1.636437,-2.232187 -4.359953 1.773841,-2.323089 -3.765119 1.896634,-1.609217 -6.33473 1.656762,-1.685889 -5.174026 1.815874,-1.799136 -4.488121 1.976332,-1.9038 -3.872739 2.128457,-1.260499 -6.603381 1.836261,-1.214235 -5.698373 2.000027,-1.254134 -5.12828 2.167509,-1.311682 -4.591657 2.293257,-9.259964 -8.948385 -0.7716035,-8.887299 -8.762424 -0.09702969,-8.521828 -8.353279 0.5405014,-8.693664 -8.356709 1.049093,-9.062645 -8.355209 1.487915,-8.794162 -7.186494 0.550151,-8.800342 -6.899978 1.319678,-8.858938 -6.78108 1.78242,-8.921346 -6.731266 2.070259,-9.200452 -7.057988 0.5225892,-9.225949 -6.759151 1.485695,-9.192999 -6.885427 2.020394,-9.174652 -7.060958 2.377752,-9.571564 -7.116916 0.5162797,-9.582751 -7.332185 1.28679,-9.3732 -8.097307 1.248582,-9.234365 -8.509609 1.093053,-9.878459 -7.532654 0.5714834,-9.904547 -7.611428 1.073179,-9.728389 -8.118418 1.11921,-9.591282 -8.439163 1.012174,3.610,
-1.442386 -9.248188 1.435573,-2.091545 -8.829645 1.723748,-2.59914 -8.08457 1.895809,-2.903189 -7.333568 2.113116,-3.201838 -6.795314 2.354979,-2.269682 -6.501991 1.521265,-2.472026 -5.426164 1.705718,-2.58208 -4.802146 1.836893,-2.673925 -4.241045 1.937683,-1.934201 -6.311882 1.576216,-2.111408 -5.075578 1.71827,-2.237127 -4.36239 1.874304,-2.332145 -3.766622 2.009956,-1.604968 -6.352893 1.70859,-1.686428 -5.187171 1.885277,-1.804262 -4.492662 2.051413,-1.914733 -3.879984 2.206531,-1.25595 -6.618186 1.879563,-1.211106 -5.709365 2.048864,-1.251761 -5.13224 2.210631,-1.308728 -4.596277 2.330673,-9.279474 -8.989885 -1.28445,-8.921367 -8.853302 -0.5716307,-8.567794 -8.466579 0.05345559,-8.71016 -8.455902 0.5469925,-9.066092 -8.48756 0.9653956,-8.853971 -7.312662 5.912781E-05,-8.848946 -6.96331 0.7606994,-8.893973 -6.858751 1.255092,-8.961902 -6.88508 1.560608,-9.262568 -7.245185 -0.03633523,-9.315604 -6.83859 0.9226595,-9.289432 -6.994183 1.454656,-9.279076 -7.20445 1.804673,-9.621382 -7.368253 -0.04396808,-9.645177 -7.442878 0.773729,-9.429422 -8.158295 0.8273085,-9.297095 -8.547749 0.7196532,-9.907022 -7.79486 0.004928827,-9.941022 -7.809602 0.5971967,-9.76408 -8.259945 0.7010456,-9.631258 -8.563934 0.6351992,3.710,
-1.432731 -9.226303 1.432612,-2.091876 -8.808624 1.729247,-2.614102 -8.039179 1.904159,-2.93319 -7.279064 2.119335,-3.243565 -6.760324 2.351932,-2.267401 -6.478245 1.535047,-2.469074 -5.399533 1.712906,-2.573553 -4.781417 1.833096,-2.661906 -4.225925 1.927131,-1.93012 -6.292063 1.578468,-2.101099 -5.055227 1.715891,-2.219478 -4.350015 1.859673,-2.309906 -3.758985 1.985273,-1.597717 -6.3372 1.699901,-1.67612 -5.170965 1.870661,-1.78968 -4.485332 2.027652,-1.895818 -3.87317 2.177654,-1.247591 -6.60975 1.860376,-1.198753 -5.695205 2.023725,-1.233723 -5.122045 2.187345,-1.286084 -4.583309 2.308442,-9.320908 -9.007111 -1.414596,-8.96627 -8.920227 -0.71626,-8.617892 -8.546701 -0.1149857,-8.774379 -8.532429 0.3572272,-9.125621 -8.550232 0.7534986,-8.873992 -7.392808 -0.133316,-8.850643 -7.004219 0.5968459,-8.904314 -6.889214 1.088958,-8.976245 -6.927579 1.39204,-9.265925 -7.312564 -0.1618962,-9.308029 -6.875827 0.7555146,-9.309751 -6.974937 1.283172,-9.309751 -7.151355 1.630541,-9.611317 -7.433456 -0.1606503,-9.668633 -7.374059 0.6667891,-9.495319 -7.994773 0.8187413,-9.363851 -8.369995 0.7908831,-9.89728 -7.8411 -0.1146457,-9.966208 -7.792486 0.5031347,-9.828481 -8.206972 0.6896172,-9.686344 -8.509317 0.6973338,3.810,
-1.446547 -9.193785 1.434647,-2.093664 -8.785841 1.711642,-2.603301 -8.037479 1.870686,-2.907126 -7.285987 2.076184,-3.199856 -6.754226 2.30179,-2.265779 -6.446098 1.505759,-2.465099 -5.372869 1.662031,-2.574983 -4.751272 1.77299,-2.662749 -4.195207 1.856858,-1.932163 -6.255819 1.554495,-2.106923 -5.017344 1.670739,-2.231673 -4.302532 1.804939,-2.324234 -3.7126 1.920931,-1.602577 -6.295384 1.680035,-1.681981 -5.130153 1.83426,-1.795208 -4.436112 1.983694,-1.900564 -3.822965 2.128344,-1.253768 -6.564561 1.84564,-1.211197 -5.6601 2.004014,-1.249067 -5.08042 2.165033,-1.302397 -4.541145 2.282886,-9.366773 -9.050652 -1.820532,-8.981446 -9.035576 -1.132155,-8.658138 -8.67201 -0.5603169,-8.834915 -8.618092 -0.117654,-9.171133 -8.659838 0.2496882,-8.968647 -7.458772 -0.6336924,-8.949674 -6.931795 0.06030756,-8.995635 -6.848227 0.5670705,-9.057747 -7.087164 0.8900128,-9.344391 -7.432414 -0.6589809,-9.433355 -6.764995 0.1802309,-9.427135 -7.072664 0.6539403,-9.398329 -7.529567 0.9661539,-9.666506 -7.615898 -0.6474261,-9.807514 -7.227739 0.1322603,-9.69973 -7.690983 0.4216111,-9.597055 -8.105331 0.5088313,-9.937704 -8.002489 -0.589932,-10.0634 -7.857286 0.02190524,-9.953214 -8.164625 0.2789539,-9.822515 -8.457033 0.3796299,3.910,
-1.434608 -9.182386 1.514099,-2.091968 -8.776083 1.797724,-2.613369 -8.027636 1.955872,-2.92909 -7.285535 2.159795,-3.228106 -6.768588 2.388117,-2.276762 -6.417101 1.553594,-2.475385 -5.355376 1.702577,-2.584857 -4.752166 1.812515,-2.680757 -4.217346 1.894825,-1.94259 -6.223613 1.587252,-2.11234 -5.010307 1.682549,-2.237432 -4.311269 1.8035,-2.338084 -3.728946 1.913388,-1.613654 -6.261802 1.699579,-1.690217 -5.119346 1.825639,-1.802668 -4.452701 1.953604,-1.907829 -3.865785 2.079725,-1.266528 -6.522623 1.854727,-1.226243 -5.628565 1.985501,-1.265289 -5.061853 2.123252,-1.318896 -4.533914 2.223851,-9.317082 -9.091513 -1.780303,-8.960308 -9.041248 -1.033119,-8.672475 -8.664463 -0.4507364,-8.860635 -8.64094 -0.02254677,-9.208405 -8.695604 0.3263466,-8.976551 -7.533802 -0.4834766,-9.000044 -7.056507 0.2622681,-9.041318 -7.019274 0.8039904,-9.099354 -7.294688 1.156697,-9.353264 -7.531293 -0.5239317,-9.489109 -6.862283 0.3233371,-9.450541 -7.106641 0.7950189,-9.401115 -7.510383 1.140564,-9.672572 -7.743509 -0.5186795,-9.867967 -7.273349 0.2863839,-9.757713 -7.626494 0.6261022,-9.652545 -7.9805 0.7638535,-9.941447 -8.138256 -0.465542,-10.11844 -7.908998 0.1805117,-10.01783 -8.139475 0.4737611,-9.888647 -8.384453 0.631588,4.010,
-1.485391 -9.213211 1.457468,-2.114963 -8.818853 1.762902,-2.620605 -8.067076 1.94315,-2.922622 -7.333137 2.170331,-3.214071 -6.809276 2.420817,-2.29427 -6.455129 1.537556,-2.4913 -5.388681 1.724499,-2.598686 -4.766811 1.858673,-2.688684 -4.20447 1.958915,-1.958742 -6.267026 1.587381,-2.13451 -5.058678 1.725564,-2.258545 -4.351366 1.882694,-2.356529 -3.761081 2.022418,-1.626767 -6.314556 1.719881,-1.705224 -5.170068 1.895775,-1.821187 -4.485096 2.063227,-1.931723 -3.882507 2.219457,-1.276263 -6.590456 1.895546,-1.22663 -5.696582 2.0702,-1.258974 -5.12283 2.23555,-1.307167 -4.586065 2.362957,-9.46427 -9.228825 -1.469654,-9.064607 -9.253218 -0.678522,-8.698503 -8.901928 -0.05447781,-8.877067 -8.885248 0.4036704,-9.295893 -8.917084 0.7555676,-9.04811 -7.727117 -0.06290436,-9.034646 -7.294438 0.7379563,-9.09716 -7.249315 1.257035,-9.180485 -7.482515 1.582539,-9.466475 -7.629333 -0.1206927,-9.554742 -7.055325 0.8063099,-9.5526 -7.379632 1.280196,-9.53455 -7.806537 1.607436,-9.822217 -7.786447 -0.1358882,-9.966742 -7.623897 0.7307615,-9.830383 -8.167107 0.9636912,-9.70182 -8.53697 0.9860566,-10.1057 -8.160677 -0.105436,-10.24556 -8.184202 0.6061664,-10.10007 -8.536045 0.8510616,-9.927925 -8.760515 0.9104109,4.110,
-1.469504 -9.190657 1.414735,-2.117622 -8.800098 1.73564,-2.632355 -8.061939 1.917536,-2.942526 -7.328656 2.139438,-3.233326 -6.818357 2.382932,-2.303513 -6.453284 1.509283,-2.498938 -5.392636 1.695588,-2.603555 -4.780448 1.827491,-2.690796 -4.231181 1.924447,-1.966363 -6.26074 1.543799,-2.141607 -5.050522 1.679538,-2.262862 -4.352088 1.826549,-2.354386 -3.769264 1.954067,-1.634141 -6.303117 1.662032,-1.716567 -5.157716 1.830213,-1.8268 -4.486541 1.988914,-1.928005 -3.894301 2.13782,-1.282959 -6.571187 1.820296,-1.238378 -5.672962 1.990373,-1.272992 -5.104829 2.152247,-1.323352 -4.572143 2.270741,-9.486184 -9.449171 -1.004308,-9.082394 -9.364902 -0.2904291,-8.713781 -8.928047 0.3173006,-8.902572 -8.825167 0.7851779,-9.327134 -8.809284 1.132581,-9.096127 -7.741066 0.3267045,-9.070399 -7.22752 1.098898,-9.092019 -7.225863 1.501155,-9.148828 -7.457275 1.713115,-9.521738 -7.638875 0.2893775,-9.631155 -7.100576 1.210514,-9.573636 -7.539066 1.538948,-9.523278 -7.937999 1.729068,-9.876631 -7.80305 0.2943485,-9.985888 -7.777648 1.110338,-9.798351 -8.320345 1.180793,-9.677559 -8.571007 1.097255,-10.14637 -8.177412 0.3496526,-10.24548 -8.287092 0.9499311,-10.05819 -8.610229 1.098228,-9.903069 -8.737663 1.080867,4.210,Left Hand Closed
-1.478376 -9.19187 1.3844,-2.119534 -8.803429 1.700518,-2.626793 -8.081385 1.887631,-2.927029 -7.348818 2.114069,-3.20607 -6.823211 2.362659,-2.302794 -6.464738 1.512547,-2.494903 -5.393463 1.689538,-2.599202 -4.777519 1.810865,-2.687397 -4.230815 1.90134,-1.964131 -6.270755 1.55076,-2.136325 -5.041669 1.686586,-2.260102 -4.332928 1.827498,-2.353879 -3.755218 1.956188,-1.628964 -6.317482 1.668125,-1.709696 -5.156763 1.843,-1.824154 -4.468702 2.008753,-1.93002 -3.867687 2.166813,-1.272962 -6.594543 1.825714,-1.229694 -5.688214 2.002853,-1.266639 -5.10906 2.174485,-1.319476 -4.56925 2.303803,-9.406341 -9.475187 -1.525809,-9.035785 -9.433847 -0.8155421,-8.698709 -9.061195 -0.1933558,-8.799693 -8.994022 0.2843411,-9.159691 -8.905842 0.6373121,-9.042139 -7.899114 -0.196051,-9.021264 -7.380537 0.5739321,-9.061943 -7.242754 1.117893,-9.119212 -7.420557 1.458548,-9.432619 -7.851 -0.2326095,-9.563023 -7.154777 0.6575161,-9.535694 -7.420033 1.11106,-9.492328 -7.807666 1.40235,-9.758697 -8.048662 -0.2262514,-9.943248 -7.707311 0.5850929,-9.81323 -8.114969 0.8158602,-9.694326 -8.421143 0.8498465,-10.02183 -8.439877 -0.1836151,-10.18615 -8.294897 0.4528391,-10.06549 -8.542624 0.6792547,-9.921979 -8.734034 0.7483281,4.310,
-1.475611 -9.222965 1.415007,-2.107978 -8.838442 1.740591,-2.621983 -8.083267 1.927426,-2.932824 -7.339592 2.153366,-3.23925 -6.820844 2.400916,-2.290449 -6.483989 1.534224,-2.49141 -5.410379 1.736087,-2.602929 -4.781654 1.87876,-2.697618 -4.215989 1.987065,-1.953529 -6.291313 1.575184,-2.129018 -5.073497 1.724852,-2.25482 -4.35761 1.883026,-2.356054 -3.763961 2.022302,-1.621091 -6.336708 1.700286,-1.702702 -5.185695 1.885316,-1.818827 -4.495235 2.058885,-1.932806 -3.892005 2.221925,-1.269814 -6.612724 1.870562,-1.226539 -5.72039 2.051077,-1.260743 -5.150259 2.222027,-1.314204 -4.615055 2.35498,-9.414083 -9.471722 -1.926981,-9.072772 -9.463432 -1.244034,-8.727162 -9.163393 -0.6361086,-8.713856 -9.026287 -0.1484972,-9.023441 -8.978241 0.2312659,-9.008302 -8.001698 -0.6845467,-8.943578 -7.433572 0.02745402,-8.938602 -7.268913 0.571093,-8.956758 -7.467724 0.9077035,-9.374119 -7.928527 -0.7166784,-9.480163 -7.14345 0.1042963,-9.459023 -7.379459 0.5591117,-9.419443 -7.826656 0.8591977,-9.69434 -8.11307 -0.6982298,-9.874102 -7.644847 0.04507911,-9.779099 -8.040173 0.3334812,-9.671788 -8.408079 0.4222895,-9.970625 -8.473116 -0.6502296,-10.12777 -8.258949 -0.0259887,-10.0284 -8.534519 0.2445585,-9.891303 -8.786348 0.3748068,4.410,Left Hand Closed
-1.47516 -9.21847 1.369718,-2.115919 -8.820099 1.696301,-2.624396 -8.084385 1.898877,-2.934531 -7.353782 2.140355,-3.229841 -6.83323 2.404982,-2.295182 -6.485753 1.512434,-2.491466 -5.41329 1.724517,-2.593516 -4.791545 1.870617,-2.675652 -4.233965 1.98018,-1.957343 -6.302522 1.560444,-2.129498 -5.073104 1.730592,-2.251857 -4.362479 1.894183,-2.344803 -3.778141 2.035567,-1.623721 -6.358097 1.689554,-1.69981 -5.198613 1.897994,-1.815894 -4.511764 2.086199,-1.924951 -3.910609 2.253284,-1.27318 -6.644132 1.861014,-1.215789 -5.747977 2.063159,-1.249544 -5.175907 2.246829,-1.301392 -4.639637 2.384435,-9.338388 -9.467161 -1.774562,-8.984039 -9.467705 -1.019925,-8.619143 -9.167871 -0.3795694,-8.666305 -9.100065 0.1131089,-9.028403 -9.028019 0.4555918,-8.906838 -8.04973 -0.4194077,-8.857231 -7.659271 0.3644577,-8.865012 -7.444521 0.938995,-8.912573 -7.493324 1.328962,-9.29986 -7.932964 -0.4841487,-9.398582 -7.253091 0.3830494,-9.336611 -7.517234 0.8253833,-9.31089 -7.926052 1.129938,-9.652227 -8.063852 -0.4872488,-9.783179 -7.689155 0.332322,-9.602005 -8.270409 0.4781448,-9.492872 -8.688494 0.4353179,-9.954776 -8.400496 -0.4609998,-10.06429 -8.0979 0.2099332,-9.924935 -8.439192 0.3850909,-9.814212 -8.740446 0.3969733,4.510,
-1.442548 -9.236177 1.323579,-2.079281 -8.847198 1.654473,-2.58998 -8.141811 1.852841,-2.90395 -7.416274 2.089033,-3.187755 -6.872668 2.344125,-2.2743 -6.532534 1.459937,-2.479609 -5.462337 1.662391,-2.583857 -4.846939 1.804649,-2.669517 -4.291946 1.914906,-1.939418 -6.335415 1.503903,-2.114233 -5.089746 1.649878,-2.233117 -4.376684 1.80677,-2.326414 -3.781685 1.947932,-1.607981 -6.38338 1.628664,-1.679588 -5.219818 1.818243,-1.790256 -4.527435 2.00334,-1.898073 -3.916145 2.173424,-1.259406 -6.658674 1.797984,-1.20816 -5.7621 1.981049,-1.241192 -5.195274 2.157628,-1.293195 -4.661493 2.293374,-9.285817 -9.519781 -1.790454,-8.918888 -9.540195 -1.038424,-8.559584 -9.253706 -0.4187859,-8.638363 -9.256002 0.05256784,-9.016678 -9.279699 0.3812816,-8.884748 -8.07893 -0.4513621,-8.826613 -7.604334 0.3525443,-8.788665 -7.452224 0.9036529,-8.796855 -7.571754 1.261895,-9.27638 -7.995353 -0.4948932,-9.379797 -7.322813 0.4796875,-9.308919 -7.537756 0.9928079,-9.274076 -7.906667 1.32877,-9.626225 -8.148129 -0.4941014,-9.786621 -7.829875 0.4201024,-9.625514 -8.282568 0.6446223,-9.527278 -8.61721 0.6120021,-9.918483 -8.516293 -0.4558769,-10.03961 -8.29763 0.2757018,-9.898888 -8.599384 0.5042987,-9.775148 -8.844145 0.5389857,4.610,
-1.44794 -9.240158 1.367384,-2.084478 -8.841492 1.67086,-2.594187 -8.110088 1.857203,-2.908685 -7.382508 2.090389,-3.217873 -6.864313 2.346862,-2.258249 -6.511607 1.461909,-2.459872 -5.446411 1.651022,-2.572701 -4.83769 1.779888,-2.671677 -4.287582 1.88095,-1.926859 -6.321935 1.517169,-2.095987 -5.083463 1.65364,-2.216413 -4.379323 1.80361,-2.314714 -3.79001 1.933909,-1.60029 -6.367868 1.651621,-1.674473 -5.203898 1.828312,-1.78682 -4.519521 1.990933,-1.895501 -3.912632 2.14099,-1.255106 -6.641063 1.829462,-1.199557 -5.740865 1.999496,-1.228248 -5.174608 2.158049,-1.273189 -4.644335 2.280764,-9.307043 -9.508394 -1.975563,-8.930664 -9.55645 -1.240217,-8.548239 -9.258606 -0.6118886,-8.626822 -9.242472 -0.1372986,-9.000395 -9.25692 0.1991451,-8.876129 -8.120762 -0.6580672,-8.815247 -7.610103 0.122978,-8.777794 -7.439796 0.6783292,-8.785846 -7.588775 1.038903,-9.257829 -8.04928 -0.6862828,-9.361718 -7.31475 0.2486768,-9.296138 -7.548373 0.7427135,-9.263586 -7.993871 1.064697,-9.598412 -8.211315 -0.6691002,-9.763117 -7.792238 0.2083876,-9.630437 -8.186493 0.5002837,-9.550839 -8.551876 0.5277655,-9.890796 -8.568129 -0.6101284,-10.02761 -8.301329 0.1146388,-9.913539 -8.561602 0.3897526,-9.802678 -8.825668 0.4778707,4.710,
-1.436531 -9.253136 1.327798,-2.076187 -8.850819 1.653825,-2.592191 -8.111773 1.852912,-2.920056 -7.385705 2.09064,-3.23885 -6.876783 2.353947,-2.249677 -6.532861 1.479712,-2.456071 -5.458887 1.695547,-2.561473 -4.839216 1.842693,-2.651325 -4.275543 1.960728,-1.914415 -6.349267 1.528396,-2.086025 -5.110498 1.704746,-2.201595 -4.399507 1.874646,-2.290734 -3.801738 2.018127,-1.584099 -6.403308 1.65882,-1.657231 -5.239439 1.864456,-1.770561 -4.554563 2.054338,-1.877981 -3.946457 2.220495,-1.238177 -6.683364 1.830472,-1.179689 -5.791679 2.025283,-1.208113 -5.223214 2.204713,-1.253213 -4.68499 2.339409,-9.340992 -9.485991 -1.917526,-8.962173 -9.535202 -1.224692,-8.542118 -9.247978 -0.5966963,-8.596008 -9.228285 -0.1152128,-8.959673 -9.21883 0.2278553,-8.878695 -8.148195 -0.5897267,-8.782796 -7.632211 0.1557077,-8.749294 -7.378314 0.677097,-8.762856 -7.410023 1.026492,-9.2601 -8.021622 -0.6107032,-9.350143 -7.28339 0.265216,-9.292871 -7.521448 0.7232977,-9.259412 -7.958025 1.026348,-9.59242 -8.145086 -0.6005634,-9.748307 -7.732389 0.1718627,-9.600991 -8.167654 0.4032055,-9.504573 -8.543802 0.4357225,-9.876127 -8.477762 -0.5504237,-10.01783 -8.22471 0.08060908,-9.878007 -8.514248 0.3164383,-9.74515 -8.79442 0.4010342,4.810,
-1.440113 -9.279629 1.296886,-2.081414 -8.875877 1.620416,-2.593974 -8.147945 1.818958,-2.915184 -7.417745 2.054436,-3.225485 -6.890064 2.312303,-2.24311 -6.563921 1.44316,-2.442722 -5.479411 1.655117,-2.551778 -4.852958 1.803107,-2.644909 -4.282119 1.922663,-1.908609 -6.382887 1.492892,-2.07658 -5.133821 1.667855,-2.192772 -4.417259 1.841461,-2.281855 -3.812646 1.98833,-1.579606 -6.436285 1.623908,-1.654232 -5.265888 1.827446,-1.76965 -4.573999 2.019116,-1.876784 -3.959874 2.188284,-1.233569 -6.710241 1.794939,-1.183018 -5.80732 1.985201,-1.216625 -5.240907 2.163628,-1.263804 -4.702025 2.300028,-9.317457 -9.539858 -1.590916,-8.948621 -9.565804 -0.8675751,-8.540432 -9.285772 -0.2252605,-8.599619 -9.233644 0.2721285,-8.95647 -9.165285 0.6496458,-8.83277 -8.103687 -0.2342682,-8.743814 -7.583629 0.5134554,-8.701935 -7.315156 1.040104,-8.705867 -7.341451 1.392071,-9.221969 -7.968296 -0.2662148,-9.302551 -7.185955 0.625653,-9.24671 -7.465032 1.097584,-9.218393 -7.947058 1.415874,-9.577602 -8.07622 -0.2594942,-9.717826 -7.657747 0.559921,-9.566267 -8.245575 0.8110533,-9.465554 -8.729952 0.8398647,-9.886974 -8.395082 -0.2186143,-10.01686 -8.130405 0.4534276,-9.878451 -8.513945 0.6973312,-9.744291 -8.866714 0.7897725,4.910,
-1.420942 -9.28586 1.368459,-2.052099 -8.890232 1.711111,-2.564726 -8.168707 1.925704,-2.885795 -7.466476 2.180396,-3.198423 -6.953426 2.462527,-2.233635 -6.546611 1.550852,-2.437457 -5.468709 1.780303,-2.544157 -4.848523 1.933921,-2.635273 -4.282329 2.053328,-1.8992 -6.372831 1.603016,-2.067786 -5.126428 1.795482,-2.181258 -4.422732 1.973218,-2.270115 -3.824024 2.118489,-1.569002 -6.439322 1.737545,-1.637548 -5.277774 1.96368,-1.748036 -4.600082 2.164311,-1.855273 -3.995724 2.335983,-1.222539 -6.729473 1.91377,-1.162803 -5.83554 2.12542,-1.189597 -5.271369 2.316546,-1.23596 -4.73595 2.457037,-9.324829 -9.493885 -1.452039,-8.925053 -9.523153 -0.7206091,-8.516936 -9.251385 -0.08206189,-8.580996 -9.21534 0.4180224,-8.949334 -9.149658 0.7971598,-8.813917 -8.029119 -0.08653855,-8.725453 -7.52397 0.670349,-8.695198 -7.264791 1.208759,-8.716284 -7.261646 1.581384,-9.224821 -7.884834 -0.1104409,-9.30109 -7.184476 0.8130249,-9.245708 -7.420357 1.339081,-9.222688 -7.824535 1.711453,-9.595295 -7.999223 -0.09917343,-9.72009 -7.754953 0.7695185,-9.550001 -8.282045 1.019622,-9.441113 -8.666241 1.03401,-9.909408 -8.348404 -0.0542953,-10.00522 -8.23213 0.6582764,-9.842268 -8.592945 0.9102343,-9.699053 -8.876362 0.9858466,5.010,
-1.422788 -9.319696 1.324727,-2.051435 -8.906908 1.661089,-2.558453 -8.19833 1.873373,-2.877935 -7.495153 2.12791,-3.180674 -6.969053 2.402663,-2.222416 -6.586092 1.485018,-2.42575 -5.502359 1.71108,-2.538126 -4.87928 1.867696,-2.633314 -4.307464 1.993348,-1.885721 -6.415233 1.538209,-2.055446 -5.160427 1.710122,-2.169445 -4.442225 1.882492,-2.260659 -3.83681 2.024014,-1.554592 -6.479559 1.675194,-1.627659 -5.311372 1.880674,-1.740205 -4.621228 2.070279,-1.849708 -4.016461 2.233301,-1.206702 -6.763547 1.855277,-1.152378 -5.859434 2.050853,-1.181558 -5.28655 2.230645,-1.229793 -4.744804 2.365415,-9.291614 -9.483892 -1.429664,-8.909298 -9.536831 -0.6485428,-8.500484 -9.227106 0.02658272,-8.601862 -9.189703 0.5457802,-8.969498 -9.166735 0.9371817,-8.803362 -8.05014 0.02211285,-8.756217 -7.527404 0.8122394,-8.732517 -7.234205 1.366187,-8.742611 -7.194285 1.746742,-9.222215 -7.936782 -0.005851269,-9.301385 -7.225933 1.00367,-9.23698 -7.424961 1.578578,-9.205552 -7.811657 1.965613,-9.594284 -8.058098 0.0003130436,-9.727793 -7.648366 0.9542255,-9.57098 -8.156288 1.264629,-9.470494 -8.588085 1.311764,-9.915957 -8.414755 0.04443657,-10.03888 -8.125727 0.8162878,-9.910991 -8.477755 1.122461,-9.790154 -8.826609 1.247263,5.110,
-1.400207 -9.343035 1.347013,-2.025304 -8.938498 1.688491,-2.535014 -8.218353 1.892052,-2.857789 -7.511464 2.132813,-3.156983 -6.994504 2.395344,-2.199682 -6.610167 1.502614,-2.410821 -5.520643 1.714246,-2.526586 -4.902496 1.859867,-2.623908 -4.340024 1.975345,-1.866872 -6.431501 1.543434,-2.041153 -5.166208 1.697182,-2.155896 -4.451293 1.862343,-2.246488 -3.841484 1.995332,-1.538268 -6.486549 1.664808,-1.617241 -5.309606 1.854447,-1.731278 -4.627409 2.031059,-1.839366 -4.01947 2.187248,-1.192262 -6.758087 1.829402,-1.142879 -5.846734 2.012872,-1.171779 -5.282663 2.181573,-1.215296 -4.746707 2.305896,-9.350922 -9.422802 -1.28509,-8.944836 -9.50688 -0.4913837,-8.518669 -9.220583 0.1965737,-8.615345 -9.226349 0.7283251,-8.991819 -9.21755 1.123929,-8.857622 -8.03894 0.2875543,-8.78238 -7.526485 1.077187,-8.746939 -7.231856 1.632533,-8.755922 -7.176036 2.024469,-9.28054 -7.921888 0.2457507,-9.337739 -7.239812 1.246996,-9.27492 -7.430929 1.831046,-9.247583 -7.790927 2.24618,-9.65104 -8.046041 0.2251798,-9.775768 -7.636026 1.11932,-9.631467 -8.029072 1.440132,-9.539394 -8.370375 1.543719,-9.970861 -8.398586 0.2480309,-10.08537 -8.119583 0.9691992,-9.958579 -8.407055 1.274363,-9.837772 -8.69174 1.420679,5.210,
-1.390319 -9.340723 1.403022,-2.027136 -8.914728 1.75292,-2.536059 -8.193327 1.969046,-2.862767 -7.488208 2.221009,-3.168898 -6.97409 2.498932,-2.188536 -6.584465 1.585353,-2.395189 -5.490301 1.808293,-2.506526 -4.867666 1.959889,-2.599176 -4.297039 2.077451,-1.855259 -6.414585 1.625812,-2.024078 -5.15863 1.796626,-2.140357 -4.45256 1.970574,-2.229167 -3.84392 2.113243,-1.527106 -6.478319 1.747902,-1.597299 -5.310726 1.951329,-1.713263 -4.638681 2.139014,-1.822338 -4.028397 2.302949,-1.184888 -6.757623 1.912337,-1.129297 -5.859428 2.109313,-1.162242 -5.296632 2.290885,-1.210086 -4.756162 2.422295,-9.411776 -9.489998 -1.249997,-8.995012 -9.581724 -0.4634545,-8.547809 -9.273493 0.2129782,-8.616635 -9.219803 0.7316819,-8.978126 -9.149509 1.118779,-8.844462 -8.062807 0.23893,-8.778006 -7.517074 1.044037,-8.77187 -7.208457 1.631911,-8.813018 -7.205298 2.020189,-9.270271 -7.897354 0.1948922,-9.333076 -7.10507 1.16315,-9.284885 -7.458979 1.702666,-9.270432 -7.97978 2.066045,-9.655028 -7.985836 0.1886008,-9.781219 -7.488752 1.071761,-9.635778 -8.106939 1.365687,-9.541006 -8.629087 1.43622,-9.993004 -8.302189 0.2233955,-10.12091 -7.995485 0.9536891,-9.994922 -8.404148 1.231253,-9.8613 -8.788145 1.356043,5.310,
-1.372989 -9.357651 1.475201,-2.00711 -8.946783 1.813904,-2.526424 -8.217611 2.019786,-2.862842 -7.51226 2.266549,-3.174854 -6.998104 2.535038,-2.18044 -6.589891 1.603969,-2.382968 -5.508409 1.812449,-2.497921 -4.892247 1.959108,-2.597589 -4.320778 2.077432,-1.849219 -6.409191 1.650775,-2.015232 -5.164322 1.805555,-2.134259 -4.464808 1.97558,-2.230264 -3.864209 2.113348,-1.524364 -6.462211 1.780606,-1.593871 -5.302101 1.970273,-1.708987 -4.629031 2.153746,-1.82089 -4.024808 2.316804,-1.183886 -6.734092 1.956059,-1.126059 -5.836126 2.140903,-1.155864 -5.274276 2.313408,-1.202717 -4.744011 2.44053,-9.379412 -9.326017 -1.571316,-8.965796 -9.501165 -0.7462881,-8.558605 -9.262094 -0.07356012,-8.676209 -9.312218 0.4385451,-9.070317 -9.313946 0.8221387,-8.895764 -8.006472 -0.04139447,-8.82855 -7.412506 0.7690693,-8.809621 -7.190349 1.367095,-8.846616 -7.311943 1.775526,-9.308702 -7.889808 -0.09171307,-9.39864 -7.103596 0.8970653,-9.341549 -7.490718 1.443448,-9.307711 -8.014893 1.817175,-9.673943 -8.038982 -0.09917009,-9.829043 -7.580287 0.8318933,-9.69842 -8.05682 1.212368,-9.601545 -8.470575 1.331793,-9.992472 -8.401707 -0.06455386,-10.16365 -8.173759 0.717029,-10.05198 -8.502281 1.068051,-9.919001 -8.799641 1.225118,5.410,
-1.37223 -9.364185 1.486522,-2.004704 -8.948334 1.832966,-2.516988 -8.219337 2.042042,-2.838479 -7.507596 2.282312,-3.129759 -6.988098 2.544086,-2.18629 -6.602207 1.676881,-2.387158 -5.514043 1.891596,-2.500099 -4.890964 2.040513,-2.596195 -4.321865 2.157318,-1.851253 -6.416284 1.712082,-2.016759 -5.16491 1.869911,-2.130379 -4.459323 2.034949,-2.219942 -3.847802 2.170217,-1.523015 -6.46768 1.824854,-1.592197 -5.308074 2.012373,-1.701372 -4.637124 2.183193,-1.806639 -4.028672 2.340821,-1.182101 -6.734356 1.979965,-1.126554 -5.835553 2.16026,-1.152704 -5.272794 2.32223,-1.194313 -4.737405 2.442945,-9.379658 -9.344179 -1.6873,-8.970655 -9.500221 -0.8794973,-8.557742 -9.269667 -0.2158581,-8.645273 -9.32412 0.2863432,-9.049461 -9.306919 0.6388477,-8.917185 -8.01124 -0.2032655,-8.852298 -7.383356 0.6145071,-8.847223 -7.205614 1.213693,-8.897188 -7.420253 1.613284,-9.329091 -7.904438 -0.2568896,-9.425855 -7.098189 0.6893471,-9.372097 -7.525856 1.181259,-9.333194 -8.091381 1.506389,-9.691543 -8.063589 -0.257084,-9.859106 -7.57472 0.6324283,-9.733646 -8.040627 0.9908227,-9.640157 -8.452303 1.09613,-10.01008 -8.42412 -0.2156383,-10.19005 -8.184734 0.5295535,-10.07317 -8.50432 0.8548533,-9.935398 -8.795931 0.9985856,5.510,
-1.369597 -9.371105 1.517299,-1.996981 -8.960993 1.870458,-2.508397 -8.252508 2.092895,-2.831018 -7.560207 2.352653,-3.124157 -7.038657 2.63699,-2.180295 -6.593526 1.710811,-2.387625 -5.514984 1.93941,-2.498268 -4.900893 2.097095,-2.589259 -4.332643 2.219124,-1.843882 -6.414468 1.755373,-2.01474 -5.164607 1.931872,-2.125983 -4.467691 2.11039,-2.212178 -3.860475 2.250155,-1.514256 -6.475505 1.879469,-1.587861 -5.317071 2.089695,-1.701188 -4.653787 2.282809,-1.808956 -4.049798 2.447375,-1.171378 -6.754522 2.047777,-1.11164 -5.868785 2.250911,-1.135649 -5.308532 2.431435,-1.176181 -4.767211 2.564557,-9.462931 -9.30773 -1.72905,-9.039005 -9.514452 -0.8861151,-8.618989 -9.329702 -0.1836443,-8.717637 -9.49008 0.3495052,-9.111977 -9.543711 0.7614136,-8.94832 -8.06448 -0.1462674,-8.87928 -7.432459 0.6968465,-8.845383 -7.332927 1.314677,-8.874101 -7.627504 1.698159,-9.368964 -7.97429 -0.2170913,-9.469358 -7.218225 0.7626104,-9.434896 -7.572258 1.329189,-9.407992 -8.084526 1.706626,-9.743107 -8.161163 -0.2426502,-9.91305 -7.725391 0.6418557,-9.815699 -8.106804 1.089987,-9.734868 -8.452419 1.254701,-10.07862 -8.521044 -0.2336985,-10.24794 -8.339817 0.5023127,-10.15066 -8.614088 0.8660414,-10.02563 -8.848606 1.039991,5.610,
-1.387015 -9.385715 1.516172,-2.020157 -8.94743 1.838921,-2.523395 -8.210346 2.048447,-2.846577 -7.506599 2.303104,-3.164976 -7.00105 2.586016,-2.176743 -6.592044 1.674871,-2.379736 -5.502793 1.902359,-2.492072 -4.886324 2.057981,-2.586282 -4.311553 2.176969,-1.840159 -6.424442 1.732478,-2.006932 -5.173408 1.901215,-2.119691 -4.469064 2.068628,-2.207831 -3.856673 2.20137,-1.509183 -6.491918 1.869008,-1.573446 -5.332004 2.065949,-1.686573 -4.659427 2.241057,-1.795295 -4.049069 2.39361,-1.165393 -6.777706 2.051105,-1.101597 -5.885343 2.242563,-1.130417 -5.317808 2.415627,-1.17475 -4.777143 2.541662,-9.357256 -9.556841 -1.179486,-8.967592 -9.647686 -0.3529465,-8.581573 -9.41605 0.3485308,-8.678793 -9.496237 0.9013649,-9.075428 -9.4816 1.30548,-8.927767 -7.996385 0.3208815,-8.867702 -7.331516 1.199048,-8.86385 -7.244979 1.839013,-8.918354 -7.54992 2.23439,-9.351451 -7.939352 0.2748309,-9.462923 -7.102898 1.293183,-9.418415 -7.650602 1.820427,-9.369897 -8.250912 2.146166,-9.723697 -8.145851 0.2824875,-9.912515 -7.642021 1.218242,-9.772653 -8.223541 1.574619,-9.661215 -8.673031 1.661965,-10.04887 -8.537294 0.3279314,-10.24158 -8.245901 1.084396,-10.10807 -8.607908 1.393135,-9.955446 -8.898909 1.523664,5.710,
-1.375909 -9.369421 1.517296,-2.011312 -8.934498 1.854165,-2.524695 -8.207157 2.06409,-2.860557 -7.508118 2.315513,-3.177073 -7.011446 2.593297,-2.17542 -6.575697 1.66336,-2.38219 -5.498586 1.868641,-2.497496 -4.887456 2.012933,-2.595415 -4.327075 2.125537,-1.83989 -6.407204 1.699001,-2.005593 -5.164865 1.846745,-2.116983 -4.466156 1.998878,-2.207243 -3.865792 2.119545,-1.511357 -6.470689 1.818066,-1.576466 -5.320886 1.990604,-1.684181 -4.664259 2.148353,-1.7886 -4.078405 2.287406,-1.173156 -6.750865 1.981888,-1.10816 -5.87248 2.153406,-1.13265 -5.315012 2.314255,-1.172167 -4.787319 2.430238,-9.506548 -9.353296 -1.319781,-9.059165 -9.5275 -0.4873145,-8.601733 -9.299776 0.2515566,-8.685049 -9.419924 0.8340702,-9.107293 -9.443972 1.272343,-8.933806 -7.959945 0.2534711,-8.8613 -7.47788 1.171794,-8.845882 -7.444667 1.789898,-8.883404 -7.738294 2.146227,-9.366227 -7.874792 0.2141602,-9.432048 -7.161368 1.283561,-9.393444 -7.56759 1.846614,-9.376364 -8.070784 2.171753,-9.750112 -8.071287 0.2199351,-9.879301 -7.747489 1.199412,-9.755645 -8.238598 1.528742,-9.673783 -8.583008 1.55773,-10.0955 -8.474548 0.2646891,-10.21738 -8.318102 1.047502,-10.096 -8.625269 1.336448,-9.977194 -8.84144 1.42007,5.810,
-1.369201 -9.374809 1.487815,-2.000539 -8.960752 1.837692,-2.51195 -8.228548 2.048331,-2.833375 -7.521585 2.293476,-3.133757 -7.000158 2.561803,-2.171191 -6.597379 1.65636,-2.372725 -5.519433 1.866236,-2.482928 -4.903678 2.012723,-2.575608 -4.336572 2.12761,-1.832643 -6.422362 1.690207,-1.994546 -5.173461 1.842174,-2.102921 -4.470501 2.004292,-2.18817 -3.864691 2.134214,-1.501033 -6.48583 1.805553,-1.563127 -5.33152 1.991098,-1.675426 -4.66472 2.164383,-1.783079 -4.064239 2.317153,-1.158338 -6.76756 1.96587,-1.098369 -5.886342 2.147699,-1.126919 -5.329437 2.315359,-1.171789 -4.795667 2.438691,-9.5633 -9.416561 -1.305913,-9.124118 -9.645367 -0.446044,-8.727863 -9.553713 0.2736821,-8.646906 -9.601589 0.864664,-8.85812 -9.575424 1.374886,-8.889883 -8.039122 0.2971526,-8.802048 -7.391313 1.205207,-8.792322 -7.373304 1.903002,-8.845972 -7.756248 2.304753,-9.322286 -7.962057 0.2438357,-9.386544 -7.080916 1.311228,-9.386071 -7.694213 1.924718,-9.374479 -8.354393 2.287661,-9.721156 -8.159023 0.2499138,-9.868668 -7.601 1.203043,-9.768363 -8.282106 1.642997,-9.656039 -8.826193 1.78979,-10.08331 -8.521915 0.2765452,-10.25296 -8.227356 1.05178,-10.15584 -8.649046 1.409089,-10.01204 -8.985865 1.600101,5.910,Left Hand Closed
-1.354368 -9.379566 1.486472,-1.985054 -8.959198 1.844658,-2.502296 -8.234896 2.06205,-2.829825 -7.525577 2.312082,-3.133236 -7.00045 2.585486,-2.163226 -6.60346 1.664234,-2.372448 -5.527823 1.873478,-2.483854 -4.914453 2.022088,-2.57338 -4.348035 2.139939,-1.825061 -6.42887 1.691712,-1.994411 -5.176438 1.841951,-2.105628 -4.471662 2.003361,-2.189528 -3.866795 2.132338,-1.492994 -6.489212 1.79937,-1.560421 -5.33472 1.982597,-1.67097 -4.66784 2.157504,-1.773732 -4.069307 2.313102,-1.148276 -6.767887 1.953079,-1.092174 -5.882618 2.136348,-1.121761 -5.322425 2.309104,-1.164382 -4.78815 2.435545,-9.522838 -9.619469 -0.9126468,-9.108562 -9.692663 -0.1275078,-8.715956 -9.549997 0.5699732,-8.673368 -9.622864 1.138864,-8.966926 -9.633873 1.597076,-8.919433 -7.971467 0.559857,-8.884143 -7.28198 1.45948,-8.900127 -7.397805 2.054391,-8.961515 -7.825133 2.386743,-9.358335 -7.874672 0.5006579,-9.436684 -7.085551 1.50921,-9.448987 -7.916894 1.840611,-9.432497 -8.647387 1.952422,-9.751616 -8.064653 0.5189713,-9.887143 -7.497116 1.395985,-9.801012 -8.332258 1.605575,-9.717356 -8.946522 1.615897,-10.09214 -8.439043 0.5645721,-10.25967 -8.08412 1.2298,-10.14898 -8.579857 1.43644,-10.0145 -8.969358 1.512113,6.010,Left Hand Closed
-1.334989 -9.399111 1.530765,-1.967166 -8.974659 1.857067,-2.480072 -8.223484 2.05013,-2.798031 -7.499597 2.277837,-3.096462 -6.986037 2.524173,-2.147346 -6.610837 1.677733,-2.348351 -5.525646 1.877493,-2.459172 -4.912373 2.012951,-2.552366 -4.344909 2.122473,-1.811172 -6.435199 1.71705,-1.97576 -5.185935 1.864274,-2.08707 -4.476585 2.022539,-2.171332 -3.868141 2.150105,-1.481966 -6.495099 1.835029,-1.550346 -5.336592 2.011817,-1.660697 -4.668836 2.168282,-1.763499 -4.072868 2.311134,-1.138723 -6.768505 1.9961,-1.082674 -5.876745 2.165825,-1.109425 -5.319955 2.320689,-1.14946 -4.788949 2.429062,-9.551859 -9.37916 -1.713088,-9.099337 -9.628744 -0.8509544,-8.655805 -9.432671 -0.1285254,-8.693564 -9.553642 0.4291761,-9.048136 -9.552162 0.8280685,-8.949772 -8.181005 -0.08333635,-8.884368 -7.49422 0.8122716,-8.871003 -7.400583 1.476578,-8.918321 -7.75978 1.877454,-9.387895 -8.094746 -0.1591593,-9.490149 -7.166341 0.8470445,-9.456684 -7.591636 1.392983,-9.430098 -8.176561 1.72313,-9.782695 -8.2703 -0.1805769,-9.944279 -7.612842 0.7256615,-9.837592 -8.049803 1.153941,-9.748268 -8.469059 1.302868,-10.13844 -8.586653 -0.1681119,-10.29354 -8.209906 0.566288,-10.21091 -8.471855 0.9050844,-10.09839 -8.729475 1.07007,6.110,Left Hand Closed
-1.338737 -9.40996 1.559568,-1.964403 -8.980574 1.873069,-2.473545 -8.242004 2.062147,-2.79064 -7.531681 2.291976,-3.093223 -7.027596 2.547843,-2.138087 -6.60433 1.665244,-2.342229 -5.526062 1.857127,-2.455006 -4.917394 1.995054,-2.547589 -4.355257 2.10916,-1.80421 -6.43411 1.713011,-1.96601 -5.17969 1.852093,-2.074681 -4.471477 2.009479,-2.159093 -3.85637 2.134347,-1.476495 -6.504249 1.840083,-1.539131 -5.353405 2.006825,-1.647687 -4.692007 2.16292,-1.748629 -4.098213 2.302704,-1.134268 -6.788093 2.011497,-1.073316 -5.904812 2.181667,-1.099917 -5.350061 2.342329,-1.140758 -4.820146 2.457529,-9.539602 -9.602913 -1.117389,-9.115085 -9.781256 -0.2625192,-8.699903 -9.664896 0.4737394,-8.718929 -9.743483 1.057441,-9.060394 -9.715437 1.495211,-8.937855 -8.137054 0.4755691,-8.864283 -7.418626 1.367105,-8.886303 -7.364179 2.018723,-8.967047 -7.703223 2.408056,-9.38494 -8.034258 0.4070123,-9.468582 -7.119401 1.461485,-9.499054 -7.760818 1.981878,-9.490837 -8.428356 2.275579,-9.782001 -8.207193 0.4040613,-9.948842 -7.585264 1.344116,-9.861238 -8.279171 1.724338,-9.761685 -8.83885 1.835705,-10.13144 -8.563623 0.4300635,-10.31461 -8.148129 1.168109,-10.23246 -8.510775 1.504327,-10.10392 -8.839298 1.668148,6.210,Left Hand Closed
-1.321479 -9.426064 1.58169,-1.945756 -8.991911 1.924247,-2.457779 -8.274107 2.135715,-2.781446 -7.577905 2.380471,-3.075115 -7.073244 2.649507,-2.123751 -6.616548 1.733394,-2.32318 -5.527713 1.923925,-2.43693 -4.921932 2.063744,-2.536382 -4.367801 2.173428,-1.786111 -6.445069 1.760545,-1.950629 -5.190656 1.884936,-2.059141 -4.494564 2.027349,-2.148405 -3.894073 2.142084,-1.458727 -6.505834 1.867005,-1.528121 -5.347768 2.016296,-1.632023 -4.691193 2.162356,-1.733014 -4.098702 2.296676,-1.12026 -6.775045 2.019851,-1.064248 -5.877773 2.170319,-1.08892 -5.324198 2.31167,-1.125644 -4.797497 2.409993,-9.671931 -9.555035 -1.282738,-9.233791 -9.764778 -0.3944252,-8.816776 -9.692854 0.3535106,-8.789927 -9.807625 0.9611461,-9.036949 -9.735317 1.442296,-8.976249 -8.138245 0.2894714,-8.892417 -7.366441 1.244044,-8.930841 -7.324708 1.952153,-9.028079 -7.727132 2.346512,-9.437204 -8.033085 0.2112781,-9.509216 -7.09239 1.290108,-9.571841 -7.847616 1.796045,-9.590689 -8.585884 2.031728,-9.851063 -8.207607 0.2007674,-9.990818 -7.551179 1.128866,-9.954673 -8.34021 1.506543,-9.886949 -8.950863 1.597357,-10.22472 -8.533186 0.2296939,-10.3681 -8.1367 0.9832578,-10.3105 -8.581417 1.307698,-10.20137 -8.940874 1.45201,6.310,Left Hand Closed
-1.326624 -9.409267 1.559707,-1.950175 -8.965469 1.895144,-2.46021 -8.259884 2.103524,-2.783507 -7.574512 2.346912,-3.068519 -7.070396 2.617052,-2.117557 -6.601191 1.691903,-2.324079 -5.516414 1.883134,-2.432605 -4.908733 2.029077,-2.52217 -4.350263 2.14546,-1.783201 -6.432466 1.722374,-1.947767 -5.17213 1.842289,-2.047019 -4.474666 1.983637,-2.126465 -3.863001 2.09636,-1.458222 -6.495676 1.832204,-1.525149 -5.342962 1.979123,-1.626454 -4.688016 2.121612,-1.723478 -4.093462 2.249318,-1.120769 -6.765472 1.989335,-1.062994 -5.881595 2.141263,-1.086219 -5.333051 2.279793,-1.121467 -4.809942 2.374541,-9.625443 -9.729145 -0.8220509,-9.203364 -9.841705 -0.001187742,-8.798122 -9.735985 0.7348739,-8.800566 -9.80032 1.332269,-9.109129 -9.70829 1.792822,-8.983739 -8.141752 0.7244627,-8.935323 -7.411962 1.626638,-8.984441 -7.357389 2.302964,-9.094657 -7.710804 2.719185,-9.441091 -8.0182 0.6695442,-9.517588 -7.093896 1.660795,-9.576709 -7.840909 2.072311,-9.586047 -8.55924 2.274994,-9.852309 -8.19178 0.6836704,-9.992393 -7.498765 1.549107,-9.942586 -8.282566 1.850249,-9.872944 -8.902582 1.926669,-10.22098 -8.555931 0.7299353,-10.38672 -8.176676 1.422179,-10.30959 -8.637367 1.686453,-10.19318 -9.002644 1.810105,6.410,Left Hand Closed
-1.326199 -9.409225 1.567067,-1.944647 -8.96575 1.901743,-2.452412 -8.258224 2.103344,-2.763626 -7.562523 2.340715,-3.04529 -7.049695 2.597633,-2.107924 -6.595287 1.68499,-2.311323 -5.509616 1.875812,-2.419479 -4.897561 2.026207,-2.508211 -4.338825 2.146112,-1.77367 -6.428314 1.718053,-1.94159 -5.172477 1.842673,-2.041788 -4.469713 1.998125,-2.118509 -3.853658 2.121655,-1.446932 -6.49155 1.833299,-1.519063 -5.342502 1.982654,-1.623653 -4.685911 2.134835,-1.721312 -4.092445 2.271327,-1.105863 -6.760988 1.994871,-1.048414 -5.874841 2.147666,-1.070438 -5.327434 2.292889,-1.105113 -4.805042 2.395996,-9.891012 -9.516289 -1.506033,-9.439732 -9.800041 -0.6905473,-9.072567 -9.860855 -0.005925298,-8.906549 -9.957918 0.5467604,-8.981131 -10.03524 1.04425,-9.132549 -8.284136 0.07368672,-9.022106 -7.504909 0.8929545,-9.018864 -7.484415 1.587455,-9.095116 -7.870968 2.006131,-9.574533 -8.138113 0.02204263,-9.574068 -7.130332 1.009009,-9.611709 -7.759725 1.56055,-9.637473 -8.467968 1.8713,-9.981593 -8.288082 0.02505124,-10.0907 -7.613047 0.9529434,-10.0249 -8.374149 1.367563,-9.942779 -9.064657 1.498468,-10.33932 -8.610443 0.0472647,-10.47973 -8.252022 0.8337821,-10.4056 -8.734003 1.189501,-10.27773 -9.152212 1.354018,6.510,Left Hand Closed
-1.312732 -9.408562 1.587963,-1.931282 -8.968748 1.951966,-2.447611 -8.251862 2.170181,-2.77241 -7.552748 2.416327,-3.067139 -7.054837 2.687483,-2.102413 -6.595115 1.743821,-2.309369 -5.513536 1.933071,-2.422267 -4.906102 2.075154,-2.520746 -4.354555 2.189529,-1.763831 -6.423135 1.757404,-1.925649 -5.175253 1.881194,-2.030896 -4.47216 2.029967,-2.115878 -3.859566 2.154129,-1.436616 -6.485464 1.853723,-1.500313 -5.338266 1.997364,-1.603745 -4.683334 2.147992,-1.704206 -4.095047 2.287781,-1.0996 -6.756378 1.999747,-1.038602 -5.877166 2.146506,-1.060143 -5.326878 2.290236,-1.094839 -4.804359 2.394819,-9.81088 -9.713722 -0.876662,-9.345084 -9.944962 -0.007022381,-8.980218 -9.966106 0.7236769,-8.882313 -10.07211 1.295668,-9.101686 -10.09827 1.808202,-9.118584 -8.375723 0.9050758,-9.040082 -7.620185 1.750891,-9.028029 -7.611333 2.442239,-9.107071 -7.9661 2.882082,-9.590338 -8.251976 0.8352091,-9.647847 -7.270813 1.877785,-9.664112 -7.886792 2.444929,-9.679325 -8.574041 2.775438,-10.00836 -8.422388 0.8161956,-10.17237 -7.782482 1.822323,-10.06673 -8.495565 2.254353,-9.961671 -9.125204 2.385638,-10.36584 -8.781935 0.8058693,-10.55615 -8.462524 1.63751,-10.44495 -8.915163 1.996504,-10.28657 -9.303576 2.16863,6.610,Left Hand Closed
-1.310711 -9.406076 1.504166,-1.922798 -8.956079 1.833346,-2.426879 -8.246254 2.04156,-2.746241 -7.554477 2.288097,-3.036938 -7.042058 2.558769,-2.078628 -6.607597 1.645462,-2.290011 -5.519464 1.848818,-2.405069 -4.911551 2.001435,-2.50209 -4.353026 2.124387,-1.749205 -6.444095 1.691243,-1.915209 -5.18234 1.833955,-2.018697 -4.482763 1.993251,-2.101729 -3.868197 2.121356,-1.427818 -6.510509 1.816666,-1.497714 -5.351345 1.985793,-1.600809 -4.688859 2.149106,-1.70024 -4.093542 2.293848,-1.092811 -6.782526 1.986056,-1.035011 -5.892416 2.1551,-1.053847 -5.337932 2.306891,-1.08486 -4.812427 2.41385,-9.823013 -9.95067 -0.7666367,-9.381999 -10.08021 0.06688261,-8.974403 -10.01976 0.8093306,-8.913199 -10.13408 1.427541,-9.162402 -10.12349 1.93967,-9.11252 -8.328701 0.7555082,-9.018547 -7.568216 1.690043,-9.05524 -7.56285 2.416611,-9.161309 -7.962656 2.843165,-9.577354 -8.209942 0.7057822,-9.633079 -7.284078 1.751846,-9.696829 -8.077089 2.23419,-9.725029 -8.834747 2.454379,-9.999129 -8.393433 0.728521,-10.12209 -7.730114 1.660589,-10.05992 -8.574392 1.993903,-9.983616 -9.235708 2.06275,-10.37589 -8.758427 0.7773609,-10.51255 -8.370131 1.533785,-10.42261 -8.858984 1.827332,-10.29478 -9.23666 1.944039,6.710,Left Hand Closed
-1.296768 -9.411015 1.522706,-1.911162 -8.987913 1.857492,-2.425306 -8.297419 2.062849,-2.745527 -7.61581 2.303976,-3.023788 -7.09135 2.567811,-2.075455 -6.611325 1.654324,-2.285446 -5.528409 1.849969,-2.399766 -4.924899 1.99393,-2.493963 -4.374128 2.107099,-1.74492 -6.444173 1.69445,-1.910397 -5.193569 1.82777,-2.012667 -4.493156 1.978584,-2.092278 -3.881309 2.098202,-1.421069 -6.512056 1.816019,-1.487183 -5.363263 1.97724,-1.585063 -4.697839 2.137933,-1.679935 -4.103744 2.282026,-1.083138 -6.789593 1.982859,-1.022108 -5.902368 2.147213,-1.040792 -5.34572 2.299608,-1.073085 -4.825979 2.407258,-9.777001 -10.04635 -0.2856671,-9.337232 -10.1729 0.602788,-8.946654 -10.09378 1.379215,-8.966108 -10.21742 2.000714,-9.288785 -10.22933 2.514602,-9.089045 -8.379801 1.371834,-9.014902 -7.679012 2.328733,-9.055765 -7.627964 3.069599,-9.172331 -7.969635 3.522408,-9.575482 -8.218443 1.303625,-9.659833 -7.327446 2.377103,-9.707943 -8.125311 2.857175,-9.722617 -8.899595 3.094197,-10.01963 -8.358656 1.30854,-10.17367 -7.753033 2.324706,-10.09254 -8.641415 2.695957,-10.00624 -9.331709 2.78219,-10.41706 -8.716204 1.336802,-10.57649 -8.371557 2.175145,-10.47081 -8.905045 2.489582,-10.32788 -9.323545 2.627294,6.810,Left Hand Closed
-1.290074 -9.409737 1.506547,-1.903595 -8.987413 1.823186,-2.417044 -8.301498 2.018824,-2.7359 -7.623787 2.249732,-3.009403 -7.116444 2.497418,-2.063515 -6.611588 1.621253,-2.274253 -5.525387 1.806041,-2.388377 -4.926078 1.940794,-2.482893 -4.379024 2.046723,-1.733025 -6.44601 1.664559,-1.896402 -5.186817 1.791428,-1.995954 -4.482191 1.942618,-2.073543 -3.863191 2.065551,-1.410097 -6.516618 1.784149,-1.479612 -5.36527 1.938558,-1.579215 -4.700191 2.095337,-1.674047 -4.10502 2.236907,-1.073196 -6.795273 1.949886,-1.015609 -5.907459 2.105348,-1.034261 -5.354191 2.253668,-1.066339 -4.832633 2.358383,-9.812569 -10.01586 -0.4637357,-9.36762 -10.14921 0.4352418,-8.962197 -10.0763 1.241619,-8.953229 -10.18305 1.91258,-9.239839 -10.2123 2.461859,-9.099326 -8.400133 1.212926,-8.988152 -7.707378 2.237879,-9.028846 -7.613721 3.0302,-9.14749 -7.9242 3.492949,-9.583621 -8.291285 1.159691,-9.654775 -7.298183 2.290291,-9.676743 -7.919532 2.89023,-9.690634 -8.57375 3.240981,-10.03247 -8.485161 1.168043,-10.19316 -7.83254 2.225137,-10.07905 -8.688309 2.600078,-9.974191 -9.322226 2.670729,-10.44219 -8.879087 1.199612,-10.57709 -8.457239 2.070603,-10.46161 -8.967443 2.373432,-10.3109 -9.358591 2.483782,6.910,Left Hand Closed
-1.302719 -9.413166 1.507868,-1.917688 -8.977339 1.839921,-2.419723 -8.288992 2.049663,-2.73226 -7.615691 2.298357,-3.011871 -7.115723 2.571525,-2.069777 -6.607416 1.665027,-2.282453 -5.527071 1.867357,-2.395658 -4.922473 2.014578,-2.489103 -4.372219 2.127552,-1.735642 -6.449898 1.704508,-1.895042 -5.203138 1.842642,-1.991578 -4.513728 1.989357,-2.069512 -3.911873 2.105691,-1.411766 -6.52111 1.822643,-1.469201 -5.376796 1.986048,-1.560881 -4.721337 2.142585,-1.651441 -4.131252 2.28101,-1.079622 -6.799527 1.986028,-1.007633 -5.916126 2.147785,-1.020116 -5.361715 2.294652,-1.047154 -4.8321 2.397433,-9.782296 -10.07366 0.06699515,-9.344017 -10.21812 0.9823726,-8.920143 -10.14598 1.804755,-8.925849 -10.27346 2.488386,-9.224773 -10.29023 3.069868,-9.02111 -8.335848 1.793162,-8.905133 -7.672195 2.858273,-8.944842 -7.698588 3.633974,-9.061305 -8.095411 4.075308,-9.528255 -8.179409 1.726569,-9.601706 -7.286015 2.893943,-9.63603 -8.12397 3.407897,-9.637073 -8.913767 3.636423,-9.996141 -8.345955 1.732385,-10.15895 -7.802892 2.812868,-10.07164 -8.747223 3.168603,-9.978972 -9.428324 3.218507,-10.41927 -8.715071 1.757333,-10.56826 -8.387041 2.644379,-10.44875 -8.954821 2.944947,-10.29291 -9.376585 3.046961,7.010,Left Hand Closed
-1.301036 -9.407648 1.480997,-1.915386 -8.977768 1.846444,-2.421592 -8.302605 2.070734,-2.734896 -7.632677 2.325629,-3.005138 -7.119119 2.59998,-2.065875 -6.614524 1.664205,-2.279261 -5.534818 1.872585,-2.388852 -4.930854 2.023007,-2.479042 -4.374504 2.137206,-1.73243 -6.452693 1.688685,-1.898049 -5.211917 1.839981,-1.993783 -4.519982 1.99927,-2.069419 -3.904224 2.126708,-1.406339 -6.522048 1.796446,-1.471556 -5.380138 1.971538,-1.56378 -4.728975 2.139247,-1.653989 -4.133813 2.287769,-1.069726 -6.796867 1.948902,-1.003034 -5.912783 2.125914,-1.016121 -5.357948 2.287566,-1.044899 -4.824659 2.401194,-9.785695 -9.870979 -0.2652274,-9.35195 -10.05976 0.6717621,-8.922914 -10.07103 1.504775,-8.886258 -10.25643 2.186134,-9.154578 -10.32991 2.773342,-9.043961 -8.410509 1.602991,-8.898236 -7.751089 2.643665,-8.902495 -7.647677 3.441628,-8.995553 -7.936172 3.935413,-9.545994 -8.241709 1.530283,-9.624411 -7.315102 2.724905,-9.595567 -7.909896 3.391273,-9.568138 -8.579418 3.774073,-10.01019 -8.396606 1.502731,-10.18121 -7.825519 2.59719,-10.03466 -8.590693 2.992717,-9.90671 -9.178621 3.078432,-10.42797 -8.774744 1.493171,-10.56574 -8.449751 2.410192,-10.416 -8.911264 2.758264,-10.24628 -9.268862 2.8886,7.110,Left Hand Closed
-1.296049 -9.396059 1.449712,-1.910239 -8.982517 1.812197,-2.415209 -8.319584 2.041262,-2.724048 -7.661863 2.30513,-2.99085 -7.138649 2.591456,-2.064795 -6.612391 1.642471,-2.270886 -5.533163 1.856729,-2.37985 -4.934044 2.001513,-2.468728 -4.388551 2.107859,-1.728858 -6.451597 1.674157,-1.888163 -5.209214 1.83345,-1.982125 -4.512587 1.984668,-2.057602 -3.903714 2.103126,-1.403203 -6.52614 1.788752,-1.464465 -5.387 1.976572,-1.554876 -4.72717 2.144869,-1.646177 -4.132468 2.291502,-1.067818 -6.809045 1.948985,-1.00001 -5.93348 2.129496,-1.010561 -5.380109 2.293598,-1.037509 -4.852974 2.408094,-9.747259 -9.894972 -0.05691956,-9.301022 -10.06719 0.8946722,-8.86083 -10.04289 1.765905,-8.889334 -10.25202 2.48549,-9.202961 -10.29844 3.088893,-8.962599 -8.318815 1.766303,-8.843723 -7.652454 2.864756,-8.871589 -7.542067 3.685584,-8.992003 -7.844573 4.159295,-9.47471 -8.123547 1.680006,-9.556291 -7.155694 2.859027,-9.573 -7.885725 3.414624,-9.578983 -8.633106 3.709162,-9.955488 -8.252407 1.663616,-10.13076 -7.668806 2.751283,-10.01857 -8.632557 3.066386,-9.91139 -9.334639 3.097707,-10.393 -8.60173 1.673031,-10.53877 -8.240728 2.571743,-10.41304 -8.844606 2.847184,-10.24784 -9.306276 2.923538,7.210,Left Hand Closed
-1.295757 -9.396324 1.377085,-1.895574 -8.987236 1.757987,-2.399598 -8.340387 1.990704,-2.705087 -7.683879 2.247051,-2.953855 -7.154124 2.514324,-2.039354 -6.636448 1.581379,-2.251948 -5.553258 1.802351,-2.35725 -4.950406 1.957402,-2.43873 -4.40163 2.073843,-1.707671 -6.470342 1.607389,-1.877096 -5.214576 1.772604,-1.971001 -4.509859 1.942019,-2.042586 -3.883804 2.083363,-1.384416 -6.541934 1.715335,-1.458049 -5.393526 1.908085,-1.551018 -4.725011 2.085284,-1.642756 -4.122434 2.242498,-1.046703 -6.823268 1.872796,-0.9920683 -5.936061 2.055394,-1.007765 -5.382296 2.219048,-1.039114 -4.856626 2.340237,-9.737938 -9.891964 0.05525658,-9.307055 -10.04673 0.9872118,-8.897772 -9.978741 1.813605,-8.88861 -10.15256 2.498775,-9.170256 -10.24214 3.088402,-9.012581 -8.176922 1.84525,-8.930683 -7.457815 2.890368,-8.938456 -7.561479 3.661495,-9.018079 -8.047504 4.100334,-9.530091 -8.058992 1.783637,-9.635869 -7.139404 2.955937,-9.651623 -7.990077 3.503764,-9.631619 -8.788006 3.774736,-9.999227 -8.263086 1.794802,-10.17853 -7.657524 2.871557,-10.06076 -8.548231 3.256524,-9.94585 -9.215822 3.33476,-10.41223 -8.682457 1.825533,-10.58391 -8.340801 2.708028,-10.44174 -8.871206 3.042109,-10.26917 -9.273376 3.19065,7.310,Left Hand Closed
-1.28343 -9.406458 1.352793,-1.884613 -9.008497 1.722431,-2.391053 -8.368605 1.949628,-2.699544 -7.713993 2.200672,-2.936044 -7.169456 2.465686,-2.030891 -6.653369 1.545655,-2.246534 -5.574214 1.742682,-2.356412 -4.971385 1.876451,-2.439343 -4.421117 1.977244,-1.696115 -6.486324 1.566389,-1.863267 -5.245187 1.715433,-1.954862 -4.541685 1.86751,-2.020912 -3.9258 1.986317,-1.372 -6.554148 1.667852,-1.440982 -5.411306 1.837577,-1.526221 -4.737163 2.003833,-1.610901 -4.135129 2.15345,-1.037561 -6.829326 1.814093,-0.9751015 -5.927462 1.979956,-0.9838867 -5.365469 2.138654,-1.010208 -4.840645 2.251149,-9.751503 -9.813379 0.1720741,-9.268045 -9.986309 1.259259,-8.862376 -9.973001 2.196323,-8.94741 -10.29444 2.953397,-9.291122 -10.44172 3.563902,-9.031659 -8.117588 2.122144,-9.018623 -7.468028 3.281253,-9.061733 -7.683001 4.099762,-9.163548 -8.233316 4.538245,-9.579556 -8.034733 2.006937,-9.702771 -7.10364 3.280768,-9.74011 -7.920387 3.870475,-9.761319 -8.659712 4.177906,-10.079 -8.258881 1.985318,-10.26146 -7.755817 3.189158,-10.12431 -8.736094 3.555342,-10.0117 -9.432972 3.568737,-10.51958 -8.716322 2.003307,-10.66393 -8.43474 2.907409,-10.51595 -9.039244 3.189971,-10.3397 -9.465265 3.269971,7.410,Left Hand Closed
-1.272391 -9.384048 1.302275,-1.874245 -8.991589 1.656482,-2.380576 -8.354061 1.876907,-2.688847 -7.706989 2.124501,-2.933852 -7.170081 2.382926,-2.027172 -6.642576 1.490902,-2.241431 -5.572978 1.693345,-2.349394 -4.972681 1.827937,-2.43037 -4.421348 1.928276,-1.694618 -6.480506 1.523779,-1.861003 -5.245837 1.687556,-1.952655 -4.548109 1.848511,-2.018003 -3.932595 1.976256,-1.371017 -6.551198 1.635513,-1.439859 -5.418731 1.821701,-1.526618 -4.749424 1.99581,-1.612502 -4.148929 2.151759,-1.03677 -6.828993 1.790995,-0.981019 -5.942806 1.966185,-0.9917507 -5.385414 2.128144,-1.019834 -4.861383 2.245997,-9.796978 -9.826279 0.3265204,-9.261243 -10.01558 1.413991,-8.831057 -9.957317 2.357734,-8.95612 -10.25142 3.112132,-9.350142 -10.44006 3.718782,-9.040968 -8.166443 2.334737,-9.079499 -7.544167 3.472301,-9.139859 -7.625585 4.239676,-9.263196 -8.064224 4.641435,-9.605532 -8.050171 2.223021,-9.717131 -7.113887 3.560376,-9.712861 -7.769272 4.170402,-9.733022 -8.413652 4.520396,-10.11853 -8.231745 2.206257,-10.31386 -7.783362 3.478622,-10.12583 -8.814196 3.745528,-10.00451 -9.488869 3.675091,-10.56499 -8.703262 2.225205,-10.71205 -8.355337 3.132915,-10.54559 -9.003954 3.344577,-10.37822 -9.449184 3.361616,7.510,Left Hand Closed
-1.267407 -9.404676 1.2661,-1.863312 -9.012707 1.632253,-2.361362 -8.37352 1.85847,-2.66483 -7.732872 2.166338,-2.899342 -7.179612 2.431113,-2.010522 -6.674307 1.515089,-2.212828 -5.588016 1.739555,-2.309737 -4.980457 1.891898,-2.382312 -4.421766 2.002736,-1.677892 -6.513706 1.532693,-1.841871 -5.260307 1.710494,-1.926856 -4.552248 1.884779,-1.987499 -3.925701 2.025877,-1.35636 -6.586683 1.63087,-1.428117 -5.439922 1.829733,-1.513353 -4.763824 2.016008,-1.59749 -4.155342 2.178335,-1.021388 -6.866621 1.777149,-0.9694438 -5.97157 1.961513,-0.9803095 -5.419704 2.128336,-1.007576 -4.897678 2.250432,-9.845988 -9.964134 0.1512168,-9.364059 -10.08747 1.110969,-8.886105 -9.968193 1.995398,-8.927596 -10.19831 2.718541,-9.27875 -10.26521 3.291391,-9.101473 -8.188234 1.960767,-9.085252 -7.469296 2.995539,-9.122448 -7.651636 3.718686,-9.21669 -8.211876 4.11933,-9.649187 -8.106791 1.895046,-9.735113 -7.098058 3.031042,-9.717585 -7.884683 3.563912,-9.687194 -8.636219 3.841877,-10.14222 -8.338051 1.908119,-10.30441 -7.726288 2.977031,-10.14332 -8.663237 3.291935,-10.02164 -9.342237 3.323773,-10.57531 -8.783897 1.957531,-10.71591 -8.405005 2.770199,-10.54138 -8.973276 3.006052,-10.3706 -9.382975 3.069673,7.610,Left Hand Closed
-1.265362 -9.403767 1.224222,-1.852336 -9.0198 1.608561,-2.347679 -8.382467 1.837219,-2.643039 -7.730251 2.0848,-2.876132 -7.193177 2.343465,-1.99203 -6.682226 1.449704,-2.197327 -5.605119 1.657603,-2.303515 -4.999048 1.795076,-2.388388 -4.439897 1.903021,-1.65758 -6.520595 1.470596,-1.812715 -5.285311 1.645122,-1.9025 -4.579378 1.811238,-1.975416 -3.948275 1.947331,-1.335944 -6.594279 1.573037,-1.398475 -5.462835 1.770027,-1.480412 -4.787647 1.954254,-1.566396 -4.172203 2.121727,-1.005424 -6.87224 1.718784,-0.9445491 -5.986069 1.907069,-0.9492192 -5.424629 2.082192,-0.9744477 -4.88759 2.211697,-9.917098 -9.526249 -0.4769677,-9.447688 -9.704361 0.238347,-9.096723 -9.696211 0.9833827,-8.861468 -9.889456 1.615229,-8.777336 -10.23818 2.302948,-9.043421 -8.159737 1.353826,-8.988573 -7.362888 2.216648,-8.884426 -7.531656 2.847775,-8.83914 -7.997343 3.264858,-9.496297 -8.075125 1.356849,-9.566986 -7.15665 2.330291,-9.531431 -7.882661 2.758133,-9.499954 -8.539013 2.985783,-9.930361 -8.255966 1.39092,-10.02135 -7.564041 2.216498,-9.908511 -8.217564 2.447759,-9.827025 -8.686377 2.554796,-10.32517 -8.579582 1.436044,-10.41457 -8.125168 2.143586,-10.27391 -8.555824 2.404402,-10.15176 -8.879391 2.585827,7.710,Left Hand Closed
-1.260229 -9.435944 1.199728,-1.852744 -9.044802 1.572672,-2.35974 -8.419811 1.790576,-2.657987 -7.761719 2.021406,-2.877257 -7.211053 2.258674,-2.003905 -6.728805 1.39146,-2.202356 -5.656312 1.579873,-2.303906 -5.045252 1.711949,-2.383325 -4.48558 1.816537,-1.668538 -6.558662 1.401225,-1.823052 -5.329571 1.544891,-1.907561 -4.621885 1.69744,-1.970963 -3.987685 1.826611,-1.342516 -6.621542 1.492085,-1.407962 -5.492449 1.649209,-1.484881 -4.828269 1.809865,-1.559608 -4.223327 1.959602,-1.004507 -6.885678 1.625941,-0.9501686 -5.994277 1.787403,-0.9577737 -5.445319 1.945474,-0.9825535 -4.921019 2.060281,-9.817769 -9.198452 -1.705651,-9.316843 -9.324463 -1.148701,-8.929596 -9.351479 -0.5722102,-8.621751 -9.413416 -0.03297162,-8.340134 -9.458117 0.5511724,-8.919513 -8.089607 -0.2657262,-8.832204 -7.429467 0.4766718,-8.651773 -7.250791 1.050047,-8.514654 -7.427127 1.480364,-9.279688 -7.934881 -0.217351,-9.291639 -7.062624 0.6218148,-9.20462 -7.426397 1.068343,-9.132977 -7.975749 1.365327,-9.628266 -8.004114 -0.1418021,-9.702477 -7.361706 0.5453964,-9.565962 -7.750486 0.9027106,-9.441759 -8.16571 1.14545,-9.960186 -8.20359 -0.0566442,-10.03426 -7.792419 0.5884825,-9.878818 -8.05154 0.9451488,-9.732025 -8.369947 1.203841,7.810,
-1.294164 -9.454573 1.153988,-1.878403 -9.072123 1.514051,-2.378111 -8.42227 1.726004,-2.669457 -7.764917 1.953631,-2.896391 -7.22289 2.187086,-2.016869 -6.755185 1.369744,-2.208231 -5.67543 1.577348,-2.314135 -5.072149 1.708887,-2.402764 -4.513537 1.808959,-1.682087 -6.59099 1.398322,-1.831295 -5.361122 1.570355,-1.920117 -4.655473 1.729739,-1.993583 -4.022916 1.864231,-1.35997 -6.66555 1.50634,-1.420708 -5.531604 1.697259,-1.500712 -4.860042 1.868562,-1.584799 -4.25377 2.027775,-1.028431 -6.943571 1.654719,-0.9706144 -6.05651 1.839121,-0.9766164 -5.502996 2.009539,-1.00237 -4.976219 2.135774,-9.331257 -9.106327 -2.439677,-8.89955 -9.183304 -1.958812,-8.542675 -9.073973 -1.463208,-8.287858 -9.053957 -1.031029,-8.050614 -9.033216 -0.5504657,-8.617398 -8.244337 -1.05634,-8.410872 -7.632476 -0.4300187,-8.258724 -7.170551 0.01326013,-8.090934 -6.787239 0.3609812,-8.962588 -8.101259 -0.9737151,-8.886744 -7.417854 -0.1459615,-8.807421 -7.027383 0.4175518,-8.71822 -6.879358 0.8344409,-9.314422 -8.097502 -0.9101804,-9.319339 -7.510034 -0.2327609,-9.269599 -7.237639 0.2346995,-9.177864 -7.132483 0.5849626,-9.660864 -8.221037 -0.8431414,-9.704334 -7.805353 -0.2823648,-9.615679 -7.704706 0.06450891,-9.497106 -7.736177 0.3479571,7.910,
-1.298807 -9.482992 1.137569,-1.884533 -9.109989 1.502769,-2.383487 -8.46574 1.714555,-2.674991 -7.810224 1.939934,-2.906267 -7.278575 2.168754,-2.023826 -6.791633 1.356726,-2.220132 -5.712306 1.568044,-2.329218 -5.108639 1.701314,-2.421235 -4.547288 1.802694,-1.689781 -6.624475 1.380755,-1.838236 -5.39402 1.555377,-1.925511 -4.687511 1.71435,-1.998159 -4.056264 1.844394,-1.367091 -6.695306 1.485739,-1.430115 -5.553091 1.678752,-1.508108 -4.879076 1.849152,-1.590975 -4.269735 2.008364,-1.031498 -6.973906 1.632326,-0.9673367 -6.081621 1.814247,-0.9665956 -5.521571 1.98485,-0.9858274 -4.986323 2.110137,-9.217521 -9.140535 -1.405793,-8.741549 -9.139698 -0.7808592,-8.342248 -8.922993 -0.1273712,-8.152135 -8.824469 0.4343491,-8.193123 -8.803804 1.051292,-8.373556 -8.004543 0.1819707,-8.252628 -7.473617 0.8659403,-8.138708 -7.051458 1.370657,-7.999924 -6.726497 1.777508,-8.775732 -7.874696 0.2242115,-8.74711 -7.203279 1.155727,-8.692265 -6.888731 1.789021,-8.600498 -6.773584 2.255361,-9.164685 -7.868442 0.2349328,-9.199375 -7.291494 0.9687126,-9.158798 -7.112266 1.407641,-9.071471 -7.031229 1.720598,-9.526066 -8.048204 0.2713692,-9.55636 -7.625717 0.8714468,-9.474669 -7.627445 1.203048,-9.369832 -7.69899 1.439076,8.010,
-1.283205 -9.52751 1.086704,-1.864039 -9.171715 1.479613,-2.369134 -8.544502 1.713986,-2.669179 -7.910738 1.95617,-2.916166 -7.398896 2.201414,-2.02276 -6.865228 1.377207,-2.227491 -5.777826 1.6197,-2.340713 -5.159149 1.778809,-2.439466 -4.579875 1.896568,-1.685468 -6.691337 1.392768,-1.84067 -5.460636 1.600368,-1.92933 -4.746687 1.777726,-2.007544 -4.103319 1.920431,-1.358105 -6.758622 1.489676,-1.428462 -5.620117 1.707269,-1.509323 -4.946676 1.884738,-1.597548 -4.334485 2.049808,-1.018103 -7.035366 1.629955,-0.9609427 -6.139598 1.823333,-0.9610562 -5.582551 1.996771,-0.9830956 -5.041711 2.125802,-8.916544 -9.156694 -1.359703,-8.440659 -9.00919 -0.7153622,-8.052855 -8.653442 -0.09262061,-7.931114 -8.456799 0.4133893,-8.027462 -8.336065 0.9383417,-8.161548 -7.840353 0.1904358,-8.08728 -7.214116 0.8557426,-8.010549 -6.68683 1.333035,-7.875759 -6.197113 1.741817,-8.573103 -7.765506 0.207705,-8.561049 -7.131635 1.110378,-8.551585 -6.702587 1.686358,-8.501068 -6.459842 2.144041,-8.969707 -7.766061 0.2118007,-8.994347 -7.210378 0.9130217,-8.998109 -6.975324 1.261763,-8.958179 -6.846677 1.513589,-9.336315 -7.951639 0.2426851,-9.349376 -7.449975 0.8214782,-9.305264 -7.40124 1.085363,-9.248604 -7.458034 1.283174,8.110,
-1.294402 -9.527388 1.072283,-1.873862 -9.190111 1.480656,-2.374148 -8.572899 1.730948,-2.673118 -7.9507 1.988976,-2.93279 -7.453081 2.251372,-2.027152 -6.871014 1.415179,-2.232187 -5.775274 1.687218,-2.34675 -5.146083 1.865974,-2.444454 -4.560551 1.999997,-1.688483 -6.701585 1.440011,-1.844933 -5.463155 1.683621,-1.934507 -4.735969 1.876015,-2.013529 -4.085004 2.034488,-1.359195 -6.776655 1.547056,-1.435323 -5.631109 1.806764,-1.517619 -4.940895 2.010338,-1.606436 -4.307287 2.196633,-1.016609 -7.061609 1.694808,-0.9600716 -6.160181 1.922585,-0.9594207 -5.59042 2.123768,-0.9803638 -5.031341 2.277207,-8.918525 -9.129864 -1.416761,-8.387471 -8.88571 -0.9343553,-7.984256 -8.475552 -0.3219787,-7.865673 -8.281843 0.2246245,-7.97239 -8.190447 0.7996436,-8.074013 -7.765566 0.01217473,-8.001303 -7.003427 0.5767776,-7.94897 -6.376956 1.004992,-7.860941 -5.775936 1.357978,-8.505191 -7.71788 0.09198344,-8.525986 -6.862049 0.8869976,-8.498911 -6.609581 1.260653,-8.481272 -6.555748 1.497739,-8.926692 -7.768617 0.14353,-8.943484 -6.936551 0.7532705,-8.91272 -6.891113 0.8860084,-8.903987 -6.960504 0.9298218,-9.306055 -8.003626 0.213938,-9.312918 -7.281005 0.6836179,-9.228655 -7.268294 0.7521597,-9.175392 -7.384918 0.7597593,8.210,
-1.321886 -9.381889 1.135515,-1.917449 -9.062803 1.555548,-2.420467 -8.417973 1.799491,-2.735769 -7.784238 2.059372,-3.019393 -7.299841 2.334951,-2.060788 -6.714735 1.442154,-2.272541 -5.62544 1.687639,-2.394904 -4.997056 1.849137,-2.503366 -4.420719 1.974267,-1.719207 -6.532826 1.459143,-1.876047 -5.291821 1.679388,-1.977193 -4.557657 1.857711,-2.067353 -3.906961 2.003514,-1.389063 -6.600799 1.5651,-1.457239 -5.453737 1.810519,-1.546436 -4.757418 2.013913,-1.639105 -4.112726 2.197685,-1.048147 -6.87766 1.713556,-0.9862695 -5.976567 1.932737,-0.9889102 -5.405332 2.130951,-1.013504 -4.84686 2.280181,-8.785862 -8.765347 0.7277031,-8.312792 -8.582354 1.266386,-7.851193 -8.000092 1.763091,-7.686618 -7.437398 2.227796,-7.935493 -7.030725 2.757517,-8.162059 -6.366447 1.58133,-8.095339 -5.916958 2.287825,-7.994759 -5.544437 2.771293,-7.860445 -5.308355 3.107058,-8.540337 -6.208078 1.621234,-8.453769 -6.065748 2.428984,-8.31521 -6.933874 2.651273,-8.245234 -7.72494 2.662854,-8.940201 -6.353543 1.729916,-8.832683 -6.378576 2.440295,-8.665603 -7.251845 2.490694,-8.592375 -7.938381 2.367355,-9.310529 -6.711904 1.879684,-9.208878 -6.685159 2.446084,-9.016747 -7.300632 2.439671,-8.906691 -7.795726 2.310834,8.310,
-1.313959 -9.312931 1.147538,-1.923238 -8.998062 1.579686,-2.429114 -8.353731 1.831541,-2.75217 -7.714921 2.102242,-3.040401 -7.229217 2.398274,-2.076573 -6.652647 1.472406,-2.295571 -5.551124 1.712405,-2.415418 -4.917724 1.872109,-2.517938 -4.341812 1.994585,-1.731643 -6.464844 1.484389,-1.896834 -5.204994 1.688248,-2.000053 -4.467254 1.862198,-2.088062 -3.819782 2.003692,-1.39622 -6.526773 1.58294,-1.467093 -5.364 1.821359,-1.560906 -4.669838 2.028007,-1.656795 -4.023872 2.213876,-1.053219 -6.795587 1.725775,-1.003515 -5.895187 1.944031,-1.014326 -5.325784 2.139065,-1.046158 -4.769425 2.286345,-8.786368 -8.589447 -0.5572219,-8.287846 -8.435896 -0.0202719,-7.857621 -7.747089 0.46615,-7.727572 -7.162466 0.8892969,-7.907037 -6.725434 1.28777,-8.174539 -6.604629 0.4180716,-8.075009 -5.739977 0.9522409,-8.054349 -5.02001 1.417506,-8.020471 -4.358673 1.818425,-8.54859 -6.503784 0.5055919,-8.507184 -5.70963 1.259948,-8.401258 -5.963724 1.692619,-8.344349 -6.294689 1.965025,-8.937176 -6.570601 0.6111534,-8.920205 -5.87547 1.228301,-8.820171 -6.423994 1.446248,-8.786332 -6.979069 1.514943,-9.316751 -6.808136 0.7501816,-9.329242 -6.147023 1.251836,-9.223315 -6.489307 1.337469,-9.156242 -6.952951 1.353807,8.410,
