TiagoOliveira98/HandTracking/DataLogging/JointData/Logs(1637100900)_Hamilton.csv
WRIST,THUMB_CMC,THUMB_MCP,THUMB_IP,THUMB_TIP,INDEX_FINGER_MCP,INDEX_FINGER_PIP,INDEX_FINGER_DIP,INDEX_FINGER_TIP,MIDDLE_FINGER_MCP,MIDDLE_FINGER_PIP,MIDDLE_FINGER_DIP,MIDDLE_FINGER_TIP,RING_FINGER_MCP,RING_FINGER_PIP,RING_FINGER_DIP,RING_FINGER_TIP,PINKY_MCP,PINKY_PIP,PINKY_DIP,PINKY_TIP,WRIST2,THUMB_CMC2,THUMB_MCP2,THUMB_IP2,THUMB_TIP2,INDEX_FINGER_MCP2,INDEX_FINGER_PIP2,INDEX_FINGER_DIP2,INDEX_FINGER_TIP2,MIDDLE_FINGER_MCP2,MIDDLE_FINGER_PIP2,MIDDLE_FINGER_DIP2,MIDDLE_FINGER_TIP2,RING_FINGER_MCP2,RING_FINGER_PIP2,RING_FINGER_DIP2,RING_FINGER_TIP2,PINKY_MCP2,PINKY_PIP2,PINKY_DIP2,PINKY_TIP2,Timestamp,Event
10 0 0,10 7.47 0,10 7.47 0,10 7.47 0,10 7.47 0,10 7.47 0,10 7.47 0,10 7.47 0,10 7.47 0,10 7.47 0,10 7.47 0,10 7.47 0,10 7.47 0,10 7.47 0,10 7.47 0,10 7.47 0,10 7.47 0,10 7.47 0,10 7.47 0,10 7.47 0,10 7.47 0,10 0 0,10 7.47 0,10 7.47 0,10 7.47 0,10 7.47 0,10 7.47 0,10 7.47 0,10 7.47 0,10 7.47 0,10 7.47 0,10 7.47 0,10 7.47 0,10 7.47 0,10 7.47 0,10 7.47 0,10 7.47 0,10 7.47 0,10 7.47 0,10 7.47 0,10 7.47 0,10 7.47 0,0.020,Dnf
2 0 -9.217801,2 0 -9.217801,2 0 -9.217801,2 0 -9.217801,2 0 -9.217801,2 0 -9.217801,2 0 -9.217801,2 0 -9.217801,2 0 -9.217801,2 0 -9.217801,2 0 -9.217801,2 0 -9.217801,2 0 -9.217801,2 0 -9.217801,2 0 -9.217801,2 0 -9.217801,2 0 -9.217801,2 0 -9.217801,2 0 -9.217801,2 0 -9.217801,2 0 -9.217801,2 0 -9.230816,2 0 -9.230816,2 0 -9.230816,2 0 -9.230816,2 0 -9.230816,2 0 -9.230816,2 0 -9.230816,2 0 -9.230816,2 0 -9.230816,2 0 -9.230816,2 0 -9.230816,2 0 -9.230816,2 0 -9.230816,2 0 -9.230816,2 0 -9.230816,2 0 -9.230816,2 0 -9.230816,2 0 -9.230816,2 0 -9.230816,2 0 -9.230816,2 0 -9.230816,0.040,DnF
-2.628638 -5.585938 0.7224013,-3.298997 -5.398527 1.142543,-3.888363 -4.829813 1.407498,-4.349218 -4.290748 1.65054,-4.759475 -3.918304 1.960816,-3.525242 -3.085513 1.324218,-3.817711 -1.958526 1.600297,-3.962471 -1.289528 1.840764,-4.092337 -0.6867204 2.042556,-3.139364 -2.849578 1.285804,-3.331254 -1.629008 1.567787,-3.432214 -0.9153724 1.774241,-3.532381 -0.3089538 1.949403,-2.753898 -2.887714 1.270293,-2.827383 -1.708794 1.51946,-2.877374 -1.033578 1.757574,-2.951563 -0.4637175 1.956213,-2.365637 -3.15374 1.297472,-2.314654 -2.253018 1.558644,-2.3032 -1.687533 1.766883,-2.328517 -1.146706 1.94987,-10.11274 -8.229265 1.735354,-9.443023 -7.810338 2.06499,-8.911685 -6.954312 2.359966,-8.513486 -6.286623 2.680681,-8.071233 -5.921644 3.053115,-9.414817 -5.276436 2.218623,-9.277526 -4.052495 2.537868,-9.198771 -3.313346 2.792997,-9.13028 -2.659908 2.949867,-9.840442 -5.164157 2.324606,-9.776359 -3.840977 2.598944,-9.720628 -2.980213 2.883905,-9.672861 -2.254117 3.113443,-10.24562 -5.328987 2.44643,-10.23847 -4.07018 2.744454,-10.22792 -3.241774 3.021055,-10.20166 -2.523924 3.222757,-10.64345 -5.710456 2.596255,-10.80062 -4.780917 2.864738,-10.87128 -4.147979 3.059387,-10.89556 -3.518075 3.215921,0.060,DnF
-2.628638 -5.585938 0.7224013,-3.298997 -5.398527 1.142543,-3.888363 -4.829813 1.407498,-4.349218 -4.290748 1.65054,-4.759475 -3.918304 1.960816,-3.525242 -3.085513 1.324218,-3.817711 -1.958526 1.600297,-3.962471 -1.289528 1.840764,-4.092337 -0.6867204 2.042556,-3.139364 -2.849578 1.285804,-3.331254 -1.629008 1.567787,-3.432214 -0.9153724 1.774241,-3.532381 -0.3089538 1.949403,-2.753898 -2.887714 1.270293,-2.827383 -1.708794 1.51946,-2.877374 -1.033578 1.757574,-2.951563 -0.4637175 1.956213,-2.365637 -3.15374 1.297472,-2.314654 -2.253018 1.558644,-2.3032 -1.687533 1.766883,-2.328517 -1.146706 1.94987,-10.11274 -8.229265 1.735354,-9.443023 -7.810338 2.06499,-8.911685 -6.954312 2.359966,-8.513486 -6.286623 2.680681,-8.071233 -5.921644 3.053115,-9.414817 -5.276436 2.218623,-9.277526 -4.052495 2.537868,-9.198771 -3.313346 2.792997,-9.13028 -2.659908 2.949867,-9.840442 -5.164157 2.324606,-9.776359 -3.840977 2.598944,-9.720628 -2.980213 2.883905,-9.672861 -2.254117 3.113443,-10.24562 -5.328987 2.44643,-10.23847 -4.07018 2.744454,-10.22792 -3.241774 3.021055,-10.20166 -2.523924 3.222757,-10.64345 -5.710456 2.596255,-10.80062 -4.780917 2.864738,-10.87128 -4.147979 3.059387,-10.89556 -3.518075 3.215921,0.080,DnF
-2.628638 -5.585938 0.7224013,-3.298997 -5.398527 1.142543,-3.888363 -4.829813 1.407498,-4.349218 -4.290748 1.65054,-4.759475 -3.918304 1.960816,-3.525242 -3.085513 1.324218,-3.817711 -1.958526 1.600297,-3.962471 -1.289528 1.840764,-4.092337 -0.6867204 2.042556,-3.139364 -2.849578 1.285804,-3.331254 -1.629008 1.567787,-3.432214 -0.9153724 1.774241,-3.532381 -0.3089538 1.949403,-2.753898 -2.887714 1.270293,-2.827383 -1.708794 1.51946,-2.877374 -1.033578 1.757574,-2.951563 -0.4637175 1.956213,-2.365637 -3.15374 1.297472,-2.314654 -2.253018 1.558644,-2.3032 -1.687533 1.766883,-2.328517 -1.146706 1.94987,-10.11274 -8.229265 1.735354,-9.443023 -7.810338 2.06499,-8.911685 -6.954312 2.359966,-8.513486 -6.286623 2.680681,-8.071233 -5.921644 3.053115,-9.414817 -5.276436 2.218623,-9.277526 -4.052495 2.537868,-9.198771 -3.313346 2.792997,-9.13028 -2.659908 2.949867,-9.840442 -5.164157 2.324606,-9.776359 -3.840977 2.598944,-9.720628 -2.980213 2.883905,-9.672861 -2.254117 3.113443,-10.24562 -5.328987 2.44643,-10.23847 -4.07018 2.744454,-10.22792 -3.241774 3.021055,-10.20166 -2.523924 3.222757,-10.64345 -5.710456 2.596255,-10.80062 -4.780917 2.864738,-10.87128 -4.147979 3.059387,-10.89556 -3.518075 3.215921,0.100,DnF
-2.628638 -5.585938 0.7224013,-3.298997 -5.398527 1.142543,-3.888363 -4.829813 1.407498,-4.349218 -4.290748 1.65054,-4.759475 -3.918304 1.960816,-3.525242 -3.085513 1.324218,-3.817711 -1.958526 1.600297,-3.962471 -1.289528 1.840764,-4.092337 -0.6867204 2.042556,-3.139364 -2.849578 1.285804,-3.331254 -1.629008 1.567787,-3.432214 -0.9153724 1.774241,-3.532381 -0.3089538 1.949403,-2.753898 -2.887714 1.270293,-2.827383 -1.708794 1.51946,-2.877374 -1.033578 1.757574,-2.951563 -0.4637175 1.956213,-2.365637 -3.15374 1.297472,-2.314654 -2.253018 1.558644,-2.3032 -1.687533 1.766883,-2.328517 -1.146706 1.94987,-10.11274 -8.229265 1.735354,-9.443023 -7.810338 2.06499,-8.911685 -6.954312 2.359966,-8.513486 -6.286623 2.680681,-8.071233 -5.921644 3.053115,-9.414817 -5.276436 2.218623,-9.277526 -4.052495 2.537868,-9.198771 -3.313346 2.792997,-9.13028 -2.659908 2.949867,-9.840442 -5.164157 2.324606,-9.776359 -3.840977 2.598944,-9.720628 -2.980213 2.883905,-9.672861 -2.254117 3.113443,-10.24562 -5.328987 2.44643,-10.23847 -4.07018 2.744454,-10.22792 -3.241774 3.021055,-10.20166 -2.523924 3.222757,-10.64345 -5.710456 2.596255,-10.80062 -4.780917 2.864738,-10.87128 -4.147979 3.059387,-10.89556 -3.518075 3.215921,0.120,DnF
-2.444286 -5.721958 0.6340936,-3.093636 -5.594066 1.175539,-3.652521 -5.049005 1.475999,-4.080225 -4.496257 1.7299,-4.476137 -4.068357 2.018849,-3.287075 -3.267287 1.44165,-3.541315 -2.108514 1.761948,-3.629349 -1.403517 2.008326,-3.677984 -0.7338271 2.231976,-2.877005 -3.035356 1.353817,-3.013431 -1.753385 1.696182,-3.04575 -1.000408 1.923442,-3.058712 -0.2876816 2.11199,-2.482601 -3.08428 1.289884,-2.52343 -1.861803 1.580676,-2.544683 -1.156222 1.831904,-2.571098 -0.52634 2.050871,-2.098447 -3.361012 1.264656,-2.019362 -2.437469 1.573253,-1.975053 -1.857414 1.815509,-1.965357 -1.291168 2.014047,-10.07401 -8.22172 1.695176,-9.409964 -7.816047 2.047575,-8.877231 -6.997655 2.362995,-8.477761 -6.334888 2.703242,-8.030207 -5.964881 3.093836,-9.361968 -5.284219 2.205943,-9.21595 -4.031326 2.53865,-9.13541 -3.26674 2.797024,-9.070119 -2.590332 2.959039,-9.7849 -5.17439 2.307327,-9.715238 -3.826669 2.600654,-9.657201 -2.944397 2.893106,-9.612888 -2.189403 3.12694,-10.18885 -5.346679 2.431706,-10.17863 -4.081977 2.748042,-10.16579 -3.246315 3.017179,-10.13992 -2.516596 3.205087,-10.58765 -5.730073 2.582876,-10.74383 -4.771097 2.873667,-10.81504 -4.131286 3.072833,-10.84283 -3.498299 3.222152,0.140,DnF
-2.444286 -5.721958 0.6340936,-3.093636 -5.594066 1.175539,-3.652521 -5.049005 1.475999,-4.080225 -4.496257 1.7299,-4.476137 -4.068357 2.018849,-3.287075 -3.267287 1.44165,-3.541315 -2.108514 1.761948,-3.629349 -1.403517 2.008326,-3.677984 -0.7338271 2.231976,-2.877005 -3.035356 1.353817,-3.013431 -1.753385 1.696182,-3.04575 -1.000408 1.923442,-3.058712 -0.2876816 2.11199,-2.482601 -3.08428 1.289884,-2.52343 -1.861803 1.580676,-2.544683 -1.156222 1.831904,-2.571098 -0.52634 2.050871,-2.098447 -3.361012 1.264656,-2.019362 -2.437469 1.573253,-1.975053 -1.857414 1.815509,-1.965357 -1.291168 2.014047,-10.07401 -8.22172 1.695176,-9.409964 -7.816047 2.047575,-8.877231 -6.997655 2.362995,-8.477761 -6.334888 2.703242,-8.030207 -5.964881 3.093836,-9.361968 -5.284219 2.205943,-9.21595 -4.031326 2.53865,-9.13541 -3.26674 2.797024,-9.070119 -2.590332 2.959039,-9.7849 -5.17439 2.307327,-9.715238 -3.826669 2.600654,-9.657201 -2.944397 2.893106,-9.612888 -2.189403 3.12694,-10.18885 -5.346679 2.431706,-10.17863 -4.081977 2.748042,-10.16579 -3.246315 3.017179,-10.13992 -2.516596 3.205087,-10.58765 -5.730073 2.582876,-10.74383 -4.771097 2.873667,-10.81504 -4.131286 3.072833,-10.84283 -3.498299 3.222152,0.160,DnF
-2.444286 -5.721958 0.6340936,-3.093636 -5.594066 1.175539,-3.652521 -5.049005 1.475999,-4.080225 -4.496257 1.7299,-4.476137 -4.068357 2.018849,-3.287075 -3.267287 1.44165,-3.541315 -2.108514 1.761948,-3.629349 -1.403517 2.008326,-3.677984 -0.7338271 2.231976,-2.877005 -3.035356 1.353817,-3.013431 -1.753385 1.696182,-3.04575 -1.000408 1.923442,-3.058712 -0.2876816 2.11199,-2.482601 -3.08428 1.289884,-2.52343 -1.861803 1.580676,-2.544683 -1.156222 1.831904,-2.571098 -0.52634 2.050871,-2.098447 -3.361012 1.264656,-2.019362 -2.437469 1.573253,-1.975053 -1.857414 1.815509,-1.965357 -1.291168 2.014047,-10.07401 -8.22172 1.695176,-9.409964 -7.816047 2.047575,-8.877231 -6.997655 2.362995,-8.477761 -6.334888 2.703242,-8.030207 -5.964881 3.093836,-9.361968 -5.284219 2.205943,-9.21595 -4.031326 2.53865,-9.13541 -3.26674 2.797024,-9.070119 -2.590332 2.959039,-9.7849 -5.17439 2.307327,-9.715238 -3.826669 2.600654,-9.657201 -2.944397 2.893106,-9.612888 -2.189403 3.12694,-10.18885 -5.346679 2.431706,-10.17863 -4.081977 2.748042,-10.16579 -3.246315 3.017179,-10.13992 -2.516596 3.205087,-10.58765 -5.730073 2.582876,-10.74383 -4.771097 2.873667,-10.81504 -4.131286 3.072833,-10.84283 -3.498299 3.222152,0.180,DnF
-2.179005 -5.865652 0.4281662,-2.850611 -5.723262 0.9711841,-3.418467 -5.250154 1.274838,-3.845047 -4.737114 1.526668,-4.240229 -4.361913 1.810236,-3.049437 -3.492549 1.28039,-3.274811 -2.314329 1.66037,-3.327036 -1.613256 1.951324,-3.347533 -0.9407516 2.192583,-2.632514 -3.263616 1.215076,-2.748709 -1.921321 1.616619,-2.745848 -1.136839 1.877017,-2.728281 -0.3598981 2.098761,-2.229871 -3.338216 1.171492,-2.272396 -2.076965 1.523043,-2.287784 -1.338048 1.798426,-2.309359 -0.6462522 2.030198,-1.836505 -3.639009 1.165758,-1.76371 -2.701128 1.537538,-1.723678 -2.111839 1.789622,-1.714145 -1.534549 1.989387,-10.0332 -8.242765 1.657326,-9.369641 -7.849384 2.00412,-8.834816 -7.02807 2.31039,-8.434735 -6.361468 2.638915,-7.987307 -5.989191 3.010407,-9.322779 -5.32514 2.185689,-9.170675 -4.06953 2.535964,-9.091045 -3.308873 2.797016,-9.0288 -2.624768 2.959044,-9.748646 -5.209413 2.285721,-9.665243 -3.839315 2.596942,-9.601626 -2.944223 2.904515,-9.556922 -2.168621 3.148758,-10.15753 -5.388423 2.401933,-10.14335 -4.096829 2.730316,-10.12737 -3.250451 3.006636,-10.10105 -2.499614 3.201477,-10.56364 -5.781723 2.542924,-10.70774 -4.798744 2.847127,-10.76834 -4.148752 3.05311,-10.78818 -3.505447 3.206817,0.200,DnF
-2.179005 -5.865652 0.4281662,-2.850611 -5.723262 0.9711841,-3.418467 -5.250154 1.274838,-3.845047 -4.737114 1.526668,-4.240229 -4.361913 1.810236,-3.049437 -3.492549 1.28039,-3.274811 -2.314329 1.66037,-3.327036 -1.613256 1.951324,-3.347533 -0.9407516 2.192583,-2.632514 -3.263616 1.215076,-2.748709 -1.921321 1.616619,-2.745848 -1.136839 1.877017,-2.728281 -0.3598981 2.098761,-2.229871 -3.338216 1.171492,-2.272396 -2.076965 1.523043,-2.287784 -1.338048 1.798426,-2.309359 -0.6462522 2.030198,-1.836505 -3.639009 1.165758,-1.76371 -2.701128 1.537538,-1.723678 -2.111839 1.789622,-1.714145 -1.534549 1.989387,-10.0332 -8.242765 1.657326,-9.369641 -7.849384 2.00412,-8.834816 -7.02807 2.31039,-8.434735 -6.361468 2.638915,-7.987307 -5.989191 3.010407,-9.322779 -5.32514 2.185689,-9.170675 -4.06953 2.535964,-9.091045 -3.308873 2.797016,-9.0288 -2.624768 2.959044,-9.748646 -5.209413 2.285721,-9.665243 -3.839315 2.596942,-9.601626 -2.944223 2.904515,-9.556922 -2.168621 3.148758,-10.15753 -5.388423 2.401933,-10.14335 -4.096829 2.730316,-10.12737 -3.250451 3.006636,-10.10105 -2.499614 3.201477,-10.56364 -5.781723 2.542924,-10.70774 -4.798744 2.847127,-10.76834 -4.148752 3.05311,-10.78818 -3.505447 3.206817,0.220,DnF
-2.179005 -5.865652 0.4281662,-2.850611 -5.723262 0.9711841,-3.418467 -5.250154 1.274838,-3.845047 -4.737114 1.526668,-4.240229 -4.361913 1.810236,-3.049437 -3.492549 1.28039,-3.274811 -2.314329 1.66037,-3.327036 -1.613256 1.951324,-3.347533 -0.9407516 2.192583,-2.632514 -3.263616 1.215076,-2.748709 -1.921321 1.616619,-2.745848 -1.136839 1.877017,-2.728281 -0.3598981 2.098761,-2.229871 -3.338216 1.171492,-2.272396 -2.076965 1.523043,-2.287784 -1.338048 1.798426,-2.309359 -0.6462522 2.030198,-1.836505 -3.639009 1.165758,-1.76371 -2.701128 1.537538,-1.723678 -2.111839 1.789622,-1.714145 -1.534549 1.989387,-10.0332 -8.242765 1.657326,-9.369641 -7.849384 2.00412,-8.834816 -7.02807 2.31039,-8.434735 -6.361468 2.638915,-7.987307 -5.989191 3.010407,-9.322779 -5.32514 2.185689,-9.170675 -4.06953 2.535964,-9.091045 -3.308873 2.797016,-9.0288 -2.624768 2.959044,-9.748646 -5.209413 2.285721,-9.665243 -3.839315 2.596942,-9.601626 -2.944223 2.904515,-9.556922 -2.168621 3.148758,-10.15753 -5.388423 2.401933,-10.14335 -4.096829 2.730316,-10.12737 -3.250451 3.006636,-10.10105 -2.499614 3.201477,-10.56364 -5.781723 2.542924,-10.70774 -4.798744 2.847127,-10.76834 -4.148752 3.05311,-10.78818 -3.505447 3.206817,0.240,DnF
-2.052011 -6.156899 0.635259,-2.658697 -5.944543 1.28137,-3.192171 -5.459385 1.666198,-3.60483 -4.935503 1.985948,-4.020669 -4.575084 2.3531,-2.846856 -3.727064 1.587538,-3.057713 -2.548166 2.014733,-3.106303 -1.829399 2.359538,-3.12487 -1.11428 2.631231,-2.430873 -3.505523 1.50268,-2.523932 -2.152497 1.96004,-2.511181 -1.352724 2.285224,-2.494229 -0.5367408 2.54663,-2.025289 -3.582993 1.450872,-2.045949 -2.310525 1.847377,-2.043154 -1.560611 2.169791,-2.053035 -0.8302951 2.431785,-1.628488 -3.882142 1.44191,-1.528988 -2.906892 1.838817,-1.468571 -2.293444 2.104946,-1.439751 -1.686023 2.323076,-9.998675 -8.258671 1.690974,-9.346581 -7.873081 2.052096,-8.810007 -7.035551 2.357939,-8.403493 -6.376846 2.681307,-7.966875 -6.01866 3.044677,-9.303302 -5.33975 2.260119,-9.139229 -4.100185 2.644179,-9.064348 -3.338995 2.932171,-9.005721 -2.640735 3.115699,-9.729528 -5.223302 2.362818,-9.638925 -3.857687 2.706542,-9.582138 -2.958066 3.039546,-9.542357 -2.173061 3.303502,-10.14004 -5.409523 2.481241,-10.11813 -4.13128 2.83004,-10.10084 -3.283593 3.117226,-10.07305 -2.520374 3.314866,-10.54838 -5.816096 2.629187,-10.6877 -4.846815 2.951929,-10.74616 -4.203371 3.162079,-10.76816 -3.551041 3.321385,0.260,DnF
-2.052011 -6.156899 0.635259,-2.658697 -5.944543 1.28137,-3.192171 -5.459385 1.666198,-3.60483 -4.935503 1.985948,-4.020669 -4.575084 2.3531,-2.846856 -3.727064 1.587538,-3.057713 -2.548166 2.014733,-3.106303 -1.829399 2.359538,-3.12487 -1.11428 2.631231,-2.430873 -3.505523 1.50268,-2.523932 -2.152497 1.96004,-2.511181 -1.352724 2.285224,-2.494229 -0.5367408 2.54663,-2.025289 -3.582993 1.450872,-2.045949 -2.310525 1.847377,-2.043154 -1.560611 2.169791,-2.053035 -0.8302951 2.431785,-1.628488 -3.882142 1.44191,-1.528988 -2.906892 1.838817,-1.468571 -2.293444 2.104946,-1.439751 -1.686023 2.323076,-9.998675 -8.258671 1.690974,-9.346581 -7.873081 2.052096,-8.810007 -7.035551 2.357939,-8.403493 -6.376846 2.681307,-7.966875 -6.01866 3.044677,-9.303302 -5.33975 2.260119,-9.139229 -4.100185 2.644179,-9.064348 -3.338995 2.932171,-9.005721 -2.640735 3.115699,-9.729528 -5.223302 2.362818,-9.638925 -3.857687 2.706542,-9.582138 -2.958066 3.039546,-9.542357 -2.173061 3.303502,-10.14004 -5.409523 2.481241,-10.11813 -4.13128 2.83004,-10.10084 -3.283593 3.117226,-10.07305 -2.520374 3.314866,-10.54838 -5.816096 2.629187,-10.6877 -4.846815 2.951929,-10.74616 -4.203371 3.162079,-10.76816 -3.551041 3.321385,0.280,DnF
-2.052011 -6.156899 0.635259,-2.658697 -5.944543 1.28137,-3.192171 -5.459385 1.666198,-3.60483 -4.935503 1.985948,-4.020669 -4.575084 2.3531,-2.846856 -3.727064 1.587538,-3.057713 -2.548166 2.014733,-3.106303 -1.829399 2.359538,-3.12487 -1.11428 2.631231,-2.430873 -3.505523 1.50268,-2.523932 -2.152497 1.96004,-2.511181 -1.352724 2.285224,-2.494229 -0.5367408 2.54663,-2.025289 -3.582993 1.450872,-2.045949 -2.310525 1.847377,-2.043154 -1.560611 2.169791,-2.053035 -0.8302951 2.431785,-1.628488 -3.882142 1.44191,-1.528988 -2.906892 1.838817,-1.468571 -2.293444 2.104946,-1.439751 -1.686023 2.323076,-9.998675 -8.258671 1.690974,-9.346581 -7.873081 2.052096,-8.810007 -7.035551 2.357939,-8.403493 -6.376846 2.681307,-7.966875 -6.01866 3.044677,-9.303302 -5.33975 2.260119,-9.139229 -4.100185 2.644179,-9.064348 -3.338995 2.932171,-9.005721 -2.640735 3.115699,-9.729528 -5.223302 2.362818,-9.638925 -3.857687 2.706542,-9.582138 -2.958066 3.039546,-9.542357 -2.173061 3.303502,-10.14004 -5.409523 2.481241,-10.11813 -4.13128 2.83004,-10.10084 -3.283593 3.117226,-10.07305 -2.520374 3.314866,-10.54838 -5.816096 2.629187,-10.6877 -4.846815 2.951929,-10.74616 -4.203371 3.162079,-10.76816 -3.551041 3.321385,0.300,DnF
-2.052011 -6.156899 0.635259,-2.658697 -5.944543 1.28137,-3.192171 -5.459385 1.666198,-3.60483 -4.935503 1.985948,-4.020669 -4.575084 2.3531,-2.846856 -3.727064 1.587538,-3.057713 -2.548166 2.014733,-3.106303 -1.829399 2.359538,-3.12487 -1.11428 2.631231,-2.430873 -3.505523 1.50268,-2.523932 -2.152497 1.96004,-2.511181 -1.352724 2.285224,-2.494229 -0.5367408 2.54663,-2.025289 -3.582993 1.450872,-2.045949 -2.310525 1.847377,-2.043154 -1.560611 2.169791,-2.053035 -0.8302951 2.431785,-1.628488 -3.882142 1.44191,-1.528988 -2.906892 1.838817,-1.468571 -2.293444 2.104946,-1.439751 -1.686023 2.323076,-9.998675 -8.258671 1.690974,-9.346581 -7.873081 2.052096,-8.810007 -7.035551 2.357939,-8.403493 -6.376846 2.681307,-7.966875 -6.01866 3.044677,-9.303302 -5.33975 2.260119,-9.139229 -4.100185 2.644179,-9.064348 -3.338995 2.932171,-9.005721 -2.640735 3.115699,-9.729528 -5.223302 2.362818,-9.638925 -3.857687 2.706542,-9.582138 -2.958066 3.039546,-9.542357 -2.173061 3.303502,-10.14004 -5.409523 2.481241,-10.11813 -4.13128 2.83004,-10.10084 -3.283593 3.117226,-10.07305 -2.520374 3.314866,-10.54838 -5.816096 2.629187,-10.6877 -4.846815 2.951929,-10.74616 -4.203371 3.162079,-10.76816 -3.551041 3.321385,0.320,DnF
-1.888281 -6.332808 0.6687393,-2.476789 -6.23393 1.605236,-2.984202 -5.800287 2.157098,-3.359367 -5.318647 2.569401,-3.746339 -4.969962 3.01525,-2.696796 -4.039815 2.014379,-2.871939 -2.856872 2.472129,-2.910112 -2.109104 2.826262,-2.935434 -1.361266 3.119297,-2.26926 -3.781952 1.820856,-2.363197 -2.437744 2.297215,-2.372631 -1.632167 2.642801,-2.383256 -0.8269725 2.935896,-1.864661 -3.817339 1.676885,-1.88767 -2.571243 2.07375,-1.886523 -1.816228 2.439376,-1.901152 -1.047818 2.765843,-1.470372 -4.066807 1.597444,-1.364949 -3.1271 1.961115,-1.305326 -2.529449 2.230865,-1.287148 -1.904567 2.484353,-10.03285 -8.243767 1.64602,-9.366242 -7.890306 1.980896,-8.809382 -7.068147 2.280519,-8.38953 -6.403961 2.598842,-7.95235 -6.034669 2.960758,-9.295138 -5.351402 2.214733,-9.130377 -4.107834 2.583128,-9.056131 -3.351838 2.846154,-8.997604 -2.662732 3.011447,-9.722606 -5.22676 2.323239,-9.627846 -3.85861 2.655865,-9.567734 -2.952026 2.970864,-9.523286 -2.172985 3.224515,-10.13636 -5.409648 2.441758,-10.10638 -4.134159 2.783889,-10.07984 -3.28067 3.065672,-10.04208 -2.522291 3.261596,-10.54547 -5.809909 2.586218,-10.67604 -4.833548 2.912082,-10.73277 -4.183914 3.128418,-10.75133 -3.528766 3.292316,0.340,DnF
-1.888281 -6.332808 0.6687393,-2.476789 -6.23393 1.605236,-2.984202 -5.800287 2.157098,-3.359367 -5.318647 2.569401,-3.746339 -4.969962 3.01525,-2.696796 -4.039815 2.014379,-2.871939 -2.856872 2.472129,-2.910112 -2.109104 2.826262,-2.935434 -1.361266 3.119297,-2.26926 -3.781952 1.820856,-2.363197 -2.437744 2.297215,-2.372631 -1.632167 2.642801,-2.383256 -0.8269725 2.935896,-1.864661 -3.817339 1.676885,-1.88767 -2.571243 2.07375,-1.886523 -1.816228 2.439376,-1.901152 -1.047818 2.765843,-1.470372 -4.066807 1.597444,-1.364949 -3.1271 1.961115,-1.305326 -2.529449 2.230865,-1.287148 -1.904567 2.484353,-10.03285 -8.243767 1.64602,-9.366242 -7.890306 1.980896,-8.809382 -7.068147 2.280519,-8.38953 -6.403961 2.598842,-7.95235 -6.034669 2.960758,-9.295138 -5.351402 2.214733,-9.130377 -4.107834 2.583128,-9.056131 -3.351838 2.846154,-8.997604 -2.662732 3.011447,-9.722606 -5.22676 2.323239,-9.627846 -3.85861 2.655865,-9.567734 -2.952026 2.970864,-9.523286 -2.172985 3.224515,-10.13636 -5.409648 2.441758,-10.10638 -4.134159 2.783889,-10.07984 -3.28067 3.065672,-10.04208 -2.522291 3.261596,-10.54547 -5.809909 2.586218,-10.67604 -4.833548 2.912082,-10.73277 -4.183914 3.128418,-10.75133 -3.528766 3.292316,0.360,DnF
-1.888281 -6.332808 0.6687393,-2.476789 -6.23393 1.605236,-2.984202 -5.800287 2.157098,-3.359367 -5.318647 2.569401,-3.746339 -4.969962 3.01525,-2.696796 -4.039815 2.014379,-2.871939 -2.856872 2.472129,-2.910112 -2.109104 2.826262,-2.935434 -1.361266 3.119297,-2.26926 -3.781952 1.820856,-2.363197 -2.437744 2.297215,-2.372631 -1.632167 2.642801,-2.383256 -0.8269725 2.935896,-1.864661 -3.817339 1.676885,-1.88767 -2.571243 2.07375,-1.886523 -1.816228 2.439376,-1.901152 -1.047818 2.765843,-1.470372 -4.066807 1.597444,-1.364949 -3.1271 1.961115,-1.305326 -2.529449 2.230865,-1.287148 -1.904567 2.484353,-10.03285 -8.243767 1.64602,-9.366242 -7.890306 1.980896,-8.809382 -7.068147 2.280519,-8.38953 -6.403961 2.598842,-7.95235 -6.034669 2.960758,-9.295138 -5.351402 2.214733,-9.130377 -4.107834 2.583128,-9.056131 -3.351838 2.846154,-8.997604 -2.662732 3.011447,-9.722606 -5.22676 2.323239,-9.627846 -3.85861 2.655865,-9.567734 -2.952026 2.970864,-9.523286 -2.172985 3.224515,-10.13636 -5.409648 2.441758,-10.10638 -4.134159 2.783889,-10.07984 -3.28067 3.065672,-10.04208 -2.522291 3.261596,-10.54547 -5.809909 2.586218,-10.67604 -4.833548 2.912082,-10.73277 -4.183914 3.128418,-10.75133 -3.528766 3.292316,0.380,DnF
-1.761207 -6.549894 0.5027495,-2.344395 -6.473136 1.42219,-2.815698 -6.072891 1.967021,-3.153446 -5.569561 2.375193,-3.501184 -5.194252 2.810483,-2.57371 -4.296039 1.800992,-2.741774 -3.097698 2.24555,-2.773951 -2.343973 2.58199,-2.791345 -1.594228 2.865501,-2.153823 -4.027561 1.597116,-2.23806 -2.687141 2.050438,-2.241375 -1.850357 2.379406,-2.244852 -1.03707 2.674065,-1.755805 -4.054058 1.440923,-1.764539 -2.819841 1.803375,-1.760302 -2.054407 2.157775,-1.765581 -1.297975 2.470957,-1.378006 -4.29336 1.346248,-1.270311 -3.353607 1.669757,-1.213485 -2.754395 1.930295,-1.194845 -2.135108 2.178448,-10.02792 -8.236292 1.536237,-9.377842 -7.882444 1.849524,-8.828601 -7.076866 2.145231,-8.406194 -6.415799 2.462597,-7.960753 -6.056482 2.826268,-9.315189 -5.369737 2.054085,-9.147577 -4.122358 2.403049,-9.0655 -3.35462 2.65539,-8.993972 -2.663113 2.814391,-9.732816 -5.236824 2.151984,-9.638274 -3.858678 2.47037,-9.574251 -2.963018 2.77419,-9.519625 -2.183949 3.01253,-10.13612 -5.393616 2.259491,-10.11214 -4.099891 2.575946,-10.09316 -3.255502 2.839416,-10.05434 -2.494057 3.015934,-10.53654 -5.761154 2.38485,-10.66315 -4.772036 2.673419,-10.71702 -4.130546 2.872577,-10.72603 -3.485934 3.020782,0.400,DnF
-1.761207 -6.549894 0.5027495,-2.344395 -6.473136 1.42219,-2.815698 -6.072891 1.967021,-3.153446 -5.569561 2.375193,-3.501184 -5.194252 2.810483,-2.57371 -4.296039 1.800992,-2.741774 -3.097698 2.24555,-2.773951 -2.343973 2.58199,-2.791345 -1.594228 2.865501,-2.153823 -4.027561 1.597116,-2.23806 -2.687141 2.050438,-2.241375 -1.850357 2.379406,-2.244852 -1.03707 2.674065,-1.755805 -4.054058 1.440923,-1.764539 -2.819841 1.803375,-1.760302 -2.054407 2.157775,-1.765581 -1.297975 2.470957,-1.378006 -4.29336 1.346248,-1.270311 -3.353607 1.669757,-1.213485 -2.754395 1.930295,-1.194845 -2.135108 2.178448,-10.02792 -8.236292 1.536237,-9.377842 -7.882444 1.849524,-8.828601 -7.076866 2.145231,-8.406194 -6.415799 2.462597,-7.960753 -6.056482 2.826268,-9.315189 -5.369737 2.054085,-9.147577 -4.122358 2.403049,-9.0655 -3.35462 2.65539,-8.993972 -2.663113 2.814391,-9.732816 -5.236824 2.151984,-9.638274 -3.858678 2.47037,-9.574251 -2.963018 2.77419,-9.519625 -2.183949 3.01253,-10.13612 -5.393616 2.259491,-10.11214 -4.099891 2.575946,-10.09316 -3.255502 2.839416,-10.05434 -2.494057 3.015934,-10.53654 -5.761154 2.38485,-10.66315 -4.772036 2.673419,-10.71702 -4.130546 2.872577,-10.72603 -3.485934 3.020782,0.420,DnF
-1.761207 -6.549894 0.5027495,-2.344395 -6.473136 1.42219,-2.815698 -6.072891 1.967021,-3.153446 -5.569561 2.375193,-3.501184 -5.194252 2.810483,-2.57371 -4.296039 1.800992,-2.741774 -3.097698 2.24555,-2.773951 -2.343973 2.58199,-2.791345 -1.594228 2.865501,-2.153823 -4.027561 1.597116,-2.23806 -2.687141 2.050438,-2.241375 -1.850357 2.379406,-2.244852 -1.03707 2.674065,-1.755805 -4.054058 1.440923,-1.764539 -2.819841 1.803375,-1.760302 -2.054407 2.157775,-1.765581 -1.297975 2.470957,-1.378006 -4.29336 1.346248,-1.270311 -3.353607 1.669757,-1.213485 -2.754395 1.930295,-1.194845 -2.135108 2.178448,-10.02792 -8.236292 1.536237,-9.377842 -7.882444 1.849524,-8.828601 -7.076866 2.145231,-8.406194 -6.415799 2.462597,-7.960753 -6.056482 2.826268,-9.315189 -5.369737 2.054085,-9.147577 -4.122358 2.403049,-9.0655 -3.35462 2.65539,-8.993972 -2.663113 2.814391,-9.732816 -5.236824 2.151984,-9.638274 -3.858678 2.47037,-9.574251 -2.963018 2.77419,-9.519625 -2.183949 3.01253,-10.13612 -5.393616 2.259491,-10.11214 -4.099891 2.575946,-10.09316 -3.255502 2.839416,-10.05434 -2.494057 3.015934,-10.53654 -5.761154 2.38485,-10.66315 -4.772036 2.673419,-10.71702 -4.130546 2.872577,-10.72603 -3.485934 3.020782,0.440,DnF
-1.720872 -6.749397 0.1535805,-2.27434 -6.621309 0.9883898,-2.71886 -6.224535 1.491766,-3.038265 -5.794886 1.883107,-3.346588 -5.469345 2.286605,-2.493195 -4.521789 1.321244,-2.670813 -3.317068 1.753803,-2.710885 -2.584707 2.060865,-2.727375 -1.871263 2.299621,-2.076825 -4.292077 1.155933,-2.139441 -2.931918 1.603253,-2.12944 -2.102287 1.941422,-2.112632 -1.311939 2.235436,-1.686263 -4.343655 1.039232,-1.679999 -3.107739 1.399105,-1.66184 -2.340726 1.755938,-1.648976 -1.592992 2.063341,-1.320331 -4.600799 0.9721028,-1.202616 -3.656507 1.278461,-1.131485 -3.052669 1.560387,-1.088001 -2.428272 1.81123,-10.02479 -8.244316 1.602999,-9.365525 -7.902925 1.963697,-8.815805 -7.098286 2.278759,-8.395542 -6.434158 2.604567,-7.95055 -6.062942 2.966034,-9.285652 -5.384604 2.181906,-9.115225 -4.15946 2.556158,-9.033165 -3.404444 2.824039,-8.965356 -2.710669 2.989748,-9.713083 -5.237576 2.268734,-9.609805 -3.872036 2.603525,-9.544973 -2.9768 2.915332,-9.493035 -2.198074 3.167734,-10.12585 -5.396236 2.366728,-10.08879 -4.104385 2.707065,-10.06176 -3.257373 2.980845,-10.02061 -2.494055 3.1686,-10.53807 -5.772712 2.49052,-10.65941 -4.786864 2.798005,-10.71146 -4.134418 2.999065,-10.72605 -3.473403 3.154347,0.460,Object Dropped
-1.720872 -6.749397 0.1535805,-2.27434 -6.621309 0.9883898,-2.71886 -6.224535 1.491766,-3.038265 -5.794886 1.883107,-3.346588 -5.469345 2.286605,-2.493195 -4.521789 1.321244,-2.670813 -3.317068 1.753803,-2.710885 -2.584707 2.060865,-2.727375 -1.871263 2.299621,-2.076825 -4.292077 1.155933,-2.139441 -2.931918 1.603253,-2.12944 -2.102287 1.941422,-2.112632 -1.311939 2.235436,-1.686263 -4.343655 1.039232,-1.679999 -3.107739 1.399105,-1.66184 -2.340726 1.755938,-1.648976 -1.592992 2.063341,-1.320331 -4.600799 0.9721028,-1.202616 -3.656507 1.278461,-1.131485 -3.052669 1.560387,-1.088001 -2.428272 1.81123,-10.02479 -8.244316 1.602999,-9.365525 -7.902925 1.963697,-8.815805 -7.098286 2.278759,-8.395542 -6.434158 2.604567,-7.95055 -6.062942 2.966034,-9.285652 -5.384604 2.181906,-9.115225 -4.15946 2.556158,-9.033165 -3.404444 2.824039,-8.965356 -2.710669 2.989748,-9.713083 -5.237576 2.268734,-9.609805 -3.872036 2.603525,-9.544973 -2.9768 2.915332,-9.493035 -2.198074 3.167734,-10.12585 -5.396236 2.366728,-10.08879 -4.104385 2.707065,-10.06176 -3.257373 2.980845,-10.02061 -2.494055 3.1686,-10.53807 -5.772712 2.49052,-10.65941 -4.786864 2.798005,-10.71146 -4.134418 2.999065,-10.72605 -3.473403 3.154347,0.480,DnF
-1.720872 -6.749397 0.1535805,-2.27434 -6.621309 0.9883898,-2.71886 -6.224535 1.491766,-3.038265 -5.794886 1.883107,-3.346588 -5.469345 2.286605,-2.493195 -4.521789 1.321244,-2.670813 -3.317068 1.753803,-2.710885 -2.584707 2.060865,-2.727375 -1.871263 2.299621,-2.076825 -4.292077 1.155933,-2.139441 -2.931918 1.603253,-2.12944 -2.102287 1.941422,-2.112632 -1.311939 2.235436,-1.686263 -4.343655 1.039232,-1.679999 -3.107739 1.399105,-1.66184 -2.340726 1.755938,-1.648976 -1.592992 2.063341,-1.320331 -4.600799 0.9721028,-1.202616 -3.656507 1.278461,-1.131485 -3.052669 1.560387,-1.088001 -2.428272 1.81123,-10.02479 -8.244316 1.602999,-9.365525 -7.902925 1.963697,-8.815805 -7.098286 2.278759,-8.395542 -6.434158 2.604567,-7.95055 -6.062942 2.966034,-9.285652 -5.384604 2.181906,-9.115225 -4.15946 2.556158,-9.033165 -3.404444 2.824039,-8.965356 -2.710669 2.989748,-9.713083 -5.237576 2.268734,-9.609805 -3.872036 2.603525,-9.544973 -2.9768 2.915332,-9.493035 -2.198074 3.167734,-10.12585 -5.396236 2.366728,-10.08879 -4.104385 2.707065,-10.06176 -3.257373 2.980845,-10.02061 -2.494055 3.1686,-10.53807 -5.772712 2.49052,-10.65941 -4.786864 2.798005,-10.71146 -4.134418 2.999065,-10.72605 -3.473403 3.154347,0.500,DnF
-1.720872 -6.749397 0.1535805,-2.27434 -6.621309 0.9883898,-2.71886 -6.224535 1.491766,-3.038265 -5.794886 1.883107,-3.346588 -5.469345 2.286605,-2.493195 -4.521789 1.321244,-2.670813 -3.317068 1.753803,-2.710885 -2.584707 2.060865,-2.727375 -1.871263 2.299621,-2.076825 -4.292077 1.155933,-2.139441 -2.931918 1.603253,-2.12944 -2.102287 1.941422,-2.112632 -1.311939 2.235436,-1.686263 -4.343655 1.039232,-1.679999 -3.107739 1.399105,-1.66184 -2.340726 1.755938,-1.648976 -1.592992 2.063341,-1.320331 -4.600799 0.9721028,-1.202616 -3.656507 1.278461,-1.131485 -3.052669 1.560387,-1.088001 -2.428272 1.81123,-10.01964 -8.21785 1.581358,-9.360983 -7.895534 1.926613,-8.802414 -7.089818 2.228576,-8.379008 -6.433549 2.550756,-7.943226 -6.068779 2.91113,-9.276128 -5.360137 2.124651,-9.098669 -4.118545 2.473552,-9.015139 -3.365044 2.731776,-8.946367 -2.680043 2.893684,-9.697273 -5.212985 2.221272,-9.589653 -3.829632 2.538735,-9.519977 -2.923706 2.842359,-9.46662 -2.14422 3.08799,-10.10727 -5.368883 2.330404,-10.06522 -4.058939 2.661238,-10.03288 -3.193326 2.93857,-9.988938 -2.423395 3.133548,-10.51956 -5.744638 2.465451,-10.6383 -4.751231 2.767632,-10.68888 -4.099896 2.972523,-10.70168 -3.443426 3.126882,0.520,DnF
-1.720872 -6.749397 0.1535805,-2.27434 -6.621309 0.9883898,-2.71886 -6.224535 1.491766,-3.038265 -5.794886 1.883107,-3.346588 -5.469345 2.286605,-2.493195 -4.521789 1.321244,-2.670813 -3.317068 1.753803,-2.710885 -2.584707 2.060865,-2.727375 -1.871263 2.299621,-2.076825 -4.292077 1.155933,-2.139441 -2.931918 1.603253,-2.12944 -2.102287 1.941422,-2.112632 -1.311939 2.235436,-1.686263 -4.343655 1.039232,-1.679999 -3.107739 1.399105,-1.66184 -2.340726 1.755938,-1.648976 -1.592992 2.063341,-1.320331 -4.600799 0.9721028,-1.202616 -3.656507 1.278461,-1.131485 -3.052669 1.560387,-1.088001 -2.428272 1.81123,-10.01964 -8.21785 1.581358,-9.360983 -7.895534 1.926613,-8.802414 -7.089818 2.228576,-8.379008 -6.433549 2.550756,-7.943226 -6.068779 2.91113,-9.276128 -5.360137 2.124651,-9.098669 -4.118545 2.473552,-9.015139 -3.365044 2.731776,-8.946367 -2.680043 2.893684,-9.697273 -5.212985 2.221272,-9.589653 -3.829632 2.538735,-9.519977 -2.923706 2.842359,-9.46662 -2.14422 3.08799,-10.10727 -5.368883 2.330404,-10.06522 -4.058939 2.661238,-10.03288 -3.193326 2.93857,-9.988938 -2.423395 3.133548,-10.51956 -5.744638 2.465451,-10.6383 -4.751231 2.767632,-10.68888 -4.099896 2.972523,-10.70168 -3.443426 3.126882,0.540,DnF
-1.720872 -6.749397 0.1535805,-2.27434 -6.621309 0.9883898,-2.71886 -6.224535 1.491766,-3.038265 -5.794886 1.883107,-3.346588 -5.469345 2.286605,-2.493195 -4.521789 1.321244,-2.670813 -3.317068 1.753803,-2.710885 -2.584707 2.060865,-2.727375 -1.871263 2.299621,-2.076825 -4.292077 1.155933,-2.139441 -2.931918 1.603253,-2.12944 -2.102287 1.941422,-2.112632 -1.311939 2.235436,-1.686263 -4.343655 1.039232,-1.679999 -3.107739 1.399105,-1.66184 -2.340726 1.755938,-1.648976 -1.592992 2.063341,-1.320331 -4.600799 0.9721028,-1.202616 -3.656507 1.278461,-1.131485 -3.052669 1.560387,-1.088001 -2.428272 1.81123,-10.01964 -8.21785 1.581358,-9.360983 -7.895534 1.926613,-8.802414 -7.089818 2.228576,-8.379008 -6.433549 2.550756,-7.943226 -6.068779 2.91113,-9.276128 -5.360137 2.124651,-9.098669 -4.118545 2.473552,-9.015139 -3.365044 2.731776,-8.946367 -2.680043 2.893684,-9.697273 -5.212985 2.221272,-9.589653 -3.829632 2.538735,-9.519977 -2.923706 2.842359,-9.46662 -2.14422 3.08799,-10.10727 -5.368883 2.330404,-10.06522 -4.058939 2.661238,-10.03288 -3.193326 2.93857,-9.988938 -2.423395 3.133548,-10.51956 -5.744638 2.465451,-10.6383 -4.751231 2.767632,-10.68888 -4.099896 2.972523,-10.70168 -3.443426 3.126882,0.560,DnF
-1.865579 -7.839014 1.843368,-2.53272 -7.383126 2.653799,-3.022703 -6.703519 3.050194,-3.40736 -6.128679 3.289409,-3.681766 -5.615621 3.497055,-2.578463 -5.047903 2.993121,-2.648918 -3.761344 3.312124,-2.650707 -2.945324 3.554695,-2.655221 -2.211019 3.76851,-2.26759 -4.822407 2.695616,-2.232788 -3.620206 3.044846,-2.172479 -2.790657 3.381222,-2.092894 -2.027329 3.702491,-2.00792 -4.839551 2.426992,-1.993362 -3.749385 2.711484,-1.966368 -2.973305 2.989154,-1.929298 -2.287535 3.217202,-1.803388 -4.997575 2.181058,-1.824047 -4.187438 2.414515,-1.780274 -3.615507 2.524135,-1.717069 -3.006239 2.61731,-9.996896 -8.185883 1.602195,-9.33364 -7.853612 1.952271,-8.776678 -7.062907 2.258376,-8.353407 -6.416021 2.584187,-7.916307 -6.05438 2.950695,-9.247085 -5.333107 2.146287,-9.081144 -4.09655 2.4958,-9.001328 -3.342025 2.75285,-8.934745 -2.652199 2.91385,-9.664961 -5.175018 2.237813,-9.562047 -3.803224 2.551415,-9.491949 -2.908121 2.851374,-9.437121 -2.124274 3.092074,-10.07188 -5.32303 2.341277,-10.03527 -4.028318 2.667484,-10.00265 -3.179262 2.939355,-9.956042 -2.415847 3.127958,-10.4814 -5.691287 2.470687,-10.61027 -4.714088 2.775141,-10.66362 -4.06383 2.97888,-10.67576 -3.406227 3.129483,0.580,DnF
-1.865579 -7.839014 1.843368,-2.53272 -7.383126 2.653799,-3.022703 -6.703519 3.050194,-3.40736 -6.128679 3.289409,-3.681766 -5.615621 3.497055,-2.578463 -5.047903 2.993121,-2.648918 -3.761344 3.312124,-2.650707 -2.945324 3.554695,-2.655221 -2.211019 3.76851,-2.26759 -4.822407 2.695616,-2.232788 -3.620206 3.044846,-2.172479 -2.790657 3.381222,-2.092894 -2.027329 3.702491,-2.00792 -4.839551 2.426992,-1.993362 -3.749385 2.711484,-1.966368 -2.973305 2.989154,-1.929298 -2.287535 3.217202,-1.803388 -4.997575 2.181058,-1.824047 -4.187438 2.414515,-1.780274 -3.615507 2.524135,-1.717069 -3.006239 2.61731,-9.996896 -8.185883 1.602195,-9.33364 -7.853612 1.952271,-8.776678 -7.062907 2.258376,-8.353407 -6.416021 2.584187,-7.916307 -6.05438 2.950695,-9.247085 -5.333107 2.146287,-9.081144 -4.09655 2.4958,-9.001328 -3.342025 2.75285,-8.934745 -2.652199 2.91385,-9.664961 -5.175018 2.237813,-9.562047 -3.803224 2.551415,-9.491949 -2.908121 2.851374,-9.437121 -2.124274 3.092074,-10.07188 -5.32303 2.341277,-10.03527 -4.028318 2.667484,-10.00265 -3.179262 2.939355,-9.956042 -2.415847 3.127958,-10.4814 -5.691287 2.470687,-10.61027 -4.714088 2.775141,-10.66362 -4.06383 2.97888,-10.67576 -3.406227 3.129483,0.600,Object Dropped
-1.865579 -7.839014 1.843368,-2.53272 -7.383126 2.653799,-3.022703 -6.703519 3.050194,-3.40736 -6.128679 3.289409,-3.681766 -5.615621 3.497055,-2.578463 -5.047903 2.993121,-2.648918 -3.761344 3.312124,-2.650707 -2.945324 3.554695,-2.655221 -2.211019 3.76851,-2.26759 -4.822407 2.695616,-2.232788 -3.620206 3.044846,-2.172479 -2.790657 3.381222,-2.092894 -2.027329 3.702491,-2.00792 -4.839551 2.426992,-1.993362 -3.749385 2.711484,-1.966368 -2.973305 2.989154,-1.929298 -2.287535 3.217202,-1.803388 -4.997575 2.181058,-1.824047 -4.187438 2.414515,-1.780274 -3.615507 2.524135,-1.717069 -3.006239 2.61731,-9.996896 -8.185883 1.602195,-9.33364 -7.853612 1.952271,-8.776678 -7.062907 2.258376,-8.353407 -6.416021 2.584187,-7.916307 -6.05438 2.950695,-9.247085 -5.333107 2.146287,-9.081144 -4.09655 2.4958,-9.001328 -3.342025 2.75285,-8.934745 -2.652199 2.91385,-9.664961 -5.175018 2.237813,-9.562047 -3.803224 2.551415,-9.491949 -2.908121 2.851374,-9.437121 -2.124274 3.092074,-10.07188 -5.32303 2.341277,-10.03527 -4.028318 2.667484,-10.00265 -3.179262 2.939355,-9.956042 -2.415847 3.127958,-10.4814 -5.691287 2.470687,-10.61027 -4.714088 2.775141,-10.66362 -4.06383 2.97888,-10.67576 -3.406227 3.129483,0.620,DnF
-1.649966 -7.56292 1.433271,-2.293657 -7.214153 1.921357,-2.845593 -6.538076 2.208997,-3.249172 -6.010787 2.443883,-3.597549 -5.619895 2.703617,-2.358672 -4.7734 2.125999,-2.531285 -3.666177 2.371521,-2.589633 -2.870624 2.616934,-2.621124 -2.143911 2.848599,-1.96959 -4.61005 2.095648,-1.995986 -3.34627 2.422694,-1.952548 -2.489198 2.710021,-1.886575 -1.721847 3.000312,-1.616152 -4.701107 2.082363,-1.548828 -3.56025 2.372907,-1.484895 -2.763195 2.630048,-1.443632 -2.018208 2.8899,-1.28851 -4.982021 2.086379,-1.23012 -4.09324 2.372351,-1.16457 -3.460104 2.51273,-1.091312 -2.776778 2.655608,-9.996896 -8.185883 1.602195,-9.33364 -7.853612 1.952271,-8.776678 -7.062907 2.258376,-8.353407 -6.416021 2.584187,-7.916307 -6.05438 2.950695,-9.247085 -5.333107 2.146287,-9.081144 -4.09655 2.4958,-9.001328 -3.342025 2.75285,-8.934745 -2.652199 2.91385,-9.664961 -5.175018 2.237813,-9.562047 -3.803224 2.551415,-9.491949 -2.908121 2.851374,-9.437121 -2.124274 3.092074,-10.07188 -5.32303 2.341277,-10.03527 -4.028318 2.667484,-10.00265 -3.179262 2.939355,-9.956042 -2.415847 3.127958,-10.4814 -5.691287 2.470687,-10.61027 -4.714088 2.775141,-10.66362 -4.06383 2.97888,-10.67576 -3.406227 3.129483,0.640,DnF
-1.649966 -7.56292 1.433271,-2.293657 -7.214153 1.921357,-2.845593 -6.538076 2.208997,-3.249172 -6.010787 2.443883,-3.597549 -5.619895 2.703617,-2.358672 -4.7734 2.125999,-2.531285 -3.666177 2.371521,-2.589633 -2.870624 2.616934,-2.621124 -2.143911 2.848599,-1.96959 -4.61005 2.095648,-1.995986 -3.34627 2.422694,-1.952548 -2.489198 2.710021,-1.886575 -1.721847 3.000312,-1.616152 -4.701107 2.082363,-1.548828 -3.56025 2.372907,-1.484895 -2.763195 2.630048,-1.443632 -2.018208 2.8899,-1.28851 -4.982021 2.086379,-1.23012 -4.09324 2.372351,-1.16457 -3.460104 2.51273,-1.091312 -2.776778 2.655608,-9.973145 -8.13415 1.571038,-9.310248 -7.816181 1.944227,-8.748927 -7.042413 2.258487,-8.321631 -6.406436 2.58787,-7.886771 -6.046936 2.958619,-9.213281 -5.305184 2.166444,-9.043158 -4.065141 2.528028,-8.964985 -3.32096 2.791835,-8.903942 -2.63786 2.959477,-9.630903 -5.144664 2.256911,-9.518368 -3.764049 2.583281,-9.444815 -2.86146 2.894307,-9.394907 -2.079504 3.14816,-10.04203 -5.294961 2.360428,-9.990793 -3.99337 2.700635,-9.95062 -3.135831 2.978491,-9.905951 -2.37236 3.17529,-10.46001 -5.670295 2.494811,-10.57971 -4.684099 2.820004,-10.63149 -4.029985 3.032199,-10.6478 -3.370354 3.189234,0.660,DnF
-1.649966 -7.56292 1.433271,-2.293657 -7.214153 1.921357,-2.845593 -6.538076 2.208997,-3.249172 -6.010787 2.443883,-3.597549 -5.619895 2.703617,-2.358672 -4.7734 2.125999,-2.531285 -3.666177 2.371521,-2.589633 -2.870624 2.616934,-2.621124 -2.143911 2.848599,-1.96959 -4.61005 2.095648,-1.995986 -3.34627 2.422694,-1.952548 -2.489198 2.710021,-1.886575 -1.721847 3.000312,-1.616152 -4.701107 2.082363,-1.548828 -3.56025 2.372907,-1.484895 -2.763195 2.630048,-1.443632 -2.018208 2.8899,-1.28851 -4.982021 2.086379,-1.23012 -4.09324 2.372351,-1.16457 -3.460104 2.51273,-1.091312 -2.776778 2.655608,-9.973145 -8.13415 1.571038,-9.310248 -7.816181 1.944227,-8.748927 -7.042413 2.258487,-8.321631 -6.406436 2.58787,-7.886771 -6.046936 2.958619,-9.213281 -5.305184 2.166444,-9.043158 -4.065141 2.528028,-8.964985 -3.32096 2.791835,-8.903942 -2.63786 2.959477,-9.630903 -5.144664 2.256911,-9.518368 -3.764049 2.583281,-9.444815 -2.86146 2.894307,-9.394907 -2.079504 3.14816,-10.04203 -5.294961 2.360428,-9.990793 -3.99337 2.700635,-9.95062 -3.135831 2.978491,-9.905951 -2.37236 3.17529,-10.46001 -5.670295 2.494811,-10.57971 -4.684099 2.820004,-10.63149 -4.029985 3.032199,-10.6478 -3.370354 3.189234,0.680,Object Dropped
-1.525044 -7.400999 0.941931,-2.173744 -7.070512 1.472638,-2.679358 -6.471101 1.779475,-3.031929 -5.860592 2.029655,-3.359085 -5.437288 2.32311,-2.358672 -4.7734 1.63495,-2.531285 -3.666177 1.880471,-2.589633 -2.870624 2.125884,-2.621124 -2.143911 2.35755,-1.96959 -4.61005 1.604599,-1.995986 -3.34627 1.931645,-1.952548 -2.489198 2.218971,-1.886575 -1.721847 2.509263,-1.616152 -4.701107 1.591313,-1.548828 -3.56025 1.881858,-1.484895 -2.763195 2.138999,-1.443632 -2.018208 2.39885,-1.28851 -4.982021 1.595329,-1.23012 -4.09324 1.881301,-1.16457 -3.460104 2.02168,-1.091312 -2.776778 2.164558,-9.973145 -8.13415 1.571038,-9.310248 -7.816181 1.944227,-8.748927 -7.042413 2.258487,-8.321631 -6.406436 2.58787,-7.886771 -6.046936 2.958619,-9.213281 -5.305184 2.166444,-9.043158 -4.065141 2.528028,-8.964985 -3.32096 2.791835,-8.903942 -2.63786 2.959477,-9.630903 -5.144664 2.256911,-9.518368 -3.764049 2.583281,-9.444815 -2.86146 2.894307,-9.394907 -2.079504 3.14816,-10.04203 -5.294961 2.360428,-9.990793 -3.99337 2.700635,-9.95062 -3.135831 2.978491,-9.905951 -2.37236 3.17529,-10.46001 -5.670295 2.494811,-10.57971 -4.684099 2.820004,-10.63149 -4.029985 3.032199,-10.6478 -3.370354 3.189234,0.700,DnF
-1.525044 -7.400999 1.013709,-2.173744 -7.070512 1.544416,-2.679358 -6.471101 1.851253,-3.031929 -5.860592 2.101433,-3.359085 -5.437288 2.394888,-2.27105 -4.7679 1.751005,-2.458999 -3.559198 2.033169,-2.511014 -2.825653 2.234057,-2.534274 -2.116966 2.39492,-1.864139 -4.572497 1.669621,-1.919301 -3.213402 1.986026,-1.899486 -2.37225 2.214544,-1.860706 -1.588314 2.41572,-1.482368 -4.62465 1.625232,-1.455462 -3.387397 1.892405,-1.444488 -2.592767 2.12099,-1.435641 -1.871331 2.334588,-1.108058 -4.875714 1.612577,-1.003506 -3.90899 1.884632,-0.9456873 -3.284402 2.100543,-0.9131899 -2.659101 2.278183,-9.951373 -8.098339 1.56883,-9.287884 -7.798765 1.897847,-8.730097 -7.015935 2.194473,-8.307207 -6.382952 2.512995,-7.862768 -6.042913 2.87968,-9.185889 -5.261026 2.117032,-9.01922 -4.030625 2.469428,-8.938734 -3.287575 2.720703,-8.873179 -2.612385 2.882853,-9.602966 -5.103499 2.224744,-9.486215 -3.739728 2.542655,-9.40668 -2.839392 2.846246,-9.349656 -2.053628 3.085474,-10.0139 -5.257627 2.343837,-9.959955 -3.960577 2.674554,-9.915741 -3.107203 2.949203,-9.866548 -2.338039 3.142606,-10.42789 -5.639573 2.488553,-10.54301 -4.639625 2.806793,-10.5894 -3.976463 3.022231,-10.59833 -3.305995 3.179786,0.720,DnF
-1.525044 -7.400999 1.013709,-2.173744 -7.070512 1.544416,-2.679358 -6.471101 1.851253,-3.031929 -5.860592 2.101433,-3.359085 -5.437288 2.394888,-2.27105 -4.7679 1.751005,-2.458999 -3.559198 2.033169,-2.511014 -2.825653 2.234057,-2.534274 -2.116966 2.39492,-1.864139 -4.572497 1.669621,-1.919301 -3.213402 1.986026,-1.899486 -2.37225 2.214544,-1.860706 -1.588314 2.41572,-1.482368 -4.62465 1.625232,-1.455462 -3.387397 1.892405,-1.444488 -2.592767 2.12099,-1.435641 -1.871331 2.334588,-1.108058 -4.875714 1.612577,-1.003506 -3.90899 1.884632,-0.9456873 -3.284402 2.100543,-0.9131899 -2.659101 2.278183,-9.951373 -8.098339 1.56883,-9.287884 -7.798765 1.897847,-8.730097 -7.015935 2.194473,-8.307207 -6.382952 2.512995,-7.862768 -6.042913 2.87968,-9.185889 -5.261026 2.117032,-9.01922 -4.030625 2.469428,-8.938734 -3.287575 2.720703,-8.873179 -2.612385 2.882853,-9.602966 -5.103499 2.224744,-9.486215 -3.739728 2.542655,-9.40668 -2.839392 2.846246,-9.349656 -2.053628 3.085474,-10.0139 -5.257627 2.343837,-9.959955 -3.960577 2.674554,-9.915741 -3.107203 2.949203,-9.866548 -2.338039 3.142606,-10.42789 -5.639573 2.488553,-10.54301 -4.639625 2.806793,-10.5894 -3.976463 3.022231,-10.59833 -3.305995 3.179786,0.740,DnF
-1.525044 -7.400999 1.013709,-2.173744 -7.070512 1.544416,-2.679358 -6.471101 1.851253,-3.031929 -5.860592 2.101433,-3.359085 -5.437288 2.394888,-2.27105 -4.7679 1.751005,-2.458999 -3.559198 2.033169,-2.511014 -2.825653 2.234057,-2.534274 -2.116966 2.39492,-1.864139 -4.572497 1.669621,-1.919301 -3.213402 1.986026,-1.899486 -2.37225 2.214544,-1.860706 -1.588314 2.41572,-1.482368 -4.62465 1.625232,-1.455462 -3.387397 1.892405,-1.444488 -2.592767 2.12099,-1.435641 -1.871331 2.334588,-1.108058 -4.875714 1.612577,-1.003506 -3.90899 1.884632,-0.9456873 -3.284402 2.100543,-0.9131899 -2.659101 2.278183,-9.951373 -8.098339 1.56883,-9.287884 -7.798765 1.897847,-8.730097 -7.015935 2.194473,-8.307207 -6.382952 2.512995,-7.862768 -6.042913 2.87968,-9.185889 -5.261026 2.117032,-9.01922 -4.030625 2.469428,-8.938734 -3.287575 2.720703,-8.873179 -2.612385 2.882853,-9.602966 -5.103499 2.224744,-9.486215 -3.739728 2.542655,-9.40668 -2.839392 2.846246,-9.349656 -2.053628 3.085474,-10.0139 -5.257627 2.343837,-9.959955 -3.960577 2.674554,-9.915741 -3.107203 2.949203,-9.866548 -2.338039 3.142606,-10.42789 -5.639573 2.488553,-10.54301 -4.639625 2.806793,-10.5894 -3.976463 3.022231,-10.59833 -3.305995 3.179786,0.760,DnF
-1.528682 -7.422468 0.977102,-2.136746 -7.127456 1.583683,-2.589299 -6.573625 1.956882,-2.882264 -6.003962 2.240794,-3.161226 -5.601776 2.544429,-2.200351 -4.836093 1.866401,-2.367992 -3.605722 2.198119,-2.421239 -2.870097 2.4564,-2.447774 -2.157743 2.669876,-1.798077 -4.620061 1.724196,-1.854084 -3.233106 2.101128,-1.850136 -2.373914 2.385464,-1.81248 -1.586342 2.642202,-1.427236 -4.660423 1.624659,-1.397036 -3.391469 1.904792,-1.379963 -2.598272 2.191799,-1.358816 -1.869464 2.448709,-1.071127 -4.906003 1.548731,-0.9531479 -3.914577 1.785531,-0.8950853 -3.313923 2.011346,-0.8624673 -2.714254 2.21827,-9.926568 -8.068783 1.523364,-9.263037 -7.773606 1.859101,-8.699688 -6.996147 2.152278,-8.272789 -6.358846 2.467655,-7.832631 -6.014951 2.821528,-9.167874 -5.246418 2.060991,-9.00027 -4.003576 2.389625,-8.916329 -3.256022 2.629342,-8.848009 -2.578767 2.784866,-9.578939 -5.081599 2.153018,-9.458195 -3.708848 2.453464,-9.376493 -2.806201 2.747294,-9.317397 -2.01972 2.984434,-9.982821 -5.225736 2.257535,-9.926798 -3.924234 2.564452,-9.882867 -3.067419 2.817835,-9.832827 -2.301242 2.999107,-10.39022 -5.595978 2.388994,-10.50501 -4.59147 2.683844,-10.5534 -3.932202 2.883186,-10.56522 -3.271278 3.026522,0.780,DnF
-1.528682 -7.422468 0.977102,-2.136746 -7.127456 1.583683,-2.589299 -6.573625 1.956882,-2.882264 -6.003962 2.240794,-3.161226 -5.601776 2.544429,-2.200351 -4.836093 1.866401,-2.367992 -3.605722 2.198119,-2.421239 -2.870097 2.4564,-2.447774 -2.157743 2.669876,-1.798077 -4.620061 1.724196,-1.854084 -3.233106 2.101128,-1.850136 -2.373914 2.385464,-1.81248 -1.586342 2.642202,-1.427236 -4.660423 1.624659,-1.397036 -3.391469 1.904792,-1.379963 -2.598272 2.191799,-1.358816 -1.869464 2.448709,-1.071127 -4.906003 1.548731,-0.9531479 -3.914577 1.785531,-0.8950853 -3.313923 2.011346,-0.8624673 -2.714254 2.21827,-9.926568 -8.068783 1.523364,-9.263037 -7.773606 1.859101,-8.699688 -6.996147 2.152278,-8.272789 -6.358846 2.467655,-7.832631 -6.014951 2.821528,-9.167874 -5.246418 2.060991,-9.00027 -4.003576 2.389625,-8.916329 -3.256022 2.629342,-8.848009 -2.578767 2.784866,-9.578939 -5.081599 2.153018,-9.458195 -3.708848 2.453464,-9.376493 -2.806201 2.747294,-9.317397 -2.01972 2.984434,-9.982821 -5.225736 2.257535,-9.926798 -3.924234 2.564452,-9.882867 -3.067419 2.817835,-9.832827 -2.301242 2.999107,-10.39022 -5.595978 2.388994,-10.50501 -4.59147 2.683844,-10.5534 -3.932202 2.883186,-10.56522 -3.271278 3.026522,0.800,DnF
-1.528682 -7.422468 0.977102,-2.136746 -7.127456 1.583683,-2.589299 -6.573625 1.956882,-2.882264 -6.003962 2.240794,-3.161226 -5.601776 2.544429,-2.200351 -4.836093 1.866401,-2.367992 -3.605722 2.198119,-2.421239 -2.870097 2.4564,-2.447774 -2.157743 2.669876,-1.798077 -4.620061 1.724196,-1.854084 -3.233106 2.101128,-1.850136 -2.373914 2.385464,-1.81248 -1.586342 2.642202,-1.427236 -4.660423 1.624659,-1.397036 -3.391469 1.904792,-1.379963 -2.598272 2.191799,-1.358816 -1.869464 2.448709,-1.071127 -4.906003 1.548731,-0.9531479 -3.914577 1.785531,-0.8950853 -3.313923 2.011346,-0.8624673 -2.714254 2.21827,-9.926568 -8.068783 1.523364,-9.263037 -7.773606 1.859101,-8.699688 -6.996147 2.152278,-8.272789 -6.358846 2.467655,-7.832631 -6.014951 2.821528,-9.167874 -5.246418 2.060991,-9.00027 -4.003576 2.389625,-8.916329 -3.256022 2.629342,-8.848009 -2.578767 2.784866,-9.578939 -5.081599 2.153018,-9.458195 -3.708848 2.453464,-9.376493 -2.806201 2.747294,-9.317397 -2.01972 2.984434,-9.982821 -5.225736 2.257535,-9.926798 -3.924234 2.564452,-9.882867 -3.067419 2.817835,-9.832827 -2.301242 2.999107,-10.39022 -5.595978 2.388994,-10.50501 -4.59147 2.683844,-10.5534 -3.932202 2.883186,-10.56522 -3.271278 3.026522,0.820,DnF
-1.486066 -7.40475 0.8400558,-2.074059 -7.084775 1.406829,-2.519557 -6.512434 1.757643,-2.82331 -5.940668 2.047441,-3.108768 -5.526161 2.371232,-2.159865 -4.788949 1.584596,-2.342944 -3.543979 1.883992,-2.394256 -2.809749 2.10489,-2.409604 -2.095848 2.287444,-1.773665 -4.615158 1.466659,-1.805104 -3.228455 1.801821,-1.784431 -2.405647 2.06556,-1.735788 -1.649969 2.299963,-1.412167 -4.673424 1.4107,-1.362191 -3.422997 1.649257,-1.337358 -2.654211 1.929278,-1.306322 -1.945581 2.171832,-1.063743 -4.924711 1.373967,-0.9222207 -3.939994 1.578446,-0.8484693 -3.365302 1.789894,-0.8008156 -2.791177 1.981418,-9.918834 -8.043127 1.525804,-9.252896 -7.752851 1.856772,-8.684977 -6.978986 2.159091,-8.248251 -6.343776 2.483912,-7.81101 -5.997087 2.848646,-9.14226 -5.224998 2.092657,-8.978783 -3.983414 2.44436,-8.893873 -3.232493 2.696926,-8.823949 -2.552042 2.862543,-9.549815 -5.067067 2.197968,-9.426423 -3.695839 2.523649,-9.34 -2.785261 2.828939,-9.280878 -1.98945 3.073815,-9.956713 -5.215598 2.31284,-9.898683 -3.915255 2.644363,-9.848849 -3.048069 2.909073,-9.795475 -2.273899 3.096135,-10.37045 -5.590872 2.454614,-10.48325 -4.579616 2.766658,-10.52977 -3.910857 2.972669,-10.54237 -3.24529 3.120032,0.840,DnF
-1.486066 -7.40475 0.8400558,-2.074059 -7.084775 1.406829,-2.519557 -6.512434 1.757643,-2.82331 -5.940668 2.047441,-3.108768 -5.526161 2.371232,-2.159865 -4.788949 1.584596,-2.342944 -3.543979 1.883992,-2.394256 -2.809749 2.10489,-2.409604 -2.095848 2.287444,-1.773665 -4.615158 1.466659,-1.805104 -3.228455 1.801821,-1.784431 -2.405647 2.06556,-1.735788 -1.649969 2.299963,-1.412167 -4.673424 1.4107,-1.362191 -3.422997 1.649257,-1.337358 -2.654211 1.929278,-1.306322 -1.945581 2.171832,-1.063743 -4.924711 1.373967,-0.9222207 -3.939994 1.578446,-0.8484693 -3.365302 1.789894,-0.8008156 -2.791177 1.981418,-9.918834 -8.043127 1.525804,-9.252896 -7.752851 1.856772,-8.684977 -6.978986 2.159091,-8.248251 -6.343776 2.483912,-7.81101 -5.997087 2.848646,-9.14226 -5.224998 2.092657,-8.978783 -3.983414 2.44436,-8.893873 -3.232493 2.696926,-8.823949 -2.552042 2.862543,-9.549815 -5.067067 2.197968,-9.426423 -3.695839 2.523649,-9.34 -2.785261 2.828939,-9.280878 -1.98945 3.073815,-9.956713 -5.215598 2.31284,-9.898683 -3.915255 2.644363,-9.848849 -3.048069 2.909073,-9.795475 -2.273899 3.096135,-10.37045 -5.590872 2.454614,-10.48325 -4.579616 2.766658,-10.52977 -3.910857 2.972669,-10.54237 -3.24529 3.120032,0.860,DnF
-1.486066 -7.40475 0.8400558,-2.074059 -7.084775 1.406829,-2.519557 -6.512434 1.757643,-2.82331 -5.940668 2.047441,-3.108768 -5.526161 2.371232,-2.159865 -4.788949 1.584596,-2.342944 -3.543979 1.883992,-2.394256 -2.809749 2.10489,-2.409604 -2.095848 2.287444,-1.773665 -4.615158 1.466659,-1.805104 -3.228455 1.801821,-1.784431 -2.405647 2.06556,-1.735788 -1.649969 2.299963,-1.412167 -4.673424 1.4107,-1.362191 -3.422997 1.649257,-1.337358 -2.654211 1.929278,-1.306322 -1.945581 2.171832,-1.063743 -4.924711 1.373967,-0.9222207 -3.939994 1.578446,-0.8484693 -3.365302 1.789894,-0.8008156 -2.791177 1.981418,-9.918834 -8.043127 1.525804,-9.252896 -7.752851 1.856772,-8.684977 -6.978986 2.159091,-8.248251 -6.343776 2.483912,-7.81101 -5.997087 2.848646,-9.14226 -5.224998 2.092657,-8.978783 -3.983414 2.44436,-8.893873 -3.232493 2.696926,-8.823949 -2.552042 2.862543,-9.549815 -5.067067 2.197968,-9.426423 -3.695839 2.523649,-9.34 -2.785261 2.828939,-9.280878 -1.98945 3.073815,-9.956713 -5.215598 2.31284,-9.898683 -3.915255 2.644363,-9.848849 -3.048069 2.909073,-9.795475 -2.273899 3.096135,-10.37045 -5.590872 2.454614,-10.48325 -4.579616 2.766658,-10.52977 -3.910857 2.972669,-10.54237 -3.24529 3.120032,0.880,DnF
-1.470828 -7.390202 0.6354157,-2.064838 -7.063286 1.11586,-2.491404 -6.506246 1.439372,-2.79042 -5.941831 1.690472,-3.070488 -5.538198 1.954745,-2.143379 -4.840038 1.373068,-2.326153 -3.567323 1.651384,-2.373532 -2.827059 1.825393,-2.37816 -2.132225 1.970078,-1.754435 -4.659273 1.256884,-1.783022 -3.234728 1.595029,-1.758922 -2.396256 1.830985,-1.699008 -1.653384 2.040378,-1.385915 -4.721078 1.18378,-1.34424 -3.441913 1.412372,-1.310318 -2.646409 1.654056,-1.269909 -1.939803 1.859961,-1.0346 -4.978233 1.117887,-0.9024639 -3.961832 1.287349,-0.8363528 -3.377085 1.460074,-0.7977276 -2.811639 1.616611,-9.921637 -8.017239 1.396105,-9.241686 -7.755794 1.71913,-8.672819 -6.996364 2.025093,-8.233128 -6.355228 2.350206,-7.788105 -5.99537 2.71586,-9.142196 -5.23776 1.935808,-8.974666 -3.979772 2.26757,-8.894169 -3.214704 2.514524,-8.826154 -2.519336 2.675122,-9.553359 -5.069482 2.023338,-9.425201 -3.678559 2.330691,-9.342003 -2.771509 2.616504,-9.282389 -1.991684 2.846723,-9.960046 -5.202006 2.119184,-9.905689 -3.871391 2.427375,-9.855556 -3.002203 2.679651,-9.795419 -2.237233 2.852191,-10.37245 -5.558951 2.234891,-10.47677 -4.530859 2.522408,-10.51163 -3.860582 2.715515,-10.50531 -3.192637 2.850545,0.900,DnF
-1.470828 -7.390202 0.6354157,-2.064838 -7.063286 1.11586,-2.491404 -6.506246 1.439372,-2.79042 -5.941831 1.690472,-3.070488 -5.538198 1.954745,-2.143379 -4.840038 1.373068,-2.326153 -3.567323 1.651384,-2.373532 -2.827059 1.825393,-2.37816 -2.132225 1.970078,-1.754435 -4.659273 1.256884,-1.783022 -3.234728 1.595029,-1.758922 -2.396256 1.830985,-1.699008 -1.653384 2.040378,-1.385915 -4.721078 1.18378,-1.34424 -3.441913 1.412372,-1.310318 -2.646409 1.654056,-1.269909 -1.939803 1.859961,-1.0346 -4.978233 1.117887,-0.9024639 -3.961832 1.287349,-0.8363528 -3.377085 1.460074,-0.7977276 -2.811639 1.616611,-9.921637 -8.017239 1.396105,-9.241686 -7.755794 1.71913,-8.672819 -6.996364 2.025093,-8.233128 -6.355228 2.350206,-7.788105 -5.99537 2.71586,-9.142196 -5.23776 1.935808,-8.974666 -3.979772 2.26757,-8.894169 -3.214704 2.514524,-8.826154 -2.519336 2.675122,-9.553359 -5.069482 2.023338,-9.425201 -3.678559 2.330691,-9.342003 -2.771509 2.616504,-9.282389 -1.991684 2.846723,-9.960046 -5.202006 2.119184,-9.905689 -3.871391 2.427375,-9.855556 -3.002203 2.679651,-9.795419 -2.237233 2.852191,-10.37245 -5.558951 2.234891,-10.47677 -4.530859 2.522408,-10.51163 -3.860582 2.715515,-10.50531 -3.192637 2.850545,0.920,DnF
-1.470828 -7.390202 0.6354157,-2.064838 -7.063286 1.11586,-2.491404 -6.506246 1.439372,-2.79042 -5.941831 1.690472,-3.070488 -5.538198 1.954745,-2.143379 -4.840038 1.373068,-2.326153 -3.567323 1.651384,-2.373532 -2.827059 1.825393,-2.37816 -2.132225 1.970078,-1.754435 -4.659273 1.256884,-1.783022 -3.234728 1.595029,-1.758922 -2.396256 1.830985,-1.699008 -1.653384 2.040378,-1.385915 -4.721078 1.18378,-1.34424 -3.441913 1.412372,-1.310318 -2.646409 1.654056,-1.269909 -1.939803 1.859961,-1.0346 -4.978233 1.117887,-0.9024639 -3.961832 1.287349,-0.8363528 -3.377085 1.460074,-0.7977276 -2.811639 1.616611,-9.921637 -8.017239 1.396105,-9.241686 -7.755794 1.71913,-8.672819 -6.996364 2.025093,-8.233128 -6.355228 2.350206,-7.788105 -5.99537 2.71586,-9.142196 -5.23776 1.935808,-8.974666 -3.979772 2.26757,-8.894169 -3.214704 2.514524,-8.826154 -2.519336 2.675122,-9.553359 -5.069482 2.023338,-9.425201 -3.678559 2.330691,-9.342003 -2.771509 2.616504,-9.282389 -1.991684 2.846723,-9.960046 -5.202006 2.119184,-9.905689 -3.871391 2.427375,-9.855556 -3.002203 2.679651,-9.795419 -2.237233 2.852191,-10.37245 -5.558951 2.234891,-10.47677 -4.530859 2.522408,-10.51163 -3.860582 2.715515,-10.50531 -3.192637 2.850545,0.940,DnF
-1.470828 -7.390202 0.6354157,-2.064838 -7.063286 1.11586,-2.491404 -6.506246 1.439372,-2.79042 -5.941831 1.690472,-3.070488 -5.538198 1.954745,-2.143379 -4.840038 1.373068,-2.326153 -3.567323 1.651384,-2.373532 -2.827059 1.825393,-2.37816 -2.132225 1.970078,-1.754435 -4.659273 1.256884,-1.783022 -3.234728 1.595029,-1.758922 -2.396256 1.830985,-1.699008 -1.653384 2.040378,-1.385915 -4.721078 1.18378,-1.34424 -3.441913 1.412372,-1.310318 -2.646409 1.654056,-1.269909 -1.939803 1.859961,-1.0346 -4.978233 1.117887,-0.9024639 -3.961832 1.287349,-0.8363528 -3.377085 1.460074,-0.7977276 -2.811639 1.616611,-9.894252 -8.010691 1.390516,-9.22558 -7.746891 1.698099,-8.661038 -6.997009 2.004508,-8.216737 -6.372501 2.330498,-7.758413 -6.019811 2.700691,-9.130354 -5.230956 1.923095,-8.957409 -3.972839 2.258512,-8.874628 -3.212008 2.501676,-8.805325 -2.51695 2.654428,-9.54206 -5.062759 2.018354,-9.414398 -3.671772 2.318988,-9.333878 -2.770353 2.598665,-9.277142 -1.994171 2.821359,-9.951624 -5.197511 2.120016,-9.893694 -3.868282 2.42722,-9.849125 -3.0011 2.67664,-9.795749 -2.233666 2.846233,-10.36624 -5.563785 2.240355,-10.46602 -4.529912 2.524203,-10.49868 -3.860182 2.72,-10.4904 -3.188509 2.85931,0.960,DnF
-1.470828 -7.390202 0.6354157,-2.064838 -7.063286 1.11586,-2.491404 -6.506246 1.439372,-2.79042 -5.941831 1.690472,-3.070488 -5.538198 1.954745,-2.143379 -4.840038 1.373068,-2.326153 -3.567323 1.651384,-2.373532 -2.827059 1.825393,-2.37816 -2.132225 1.970078,-1.754435 -4.659273 1.256884,-1.783022 -3.234728 1.595029,-1.758922 -2.396256 1.830985,-1.699008 -1.653384 2.040378,-1.385915 -4.721078 1.18378,-1.34424 -3.441913 1.412372,-1.310318 -2.646409 1.654056,-1.269909 -1.939803 1.859961,-1.0346 -4.978233 1.117887,-0.9024639 -3.961832 1.287349,-0.8363528 -3.377085 1.460074,-0.7977276 -2.811639 1.616611,-9.894252 -8.010691 1.390516,-9.22558 -7.746891 1.698099,-8.661038 -6.997009 2.004508,-8.216737 -6.372501 2.330498,-7.758413 -6.019811 2.700691,-9.130354 -5.230956 1.923095,-8.957409 -3.972839 2.258512,-8.874628 -3.212008 2.501676,-8.805325 -2.51695 2.654428,-9.54206 -5.062759 2.018354,-9.414398 -3.671772 2.318988,-9.333878 -2.770353 2.598665,-9.277142 -1.994171 2.821359,-9.951624 -5.197511 2.120016,-9.893694 -3.868282 2.42722,-9.849125 -3.0011 2.67664,-9.795749 -2.233666 2.846233,-10.36624 -5.563785 2.240355,-10.46602 -4.529912 2.524203,-10.49868 -3.860182 2.72,-10.4904 -3.188509 2.85931,0.980,DnF
-1.470828 -7.390202 0.6354157,-2.064838 -7.063286 1.11586,-2.491404 -6.506246 1.439372,-2.79042 -5.941831 1.690472,-3.070488 -5.538198 1.954745,-2.143379 -4.840038 1.373068,-2.326153 -3.567323 1.651384,-2.373532 -2.827059 1.825393,-2.37816 -2.132225 1.970078,-1.754435 -4.659273 1.256884,-1.783022 -3.234728 1.595029,-1.758922 -2.396256 1.830985,-1.699008 -1.653384 2.040378,-1.385915 -4.721078 1.18378,-1.34424 -3.441913 1.412372,-1.310318 -2.646409 1.654056,-1.269909 -1.939803 1.859961,-1.0346 -4.978233 1.117887,-0.9024639 -3.961832 1.287349,-0.8363528 -3.377085 1.460074,-0.7977276 -2.811639 1.616611,-9.894252 -8.010691 1.390516,-9.22558 -7.746891 1.698099,-8.661038 -6.997009 2.004508,-8.216737 -6.372501 2.330498,-7.758413 -6.019811 2.700691,-9.130354 -5.230956 1.923095,-8.957409 -3.972839 2.258512,-8.874628 -3.212008 2.501676,-8.805325 -2.51695 2.654428,-9.54206 -5.062759 2.018354,-9.414398 -3.671772 2.318988,-9.333878 -2.770353 2.598665,-9.277142 -1.994171 2.821359,-9.951624 -5.197511 2.120016,-9.893694 -3.868282 2.42722,-9.849125 -3.0011 2.67664,-9.795749 -2.233666 2.846233,-10.36624 -5.563785 2.240355,-10.46602 -4.529912 2.524203,-10.49868 -3.860182 2.72,-10.4904 -3.188509 2.85931,1.000,DnF
-1.470828 -7.390202 0.6354157,-2.064838 -7.063286 1.11586,-2.491404 -6.506246 1.439372,-2.79042 -5.941831 1.690472,-3.070488 -5.538198 1.954745,-2.143379 -4.840038 1.373068,-2.326153 -3.567323 1.651384,-2.373532 -2.827059 1.825393,-2.37816 -2.132225 1.970078,-1.754435 -4.659273 1.256884,-1.783022 -3.234728 1.595029,-1.758922 -2.396256 1.830985,-1.699008 -1.653384 2.040378,-1.385915 -4.721078 1.18378,-1.34424 -3.441913 1.412372,-1.310318 -2.646409 1.654056,-1.269909 -1.939803 1.859961,-1.0346 -4.978233 1.117887,-0.9024639 -3.961832 1.287349,-0.8363528 -3.377085 1.460074,-0.7977276 -2.811639 1.616611,-9.894252 -8.010691 1.390516,-9.22558 -7.746891 1.698099,-8.661038 -6.997009 2.004508,-8.216737 -6.372501 2.330498,-7.758413 -6.019811 2.700691,-9.130354 -5.230956 1.923095,-8.957409 -3.972839 2.258512,-8.874628 -3.212008 2.501676,-8.805325 -2.51695 2.654428,-9.54206 -5.062759 2.018354,-9.414398 -3.671772 2.318988,-9.333878 -2.770353 2.598665,-9.277142 -1.994171 2.821359,-9.951624 -5.197511 2.120016,-9.893694 -3.868282 2.42722,-9.849125 -3.0011 2.67664,-9.795749 -2.233666 2.846233,-10.36624 -5.563785 2.240355,-10.46602 -4.529912 2.524203,-10.49868 -3.860182 2.72,-10.4904 -3.188509 2.85931,1.020,DnF
-1.470828 -7.390202 0.6354157,-2.064838 -7.063286 1.11586,-2.491404 -6.506246 1.439372,-2.79042 -5.941831 1.690472,-3.070488 -5.538198 1.954745,-2.143379 -4.840038 1.373068,-2.326153 -3.567323 1.651384,-2.373532 -2.827059 1.825393,-2.37816 -2.132225 1.970078,-1.754435 -4.659273 1.256884,-1.783022 -3.234728 1.595029,-1.758922 -2.396256 1.830985,-1.699008 -1.653384 2.040378,-1.385915 -4.721078 1.18378,-1.34424 -3.441913 1.412372,-1.310318 -2.646409 1.654056,-1.269909 -1.939803 1.859961,-1.0346 -4.978233 1.117887,-0.9024639 -3.961832 1.287349,-0.8363528 -3.377085 1.460074,-0.7977276 -2.811639 1.616611,-9.917526 -8.058338 1.382535,-9.245815 -7.799053 1.682203,-8.675388 -7.042108 1.970148,-8.230473 -6.397163 2.275708,-7.783991 -6.026622 2.614353,-9.130531 -5.284095 1.886903,-8.953193 -4.021419 2.207713,-8.87605 -3.251583 2.44741,-8.814463 -2.549107 2.595985,-9.541388 -5.108208 1.974101,-9.413083 -3.71851 2.2598,-9.338358 -2.810715 2.54951,-9.288583 -2.030964 2.784644,-9.952008 -5.232918 2.067555,-9.899457 -3.905406 2.357242,-9.859384 -3.041822 2.613223,-9.810503 -2.286403 2.787244,-10.36611 -5.587961 2.178477,-10.47019 -4.54956 2.455712,-10.50319 -3.879367 2.662653,-10.49617 -3.217124 2.808411,1.040,DnF
-1.470828 -7.390202 0.6354157,-2.064838 -7.063286 1.11586,-2.491404 -6.506246 1.439372,-2.79042 -5.941831 1.690472,-3.070488 -5.538198 1.954745,-2.143379 -4.840038 1.373068,-2.326153 -3.567323 1.651384,-2.373532 -2.827059 1.825393,-2.37816 -2.132225 1.970078,-1.754435 -4.659273 1.256884,-1.783022 -3.234728 1.595029,-1.758922 -2.396256 1.830985,-1.699008 -1.653384 2.040378,-1.385915 -4.721078 1.18378,-1.34424 -3.441913 1.412372,-1.310318 -2.646409 1.654056,-1.269909 -1.939803 1.859961,-1.0346 -4.978233 1.117887,-0.9024639 -3.961832 1.287349,-0.8363528 -3.377085 1.460074,-0.7977276 -2.811639 1.616611,-9.917526 -8.058338 1.382535,-9.245815 -7.799053 1.682203,-8.675388 -7.042108 1.970148,-8.230473 -6.397163 2.275708,-7.783991 -6.026622 2.614353,-9.130531 -5.284095 1.886903,-8.953193 -4.021419 2.207713,-8.87605 -3.251583 2.44741,-8.814463 -2.549107 2.595985,-9.541388 -5.108208 1.974101,-9.413083 -3.71851 2.2598,-9.338358 -2.810715 2.54951,-9.288583 -2.030964 2.784644,-9.952008 -5.232918 2.067555,-9.899457 -3.905406 2.357242,-9.859384 -3.041822 2.613223,-9.810503 -2.286403 2.787244,-10.36611 -5.587961 2.178477,-10.47019 -4.54956 2.455712,-10.50319 -3.879367 2.662653,-10.49617 -3.217124 2.808411,1.060,DnF
-1.470828 -7.390202 0.6354157,-2.064838 -7.063286 1.11586,-2.491404 -6.506246 1.439372,-2.79042 -5.941831 1.690472,-3.070488 -5.538198 1.954745,-2.143379 -4.840038 1.373068,-2.326153 -3.567323 1.651384,-2.373532 -2.827059 1.825393,-2.37816 -2.132225 1.970078,-1.754435 -4.659273 1.256884,-1.783022 -3.234728 1.595029,-1.758922 -2.396256 1.830985,-1.699008 -1.653384 2.040378,-1.385915 -4.721078 1.18378,-1.34424 -3.441913 1.412372,-1.310318 -2.646409 1.654056,-1.269909 -1.939803 1.859961,-1.0346 -4.978233 1.117887,-0.9024639 -3.961832 1.287349,-0.8363528 -3.377085 1.460074,-0.7977276 -2.811639 1.616611,-9.917526 -8.058338 1.382535,-9.245815 -7.799053 1.682203,-8.675388 -7.042108 1.970148,-8.230473 -6.397163 2.275708,-7.783991 -6.026622 2.614353,-9.130531 -5.284095 1.886903,-8.953193 -4.021419 2.207713,-8.87605 -3.251583 2.44741,-8.814463 -2.549107 2.595985,-9.541388 -5.108208 1.974101,-9.413083 -3.71851 2.2598,-9.338358 -2.810715 2.54951,-9.288583 -2.030964 2.784644,-9.952008 -5.232918 2.067555,-9.899457 -3.905406 2.357242,-9.859384 -3.041822 2.613223,-9.810503 -2.286403 2.787244,-10.36611 -5.587961 2.178477,-10.47019 -4.54956 2.455712,-10.50319 -3.879367 2.662653,-10.49617 -3.217124 2.808411,1.080,DnF
-1.470828 -7.390202 0.6354157,-2.064838 -7.063286 1.11586,-2.491404 -6.506246 1.439372,-2.79042 -5.941831 1.690472,-3.070488 -5.538198 1.954745,-2.143379 -4.840038 1.373068,-2.326153 -3.567323 1.651384,-2.373532 -2.827059 1.825393,-2.37816 -2.132225 1.970078,-1.754435 -4.659273 1.256884,-1.783022 -3.234728 1.595029,-1.758922 -2.396256 1.830985,-1.699008 -1.653384 2.040378,-1.385915 -4.721078 1.18378,-1.34424 -3.441913 1.412372,-1.310318 -2.646409 1.654056,-1.269909 -1.939803 1.859961,-1.0346 -4.978233 1.117887,-0.9024639 -3.961832 1.287349,-0.8363528 -3.377085 1.460074,-0.7977276 -2.811639 1.616611,-9.961355 -8.077187 1.371846,-9.277493 -7.825334 1.71033,-8.701836 -7.077926 2.012848,-8.256847 -6.434829 2.32217,-7.815382 -6.039905 2.65781,-9.15523 -5.310263 1.894861,-8.969338 -4.042564 2.233849,-8.889535 -3.283328 2.489854,-8.834574 -2.583404 2.650703,-9.57238 -5.132965 1.968889,-9.436335 -3.750717 2.264735,-9.36093 -2.864139 2.556037,-9.313738 -2.083058 2.787727,-9.987032 -5.255495 2.051995,-9.946709 -3.922808 2.357981,-9.913721 -3.076085 2.619049,-9.869526 -2.31915 2.792286,-10.40881 -5.599735 2.155854,-10.51552 -4.572872 2.43931,-10.54824 -3.913991 2.643323,-10.54133 -3.252936 2.78618,1.100,DnF
-1.470828 -7.390202 0.6354157,-2.064838 -7.063286 1.11586,-2.491404 -6.506246 1.439372,-2.79042 -5.941831 1.690472,-3.070488 -5.538198 1.954745,-2.143379 -4.840038 1.373068,-2.326153 -3.567323 1.651384,-2.373532 -2.827059 1.825393,-2.37816 -2.132225 1.970078,-1.754435 -4.659273 1.256884,-1.783022 -3.234728 1.595029,-1.758922 -2.396256 1.830985,-1.699008 -1.653384 2.040378,-1.385915 -4.721078 1.18378,-1.34424 -3.441913 1.412372,-1.310318 -2.646409 1.654056,-1.269909 -1.939803 1.859961,-1.0346 -4.978233 1.117887,-0.9024639 -3.961832 1.287349,-0.8363528 -3.377085 1.460074,-0.7977276 -2.811639 1.616611,-9.961355 -8.077187 1.371846,-9.277493 -7.825334 1.71033,-8.701836 -7.077926 2.012848,-8.256847 -6.434829 2.32217,-7.815382 -6.039905 2.65781,-9.15523 -5.310263 1.894861,-8.969338 -4.042564 2.233849,-8.889535 -3.283328 2.489854,-8.834574 -2.583404 2.650703,-9.57238 -5.132965 1.968889,-9.436335 -3.750717 2.264735,-9.36093 -2.864139 2.556037,-9.313738 -2.083058 2.787727,-9.987032 -5.255495 2.051995,-9.946709 -3.922808 2.357981,-9.913721 -3.076085 2.619049,-9.869526 -2.31915 2.792286,-10.40881 -5.599735 2.155854,-10.51552 -4.572872 2.43931,-10.54824 -3.913991 2.643323,-10.54133 -3.252936 2.78618,1.120,DnF
-1.470828 -7.390202 0.6354157,-2.064838 -7.063286 1.11586,-2.491404 -6.506246 1.439372,-2.79042 -5.941831 1.690472,-3.070488 -5.538198 1.954745,-2.143379 -4.840038 1.373068,-2.326153 -3.567323 1.651384,-2.373532 -2.827059 1.825393,-2.37816 -2.132225 1.970078,-1.754435 -4.659273 1.256884,-1.783022 -3.234728 1.595029,-1.758922 -2.396256 1.830985,-1.699008 -1.653384 2.040378,-1.385915 -4.721078 1.18378,-1.34424 -3.441913 1.412372,-1.310318 -2.646409 1.654056,-1.269909 -1.939803 1.859961,-1.0346 -4.978233 1.117887,-0.9024639 -3.961832 1.287349,-0.8363528 -3.377085 1.460074,-0.7977276 -2.811639 1.616611,-9.961355 -8.077187 1.371846,-9.277493 -7.825334 1.71033,-8.701836 -7.077926 2.012848,-8.256847 -6.434829 2.32217,-7.815382 -6.039905 2.65781,-9.15523 -5.310263 1.894861,-8.969338 -4.042564 2.233849,-8.889535 -3.283328 2.489854,-8.834574 -2.583404 2.650703,-9.57238 -5.132965 1.968889,-9.436335 -3.750717 2.264735,-9.36093 -2.864139 2.556037,-9.313738 -2.083058 2.787727,-9.987032 -5.255495 2.051995,-9.946709 -3.922808 2.357981,-9.913721 -3.076085 2.619049,-9.869526 -2.31915 2.792286,-10.40881 -5.599735 2.155854,-10.51552 -4.572872 2.43931,-10.54824 -3.913991 2.643323,-10.54133 -3.252936 2.78618,1.140,DnF
-1.470828 -7.390202 0.6354157,-2.064838 -7.063286 1.11586,-2.491404 -6.506246 1.439372,-2.79042 -5.941831 1.690472,-3.070488 -5.538198 1.954745,-2.143379 -4.840038 1.373068,-2.326153 -3.567323 1.651384,-2.373532 -2.827059 1.825393,-2.37816 -2.132225 1.970078,-1.754435 -4.659273 1.256884,-1.783022 -3.234728 1.595029,-1.758922 -2.396256 1.830985,-1.699008 -1.653384 2.040378,-1.385915 -4.721078 1.18378,-1.34424 -3.441913 1.412372,-1.310318 -2.646409 1.654056,-1.269909 -1.939803 1.859961,-1.0346 -4.978233 1.117887,-0.9024639 -3.961832 1.287349,-0.8363528 -3.377085 1.460074,-0.7977276 -2.811639 1.616611,-9.961355 -8.077187 1.371846,-9.277493 -7.825334 1.71033,-8.701836 -7.077926 2.012848,-8.256847 -6.434829 2.32217,-7.815382 -6.039905 2.65781,-9.15523 -5.310263 1.894861,-8.969338 -4.042564 2.233849,-8.889535 -3.283328 2.489854,-8.834574 -2.583404 2.650703,-9.57238 -5.132965 1.968889,-9.436335 -3.750717 2.264735,-9.36093 -2.864139 2.556037,-9.313738 -2.083058 2.787727,-9.987032 -5.255495 2.051995,-9.946709 -3.922808 2.357981,-9.913721 -3.076085 2.619049,-9.869526 -2.31915 2.792286,-10.40881 -5.599735 2.155854,-10.51552 -4.572872 2.43931,-10.54824 -3.913991 2.643323,-10.54133 -3.252936 2.78618,1.160,DnF
-1.470828 -7.390202 0.6354157,-2.064838 -7.063286 1.11586,-2.491404 -6.506246 1.439372,-2.79042 -5.941831 1.690472,-3.070488 -5.538198 1.954745,-2.143379 -4.840038 1.373068,-2.326153 -3.567323 1.651384,-2.373532 -2.827059 1.825393,-2.37816 -2.132225 1.970078,-1.754435 -4.659273 1.256884,-1.783022 -3.234728 1.595029,-1.758922 -2.396256 1.830985,-1.699008 -1.653384 2.040378,-1.385915 -4.721078 1.18378,-1.34424 -3.441913 1.412372,-1.310318 -2.646409 1.654056,-1.269909 -1.939803 1.859961,-1.0346 -4.978233 1.117887,-0.9024639 -3.961832 1.287349,-0.8363528 -3.377085 1.460074,-0.7977276 -2.811639 1.616611,-9.951448 -8.088024 1.3669,-9.277771 -7.798624 1.660227,-8.709394 -7.062717 1.964892,-8.27193 -6.434333 2.283544,-7.827122 -6.064998 2.641302,-9.173183 -5.317569 1.908657,-8.995148 -4.038135 2.240543,-8.916285 -3.275926 2.480182,-8.855503 -2.583648 2.621294,-9.591286 -5.146455 1.987519,-9.462687 -3.749601 2.286093,-9.390047 -2.855433 2.553716,-9.342322 -2.089114 2.768676,-10.00642 -5.271043 2.068598,-9.954884 -3.923556 2.363386,-9.919959 -3.067615 2.597482,-9.878097 -2.318834 2.757083,-10.42766 -5.615606 2.162176,-10.52499 -4.573109 2.421807,-10.55727 -3.907639 2.603314,-10.54819 -3.25425 2.736269,1.180,DnF
-1.470828 -7.390202 0.6354157,-2.064838 -7.063286 1.11586,-2.491404 -6.506246 1.439372,-2.79042 -5.941831 1.690472,-3.070488 -5.538198 1.954745,-2.143379 -4.840038 1.373068,-2.326153 -3.567323 1.651384,-2.373532 -2.827059 1.825393,-2.37816 -2.132225 1.970078,-1.754435 -4.659273 1.256884,-1.783022 -3.234728 1.595029,-1.758922 -2.396256 1.830985,-1.699008 -1.653384 2.040378,-1.385915 -4.721078 1.18378,-1.34424 -3.441913 1.412372,-1.310318 -2.646409 1.654056,-1.269909 -1.939803 1.859961,-1.0346 -4.978233 1.117887,-0.9024639 -3.961832 1.287349,-0.8363528 -3.377085 1.460074,-0.7977276 -2.811639 1.616611,-9.951448 -8.088024 1.3669,-9.277771 -7.798624 1.660227,-8.709394 -7.062717 1.964892,-8.27193 -6.434333 2.283544,-7.827122 -6.064998 2.641302,-9.173183 -5.317569 1.908657,-8.995148 -4.038135 2.240543,-8.916285 -3.275926 2.480182,-8.855503 -2.583648 2.621294,-9.591286 -5.146455 1.987519,-9.462687 -3.749601 2.286093,-9.390047 -2.855433 2.553716,-9.342322 -2.089114 2.768676,-10.00642 -5.271043 2.068598,-9.954884 -3.923556 2.363386,-9.919959 -3.067615 2.597482,-9.878097 -2.318834 2.757083,-10.42766 -5.615606 2.162176,-10.52499 -4.573109 2.421807,-10.55727 -3.907639 2.603314,-10.54819 -3.25425 2.736269,1.200,DnF
-1.470828 -7.390202 0.6354157,-2.064838 -7.063286 1.11586,-2.491404 -6.506246 1.439372,-2.79042 -5.941831 1.690472,-3.070488 -5.538198 1.954745,-2.143379 -4.840038 1.373068,-2.326153 -3.567323 1.651384,-2.373532 -2.827059 1.825393,-2.37816 -2.132225 1.970078,-1.754435 -4.659273 1.256884,-1.783022 -3.234728 1.595029,-1.758922 -2.396256 1.830985,-1.699008 -1.653384 2.040378,-1.385915 -4.721078 1.18378,-1.34424 -3.441913 1.412372,-1.310318 -2.646409 1.654056,-1.269909 -1.939803 1.859961,-1.0346 -4.978233 1.117887,-0.9024639 -3.961832 1.287349,-0.8363528 -3.377085 1.460074,-0.7977276 -2.811639 1.616611,-9.951448 -8.088024 1.3669,-9.277771 -7.798624 1.660227,-8.709394 -7.062717 1.964892,-8.27193 -6.434333 2.283544,-7.827122 -6.064998 2.641302,-9.173183 -5.317569 1.908657,-8.995148 -4.038135 2.240543,-8.916285 -3.275926 2.480182,-8.855503 -2.583648 2.621294,-9.591286 -5.146455 1.987519,-9.462687 -3.749601 2.286093,-9.390047 -2.855433 2.553716,-9.342322 -2.089114 2.768676,-10.00642 -5.271043 2.068598,-9.954884 -3.923556 2.363386,-9.919959 -3.067615 2.597482,-9.878097 -2.318834 2.757083,-10.42766 -5.615606 2.162176,-10.52499 -4.573109 2.421807,-10.55727 -3.907639 2.603314,-10.54819 -3.25425 2.736269,1.220,Object Dropped
-1.619974 -7.882281 1.597843,-2.239183 -7.444 2.23602,-2.740489 -6.690012 2.541143,-3.078869 -6.028448 2.722612,-3.362885 -5.49412 2.906712,-2.248533 -5.054229 2.467887,-2.313359 -3.778542 2.703067,-2.318773 -2.95049 2.896163,-2.312016 -2.229354 3.100671,-1.900271 -4.871591 2.235552,-1.859754 -3.585803 2.494213,-1.782598 -2.732313 2.761103,-1.668336 -1.976655 3.037449,-1.598337 -4.938859 2.01784,-1.562167 -3.765041 2.187874,-1.486813 -2.968143 2.361535,-1.410664 -2.288855 2.532397,-1.340116 -5.180575 1.826791,-1.33709 -4.323895 1.948103,-1.270209 -3.755274 1.988856,-1.172079 -3.16861 2.048049,-9.961302 -8.096109 1.307142,-9.279751 -7.805286 1.574179,-8.716303 -7.08675 1.871603,-8.279927 -6.465701 2.183302,-7.838549 -6.095188 2.529919,-9.18518 -5.329238 1.804965,-9.004655 -4.047061 2.109315,-8.926562 -3.279113 2.323503,-8.863592 -2.596613 2.451091,-9.603438 -5.161504 1.876918,-9.482244 -3.766112 2.142908,-9.415964 -2.87894 2.386441,-9.370331 -2.127665 2.588846,-10.01723 -5.286005 1.946224,-9.964803 -3.942574 2.209548,-9.932601 -3.088787 2.417119,-9.893051 -2.346422 2.556048,-10.43196 -5.629629 2.027495,-10.52755 -4.590902 2.258665,-10.55656 -3.934816 2.422265,-10.54556 -3.292206 2.542505,1.240,DnF
-1.619974 -7.882281 1.597843,-2.239183 -7.444 2.23602,-2.740489 -6.690012 2.541143,-3.078869 -6.028448 2.722612,-3.362885 -5.49412 2.906712,-2.248533 -5.054229 2.467887,-2.313359 -3.778542 2.703067,-2.318773 -2.95049 2.896163,-2.312016 -2.229354 3.100671,-1.900271 -4.871591 2.235552,-1.859754 -3.585803 2.494213,-1.782598 -2.732313 2.761103,-1.668336 -1.976655 3.037449,-1.598337 -4.938859 2.01784,-1.562167 -3.765041 2.187874,-1.486813 -2.968143 2.361535,-1.410664 -2.288855 2.532397,-1.340116 -5.180575 1.826791,-1.33709 -4.323895 1.948103,-1.270209 -3.755274 1.988856,-1.172079 -3.16861 2.048049,-9.961302 -8.096109 1.307142,-9.279751 -7.805286 1.574179,-8.716303 -7.08675 1.871603,-8.279927 -6.465701 2.183302,-7.838549 -6.095188 2.529919,-9.18518 -5.329238 1.804965,-9.004655 -4.047061 2.109315,-8.926562 -3.279113 2.323503,-8.863592 -2.596613 2.451091,-9.603438 -5.161504 1.876918,-9.482244 -3.766112 2.142908,-9.415964 -2.87894 2.386441,-9.370331 -2.127665 2.588846,-10.01723 -5.286005 1.946224,-9.964803 -3.942574 2.209548,-9.932601 -3.088787 2.417119,-9.893051 -2.346422 2.556048,-10.43196 -5.629629 2.027495,-10.52755 -4.590902 2.258665,-10.55656 -3.934816 2.422265,-10.54556 -3.292206 2.542505,1.260,DnF
-1.619974 -7.882281 1.597843,-2.239183 -7.444 2.23602,-2.740489 -6.690012 2.541143,-3.078869 -6.028448 2.722612,-3.362885 -5.49412 2.906712,-2.248533 -5.054229 2.467887,-2.313359 -3.778542 2.703067,-2.318773 -2.95049 2.896163,-2.312016 -2.229354 3.100671,-1.900271 -4.871591 2.235552,-1.859754 -3.585803 2.494213,-1.782598 -2.732313 2.761103,-1.668336 -1.976655 3.037449,-1.598337 -4.938859 2.01784,-1.562167 -3.765041 2.187874,-1.486813 -2.968143 2.361535,-1.410664 -2.288855 2.532397,-1.340116 -5.180575 1.826791,-1.33709 -4.323895 1.948103,-1.270209 -3.755274 1.988856,-1.172079 -3.16861 2.048049,-9.961302 -8.096109 1.307142,-9.279751 -7.805286 1.574179,-8.716303 -7.08675 1.871603,-8.279927 -6.465701 2.183302,-7.838549 -6.095188 2.529919,-9.18518 -5.329238 1.804965,-9.004655 -4.047061 2.109315,-8.926562 -3.279113 2.323503,-8.863592 -2.596613 2.451091,-9.603438 -5.161504 1.876918,-9.482244 -3.766112 2.142908,-9.415964 -2.87894 2.386441,-9.370331 -2.127665 2.588846,-10.01723 -5.286005 1.946224,-9.964803 -3.942574 2.209548,-9.932601 -3.088787 2.417119,-9.893051 -2.346422 2.556048,-10.43196 -5.629629 2.027495,-10.52755 -4.590902 2.258665,-10.55656 -3.934816 2.422265,-10.54556 -3.292206 2.542505,1.280,DnF
-1.435693 -7.582446 1.10872,-2.0941 -7.235504 1.555697,-2.592689 -6.605831 1.819339,-2.923904 -5.966869 2.015114,-3.19178 -5.511576 2.233487,-2.167559 -4.893852 1.721276,-2.361687 -3.683212 1.927994,-2.380858 -2.940805 2.100062,-2.357738 -2.262016 2.237481,-1.758966 -4.697298 1.634612,-1.791959 -3.317986 1.87153,-1.755969 -2.467862 2.064959,-1.691888 -1.72256 2.257555,-1.384636 -4.769439 1.575785,-1.326076 -3.533216 1.769963,-1.286762 -2.745214 1.962241,-1.256018 -2.049078 2.160908,-1.027156 -5.052981 1.537796,-0.9123888 -4.098194 1.753398,-0.8380346 -3.508846 1.921919,-0.7885165 -2.923289 2.060567,-9.974938 -8.109436 1.257359,-9.285717 -7.839489 1.522636,-8.716519 -7.127435 1.813251,-8.283881 -6.504691 2.113227,-7.853559 -6.121282 2.443259,-9.185221 -5.366139 1.74271,-9.006825 -4.093526 2.042123,-8.933293 -3.327308 2.25805,-8.873431 -2.641542 2.391034,-9.608231 -5.186194 1.804421,-9.493262 -3.811534 2.050485,-9.427557 -2.936075 2.285874,-9.37798 -2.194452 2.488232,-10.02714 -5.298253 1.865885,-9.982285 -3.971374 2.105499,-9.955198 -3.128774 2.309345,-9.914301 -2.397289 2.448881,-10.44652 -5.625647 1.937153,-10.55096 -4.599556 2.145318,-10.5846 -3.948654 2.29822,-10.57061 -3.309333 2.415787,1.300,DnF
-1.435693 -7.582446 1.10872,-2.0941 -7.235504 1.555697,-2.592689 -6.605831 1.819339,-2.923904 -5.966869 2.015114,-3.19178 -5.511576 2.233487,-2.167559 -4.893852 1.721276,-2.361687 -3.683212 1.927994,-2.380858 -2.940805 2.100062,-2.357738 -2.262016 2.237481,-1.758966 -4.697298 1.634612,-1.791959 -3.317986 1.87153,-1.755969 -2.467862 2.064959,-1.691888 -1.72256 2.257555,-1.384636 -4.769439 1.575785,-1.326076 -3.533216 1.769963,-1.286762 -2.745214 1.962241,-1.256018 -2.049078 2.160908,-1.027156 -5.052981 1.537796,-0.9123888 -4.098194 1.753398,-0.8380346 -3.508846 1.921919,-0.7885165 -2.923289 2.060567,-9.974938 -8.109436 1.257359,-9.285717 -7.839489 1.522636,-8.716519 -7.127435 1.813251,-8.283881 -6.504691 2.113227,-7.853559 -6.121282 2.443259,-9.185221 -5.366139 1.74271,-9.006825 -4.093526 2.042123,-8.933293 -3.327308 2.25805,-8.873431 -2.641542 2.391034,-9.608231 -5.186194 1.804421,-9.493262 -3.811534 2.050485,-9.427557 -2.936075 2.285874,-9.37798 -2.194452 2.488232,-10.02714 -5.298253 1.865885,-9.982285 -3.971374 2.105499,-9.955198 -3.128774 2.309345,-9.914301 -2.397289 2.448881,-10.44652 -5.625647 1.937153,-10.55096 -4.599556 2.145318,-10.5846 -3.948654 2.29822,-10.57061 -3.309333 2.415787,1.320,DnF
-1.435693 -7.582446 1.10872,-2.0941 -7.235504 1.555697,-2.592689 -6.605831 1.819339,-2.923904 -5.966869 2.015114,-3.19178 -5.511576 2.233487,-2.167559 -4.893852 1.721276,-2.361687 -3.683212 1.927994,-2.380858 -2.940805 2.100062,-2.357738 -2.262016 2.237481,-1.758966 -4.697298 1.634612,-1.791959 -3.317986 1.87153,-1.755969 -2.467862 2.064959,-1.691888 -1.72256 2.257555,-1.384636 -4.769439 1.575785,-1.326076 -3.533216 1.769963,-1.286762 -2.745214 1.962241,-1.256018 -2.049078 2.160908,-1.027156 -5.052981 1.537796,-0.9123888 -4.098194 1.753398,-0.8380346 -3.508846 1.921919,-0.7885165 -2.923289 2.060567,-9.974938 -8.109436 1.257359,-9.285717 -7.839489 1.522636,-8.716519 -7.127435 1.813251,-8.283881 -6.504691 2.113227,-7.853559 -6.121282 2.443259,-9.185221 -5.366139 1.74271,-9.006825 -4.093526 2.042123,-8.933293 -3.327308 2.25805,-8.873431 -2.641542 2.391034,-9.608231 -5.186194 1.804421,-9.493262 -3.811534 2.050485,-9.427557 -2.936075 2.285874,-9.37798 -2.194452 2.488232,-10.02714 -5.298253 1.865885,-9.982285 -3.971374 2.105499,-9.955198 -3.128774 2.309345,-9.914301 -2.397289 2.448881,-10.44652 -5.625647 1.937153,-10.55096 -4.599556 2.145318,-10.5846 -3.948654 2.29822,-10.57061 -3.309333 2.415787,1.340,DnF
-1.472731 -7.577571 1.041467,-2.073141 -7.204528 1.535219,-2.502513 -6.59745 1.839489,-2.781188 -5.969223 2.063296,-3.063726 -5.52971 2.30617,-2.108416 -4.923295 1.745121,-2.277093 -3.696185 1.981747,-2.31148 -2.980431 2.165565,-2.304573 -2.308004 2.328014,-1.702793 -4.710729 1.606934,-1.754785 -3.314205 1.886755,-1.738955 -2.49676 2.118962,-1.679841 -1.770227 2.337642,-1.336569 -4.757165 1.492809,-1.318311 -3.49411 1.689878,-1.296984 -2.750064 1.919415,-1.263825 -2.08867 2.120356,-0.9888024 -5.016592 1.406178,-0.8546762 -4.040555 1.588187,-0.774157 -3.473703 1.765303,-0.7147551 -2.929075 1.930449,-9.987288 -8.109188 1.344143,-9.308409 -7.861853 1.69879,-8.741322 -7.17391 2.029693,-8.311104 -6.579227 2.363053,-7.873516 -6.180556 2.7288,-9.189246 -5.364642 1.89795,-9.01413 -4.117128 2.240435,-8.946213 -3.364049 2.499746,-8.891693 -2.669255 2.658175,-9.613345 -5.175437 1.961871,-9.50153 -3.839229 2.253362,-9.441795 -2.979712 2.536073,-9.393909 -2.237725 2.770067,-10.03591 -5.286547 2.041032,-9.992831 -3.993406 2.329742,-9.968481 -3.164834 2.591669,-9.930502 -2.43592 2.76722,-10.46763 -5.622538 2.138448,-10.56182 -4.61746 2.394899,-10.59364 -3.975412 2.583031,-10.5814 -3.342507 2.729239,1.360,DnF
-1.472731 -7.577571 1.041467,-2.073141 -7.204528 1.535219,-2.502513 -6.59745 1.839489,-2.781188 -5.969223 2.063296,-3.063726 -5.52971 2.30617,-2.108416 -4.923295 1.745121,-2.277093 -3.696185 1.981747,-2.31148 -2.980431 2.165565,-2.304573 -2.308004 2.328014,-1.702793 -4.710729 1.606934,-1.754785 -3.314205 1.886755,-1.738955 -2.49676 2.118962,-1.679841 -1.770227 2.337642,-1.336569 -4.757165 1.492809,-1.318311 -3.49411 1.689878,-1.296984 -2.750064 1.919415,-1.263825 -2.08867 2.120356,-0.9888024 -5.016592 1.406178,-0.8546762 -4.040555 1.588187,-0.774157 -3.473703 1.765303,-0.7147551 -2.929075 1.930449,-9.987288 -8.109188 1.344143,-9.308409 -7.861853 1.69879,-8.741322 -7.17391 2.029693,-8.311104 -6.579227 2.363053,-7.873516 -6.180556 2.7288,-9.189246 -5.364642 1.89795,-9.01413 -4.117128 2.240435,-8.946213 -3.364049 2.499746,-8.891693 -2.669255 2.658175,-9.613345 -5.175437 1.961871,-9.50153 -3.839229 2.253362,-9.441795 -2.979712 2.536073,-9.393909 -2.237725 2.770067,-10.03591 -5.286547 2.041032,-9.992831 -3.993406 2.329742,-9.968481 -3.164834 2.591669,-9.930502 -2.43592 2.76722,-10.46763 -5.622538 2.138448,-10.56182 -4.61746 2.394899,-10.59364 -3.975412 2.583031,-10.5814 -3.342507 2.729239,1.380,DnF
-1.472731 -7.577571 1.041467,-2.073141 -7.204528 1.535219,-2.502513 -6.59745 1.839489,-2.781188 -5.969223 2.063296,-3.063726 -5.52971 2.30617,-2.108416 -4.923295 1.745121,-2.277093 -3.696185 1.981747,-2.31148 -2.980431 2.165565,-2.304573 -2.308004 2.328014,-1.702793 -4.710729 1.606934,-1.754785 -3.314205 1.886755,-1.738955 -2.49676 2.118962,-1.679841 -1.770227 2.337642,-1.336569 -4.757165 1.492809,-1.318311 -3.49411 1.689878,-1.296984 -2.750064 1.919415,-1.263825 -2.08867 2.120356,-0.9888024 -5.016592 1.406178,-0.8546762 -4.040555 1.588187,-0.774157 -3.473703 1.765303,-0.7147551 -2.929075 1.930449,-9.987288 -8.109188 1.344143,-9.308409 -7.861853 1.69879,-8.741322 -7.17391 2.029693,-8.311104 -6.579227 2.363053,-7.873516 -6.180556 2.7288,-9.189246 -5.364642 1.89795,-9.01413 -4.117128 2.240435,-8.946213 -3.364049 2.499746,-8.891693 -2.669255 2.658175,-9.613345 -5.175437 1.961871,-9.50153 -3.839229 2.253362,-9.441795 -2.979712 2.536073,-9.393909 -2.237725 2.770067,-10.03591 -5.286547 2.041032,-9.992831 -3.993406 2.329742,-9.968481 -3.164834 2.591669,-9.930502 -2.43592 2.76722,-10.46763 -5.622538 2.138448,-10.56182 -4.61746 2.394899,-10.59364 -3.975412 2.583031,-10.5814 -3.342507 2.729239,1.400,DnF
-1.429745 -7.585263 0.7880187,-2.032547 -7.167385 1.076957,-2.452733 -6.595483 1.309442,-2.739141 -6.004123 1.494429,-2.981531 -5.611505 1.689949,-2.091218 -4.959314 1.325532,-2.253126 -3.686237 1.538137,-2.290642 -2.967936 1.655834,-2.276461 -2.304426 1.754081,-1.70952 -4.782348 1.275447,-1.727314 -3.359022 1.560586,-1.705396 -2.542573 1.764652,-1.640721 -1.828153 1.948768,-1.346078 -4.841575 1.24884,-1.299372 -3.566861 1.421261,-1.27032 -2.81059 1.607871,-1.226599 -2.163443 1.762416,-0.9982996 -5.0868 1.212111,-0.8268442 -4.073677 1.355274,-0.737792 -3.49718 1.491684,-0.6704483 -2.953321 1.609616,-10.00587 -8.136421 1.34013,-9.334181 -7.894886 1.741274,-8.776634 -7.198567 2.095968,-8.348137 -6.618118 2.443239,-7.908588 -6.212373 2.818949,-9.230521 -5.39613 1.965307,-9.053863 -4.16076 2.341402,-8.98257 -3.422601 2.618739,-8.928464 -2.731325 2.790492,-9.651634 -5.216514 2.025546,-9.547921 -3.892175 2.341518,-9.491204 -3.040829 2.63688,-9.449244 -2.285831 2.873647,-10.06793 -5.33566 2.106868,-10.0355 -4.055188 2.4206,-10.01177 -3.23335 2.705532,-9.972453 -2.499938 2.897502,-10.49008 -5.681198 2.209091,-10.59365 -4.683506 2.486892,-10.63333 -4.047092 2.695117,-10.62863 -3.418885 2.856776,1.420,DnF
-1.429745 -7.585263 0.7880187,-2.032547 -7.167385 1.076957,-2.452733 -6.595483 1.309442,-2.739141 -6.004123 1.494429,-2.981531 -5.611505 1.689949,-2.091218 -4.959314 1.325532,-2.253126 -3.686237 1.538137,-2.290642 -2.967936 1.655834,-2.276461 -2.304426 1.754081,-1.70952 -4.782348 1.275447,-1.727314 -3.359022 1.560586,-1.705396 -2.542573 1.764652,-1.640721 -1.828153 1.948768,-1.346078 -4.841575 1.24884,-1.299372 -3.566861 1.421261,-1.27032 -2.81059 1.607871,-1.226599 -2.163443 1.762416,-0.9982996 -5.0868 1.212111,-0.8268442 -4.073677 1.355274,-0.737792 -3.49718 1.491684,-0.6704483 -2.953321 1.609616,-10.00587 -8.136421 1.34013,-9.334181 -7.894886 1.741274,-8.776634 -7.198567 2.095968,-8.348137 -6.618118 2.443239,-7.908588 -6.212373 2.818949,-9.230521 -5.39613 1.965307,-9.053863 -4.16076 2.341402,-8.98257 -3.422601 2.618739,-8.928464 -2.731325 2.790492,-9.651634 -5.216514 2.025546,-9.547921 -3.892175 2.341518,-9.491204 -3.040829 2.63688,-9.449244 -2.285831 2.873647,-10.06793 -5.33566 2.106868,-10.0355 -4.055188 2.4206,-10.01177 -3.23335 2.705532,-9.972453 -2.499938 2.897502,-10.49008 -5.681198 2.209091,-10.59365 -4.683506 2.486892,-10.63333 -4.047092 2.695117,-10.62863 -3.418885 2.856776,1.440,DnF
-1.429745 -7.585263 0.7880187,-2.032547 -7.167385 1.076957,-2.452733 -6.595483 1.309442,-2.739141 -6.004123 1.494429,-2.981531 -5.611505 1.689949,-2.091218 -4.959314 1.325532,-2.253126 -3.686237 1.538137,-2.290642 -2.967936 1.655834,-2.276461 -2.304426 1.754081,-1.70952 -4.782348 1.275447,-1.727314 -3.359022 1.560586,-1.705396 -2.542573 1.764652,-1.640721 -1.828153 1.948768,-1.346078 -4.841575 1.24884,-1.299372 -3.566861 1.421261,-1.27032 -2.81059 1.607871,-1.226599 -2.163443 1.762416,-0.9982996 -5.0868 1.212111,-0.8268442 -4.073677 1.355274,-0.737792 -3.49718 1.491684,-0.6704483 -2.953321 1.609616,-10.00587 -8.136421 1.34013,-9.334181 -7.894886 1.741274,-8.776634 -7.198567 2.095968,-8.348137 -6.618118 2.443239,-7.908588 -6.212373 2.818949,-9.230521 -5.39613 1.965307,-9.053863 -4.16076 2.341402,-8.98257 -3.422601 2.618739,-8.928464 -2.731325 2.790492,-9.651634 -5.216514 2.025546,-9.547921 -3.892175 2.341518,-9.491204 -3.040829 2.63688,-9.449244 -2.285831 2.873647,-10.06793 -5.33566 2.106868,-10.0355 -4.055188 2.4206,-10.01177 -3.23335 2.705532,-9.972453 -2.499938 2.897502,-10.49008 -5.681198 2.209091,-10.59365 -4.683506 2.486892,-10.63333 -4.047092 2.695117,-10.62863 -3.418885 2.856776,1.460,DnF
-1.429711 -7.518257 0.762241,-2.028837 -7.140878 1.097026,-2.465758 -6.560577 1.340196,-2.775276 -5.943371 1.533935,-3.071455 -5.503187 1.733475,-2.092905 -4.891488 1.327359,-2.257127 -3.649406 1.566102,-2.27891 -2.955026 1.700923,-2.25417 -2.314813 1.806008,-1.704221 -4.726592 1.273443,-1.713128 -3.321746 1.584173,-1.668326 -2.522323 1.794892,-1.589132 -1.825457 1.971558,-1.329542 -4.799762 1.240341,-1.275548 -3.550096 1.45105,-1.227749 -2.809148 1.648708,-1.173314 -2.163368 1.800071,-0.9718218 -5.07077 1.205906,-0.8111029 -4.082375 1.386486,-0.7207761 -3.521139 1.549372,-0.6548824 -2.989051 1.679018,-10.03655 -8.157068 1.257056,-9.358092 -7.923913 1.634421,-8.795434 -7.219455 1.958688,-8.366585 -6.631193 2.280669,-7.93202 -6.235055 2.623789,-9.264101 -5.42387 1.836289,-9.082937 -4.18959 2.198288,-9.007329 -3.447976 2.465802,-8.948395 -2.769391 2.631863,-9.684415 -5.252702 1.904387,-9.587067 -3.933366 2.220858,-9.538271 -3.083799 2.518711,-9.501583 -2.335831 2.75928,-10.09863 -5.373792 1.991355,-10.07135 -4.115831 2.308942,-10.05888 -3.304206 2.593891,-10.02977 -2.578146 2.785432,-10.5172 -5.712418 2.097811,-10.62609 -4.741052 2.374783,-10.67189 -4.119184 2.57868,-10.67268 -3.505819 2.742602,1.480,DnF
-1.429711 -7.518257 0.762241,-2.028837 -7.140878 1.097026,-2.465758 -6.560577 1.340196,-2.775276 -5.943371 1.533935,-3.071455 -5.503187 1.733475,-2.092905 -4.891488 1.327359,-2.257127 -3.649406 1.566102,-2.27891 -2.955026 1.700923,-2.25417 -2.314813 1.806008,-1.704221 -4.726592 1.273443,-1.713128 -3.321746 1.584173,-1.668326 -2.522323 1.794892,-1.589132 -1.825457 1.971558,-1.329542 -4.799762 1.240341,-1.275548 -3.550096 1.45105,-1.227749 -2.809148 1.648708,-1.173314 -2.163368 1.800071,-0.9718218 -5.07077 1.205906,-0.8111029 -4.082375 1.386486,-0.7207761 -3.521139 1.549372,-0.6548824 -2.989051 1.679018,-10.03655 -8.157068 1.257056,-9.358092 -7.923913 1.634421,-8.795434 -7.219455 1.958688,-8.366585 -6.631193 2.280669,-7.93202 -6.235055 2.623789,-9.264101 -5.42387 1.836289,-9.082937 -4.18959 2.198288,-9.007329 -3.447976 2.465802,-8.948395 -2.769391 2.631863,-9.684415 -5.252702 1.904387,-9.587067 -3.933366 2.220858,-9.538271 -3.083799 2.518711,-9.501583 -2.335831 2.75928,-10.09863 -5.373792 1.991355,-10.07135 -4.115831 2.308942,-10.05888 -3.304206 2.593891,-10.02977 -2.578146 2.785432,-10.5172 -5.712418 2.097811,-10.62609 -4.741052 2.374783,-10.67189 -4.119184 2.57868,-10.67268 -3.505819 2.742602,1.500,DnF
-1.429711 -7.518257 0.762241,-2.028837 -7.140878 1.097026,-2.465758 -6.560577 1.340196,-2.775276 -5.943371 1.533935,-3.071455 -5.503187 1.733475,-2.092905 -4.891488 1.327359,-2.257127 -3.649406 1.566102,-2.27891 -2.955026 1.700923,-2.25417 -2.314813 1.806008,-1.704221 -4.726592 1.273443,-1.713128 -3.321746 1.584173,-1.668326 -2.522323 1.794892,-1.589132 -1.825457 1.971558,-1.329542 -4.799762 1.240341,-1.275548 -3.550096 1.45105,-1.227749 -2.809148 1.648708,-1.173314 -2.163368 1.800071,-0.9718218 -5.07077 1.205906,-0.8111029 -4.082375 1.386486,-0.7207761 -3.521139 1.549372,-0.6548824 -2.989051 1.679018,-10.03655 -8.157068 1.257056,-9.358092 -7.923913 1.634421,-8.795434 -7.219455 1.958688,-8.366585 -6.631193 2.280669,-7.93202 -6.235055 2.623789,-9.264101 -5.42387 1.836289,-9.082937 -4.18959 2.198288,-9.007329 -3.447976 2.465802,-8.948395 -2.769391 2.631863,-9.684415 -5.252702 1.904387,-9.587067 -3.933366 2.220858,-9.538271 -3.083799 2.518711,-9.501583 -2.335831 2.75928,-10.09863 -5.373792 1.991355,-10.07135 -4.115831 2.308942,-10.05888 -3.304206 2.593891,-10.02977 -2.578146 2.785432,-10.5172 -5.712418 2.097811,-10.62609 -4.741052 2.374783,-10.67189 -4.119184 2.57868,-10.67268 -3.505819 2.742602,1.520,Object Dropped
-1.395764 -7.496408 0.7651207,-1.996706 -7.163517 1.168162,-2.441899 -6.599341 1.425741,-2.741849 -5.982388 1.632352,-3.017311 -5.539314 1.84832,-2.064062 -4.882747 1.323666,-2.21384 -3.688592 1.564857,-2.242621 -3.006332 1.732512,-2.224811 -2.361134 1.866874,-1.681747 -4.699459 1.244756,-1.692402 -3.338363 1.531614,-1.657088 -2.549366 1.748201,-1.585252 -1.842524 1.93601,-1.3163 -4.762649 1.203229,-1.258912 -3.546793 1.385287,-1.21593 -2.827533 1.594979,-1.163388 -2.1919 1.764287,-0.9651942 -5.028089 1.173745,-0.8107367 -4.065969 1.329715,-0.7282238 -3.521281 1.48593,-0.6708751 -3.006081 1.619034,-10.06049 -8.219587 1.263197,-9.387603 -7.977508 1.633375,-8.828651 -7.267045 1.951949,-8.40953 -6.659386 2.268027,-7.982815 -6.254997 2.608518,-9.303921 -5.468911 1.811409,-9.124727 -4.221809 2.162176,-9.051268 -3.475454 2.424891,-8.990257 -2.794679 2.587045,-9.72775 -5.303788 1.876587,-9.647676 -3.983738 2.172844,-9.609196 -3.145045 2.458086,-9.57939 -2.406475 2.687829,-10.14008 -5.4288 1.96598,-10.12225 -4.164009 2.259411,-10.11687 -3.360384 2.533616,-10.09093 -2.642719 2.719246,-10.55211 -5.770267 2.072611,-10.66689 -4.801218 2.330764,-10.71774 -4.18721 2.527617,-10.72319 -3.584045 2.690039,1.540,DnF
-1.395764 -7.496408 0.7651207,-1.996706 -7.163517 1.168162,-2.441899 -6.599341 1.425741,-2.741849 -5.982388 1.632352,-3.017311 -5.539314 1.84832,-2.064062 -4.882747 1.323666,-2.21384 -3.688592 1.564857,-2.242621 -3.006332 1.732512,-2.224811 -2.361134 1.866874,-1.681747 -4.699459 1.244756,-1.692402 -3.338363 1.531614,-1.657088 -2.549366 1.748201,-1.585252 -1.842524 1.93601,-1.3163 -4.762649 1.203229,-1.258912 -3.546793 1.385287,-1.21593 -2.827533 1.594979,-1.163388 -2.1919 1.764287,-0.9651942 -5.028089 1.173745,-0.8107367 -4.065969 1.329715,-0.7282238 -3.521281 1.48593,-0.6708751 -3.006081 1.619034,-10.06049 -8.219587 1.263197,-9.387603 -7.977508 1.633375,-8.828651 -7.267045 1.951949,-8.40953 -6.659386 2.268027,-7.982815 -6.254997 2.608518,-9.303921 -5.468911 1.811409,-9.124727 -4.221809 2.162176,-9.051268 -3.475454 2.424891,-8.990257 -2.794679 2.587045,-9.72775 -5.303788 1.876587,-9.647676 -3.983738 2.172844,-9.609196 -3.145045 2.458086,-9.57939 -2.406475 2.687829,-10.14008 -5.4288 1.96598,-10.12225 -4.164009 2.259411,-10.11687 -3.360384 2.533616,-10.09093 -2.642719 2.719246,-10.55211 -5.770267 2.072611,-10.66689 -4.801218 2.330764,-10.71774 -4.18721 2.527617,-10.72319 -3.584045 2.690039,1.560,DnF
-1.395764 -7.496408 0.7651207,-1.996706 -7.163517 1.168162,-2.441899 -6.599341 1.425741,-2.741849 -5.982388 1.632352,-3.017311 -5.539314 1.84832,-2.064062 -4.882747 1.323666,-2.21384 -3.688592 1.564857,-2.242621 -3.006332 1.732512,-2.224811 -2.361134 1.866874,-1.681747 -4.699459 1.244756,-1.692402 -3.338363 1.531614,-1.657088 -2.549366 1.748201,-1.585252 -1.842524 1.93601,-1.3163 -4.762649 1.203229,-1.258912 -3.546793 1.385287,-1.21593 -2.827533 1.594979,-1.163388 -2.1919 1.764287,-0.9651942 -5.028089 1.173745,-0.8107367 -4.065969 1.329715,-0.7282238 -3.521281 1.48593,-0.6708751 -3.006081 1.619034,-10.06049 -8.219587 1.263197,-9.387603 -7.977508 1.633375,-8.828651 -7.267045 1.951949,-8.40953 -6.659386 2.268027,-7.982815 -6.254997 2.608518,-9.303921 -5.468911 1.811409,-9.124727 -4.221809 2.162176,-9.051268 -3.475454 2.424891,-8.990257 -2.794679 2.587045,-9.72775 -5.303788 1.876587,-9.647676 -3.983738 2.172844,-9.609196 -3.145045 2.458086,-9.57939 -2.406475 2.687829,-10.14008 -5.4288 1.96598,-10.12225 -4.164009 2.259411,-10.11687 -3.360384 2.533616,-10.09093 -2.642719 2.719246,-10.55211 -5.770267 2.072611,-10.66689 -4.801218 2.330764,-10.71774 -4.18721 2.527617,-10.72319 -3.584045 2.690039,1.580,DnF
-1.395764 -7.496408 0.7651207,-1.996706 -7.163517 1.168162,-2.441899 -6.599341 1.425741,-2.741849 -5.982388 1.632352,-3.017311 -5.539314 1.84832,-2.064062 -4.882747 1.323666,-2.21384 -3.688592 1.564857,-2.242621 -3.006332 1.732512,-2.224811 -2.361134 1.866874,-1.681747 -4.699459 1.244756,-1.692402 -3.338363 1.531614,-1.657088 -2.549366 1.748201,-1.585252 -1.842524 1.93601,-1.3163 -4.762649 1.203229,-1.258912 -3.546793 1.385287,-1.21593 -2.827533 1.594979,-1.163388 -2.1919 1.764287,-0.9651942 -5.028089 1.173745,-0.8107367 -4.065969 1.329715,-0.7282238 -3.521281 1.48593,-0.6708751 -3.006081 1.619034,-10.06049 -8.219587 1.263197,-9.387603 -7.977508 1.633375,-8.828651 -7.267045 1.951949,-8.40953 -6.659386 2.268027,-7.982815 -6.254997 2.608518,-9.303921 -5.468911 1.811409,-9.124727 -4.221809 2.162176,-9.051268 -3.475454 2.424891,-8.990257 -2.794679 2.587045,-9.72775 -5.303788 1.876587,-9.647676 -3.983738 2.172844,-9.609196 -3.145045 2.458086,-9.57939 -2.406475 2.687829,-10.14008 -5.4288 1.96598,-10.12225 -4.164009 2.259411,-10.11687 -3.360384 2.533616,-10.09093 -2.642719 2.719246,-10.55211 -5.770267 2.072611,-10.66689 -4.801218 2.330764,-10.71774 -4.18721 2.527617,-10.72319 -3.584045 2.690039,1.600,DnF
-1.422264 -7.464105 0.440829,-2.022133 -7.085034 0.6919023,-2.440925 -6.528783 0.8972757,-2.740318 -5.936914 1.047327,-3.024076 -5.522336 1.19489,-2.071932 -4.933307 0.975465,-2.228509 -3.671978 1.180996,-2.248785 -2.979272 1.275347,-2.219633 -2.360178 1.351168,-1.689757 -4.760681 0.925328,-1.708632 -3.344335 1.212272,-1.673079 -2.542176 1.38849,-1.595147 -1.861537 1.533852,-1.316375 -4.82741 0.8816344,-1.27085 -3.580256 1.051757,-1.228514 -2.839459 1.207173,-1.176764 -2.212387 1.327238,-0.959919 -5.084602 0.8272402,-0.8029809 -4.094068 0.9577686,-0.7221584 -3.54404 1.07602,-0.6688957 -3.044814 1.171405,-10.07088 -8.273521 1.278041,-9.40729 -8.02054 1.6761,-8.861769 -7.317703 2.012276,-8.454459 -6.706478 2.339104,-8.036461 -6.307273 2.682905,-9.357223 -5.523944 1.842864,-9.199503 -4.310237 2.197734,-9.134075 -3.57339 2.473994,-9.076013 -2.893041 2.650111,-9.778023 -5.348418 1.888118,-9.718703 -4.053419 2.183774,-9.689363 -3.227842 2.477158,-9.661693 -2.492387 2.717459,-10.18514 -5.471794 1.960281,-10.18297 -4.220941 2.24095,-10.18956 -3.425722 2.512751,-10.16856 -2.707441 2.700172,-10.59309 -5.818349 2.050071,-10.71939 -4.864887 2.293169,-10.77491 -4.250331 2.486285,-10.78288 -3.644586 2.64721,1.620,DnF
-1.422264 -7.464105 0.440829,-2.022133 -7.085034 0.6919023,-2.440925 -6.528783 0.8972757,-2.740318 -5.936914 1.047327,-3.024076 -5.522336 1.19489,-2.071932 -4.933307 0.975465,-2.228509 -3.671978 1.180996,-2.248785 -2.979272 1.275347,-2.219633 -2.360178 1.351168,-1.689757 -4.760681 0.925328,-1.708632 -3.344335 1.212272,-1.673079 -2.542176 1.38849,-1.595147 -1.861537 1.533852,-1.316375 -4.82741 0.8816344,-1.27085 -3.580256 1.051757,-1.228514 -2.839459 1.207173,-1.176764 -2.212387 1.327238,-0.959919 -5.084602 0.8272402,-0.8029809 -4.094068 0.9577686,-0.7221584 -3.54404 1.07602,-0.6688957 -3.044814 1.171405,-10.07088 -8.273521 1.278041,-9.40729 -8.02054 1.6761,-8.861769 -7.317703 2.012276,-8.454459 -6.706478 2.339104,-8.036461 -6.307273 2.682905,-9.357223 -5.523944 1.842864,-9.199503 -4.310237 2.197734,-9.134075 -3.57339 2.473994,-9.076013 -2.893041 2.650111,-9.778023 -5.348418 1.888118,-9.718703 -4.053419 2.183774,-9.689363 -3.227842 2.477158,-9.661693 -2.492387 2.717459,-10.18514 -5.471794 1.960281,-10.18297 -4.220941 2.24095,-10.18956 -3.425722 2.512751,-10.16856 -2.707441 2.700172,-10.59309 -5.818349 2.050071,-10.71939 -4.864887 2.293169,-10.77491 -4.250331 2.486285,-10.78288 -3.644586 2.64721,1.640,DnF
