TiagoOliveira98/HandTracking/DataLogging/JointData/Logs(1642687005)_HAM_Calculator.csv
WRIST,THUMB_CMC,THUMB_MCP,THUMB_IP,THUMB_TIP,INDEX_FINGER_MCP,INDEX_FINGER_PIP,INDEX_FINGER_DIP,INDEX_FINGER_TIP,MIDDLE_FINGER_MCP,MIDDLE_FINGER_PIP,MIDDLE_FINGER_DIP,MIDDLE_FINGER_TIP,RING_FINGER_MCP,RING_FINGER_PIP,RING_FINGER_DIP,RING_FINGER_TIP,PINKY_MCP,PINKY_PIP,PINKY_DIP,PINKY_TIP,WRIST2,THUMB_CMC2,THUMB_MCP2,THUMB_IP2,THUMB_TIP2,INDEX_FINGER_MCP2,INDEX_FINGER_PIP2,INDEX_FINGER_DIP2,INDEX_FINGER_TIP2,MIDDLE_FINGER_MCP2,MIDDLE_FINGER_PIP2,MIDDLE_FINGER_DIP2,MIDDLE_FINGER_TIP2,RING_FINGER_MCP2,RING_FINGER_PIP2,RING_FINGER_DIP2,RING_FINGER_TIP2,PINKY_MCP2,PINKY_PIP2,PINKY_DIP2,PINKY_TIP2,Timestamp,Event
10 0 0,10 7.47 0,10 7.47 0,10 7.47 0,10 7.47 0,10 7.47 0,10 7.47 0,10 7.47 0,10 7.47 0,10 7.47 0,10 7.47 0,10 7.47 0,10 7.47 0,10 7.47 0,10 7.47 0,10 7.47 0,10 7.47 0,10 7.47 0,10 7.47 0,10 7.47 0,10 7.47 0,10 0 0,10 7.47 0,10 7.47 0,10 7.47 0,10 7.47 0,10 7.47 0,10 7.47 0,10 7.47 0,10 7.47 0,10 7.47 0,10 7.47 0,10 7.47 0,10 7.47 0,10 7.47 0,10 7.47 0,10 7.47 0,10 7.47 0,10 7.47 0,10 7.47 0,10 7.47 0,10 7.47 0,0.010,
2 0 -10.21349,2 0 -10.21349,2 0 -10.21349,2 0 -10.21349,2 0 -10.21349,2 0 -10.21349,2 0 -10.21349,2 0 -10.21349,2 0 -10.21349,2 0 -10.21349,2 0 -10.21349,2 0 -10.21349,2 0 -10.21349,2 0 -10.21349,2 0 -10.21349,2 0 -10.21349,2 0 -10.21349,2 0 -10.21349,2 0 -10.21349,2 0 -10.21349,2 0 -10.21349,2 0 -9.829421,2 0 -9.829421,2 0 -9.829421,2 0 -9.829421,2 0 -9.829421,2 0 -9.829421,2 0 -9.829421,2 0 -9.829421,2 0 -9.829421,2 0 -9.829421,2 0 -9.829421,2 0 -9.829421,2 0 -9.829421,2 0 -9.829421,2 0 -9.829421,2 0 -9.829421,2 0 -9.829421,2 0 -9.829421,2 0 -9.829421,2 0 -9.829421,2 0 -9.829421,0.110,
2 0 -10.21349,2 0 -10.21349,2 0 -10.21349,2 0 -10.21349,2 0 -10.21349,2 0 -10.21349,2 0 -10.21349,2 0 -10.21349,2 0 -10.21349,2 0 -10.21349,2 0 -10.21349,2 0 -10.21349,2 0 -10.21349,2 0 -10.21349,2 0 -10.21349,2 0 -10.21349,2 0 -10.21349,2 0 -10.21349,2 0 -10.21349,2 0 -10.21349,2 0 -10.21349,2 0 -9.829421,2 0 -9.829421,2 0 -9.829421,2 0 -9.829421,2 0 -9.829421,2 0 -9.829421,2 0 -9.829421,2 0 -9.829421,2 0 -9.829421,2 0 -9.829421,2 0 -9.829421,2 0 -9.829421,2 0 -9.829421,2 0 -9.829421,2 0 -9.829421,2 0 -9.829421,2 0 -9.829421,2 0 -9.829421,2 0 -9.829421,2 0 -9.829421,2 0 -9.829421,0.210,
2 0 -10.21349,2 0 -10.21349,2 0 -10.21349,2 0 -10.21349,2 0 -10.21349,2 0 -10.21349,2 0 -10.21349,2 0 -10.21349,2 0 -10.21349,2 0 -10.21349,2 0 -10.21349,2 0 -10.21349,2 0 -10.21349,2 0 -10.21349,2 0 -10.21349,2 0 -10.21349,2 0 -10.21349,2 0 -10.21349,2 0 -10.21349,2 0 -10.21349,2 0 -10.21349,2 0 -9.829421,2 0 -9.829421,2 0 -9.829421,2 0 -9.829421,2 0 -9.829421,2 0 -9.829421,2 0 -9.829421,2 0 -9.829421,2 0 -9.829421,2 0 -9.829421,2 0 -9.829421,2 0 -9.829421,2 0 -9.829421,2 0 -9.829421,2 0 -9.829421,2 0 -9.829421,2 0 -9.829421,2 0 -9.829421,2 0 -9.829421,2 0 -9.829421,2 0 -9.829421,0.310,
2 0 -10.21349,2 0 -10.21349,2 0 -10.21349,2 0 -10.21349,2 0 -10.21349,2 0 -10.21349,2 0 -10.21349,2 0 -10.21349,2 0 -10.21349,2 0 -10.21349,2 0 -10.21349,2 0 -10.21349,2 0 -10.21349,2 0 -10.21349,2 0 -10.21349,2 0 -10.21349,2 0 -10.21349,2 0 -10.21349,2 0 -10.21349,2 0 -10.21349,2 0 -10.21349,2 0 -9.829421,2 0 -9.829421,2 0 -9.829421,2 0 -9.829421,2 0 -9.829421,2 0 -9.829421,2 0 -9.829421,2 0 -9.829421,2 0 -9.829421,2 0 -9.829421,2 0 -9.829421,2 0 -9.829421,2 0 -9.829421,2 0 -9.829421,2 0 -9.829421,2 0 -9.829421,2 0 -9.829421,2 0 -9.829421,2 0 -9.829421,2 0 -9.829421,2 0 -9.829421,0.410,
2 0 -10.21349,2 0 -10.21349,2 0 -10.21349,2 0 -10.21349,2 0 -10.21349,2 0 -10.21349,2 0 -10.21349,2 0 -10.21349,2 0 -10.21349,2 0 -10.21349,2 0 -10.21349,2 0 -10.21349,2 0 -10.21349,2 0 -10.21349,2 0 -10.21349,2 0 -10.21349,2 0 -10.21349,2 0 -10.21349,2 0 -10.21349,2 0 -10.21349,2 0 -10.21349,2 0 -9.829421,2 0 -9.829421,2 0 -9.829421,2 0 -9.829421,2 0 -9.829421,2 0 -9.829421,2 0 -9.829421,2 0 -9.829421,2 0 -9.829421,2 0 -9.829421,2 0 -9.829421,2 0 -9.829421,2 0 -9.829421,2 0 -9.829421,2 0 -9.829421,2 0 -9.829421,2 0 -9.829421,2 0 -9.829421,2 0 -9.829421,2 0 -9.829421,2 0 -9.829421,0.510,
2 0 -10.21349,2 0 -10.21349,2 0 -10.21349,2 0 -10.21349,2 0 -10.21349,2 0 -10.21349,2 0 -10.21349,2 0 -10.21349,2 0 -10.21349,2 0 -10.21349,2 0 -10.21349,2 0 -10.21349,2 0 -10.21349,2 0 -10.21349,2 0 -10.21349,2 0 -10.21349,2 0 -10.21349,2 0 -10.21349,2 0 -10.21349,2 0 -10.21349,2 0 -10.21349,2 0 -9.829421,2 0 -9.829421,2 0 -9.829421,2 0 -9.829421,2 0 -9.829421,2 0 -9.829421,2 0 -9.829421,2 0 -9.829421,2 0 -9.829421,2 0 -9.829421,2 0 -9.829421,2 0 -9.829421,2 0 -9.829421,2 0 -9.829421,2 0 -9.829421,2 0 -9.829421,2 0 -9.829421,2 0 -9.829421,2 0 -9.829421,2 0 -9.829421,2 0 -9.829421,0.610,
2 0 -10.21349,2 0 -10.21349,2 0 -10.21349,2 0 -10.21349,2 0 -10.21349,2 0 -10.21349,2 0 -10.21349,2 0 -10.21349,2 0 -10.21349,2 0 -10.21349,2 0 -10.21349,2 0 -10.21349,2 0 -10.21349,2 0 -10.21349,2 0 -10.21349,2 0 -10.21349,2 0 -10.21349,2 0 -10.21349,2 0 -10.21349,2 0 -10.21349,2 0 -10.21349,2 0 -9.829421,2 0 -9.829421,2 0 -9.829421,2 0 -9.829421,2 0 -9.829421,2 0 -9.829421,2 0 -9.829421,2 0 -9.829421,2 0 -9.829421,2 0 -9.829421,2 0 -9.829421,2 0 -9.829421,2 0 -9.829421,2 0 -9.829421,2 0 -9.829421,2 0 -9.829421,2 0 -9.829421,2 0 -9.829421,2 0 -9.829421,2 0 -9.829421,2 0 -9.829421,0.710,
2 0 -10.21349,2 0 -10.21349,2 0 -10.21349,2 0 -10.21349,2 0 -10.21349,2 0 -10.21349,2 0 -10.21349,2 0 -10.21349,2 0 -10.21349,2 0 -10.21349,2 0 -10.21349,2 0 -10.21349,2 0 -10.21349,2 0 -10.21349,2 0 -10.21349,2 0 -10.21349,2 0 -10.21349,2 0 -10.21349,2 0 -10.21349,2 0 -10.21349,2 0 -10.21349,2 0 -9.829421,2 0 -9.829421,2 0 -9.829421,2 0 -9.829421,2 0 -9.829421,2 0 -9.829421,2 0 -9.829421,2 0 -9.829421,2 0 -9.829421,2 0 -9.829421,2 0 -9.829421,2 0 -9.829421,2 0 -9.829421,2 0 -9.829421,2 0 -9.829421,2 0 -9.829421,2 0 -9.829421,2 0 -9.829421,2 0 -9.829421,2 0 -9.829421,2 0 -9.829421,0.810,
2 0 -10.21349,2 0 -10.21349,2 0 -10.21349,2 0 -10.21349,2 0 -10.21349,2 0 -10.21349,2 0 -10.21349,2 0 -10.21349,2 0 -10.21349,2 0 -10.21349,2 0 -10.21349,2 0 -10.21349,2 0 -10.21349,2 0 -10.21349,2 0 -10.21349,2 0 -10.21349,2 0 -10.21349,2 0 -10.21349,2 0 -10.21349,2 0 -10.21349,2 0 -10.21349,2 0 -9.829421,2 0 -9.829421,2 0 -9.829421,2 0 -9.829421,2 0 -9.829421,2 0 -9.829421,2 0 -9.829421,2 0 -9.829421,2 0 -9.829421,2 0 -9.829421,2 0 -9.829421,2 0 -9.829421,2 0 -9.829421,2 0 -9.829421,2 0 -9.829421,2 0 -9.829421,2 0 -9.829421,2 0 -9.829421,2 0 -9.829421,2 0 -9.829421,2 0 -9.829421,0.910,
2 0 -10.21349,2 0 -10.21349,2 0 -10.21349,2 0 -10.21349,2 0 -10.21349,2 0 -10.21349,2 0 -10.21349,2 0 -10.21349,2 0 -10.21349,2 0 -10.21349,2 0 -10.21349,2 0 -10.21349,2 0 -10.21349,2 0 -10.21349,2 0 -10.21349,2 0 -10.21349,2 0 -10.21349,2 0 -10.21349,2 0 -10.21349,2 0 -10.21349,2 0 -10.21349,2 0 -9.829421,2 0 -9.829421,2 0 -9.829421,2 0 -9.829421,2 0 -9.829421,2 0 -9.829421,2 0 -9.829421,2 0 -9.829421,2 0 -9.829421,2 0 -9.829421,2 0 -9.829421,2 0 -9.829421,2 0 -9.829421,2 0 -9.829421,2 0 -9.829421,2 0 -9.829421,2 0 -9.829421,2 0 -9.829421,2 0 -9.829421,2 0 -9.829421,2 0 -9.829421,1.010,
2 0 -10.21349,2 0 -10.21349,2 0 -10.21349,2 0 -10.21349,2 0 -10.21349,2 0 -10.21349,2 0 -10.21349,2 0 -10.21349,2 0 -10.21349,2 0 -10.21349,2 0 -10.21349,2 0 -10.21349,2 0 -10.21349,2 0 -10.21349,2 0 -10.21349,2 0 -10.21349,2 0 -10.21349,2 0 -10.21349,2 0 -10.21349,2 0 -10.21349,2 0 -10.21349,2 0 -9.829421,2 0 -9.829421,2 0 -9.829421,2 0 -9.829421,2 0 -9.829421,2 0 -9.829421,2 0 -9.829421,2 0 -9.829421,2 0 -9.829421,2 0 -9.829421,2 0 -9.829421,2 0 -9.829421,2 0 -9.829421,2 0 -9.829421,2 0 -9.829421,2 0 -9.829421,2 0 -9.829421,2 0 -9.829421,2 0 -9.829421,2 0 -9.829421,2 0 -9.829421,1.110,
2 0 -10.21349,2 0 -10.21349,2 0 -10.21349,2 0 -10.21349,2 0 -10.21349,2 0 -10.21349,2 0 -10.21349,2 0 -10.21349,2 0 -10.21349,2 0 -10.21349,2 0 -10.21349,2 0 -10.21349,2 0 -10.21349,2 0 -10.21349,2 0 -10.21349,2 0 -10.21349,2 0 -10.21349,2 0 -10.21349,2 0 -10.21349,2 0 -10.21349,2 0 -10.21349,2 0 -9.829421,2 0 -9.829421,2 0 -9.829421,2 0 -9.829421,2 0 -9.829421,2 0 -9.829421,2 0 -9.829421,2 0 -9.829421,2 0 -9.829421,2 0 -9.829421,2 0 -9.829421,2 0 -9.829421,2 0 -9.829421,2 0 -9.829421,2 0 -9.829421,2 0 -9.829421,2 0 -9.829421,2 0 -9.829421,2 0 -9.829421,2 0 -9.829421,2 0 -9.829421,1.210,
2 0 -10.21349,2 0 -10.21349,2 0 -10.21349,2 0 -10.21349,2 0 -10.21349,2 0 -10.21349,2 0 -10.21349,2 0 -10.21349,2 0 -10.21349,2 0 -10.21349,2 0 -10.21349,2 0 -10.21349,2 0 -10.21349,2 0 -10.21349,2 0 -10.21349,2 0 -10.21349,2 0 -10.21349,2 0 -10.21349,2 0 -10.21349,2 0 -10.21349,2 0 -10.21349,2 0 -9.829421,2 0 -9.829421,2 0 -9.829421,2 0 -9.829421,2 0 -9.829421,2 0 -9.829421,2 0 -9.829421,2 0 -9.829421,2 0 -9.829421,2 0 -9.829421,2 0 -9.829421,2 0 -9.829421,2 0 -9.829421,2 0 -9.829421,2 0 -9.829421,2 0 -9.829421,2 0 -9.829421,2 0 -9.829421,2 0 -9.829421,2 0 -9.829421,2 0 -9.829421,1.310,
2 0 -10.21349,2 0 -10.21349,2 0 -10.21349,2 0 -10.21349,2 0 -10.21349,2 0 -10.21349,2 0 -10.21349,2 0 -10.21349,2 0 -10.21349,2 0 -10.21349,2 0 -10.21349,2 0 -10.21349,2 0 -10.21349,2 0 -10.21349,2 0 -10.21349,2 0 -10.21349,2 0 -10.21349,2 0 -10.21349,2 0 -10.21349,2 0 -10.21349,2 0 -10.21349,2 0 -9.829421,2 0 -9.829421,2 0 -9.829421,2 0 -9.829421,2 0 -9.829421,2 0 -9.829421,2 0 -9.829421,2 0 -9.829421,2 0 -9.829421,2 0 -9.829421,2 0 -9.829421,2 0 -9.829421,2 0 -9.829421,2 0 -9.829421,2 0 -9.829421,2 0 -9.829421,2 0 -9.829421,2 0 -9.829421,2 0 -9.829421,2 0 -9.829421,2 0 -9.829421,1.410,
2 0 -10.21349,2 0 -10.21349,2 0 -10.21349,2 0 -10.21349,2 0 -10.21349,2 0 -10.21349,2 0 -10.21349,2 0 -10.21349,2 0 -10.21349,2 0 -10.21349,2 0 -10.21349,2 0 -10.21349,2 0 -10.21349,2 0 -10.21349,2 0 -10.21349,2 0 -10.21349,2 0 -10.21349,2 0 -10.21349,2 0 -10.21349,2 0 -10.21349,2 0 -10.21349,2 0 -9.829421,2 0 -9.829421,2 0 -9.829421,2 0 -9.829421,2 0 -9.829421,2 0 -9.829421,2 0 -9.829421,2 0 -9.829421,2 0 -9.829421,2 0 -9.829421,2 0 -9.829421,2 0 -9.829421,2 0 -9.829421,2 0 -9.829421,2 0 -9.829421,2 0 -9.829421,2 0 -9.829421,2 0 -9.829421,2 0 -9.829421,2 0 -9.829421,2 0 -9.829421,1.510,
2 0 -10.21349,2 0 -10.21349,2 0 -10.21349,2 0 -10.21349,2 0 -10.21349,2 0 -10.21349,2 0 -10.21349,2 0 -10.21349,2 0 -10.21349,2 0 -10.21349,2 0 -10.21349,2 0 -10.21349,2 0 -10.21349,2 0 -10.21349,2 0 -10.21349,2 0 -10.21349,2 0 -10.21349,2 0 -10.21349,2 0 -10.21349,2 0 -10.21349,2 0 -10.21349,2 0 -9.829421,2 0 -9.829421,2 0 -9.829421,2 0 -9.829421,2 0 -9.829421,2 0 -9.829421,2 0 -9.829421,2 0 -9.829421,2 0 -9.829421,2 0 -9.829421,2 0 -9.829421,2 0 -9.829421,2 0 -9.829421,2 0 -9.829421,2 0 -9.829421,2 0 -9.829421,2 0 -9.829421,2 0 -9.829421,2 0 -9.829421,2 0 -9.829421,2 0 -9.829421,1.610,
2 0 -10.21349,2 0 -10.21349,2 0 -10.21349,2 0 -10.21349,2 0 -10.21349,2 0 -10.21349,2 0 -10.21349,2 0 -10.21349,2 0 -10.21349,2 0 -10.21349,2 0 -10.21349,2 0 -10.21349,2 0 -10.21349,2 0 -10.21349,2 0 -10.21349,2 0 -10.21349,2 0 -10.21349,2 0 -10.21349,2 0 -10.21349,2 0 -10.21349,2 0 -10.21349,2 0 -9.829421,2 0 -9.829421,2 0 -9.829421,2 0 -9.829421,2 0 -9.829421,2 0 -9.829421,2 0 -9.829421,2 0 -9.829421,2 0 -9.829421,2 0 -9.829421,2 0 -9.829421,2 0 -9.829421,2 0 -9.829421,2 0 -9.829421,2 0 -9.829421,2 0 -9.829421,2 0 -9.829421,2 0 -9.829421,2 0 -9.829421,2 0 -9.829421,2 0 -9.829421,1.710,
-2.395138 -14.83047 -4.48605,-2.942965 -14.94634 -4.184011,-3.368402 -14.61405 -4.059,-3.635418 -14.23171 -3.993216,-3.959929 -13.90209 -3.938089,-3.13734 -13.35932 -4.43181,-3.266009 -12.64552 -4.583441,-3.39613 -12.24108 -4.6407,-3.518527 -11.87624 -4.583059,-2.798486 -13.24781 -4.589381,-2.87828 -12.81288 -4.718724,-2.944839 -12.85535 -4.792448,-3.002764 -12.86772 -4.865488,-2.492473 -13.31943 -4.720388,-2.520184 -12.9902 -4.799042,-2.502065 -13.26894 -4.800212,-2.494372 -13.53491 -4.849963,-2.235233 -13.48687 -4.805117,-2.249009 -13.1879 -4.864018,-2.237298 -13.31725 -4.866317,-2.227086 -13.46652 -4.912172,-8.577789 -14.98558 -1.639176,-7.970497 -14.63892 -1.579649,-7.516515 -14.27793 -1.348224,-7.201424 -13.85154 -1.076754,-6.924997 -13.32946 -0.8160962,-7.692625 -12.89784 -1.399268,-7.380267 -11.99796 -1.205742,-7.215764 -11.45538 -1.097847,-7.096126 -11.02007 -1.060753,-7.943723 -12.76553 -1.258575,-7.668642 -11.67524 -1.034217,-7.837292 -12.76156 -2.654405,-7.602954 -12.36625 -2.768584,-8.534107 -14.91264 -2.030379,-8.409254 -13.56569 -2.285766,-8.172313 -12.95483 -2.472323,-7.944031 -12.61813 -2.596769,-8.739277 -15.20473 -1.850486,-8.680919 -14.08224 -2.107554,-8.527984 -13.53944 -2.300696,-8.344306 -13.20254 -2.470054,1.810,
-2.649178 -14.77914 -4.269138,-3.308295 -14.39362 -4.019147,-3.725947 -13.84656 -3.701617,-3.959679 -13.27449 -3.433967,-4.266451 -12.6909 -3.148841,-3.357408 -13.4647 -3.300939,-3.438119 -12.7857 -2.928729,-3.508397 -12.1893 -2.715077,-3.564414 -11.61626 -2.563672,-3.017519 -13.42924 -3.306436,-3.038506 -12.73676 -2.990822,-3.10911 -12.1957 -2.86048,-3.186357 -11.7409 -2.706167,-2.710729 -13.50006 -3.333569,-2.714293 -12.81081 -3.072169,-2.778464 -12.30898 -2.920548,-2.838623 -11.89424 -2.757464,-2.444407 -13.66555 -3.353191,-2.466835 -13.06161 -3.168918,-2.49121 -12.64962 -3.069117,-2.520242 -12.31967 -2.953089,-8.511778 -14.7647 -0.8526078,-7.849374 -14.18301 -0.8830401,-7.420636 -13.44853 -0.6679211,-7.112133 -12.84737 -0.4312726,-6.800866 -12.23945 -0.1608245,-7.72747 -12.36548 -0.4135605,-7.571935 -11.44273 -0.08089477,-7.404416 -10.78538 0.2068048,-7.211349 -10.21458 0.4795419,-7.981155 -12.36134 -0.1320148,-7.835698 -11.33289 0.2604332,-7.674241 -10.62506 0.5754144,-7.485387 -10.00891 0.7974443,-8.246485 -12.50908 0.1318724,-8.151053 -11.52393 0.4729736,-8.035963 -10.80688 0.6925093,-7.884058 -10.17773 0.8500341,-8.529673 -12.80839 0.3823977,-8.499922 -11.9276 0.6431898,-8.450202 -11.32055 0.7667621,-8.391165 -10.75859 0.8477049,1.910,
-3.069087 -11.71118 -0.309395,-3.883827 -10.85717 -0.305492,-4.38068 -10.00528 -0.1069124,-4.636546 -9.278959 0.1379514,-4.854633 -8.543631 0.4131019,-4.087093 -9.1362 0.2760578,-4.205839 -8.05829 0.6567369,-4.327772 -7.360274 0.9199457,-4.444688 -6.700016 1.056512,-3.754837 -9.086617 0.496137,-3.879169 -8.032705 0.9476961,-4.019053 -7.288953 1.192482,-4.124248 -6.60223 1.36353,-3.467304 -9.159206 0.7002115,-3.523151 -8.122667 1.092202,-3.594908 -7.422864 1.295073,-3.668671 -6.833488 1.446555,-3.222038 -9.348097 0.8958724,-3.217466 -8.497477 1.181183,-3.255512 -7.928628 1.292512,-3.308762 -7.435046 1.378322,-8.652923 -11.66551 1.555716,-7.932965 -11.11593 1.489666,-7.40261 -10.31005 1.613689,-7.084942 -9.640102 1.852061,-6.787603 -9.01597 2.119438,-7.635594 -8.636211 1.382533,-7.424097 -7.638612 1.529251,-7.31186 -6.996424 1.718002,-7.230379 -6.392324 1.877469,-7.897717 -8.503916 1.673774,-7.711537 -7.327 1.787553,-7.592278 -6.596632 1.990308,-7.475583 -5.92332 2.118795,-8.192443 -8.602961 1.995497,-8.132794 -7.476064 2.122215,-8.056026 -6.766635 2.337368,-7.932474 -6.137334 2.455387,-8.519257 -8.932293 2.329339,-8.594215 -8.030046 2.461914,-8.600579 -7.437944 2.580605,-8.556972 -6.845514 2.663369,2.010,
-3.223207 -8.746687 -0.01254006,-3.886559 -8.396236 0.1352667,-4.402201 -7.692228 0.194427,-4.686628 -6.886778 0.2729807,-4.844183 -6.213446 0.2876335,-4.121847 -6.138559 -0.1871823,-4.418906 -5.056945 -0.1425264,-4.575693 -4.586664 -0.0660826,-4.685624 -4.238325 -0.03013679,-3.822456 -5.898166 -0.1549605,-4.052624 -4.631258 -0.172441,-4.227295 -4.095787 -0.1328578,-4.352385 -3.74108 -0.127575,-3.520866 -5.878328 -0.06190962,-3.654752 -4.740074 -0.03272857,-3.7985 -4.188967 -0.02107221,-3.941788 -3.814813 0.02240464,-3.189846 -6.042717 0.07608179,-3.228437 -5.208381 0.09412896,-3.335242 -4.750211 0.116777,-3.472717 -4.421854 0.1307556,-8.99686 -9.941105 1.762367,-8.254666 -9.38702 1.720381,-7.689218 -8.563807 1.815715,-7.366661 -7.847297 2.019672,-7.079766 -7.268718 2.260143,-7.938097 -6.890983 1.571349,-7.72837 -5.888149 1.634583,-7.616778 -5.271505 1.758253,-7.539563 -4.727286 1.855915,-8.228083 -6.720052 1.803798,-8.045769 -5.524984 1.841064,-7.919661 -4.810276 2.008364,-7.805134 -4.155607 2.137826,-8.53975 -6.763206 2.057217,-8.467437 -5.651739 2.106589,-8.380458 -4.973964 2.281251,-8.245843 -4.371103 2.385657,-8.887349 -7.022264 2.313112,-8.938457 -6.126977 2.366867,-8.924947 -5.558886 2.438502,-8.859373 -5.006413 2.495381,2.110,
-3.174259 -8.729906 0.2519595,-3.808876 -8.295414 0.3433151,-4.332496 -7.536436 0.3632899,-4.615282 -6.771614 0.4564213,-4.867504 -6.168294 0.580909,-4.133763 -6.046863 -0.07137287,-4.381153 -5.132522 -0.009376884,-4.529856 -4.607024 0.04231913,-4.67589 -4.157138 0.08492646,-3.821612 -5.818248 0.04635862,-4.025536 -4.749317 0.07227015,-4.194809 -4.123851 0.1967342,-4.363153 -3.610326 0.2877142,-3.511353 -5.797653 0.2348604,-3.646952 -4.784494 0.2975081,-3.782812 -4.190372 0.4218576,-3.936906 -3.724533 0.5303407,-3.180356 -5.962824 0.4664707,-3.238946 -5.160612 0.55783,-3.331726 -4.66123 0.6760654,-3.460463 -4.236885 0.7698209,-9.03531 -9.614296 1.016323,-8.315994 -9.15468 0.9617252,-7.783167 -8.330725 1.041667,-7.482216 -7.590147 1.221739,-7.179801 -7.068857 1.410801,-8.053674 -6.782487 0.922389,-7.828809 -5.761299 1.042577,-7.6747 -5.16941 1.167219,-7.545828 -4.65364 1.248305,-8.354132 -6.594355 1.146226,-8.152435 -5.337127 1.227697,-8.004417 -4.615976 1.399813,-7.873112 -3.968338 1.512368,-8.658481 -6.629533 1.390462,-8.573118 -5.444545 1.504178,-8.481562 -4.731058 1.686361,-8.354896 -4.08279 1.786777,-8.983132 -6.865802 1.619913,-9.046489 -5.958755 1.734811,-9.052342 -5.36568 1.839841,-9.011466 -4.78264 1.913663,2.210,
-3.169008 -8.510216 -0.1142274,-3.78051 -8.199886 0.05843797,-4.317533 -7.488998 0.1152485,-4.625244 -6.720095 0.231255,-4.8571 -6.081396 0.3821717,-4.151646 -5.955267 -0.3751663,-4.401481 -5.05101 -0.3391166,-4.550322 -4.534605 -0.2966875,-4.685996 -4.086732 -0.2752132,-3.840932 -5.711355 -0.3123312,-4.060551 -4.661467 -0.3458823,-4.223028 -4.064106 -0.2726756,-4.373826 -3.556932 -0.2183523,-3.537127 -5.666713 -0.1811055,-3.693354 -4.683549 -0.1730652,-3.833888 -4.107416 -0.09977183,-3.980452 -3.643023 -0.03482325,-3.216722 -5.792609 0.0114885,-3.31307 -4.991462 0.04167244,-3.413745 -4.499468 0.1037151,-3.53006 -4.065116 0.1555718,-9.03145 -9.392479 0.7627539,-8.369471 -9.008352 0.8015899,-7.845563 -8.213703 0.8953882,-7.537034 -7.463977 1.072476,-7.233018 -6.972229 1.266377,-8.094274 -6.649451 0.7169616,-7.887081 -5.614988 0.8408441,-7.759171 -5.018604 0.9739307,-7.649359 -4.501361 1.066376,-8.396778 -6.43589 0.8768427,-8.20626 -5.196342 0.9339106,-8.068575 -4.469118 1.123003,-7.946492 -3.810732 1.25983,-8.70157 -6.44951 1.062848,-8.6215 -5.299102 1.151343,-8.53081 -4.606539 1.330661,-8.422048 -3.99347 1.453393,-9.021811 -6.653974 1.248493,-9.076543 -5.762012 1.364434,-9.079816 -5.200206 1.468158,-9.040728 -4.654109 1.538115,2.310,
-3.21594 -8.462711 -0.5390456,-3.835148 -8.157206 -0.3446077,-4.340928 -7.532762 -0.2630918,-4.623986 -6.79136 -0.1338812,-4.826881 -6.131322 0.01238,-4.156836 -6.033798 -0.7255089,-4.402765 -5.125627 -0.6664453,-4.559252 -4.608486 -0.5989876,-4.705402 -4.172014 -0.5500686,-3.855507 -5.777642 -0.6809123,-4.076969 -4.73491 -0.7012764,-4.255589 -4.121437 -0.6018587,-4.41779 -3.623343 -0.5288973,-3.555887 -5.72916 -0.5702209,-3.71567 -4.742365 -0.5411883,-3.869521 -4.158825 -0.4328198,-4.028027 -3.715734 -0.3383318,-3.230275 -5.85433 -0.4064004,-3.321781 -5.064455 -0.3370444,-3.431971 -4.578083 -0.2255274,-3.563913 -4.186111 -0.1341179,-9.020856 -9.132463 0.2310243,-8.357371 -8.805107 0.3088326,-7.822963 -8.098289 0.3880961,-7.504674 -7.386543 0.5312476,-7.211558 -6.922067 0.6786977,-8.08489 -6.562445 0.2195403,-7.867961 -5.536664 0.3545247,-7.732335 -4.948772 0.4957908,-7.619609 -4.439077 0.5983723,-8.385156 -6.332251 0.3558986,-8.167048 -5.121557 0.437209,-8.018449 -4.402081 0.6574758,-7.894249 -3.762866 0.8233203,-8.690301 -6.340843 0.5237386,-8.568902 -5.194884 0.6548549,-8.473559 -4.472785 0.868956,-8.370615 -3.85218 1.017569,-9.015825 -6.533741 0.6899412,-9.042384 -5.623817 0.8636764,-9.03481 -5.053611 1.009885,-8.991033 -4.523858 1.101617,2.410,
-3.185549 -8.544262 -0.7511613,-3.791118 -8.260141 -0.5306364,-4.293181 -7.643762 -0.4368058,-4.573931 -6.910184 -0.2981088,-4.760409 -6.240411 -0.1423293,-4.111113 -6.17165 -0.9281434,-4.361587 -5.283411 -0.8684928,-4.527044 -4.758418 -0.7890886,-4.675957 -4.30585 -0.7329468,-3.808669 -5.917457 -0.8897479,-4.027657 -4.892051 -0.9177417,-4.206868 -4.286515 -0.8201687,-4.36091 -3.781045 -0.7485316,-3.511213 -5.873485 -0.7806689,-3.66057 -4.904412 -0.7586436,-3.805325 -4.316948 -0.6441637,-3.948783 -3.849662 -0.5421255,-3.189899 -6.005529 -0.6160129,-3.285025 -5.222988 -0.5528553,-3.392462 -4.737836 -0.4412799,-3.511741 -4.334731 -0.3487874,-8.985748 -9.151676 0.0292387,-8.343921 -8.846907 0.1160183,-7.830564 -8.143545 0.2079565,-7.524666 -7.446075 0.3651447,-7.231098 -7.009597 0.5270373,-8.091381 -6.626358 0.02746397,-7.878959 -5.626669 0.1608872,-7.741027 -5.034582 0.3020138,-7.629337 -4.523669 0.4021186,-8.388087 -6.402324 0.1584529,-8.190109 -5.204674 0.2335035,-8.050353 -4.477119 0.4435448,-7.935906 -3.82457 0.598941,-8.689344 -6.413637 0.3203354,-8.578387 -5.287597 0.4350543,-8.483649 -4.58547 0.6370406,-8.386233 -3.975886 0.7793139,-9.014786 -6.607847 0.4816376,-9.041991 -5.710498 0.6487996,-9.037881 -5.13787 0.7952319,-9.005959 -4.605409 0.888864,2.510,
-3.16705 -8.620693 -0.7654088,-3.767641 -8.339918 -0.5384222,-4.264488 -7.709184 -0.4357754,-4.540989 -6.984806 -0.290163,-4.739529 -6.325284 -0.130563,-4.095448 -6.245838 -0.9206934,-4.338153 -5.369101 -0.8540257,-4.502905 -4.846229 -0.770339,-4.655387 -4.395194 -0.7056704,-3.787884 -5.996522 -0.8838758,-4.005669 -4.992504 -0.8905618,-4.188345 -4.395709 -0.7783363,-4.34842 -3.910537 -0.6940289,-3.485893 -5.958758 -0.7768891,-3.632739 -5.004209 -0.7399727,-3.781303 -4.420001 -0.6049363,-3.931877 -3.968299 -0.4876741,-3.161896 -6.102985 -0.6172529,-3.255072 -5.332365 -0.542009,-3.368469 -4.850172 -0.417368,-3.495125 -4.461523 -0.3157957,-8.982914 -9.185408 -0.06007423,-8.346562 -8.882364 0.04566004,-7.840103 -8.199291 0.1442505,-7.539833 -7.500301 0.3043703,-7.253749 -7.05327 0.4706714,-8.100028 -6.684309 -0.05106834,-7.896585 -5.685516 0.08615397,-7.761609 -5.083187 0.235636,-7.651641 -4.567224 0.3435888,-8.398762 -6.459279 0.06906949,-8.20159 -5.268066 0.1449766,-8.064579 -4.536849 0.3583601,-7.951164 -3.886993 0.512704,-8.700666 -6.466506 0.2211843,-8.592159 -5.346985 0.3337707,-8.502709 -4.643524 0.5370776,-8.410249 -4.039962 0.6816366,-9.024861 -6.655927 0.3743129,-9.051839 -5.75668 0.5387172,-9.049229 -5.177376 0.6862537,-9.019778 -4.641054 0.7819188,2.610,
-3.076656 -8.870768 -1.113502,-3.683104 -8.611986 -0.864718,-4.181897 -7.947692 -0.748542,-4.451052 -7.223275 -0.5669236,-4.636765 -6.48456 -0.3694365,-4.045734 -6.58027 -1.401716,-4.294655 -5.71102 -1.379382,-4.455409 -5.20396 -1.236187,-4.603611 -4.775795 -1.081915,-3.723915 -6.362566 -1.334642,-3.875716 -5.418797 -1.230359,-3.990189 -5.034525 -0.9065524,-4.057506 -5.007228 -0.674095,-3.416338 -6.327327 -1.200502,-3.532455 -5.446102 -1.038188,-3.621428 -5.092325 -0.646333,-3.681467 -5.13865 -0.3634325,-3.087708 -6.42326 -1.023466,-3.159033 -5.687242 -0.8293898,-3.26362 -5.387592 -0.5529109,-3.356623 -5.385128 -0.3263406,-8.999697 -9.310383 -0.1192543,-8.368255 -9.015158 -0.009661622,-7.87201 -8.329706 0.08931769,-7.575652 -7.629558 0.247696,-7.292597 -7.188598 0.4120944,-8.145864 -6.81073 -0.1371151,-7.949526 -5.816394 -0.0183062,-7.808583 -5.22476 0.1289595,-7.691595 -4.719385 0.2362591,-8.446823 -6.593368 -0.03056869,-8.26141 -5.404953 0.02738741,-8.123366 -4.675945 0.2310546,-8.006169 -4.032167 0.3840494,-8.74831 -6.609925 0.1084832,-8.639388 -5.486209 0.1952268,-8.540455 -4.792814 0.3836963,-8.439218 -4.19837 0.5213708,-9.068651 -6.804581 0.2508067,-9.09702 -5.912802 0.389551,-9.094008 -5.340263 0.5295293,-9.065503 -4.800525 0.6223571,2.710,
-3.035083 -8.922478 -1.528944,-3.62974 -8.716312 -1.253836,-4.122217 -8.071699 -1.094988,-4.390699 -7.326226 -0.9022109,-4.564053 -6.595066 -0.7269405,-4.019265 -6.783746 -1.670465,-4.273238 -5.931383 -1.58881,-4.438437 -5.396207 -1.39832,-4.569244 -4.978775 -1.206264,-3.706873 -6.53557 -1.613592,-3.895197 -5.520807 -1.341054,-4.008419 -5.349349 -0.9622681,-4.010664 -5.610576 -0.7489996,-3.399192 -6.46722 -1.503667,-3.530383 -5.506343 -1.244103,-3.632577 -5.351079 -0.8569488,-3.657726 -5.621974 -0.6099809,-3.059589 -6.540937 -1.35036,-3.135319 -5.760918 -1.09004,-3.267104 -5.576588 -0.7951923,-3.350295 -5.760332 -0.5740396,-8.996063 -9.31955 -0.1667089,-8.366952 -9.027037 -0.06111917,-7.87411 -8.336452 0.03784767,-7.581596 -7.637298 0.1933447,-7.297512 -7.195899 0.3569372,-8.161744 -6.82797 -0.1568714,-7.966041 -5.827022 -0.01971234,-7.818806 -5.242619 0.1358273,-7.695257 -4.739239 0.247998,-8.462639 -6.61407 -0.03785552,-8.280282 -5.424956 0.03798117,-8.133739 -4.696352 0.2499282,-8.007538 -4.056743 0.408079,-8.764877 -6.636289 0.1122105,-8.654387 -5.505231 0.2163603,-8.551849 -4.800794 0.418691,-8.446341 -4.196823 0.5667011,-9.084357 -6.839927 0.2637351,-9.113287 -5.939455 0.417394,-9.108373 -5.354412 0.5683736,-9.077849 -4.80422 0.6704674,2.810,
-2.922068 -9.224527 -2.161155,-3.495153 -8.965351 -1.85887,-3.963814 -8.325649 -1.68258,-4.213179 -7.630949 -1.476887,-4.364204 -6.969791 -1.283313,-3.940466 -7.209807 -2.16855,-4.199799 -6.384873 -2.032588,-4.381208 -5.859928 -1.883601,-4.55446 -5.35391 -1.732815,-3.633017 -7.038273 -2.077412,-3.844666 -6.108266 -1.562876,-3.876553 -6.767601 -1.289444,-3.828801 -7.43674 -1.225257,-3.312756 -6.9873 -1.932676,-3.489859 -6.132236 -1.419913,-3.561668 -6.878824 -1.210776,-3.516396 -7.586412 -1.20902,-2.95289 -7.050638 -1.752622,-3.105213 -6.330102 -1.344579,-3.211493 -6.753786 -1.164375,-3.206452 -7.287801 -1.107069,-8.991537 -9.254976 -0.260168,-8.371133 -8.989019 -0.1222519,-7.877206 -8.315639 -0.01143269,-7.582253 -7.629709 0.1551926,-7.300932 -7.174795 0.3328446,-8.160565 -6.79113 -0.2452273,-7.95145 -5.791884 -0.1116977,-7.8032 -5.202413 0.0425413,-7.684656 -4.697448 0.1534686,-8.458035 -6.576503 -0.1364894,-8.266216 -5.397476 -0.06450923,-8.124098 -4.674188 0.1427748,-8.003982 -4.044782 0.2974672,-8.759899 -6.598387 0.01023006,-8.64603 -5.481576 0.1181923,-8.549045 -4.773845 0.3235632,-8.445677 -4.170856 0.4753521,-9.082013 -6.800512 0.1665078,-9.110772 -5.918904 0.3298165,-9.107132 -5.349264 0.4898481,-9.074284 -4.815012 0.6020682,2.910,
-2.87151 -9.235632 -2.390553,-3.402296 -9.092379 -2.091569,-3.900525 -8.456238 -1.939085,-4.13706 -7.782164 -1.758084,-4.243537 -7.159023 -1.587674,-3.89574 -7.331295 -2.254743,-4.189587 -6.655435 -1.939098,-4.380747 -6.215139 -1.695556,-4.560556 -5.813379 -1.49501,-3.584351 -7.127344 -2.187316,-3.784449 -6.670362 -1.586017,-3.69877 -7.502592 -1.385238,-3.594845 -8.103312 -1.388777,-3.249722 -7.085388 -2.056667,-3.412725 -6.786573 -1.465907,-3.380793 -7.645579 -1.393905,-3.298607 -8.209473 -1.465433,-2.904081 -7.169603 -1.898741,-3.068865 -6.840187 -1.458797,-3.118921 -7.450599 -1.393195,-3.102297 -7.919166 -1.416142,-8.988306 -9.250259 -0.2545329,-8.366283 -8.984652 -0.1158082,-7.874703 -8.303988 -0.006051645,-7.583916 -7.625284 0.1570626,-7.304911 -7.188774 0.3284717,-8.159068 -6.780355 -0.2200986,-7.960212 -5.778887 -0.08303337,-7.81483 -5.190521 0.07213819,-7.695178 -4.682876 0.1832668,-8.457003 -6.570731 -0.1105775,-8.277185 -5.393596 -0.03211176,-8.138539 -4.672088 0.1753581,-8.017436 -4.041102 0.3311121,-8.759752 -6.594021 0.03405872,-8.649127 -5.477606 0.1476627,-8.553135 -4.770504 0.3568934,-8.448262 -4.165168 0.5100706,-9.082228 -6.795919 0.1862368,-9.113923 -5.918421 0.3480584,-9.11095 -5.347848 0.5027572,-9.078195 -4.811351 0.6142219,3.010,
-2.86102 -9.262075 -2.469687,-3.38216 -9.144518 -2.190787,-3.881493 -8.513084 -2.054618,-4.112123 -7.833161 -1.897416,-4.196081 -7.221884 -1.757858,-3.865659 -7.390405 -2.27229,-4.170288 -6.782966 -1.906896,-4.365263 -6.376947 -1.636267,-4.549761 -6.006835 -1.424308,-3.54446 -7.17625 -2.194255,-3.748457 -6.892263 -1.574969,-3.622114 -7.783432 -1.429903,-3.497738 -8.342821 -1.462314,-3.200342 -7.150136 -2.054106,-3.369318 -7.00636 -1.427413,-3.301413 -7.889164 -1.42047,-3.206617 -8.392836 -1.527621,-2.851006 -7.254484 -1.887291,-3.016626 -7.02895 -1.45854,-3.051254 -7.658093 -1.441118,-3.03126 -8.074976 -1.485735,-8.985712 -9.25016 -0.2645815,-8.368814 -8.973825 -0.1341471,-7.878358 -8.299482 -0.02566281,-7.585879 -7.620356 0.1387157,-7.301593 -7.183999 0.3121155,-8.163692 -6.781025 -0.2338729,-7.962036 -5.786018 -0.09639831,-7.816845 -5.202106 0.06028596,-7.698344 -4.699176 0.1724503,-8.461335 -6.57213 -0.1219364,-8.277546 -5.399953 -0.04567827,-8.13858 -4.683873 0.1621146,-8.01872 -4.053766 0.3202683,-8.764338 -6.598598 0.02405113,-8.651376 -5.487064 0.1316513,-8.555134 -4.786932 0.3357541,-8.451984 -4.186182 0.4867874,-9.088459 -6.803714 0.1778226,-9.119349 -5.925886 0.3340722,-9.115228 -5.353435 0.4875638,-9.083674 -4.812577 0.5979757,3.110,
-2.835813 -9.315893 -1.745432,-3.32778 -9.229195 -1.549933,-3.820534 -8.641035 -1.337644,-4.035297 -8.004601 -1.100374,-4.127443 -7.399744 -0.8320042,-3.761009 -7.363651 -1.391722,-4.05472 -6.938905 -0.9016515,-4.248906 -6.676784 -0.5265682,-4.463804 -6.467433 -0.3040148,-3.440286 -7.024576 -1.259137,-3.660624 -7.324119 -0.6393223,-3.502844 -8.187038 -0.4794548,-3.38035 -8.694323 -0.4633484,-3.080851 -6.977825 -1.098729,-3.273254 -7.474256 -0.5717649,-3.153219 -8.245384 -0.5959438,-3.074301 -8.654892 -0.6597847,-2.725792 -7.102583 -0.8996223,-2.921012 -7.409132 -0.5754482,-2.924403 -8.051085 -0.6068845,-2.914804 -8.425694 -0.6366788,-8.989769 -9.25433 -0.2766453,-8.377044 -8.978617 -0.148644,-7.886866 -8.302114 -0.03366104,-7.591678 -7.629499 0.1377812,-7.308981 -7.195049 0.3197253,-8.170944 -6.78723 -0.238326,-7.966101 -5.78137 -0.09093919,-7.818103 -5.193183 0.07363325,-7.698577 -4.685083 0.1895356,-8.466631 -6.580635 -0.115303,-8.277178 -5.397733 -0.02166265,-8.133061 -4.67181 0.1906324,-8.01065 -4.039815 0.3508486,-8.771834 -6.609313 0.04215765,-8.652815 -5.48421 0.1650043,-8.54902 -4.768199 0.3787622,-8.441486 -4.156747 0.5366072,-9.098076 -6.820897 0.206566,-9.127615 -5.932823 0.377395,-9.121059 -5.355896 0.5400522,-9.087368 -4.811546 0.6603686,3.210,
-2.768528 -9.341127 -1.615848,-3.252964 -9.284369 -1.400028,-3.74496 -8.71867 -1.129222,-3.988167 -8.091705 -0.847743,-4.042104 -7.51571 -0.5297402,-3.697212 -7.421083 -1.131786,-3.963461 -7.021755 -0.6041373,-4.163044 -6.765441 -0.2158562,-4.377787 -6.582291 0.01406896,-3.371286 -7.040342 -1.002818,-3.543428 -7.549359 -0.4003232,-3.388717 -8.356964 -0.2767705,-3.278561 -8.76849 -0.2729365,-3.003861 -6.994178 -0.8500035,-3.142609 -7.656864 -0.3643147,-3.034394 -8.371649 -0.4307623,-2.97752 -8.694582 -0.4986597,-2.642229 -7.110934 -0.6498134,-2.775486 -7.554066 -0.3622209,-2.793129 -8.191217 -0.4163692,-2.814198 -8.516319 -0.4374812,-9.001318 -9.215185 -0.292619,-8.380145 -8.952408 -0.1598913,-7.886662 -8.271376 -0.04729924,-7.589626 -7.588742 0.1205356,-7.303464 -7.153169 0.298277,-8.177 -6.75828 -0.2622213,-7.972576 -5.750701 -0.1168489,-7.826117 -5.162828 0.04700011,-7.707483 -4.656841 0.1584355,-8.476686 -6.545599 -0.1456446,-8.289902 -5.360923 -0.06020615,-8.147512 -4.636823 0.1483403,-8.026188 -4.006352 0.306136,-8.784542 -6.568143 0.006466836,-8.667047 -5.444971 0.1214343,-8.563318 -4.740274 0.326441,-8.454967 -4.136171 0.4752769,-9.112891 -6.771488 0.1665037,-9.142891 -5.886218 0.3294898,-9.138872 -5.312162 0.4871631,-9.108227 -4.767236 0.6010156,3.310,
-2.716205 -9.286457 -1.489232,-3.212218 -9.283199 -1.21897,-3.686685 -8.790752 -0.87423,-3.938872 -8.23575 -0.5475894,-4.000053 -7.668554 -0.2290494,-3.666579 -7.408352 -0.7992288,-3.922384 -7.170488 -0.2427714,-4.125024 -6.935453 0.1145762,-4.3318 -6.688282 0.3286146,-3.333445 -7.00904 -0.6864908,-3.477648 -7.730356 -0.1025869,-3.3645 -8.487673 -0.06229746,-3.27121 -8.727524 -0.07575452,-2.951849 -6.989446 -0.5445818,-3.042059 -7.817122 -0.1145986,-2.98363 -8.478807 -0.291289,-2.944243 -8.64419 -0.3900514,-2.586133 -7.140635 -0.3495946,-2.667757 -7.757135 -0.1317551,-2.719179 -8.367975 -0.2514813,-2.753987 -8.567762 -0.2970189,-8.998963 -9.230852 -0.2200741,-8.378654 -8.972733 -0.09107986,-7.882293 -8.29388 0.01503637,-7.590662 -7.610759 0.1773587,-7.31383 -7.177569 0.3499112,-8.175688 -6.759944 -0.1906188,-7.967525 -5.760496 -0.04661094,-7.822974 -5.168067 0.1158835,-7.70953 -4.652992 0.2305386,-8.474774 -6.539937 -0.07510743,-8.282333 -5.351533 0.006939381,-8.138271 -4.620748 0.2181022,-8.020213 -3.984062 0.3745788,-8.781862 -6.555622 0.07244068,-8.659623 -5.42991 0.1837083,-8.557306 -4.72164 0.3853604,-8.454972 -4.121879 0.5355326,-9.108767 -6.754197 0.2299999,-9.132731 -5.863455 0.387625,-9.124615 -5.288572 0.5383286,-9.092008 -4.750701 0.6482903,3.410,
-2.724283 -9.228006 -1.272032,-3.217459 -9.197449 -0.8934398,-3.69171 -8.762705 -0.4700069,-3.922448 -8.298706 -0.1044571,-3.926105 -7.753969 0.2457138,-3.653209 -7.309055 -0.3999282,-3.906071 -7.252203 0.2024512,-4.120705 -7.044194 0.5705411,-4.336964 -6.743028 0.8030474,-3.294153 -6.919944 -0.3372571,-3.474808 -7.880804 0.2821679,-3.377144 -8.670847 0.2316247,-3.254022 -8.884501 0.1617723,-2.897156 -6.948973 -0.2108102,-3.013487 -7.925954 0.2442546,-2.998084 -8.604296 -0.04473794,-2.943443 -8.736599 -0.2288177,-2.520574 -7.175628 -0.03431988,-2.630776 -7.845676 0.1903436,-2.714133 -8.455673 -0.006643295,-2.730749 -8.628813 -0.1036943,-8.992191 -9.253389 -0.2132418,-8.375714 -8.98259 -0.07887293,-7.878778 -8.306232 0.03115395,-7.581809 -7.630189 0.1955646,-7.304886 -7.200513 0.3682459,-8.166904 -6.779665 -0.1691799,-7.959095 -5.771617 -0.01573585,-7.810958 -5.177989 0.1513961,-7.694044 -4.662274 0.2713656,-8.464217 -6.562288 -0.04954532,-8.270935 -5.367525 0.04797578,-8.121895 -4.63462 0.2678181,-7.99971 -3.994397 0.4297494,-8.770452 -6.580427 0.1024295,-8.644767 -5.444709 0.2333114,-8.536968 -4.727598 0.4503292,-8.430731 -4.118516 0.607703,-9.097559 -6.782503 0.2636856,-9.120628 -5.88553 0.4379692,-9.110078 -5.307312 0.5996902,-9.075529 -4.761928 0.7168659,3.510,
-2.683931 -9.191307 -0.9317979,-3.21575 -9.151241 -0.4957704,-3.713629 -8.756741 -0.01235503,-3.947039 -8.364637 0.4044831,-3.959067 -7.875049 0.778273,-3.655477 -7.22879 0.04951745,-3.92759 -7.282172 0.7044597,-4.156999 -7.139989 1.081205,-4.379522 -6.853968 1.326264,-3.280783 -6.816598 0.08622801,-3.500128 -8.002533 0.7438329,-3.410067 -8.841656 0.620137,-3.274753 -8.997461 0.503005,-2.872183 -6.883529 0.2148924,-3.025415 -8.041052 0.7320695,-3.031993 -8.724804 0.3861574,-2.971193 -8.757837 0.1488272,-2.494175 -7.171911 0.3822676,-2.637996 -7.982676 0.6137975,-2.737181 -8.590078 0.35886,-2.742103 -8.662365 0.2266647,-8.984857 -9.275297 -0.2181274,-8.36943 -9.007029 -0.07890134,-7.871047 -8.328529 0.03301147,-7.572927 -7.648608 0.1957587,-7.295916 -7.218454 0.3684213,-8.161966 -6.800104 -0.1625464,-7.956119 -5.790077 -0.01030239,-7.80721 -5.197778 0.1562121,-7.688986 -4.685915 0.281642,-8.457334 -6.585966 -0.04735978,-8.263765 -5.39298 0.04662102,-8.111963 -4.661964 0.2663206,-7.989302 -4.022199 0.4316835,-8.761653 -6.604537 0.09961897,-8.633425 -5.469678 0.2271172,-8.522156 -4.755598 0.4472161,-8.413512 -4.151208 0.6082026,-9.088949 -6.803674 0.2576268,-9.11598 -5.904367 0.4312915,-9.108636 -5.325336 0.5923878,-9.077208 -4.782711 0.7101275,3.610,
-2.658488 -9.257301 -0.8622486,-3.211386 -9.208784 -0.4760774,-3.718437 -8.826258 0.007697344,-3.974701 -8.437986 0.4323884,-3.974232 -7.924665 0.7965904,-3.672388 -7.283664 0.06981581,-3.967384 -7.338027 0.7160099,-4.201096 -7.231424 1.063108,-4.431635 -6.986351 1.279806,-3.29565 -6.863086 0.1375266,-3.510169 -8.11845 0.8055245,-3.401371 -8.908867 0.7041594,-3.271597 -8.993641 0.6113107,-2.887935 -6.901966 0.2776881,-3.026798 -8.133806 0.7882044,-3.005398 -8.760082 0.4574091,-2.9393 -8.723433 0.2373507,-2.508864 -7.145622 0.4640656,-2.641885 -8.004141 0.6665134,-2.72473 -8.581371 0.4270964,-2.725267 -8.606945 0.3104151,-8.977251 -9.306887 -0.2322558,-8.356052 -9.035238 -0.09577259,-7.857691 -8.360405 0.01486343,-7.560015 -7.681461 0.1809659,-7.2798 -7.242227 0.3565047,-8.151122 -6.834405 -0.2202214,-7.943955 -5.824443 -0.07511495,-7.792985 -5.229033 0.08968201,-7.670799 -4.716814 0.2103489,-8.446589 -6.619956 -0.103696,-8.24962 -5.432012 -0.01594523,-8.098803 -4.709201 0.2000825,-7.972336 -4.077846 0.3611821,-8.750115 -6.633922 0.04814744,-8.622116 -5.502309 0.1703556,-8.51439 -4.790363 0.3827568,-8.403271 -4.185092 0.5358206,-9.075624 -6.828919 0.2104371,-9.102345 -5.932306 0.3787872,-9.095407 -5.356187 0.5336059,-9.062146 -4.813081 0.6463224,3.710,
-2.64017 -9.354841 -0.4429461,-3.226999 -9.234337 -0.04345316,-3.742531 -8.881485 0.5168793,-4.017513 -8.536644 1.013253,-3.972876 -8.011875 1.42734,-3.669868 -7.279494 0.5847046,-3.996085 -7.383539 1.268823,-4.250001 -7.310658 1.607827,-4.484739 -7.092354 1.818046,-3.267599 -6.867632 0.6580679,-3.509491 -8.25268 1.330264,-3.410955 -9.022587 1.161699,-3.292325 -8.973076 1.038826,-2.848028 -6.959226 0.8046368,-3.011589 -8.281214 1.309693,-3.027559 -8.861406 0.9006068,-2.976854 -8.687349 0.6495008,-2.47513 -7.269901 0.9999506,-2.62607 -8.265949 1.194669,-2.731898 -8.793974 0.9244137,-2.725951 -8.679562 0.8053247,-8.98243 -9.336905 -0.2498444,-8.36076 -9.068855 -0.1004929,-7.861376 -8.391977 0.01760915,-7.559075 -7.710817 0.1893756,-7.27383 -7.267618 0.3719132,-8.151896 -6.87364 -0.2289284,-7.943903 -5.864606 -0.08076002,-7.792144 -5.264934 0.08663478,-7.669066 -4.749345 0.2096106,-8.447342 -6.656037 -0.1199513,-8.249778 -5.464052 -0.02873445,-8.098491 -4.738663 0.1893539,-7.971603 -4.100271 0.3527589,-8.750829 -6.666185 0.02501816,-8.62168 -5.532127 0.1469965,-8.509481 -4.821974 0.357633,-8.394443 -4.214269 0.5114451,-9.077122 -6.854742 0.1808956,-9.102376 -5.955024 0.3505804,-9.093375 -5.375082 0.5065917,-9.059569 -4.825931 0.6190218,3.810,
-2.643248 -9.382441 -0.2212953,-3.23836 -9.225002 0.2157957,-3.763885 -8.894112 0.8037038,-4.03916 -8.586281 1.304949,-3.945438 -8.072681 1.713055,-3.652129 -7.244202 0.8865131,-3.997362 -7.456506 1.569563,-4.254835 -7.429075 1.875736,-4.498522 -7.229476 2.065136,-3.241507 -6.84336 0.9384129,-3.488375 -8.288086 1.604071,-3.38723 -9.032957 1.407308,-3.269201 -8.950523 1.28131,-2.821866 -6.95107 1.068109,-3.004328 -8.285742 1.560901,-3.024572 -8.841057 1.130794,-2.978121 -8.643841 0.8831013,-2.451535 -7.286109 1.246808,-2.618542 -8.290453 1.446418,-2.729684 -8.807022 1.18123,-2.722439 -8.678562 1.078436,-8.990587 -9.340282 -0.2413581,-8.369118 -9.07649 -0.1065181,-7.870766 -8.389923 0.006234795,-7.567943 -7.704692 0.1755229,-7.274868 -7.266567 0.3571571,-8.154305 -6.874208 -0.2217016,-7.946573 -5.863842 -0.0789042,-7.793859 -5.262241 0.08532083,-7.669375 -4.745309 0.2065336,-8.450322 -6.658281 -0.1054884,-8.250257 -5.470811 -0.01942205,-8.098127 -4.742078 0.1973398,-7.969127 -4.100801 0.3617265,-8.754393 -6.673683 0.04351091,-8.625708 -5.542522 0.1641701,-8.514203 -4.826961 0.3778016,-8.399035 -4.213495 0.5321594,-9.080744 -6.869352 0.2022832,-9.104778 -5.973251 0.3747717,-9.09552 -5.392946 0.5351965,-9.060315 -4.841443 0.6498893,3.910,
-2.585349 -9.426804 -0.05217052,-3.208603 -9.219172 0.3233396,-3.758093 -8.910318 0.9415181,-4.038959 -8.63969 1.499717,-3.892857 -8.18219 1.975282,-3.6882 -7.327419 1.091368,-3.982316 -7.458816 1.853857,-4.231865 -7.44881 2.229275,-4.466293 -7.314792 2.435483,-3.267242 -6.877915 1.158634,-3.491299 -8.514143 1.818534,-3.370067 -9.267376 1.552806,-3.246895 -9.145708 1.394599,-2.830193 -6.979934 1.310302,-2.997169 -8.510427 1.790862,-2.999302 -9.018938 1.322072,-2.943454 -8.7607 1.055223,-2.441357 -7.300924 1.504452,-2.592606 -8.458282 1.629748,-2.693728 -8.951464 1.307795,-2.695806 -8.766459 1.182224,-8.995509 -9.34099 -0.2633154,-8.369197 -9.08383 -0.1101983,-7.866896 -8.407427 0.00878346,-7.560631 -7.718351 0.1817404,-7.274408 -7.26803 0.3643427,-8.159699 -6.884412 -0.2440568,-7.947843 -5.871646 -0.09872125,-7.791021 -5.274659 0.06538454,-7.661066 -4.763915 0.1837183,-8.456972 -6.664491 -0.1389178,-8.256763 -5.470581 -0.05289292,-8.10238 -4.744932 0.1627474,-7.969116 -4.107831 0.3274994,-8.760637 -6.676217 0.002852499,-8.63006 -5.539552 0.1201822,-8.515769 -4.826101 0.3291152,-8.395234 -4.215345 0.48398,-9.08569 -6.866042 0.1560446,-9.111619 -5.967702 0.3212081,-9.100457 -5.390365 0.4768649,-9.061828 -4.846967 0.5891894,4.010,
-2.559732 -9.435163 -0.198093,-3.179129 -9.301321 0.1597933,-3.745092 -8.982605 0.7451506,-4.031359 -8.663136 1.278877,-3.882932 -8.167971 1.738567,-3.700434 -7.419436 0.8702681,-3.96649 -7.501287 1.625702,-4.197638 -7.488624 2.007136,-4.416237 -7.355686 2.214153,-3.292919 -6.916841 0.9456733,-3.45343 -8.504084 1.619427,-3.331913 -9.265976 1.406731,-3.226452 -9.156836 1.270607,-2.850589 -6.947761 1.104123,-2.949711 -8.478125 1.5871,-2.957408 -9.014179 1.15304,-2.91602 -8.768522 0.9123533,-2.444482 -7.200761 1.311737,-2.543544 -8.369652 1.414834,-2.648707 -8.90406 1.088403,-2.669703 -8.739407 0.9551524,-8.988513 -9.351692 -0.257501,-8.364818 -9.086885 -0.106705,-7.865903 -8.412119 0.01223451,-7.56432 -7.730251 0.1849639,-7.279867 -7.292394 0.3665369,-8.153559 -6.892278 -0.2265285,-7.945095 -5.883386 -0.0750438,-7.789802 -5.288354 0.09272742,-7.661311 -4.775779 0.216298,-8.449497 -6.67433 -0.1180858,-8.252121 -5.485692 -0.02407423,-8.098342 -4.763082 0.1958922,-7.966682 -4.125728 0.3614091,-8.753195 -6.683536 0.02627066,-8.625566 -5.553556 0.1503107,-8.51422 -4.842995 0.3643606,-8.398375 -4.234403 0.5203992,-9.07895 -6.86955 0.1816261,-9.104119 -5.973686 0.3508064,-9.096168 -5.396905 0.5077064,-9.062254 -4.852912 0.6212243,4.110,
-2.516895 -9.439615 -0.05910942,-3.144609 -9.280176 0.3168582,-3.720965 -8.966461 0.9105321,-4.008677 -8.643744 1.444865,-3.814734 -8.189142 1.916479,-3.654681 -7.385765 1.06218,-3.889281 -7.526417 1.847282,-4.10034 -7.509305 2.226838,-4.311427 -7.376377 2.418513,-3.245932 -6.892104 1.122043,-3.403053 -8.491327 1.787902,-3.294058 -9.273649 1.533456,-3.195486 -9.260008 1.369928,-2.794633 -6.942598 1.275831,-2.89099 -8.480072 1.779168,-2.892758 -9.043612 1.357918,-2.861749 -8.905989 1.102067,-2.378043 -7.219406 1.473529,-2.480741 -8.331118 1.597356,-2.581708 -8.872391 1.305546,-2.620917 -8.798597 1.181412,-8.993547 -9.329712 -0.2756502,-8.368293 -9.076874 -0.1146517,-7.866702 -8.406582 0.003491461,-7.565332 -7.721207 0.1735898,-7.283785 -7.280367 0.353923,-8.15395 -6.879578 -0.2577799,-7.944494 -5.875078 -0.1165747,-7.79108 -5.280159 0.04487363,-7.664536 -4.771556 0.162344,-8.453758 -6.656607 -0.1612339,-8.252295 -5.47286 -0.08084701,-8.099718 -4.753642 0.1324227,-7.969198 -4.123498 0.2957614,-8.760563 -6.664708 -0.02580902,-8.627529 -5.538805 0.08491996,-8.514462 -4.836345 0.2901573,-8.396724 -4.236998 0.4436442,-9.088025 -6.851474 0.1218041,-9.113642 -5.964151 0.2808377,-9.104704 -5.391984 0.434835,-9.068033 -4.849988 0.5490795,4.210,
-2.444586 -9.490591 0.2206608,-3.070677 -9.284571 0.617582,-3.65979 -8.983789 1.238024,-3.968198 -8.673414 1.800455,-3.765397 -8.209602 2.302583,-3.590782 -7.384542 1.414612,-3.827972 -7.545372 2.230618,-4.044344 -7.496118 2.61159,-4.259645 -7.344147 2.804098,-3.177862 -6.888324 1.476512,-3.335646 -8.501545 2.153427,-3.225197 -9.272547 1.863057,-3.136223 -9.232311 1.673302,-2.724451 -6.950994 1.643393,-2.834475 -8.487219 2.163168,-2.830558 -9.054831 1.720132,-2.799357 -8.908075 1.450954,-2.302659 -7.250545 1.856345,-2.40844 -8.347458 2.022703,-2.504683 -8.878323 1.746231,-2.545637 -8.793999 1.634317,-8.995691 -9.325525 -0.279566,-8.370895 -9.084789 -0.122981,-7.868519 -8.412891 -0.002805382,-7.56528 -7.733844 0.1711891,-7.278115 -7.295639 0.3570427,-8.154041 -6.875494 -0.266065,-7.941158 -5.870765 -0.1243244,-7.787307 -5.277607 0.04179448,-7.660965 -4.770713 0.1599342,-8.451567 -6.654474 -0.1643319,-8.246715 -5.473078 -0.08372147,-8.091938 -4.756485 0.1264149,-7.959784 -4.129743 0.2881742,-8.756927 -6.664128 -0.02335972,-8.623365 -5.539506 0.08741012,-8.50966 -4.836999 0.2890086,-8.39247 -4.236873 0.4396597,-9.084177 -6.852785 0.1315869,-9.106424 -5.965789 0.2894056,-9.096257 -5.398204 0.4380738,-9.060606 -4.859846 0.5476388,4.310,
-2.431188 -9.509693 0.2413001,-3.052293 -9.307335 0.6262661,-3.644185 -8.995653 1.23662,-3.946201 -8.654902 1.787888,-3.722328 -8.174677 2.280551,-3.554112 -7.385484 1.432026,-3.774105 -7.523876 2.242888,-3.988392 -7.506646 2.621604,-4.205755 -7.392431 2.802413,-3.140296 -6.89238 1.493791,-3.27376 -8.473263 2.153141,-3.175909 -9.217653 1.885046,-3.101276 -9.151794 1.714075,-2.691811 -6.948802 1.649944,-2.786153 -8.474274 2.152896,-2.79442 -9.033962 1.733651,-2.776167 -8.887043 1.484862,-2.279384 -7.236236 1.857022,-2.376925 -8.341356 2.004949,-2.479863 -8.874346 1.73456,-2.525376 -8.801195 1.622619,-8.985671 -9.33864 -0.2629427,-8.362693 -9.090893 -0.1100508,-7.860429 -8.418217 0.007841885,-7.557925 -7.737884 0.17871,-7.273294 -7.30141 0.3598166,-8.145115 -6.882582 -0.2482819,-7.93312 -5.881519 -0.1015026,-7.777618 -5.289899 0.06780791,-7.650208 -4.781574 0.1924391,-8.441586 -6.663087 -0.1398059,-8.238658 -5.486269 -0.05451739,-8.082931 -4.775056 0.1593716,-7.951577 -4.151778 0.3222623,-8.747805 -6.673511 0.007067174,-8.612652 -5.551232 0.1253228,-8.497757 -4.848394 0.3346854,-8.380426 -4.247282 0.4893498,-9.078506 -6.867052 0.1664113,-9.100475 -5.97365 0.3302461,-9.090558 -5.396336 0.483951,-9.055088 -4.851343 0.5983231,4.410,
-2.424681 -9.465637 0.3708845,-3.045979 -9.251751 0.8188174,-3.652132 -8.923771 1.465853,-3.921306 -8.571611 2.032093,-3.643517 -8.127945 2.53675,-3.500213 -7.361454 1.736769,-3.693819 -7.537252 2.564796,-3.891677 -7.507673 2.946,-4.084956 -7.375949 3.131481,-3.073383 -6.860167 1.762095,-3.198013 -8.478851 2.404838,-3.129126 -9.196745 2.10919,-3.06094 -9.099148 1.940325,-2.610477 -6.915316 1.891431,-2.707943 -8.493879 2.404109,-2.747365 -9.044924 1.965272,-2.726338 -8.877178 1.697592,-2.183588 -7.203709 2.070395,-2.279915 -8.284008 2.234246,-2.394114 -8.800701 1.94035,-2.43149 -8.720001 1.799033,-8.957929 -9.3384 -0.2614557,-8.333538 -9.098577 -0.120995,-7.833076 -8.425741 -0.01158825,-7.535502 -7.752924 0.1562757,-7.255732 -7.318695 0.3335324,-8.121324 -6.88171 -0.3063904,-7.90726 -5.893784 -0.1781361,-7.749272 -5.314161 -0.0166297,-7.616347 -4.819833 0.09973854,-8.419723 -6.659187 -0.1959663,-8.218102 -5.493206 -0.1340217,-8.061682 -4.80051 0.06969377,-7.924244 -4.193103 0.2267045,-8.724781 -6.662149 -0.04320978,-8.58827 -5.547925 0.05397585,-8.470651 -4.858673 0.2549311,-8.345556 -4.266599 0.4063807,-9.052532 -6.841838 0.1227951,-9.075427 -5.958932 0.269895,-9.064369 -5.396922 0.4120017,-9.023758 -4.864149 0.5178413,4.510,
-2.461843 -9.466578 0.3649,-3.064175 -9.254744 0.8478657,-3.660839 -8.942169 1.506289,-3.910711 -8.595037 2.078356,-3.612883 -8.164759 2.590693,-3.521991 -7.381911 1.762969,-3.713192 -7.514463 2.631924,-3.889685 -7.491947 3.045235,-4.055052 -7.373186 3.246472,-3.091856 -6.873966 1.78462,-3.165741 -8.419889 2.476599,-3.101039 -9.147116 2.240877,-3.041634 -9.097231 2.099185,-2.62331 -6.909366 1.907517,-2.671718 -8.47296 2.459718,-2.724992 -9.062845 2.072802,-2.718966 -8.949581 1.820589,-2.18964 -7.182353 2.084616,-2.250303 -8.242216 2.279675,-2.376473 -8.791576 2.016934,-2.43254 -8.752792 1.87843,-8.954362 -9.331007 -0.2859817,-8.334436 -9.086706 -0.1549362,-7.832375 -8.419678 -0.04699188,-7.529266 -7.751831 0.1207224,-7.248223 -7.315343 0.3032612,-8.118359 -6.879423 -0.3283575,-7.902151 -5.87952 -0.1978173,-7.74289 -5.287469 -0.03372011,-7.6113 -4.784357 0.08776131,-8.413931 -6.659622 -0.2118757,-8.209724 -5.486385 -0.1448814,-8.05054 -4.775249 0.06124258,-7.914217 -4.158323 0.2175599,-8.718573 -6.664516 -0.05626857,-8.580036 -5.546897 0.04783309,-8.459959 -4.845844 0.2498412,-8.335912 -4.254327 0.4008854,-9.046673 -6.847539 0.1128339,-9.070476 -5.960147 0.2696252,-9.059479 -5.384822 0.4195651,-9.021007 -4.843551 0.5302587,4.610,
-2.467296 -9.464022 0.2949454,-3.077019 -9.280621 0.7891254,-3.670383 -8.968271 1.446488,-3.915785 -8.617949 2.021475,-3.624432 -8.179256 2.53258,-3.549579 -7.41747 1.685269,-3.720387 -7.54001 2.555325,-3.886373 -7.524393 2.967165,-4.040915 -7.412071 3.163369,-3.119342 -6.894538 1.704297,-3.163867 -8.422291 2.400921,-3.110626 -9.164707 2.158656,-3.062581 -9.1231 2.00603,-2.642931 -6.923064 1.82877,-2.664701 -8.469164 2.384873,-2.725196 -9.081438 1.999331,-2.729532 -8.98106 1.749305,-2.202403 -7.188839 2.010186,-2.243576 -8.256725 2.214219,-2.373222 -8.826014 1.95918,-2.435748 -8.803015 1.824164,-8.953789 -9.346251 -0.2624831,-8.333512 -9.10042 -0.121518,-7.831593 -8.425016 -0.008217514,-7.528256 -7.753772 0.1632376,-7.246204 -7.314567 0.3474331,-8.12081 -6.888481 -0.2818773,-7.906818 -5.890365 -0.1435604,-7.748674 -5.297345 0.0225772,-7.618053 -4.789504 0.143671,-8.41706 -6.667896 -0.1684919,-8.21743 -5.490539 -0.09106475,-8.06048 -4.777421 0.1201035,-7.926489 -4.156209 0.2792574,-8.7212 -6.675133 -0.01651303,-8.586968 -5.552405 0.09722334,-8.468145 -4.84951 0.3059983,-8.346419 -4.252944 0.4607411,-9.048395 -6.862058 0.1483894,-9.073587 -5.972904 0.314478,-9.062986 -5.39686 0.4697908,-9.025497 -4.854429 0.5849752,4.710,
-2.520341 -9.452003 0.1977438,-3.124372 -9.304087 0.7309855,-3.721206 -8.999495 1.398748,-3.958247 -8.670351 1.971301,-3.648348 -8.257397 2.450288,-3.586912 -7.437311 1.626995,-3.751841 -7.585148 2.495946,-3.927443 -7.58621 2.872369,-4.084654 -7.485261 3.041194,-3.151562 -6.918453 1.622727,-3.177135 -8.504297 2.353684,-3.144456 -9.207914 2.110641,-3.112609 -9.107721 1.956077,-2.675634 -6.948658 1.734546,-2.680783 -8.532681 2.311628,-2.765552 -9.112095 1.918797,-2.783557 -8.967539 1.665827,-2.235931 -7.216226 1.902143,-2.275917 -8.340446 2.111126,-2.425383 -8.904669 1.872512,-2.497367 -8.865044 1.742363,-8.956136 -9.336996 -0.2756512,-8.332539 -9.089857 -0.1281542,-7.830421 -8.41386 -0.01787844,-7.527701 -7.740285 0.1483022,-7.245891 -7.305604 0.3270823,-8.119868 -6.883474 -0.2926591,-7.904773 -5.894314 -0.1588182,-7.747599 -5.308209 0.005651176,-7.618594 -4.804674 0.1275443,-8.417225 -6.662788 -0.1854516,-8.215392 -5.492416 -0.1170411,-8.056911 -4.788774 0.09081933,-7.921984 -4.174064 0.2498432,-8.721689 -6.668102 -0.03839801,-8.588404 -5.550628 0.06768814,-8.471537 -4.853998 0.2727541,-8.350005 -4.26034 0.4257426,-9.048441 -6.851242 0.1226238,-9.073169 -5.966934 0.2794314,-9.061506 -5.396619 0.428283,-9.022043 -4.857141 0.5401673,4.810,
-2.529275 -9.427078 0.1697958,-3.13453 -9.301548 0.6922566,-3.729544 -9.006557 1.368285,-3.97075 -8.673803 1.95834,-3.659193 -8.266127 2.476593,-3.591763 -7.419325 1.594488,-3.754074 -7.555063 2.479207,-3.932043 -7.581199 2.869844,-4.096043 -7.524256 3.039415,-3.156187 -6.906486 1.603095,-3.179222 -8.457769 2.339048,-3.152855 -9.174675 2.116092,-3.121821 -9.138836 1.96301,-2.680653 -6.938045 1.723946,-2.683799 -8.506479 2.284701,-2.767495 -9.113503 1.929075,-2.784936 -9.045616 1.699404,-2.240496 -7.205816 1.899013,-2.271513 -8.316292 2.095511,-2.421668 -8.893269 1.873399,-2.500249 -8.904865 1.758579,-8.957169 -9.33275 -0.3061079,-8.332435 -9.088892 -0.1667746,-7.828922 -8.422625 -0.05677146,-7.528124 -7.754751 0.1093948,-7.253031 -7.322928 0.2856266,-8.119303 -6.887808 -0.3189127,-7.906763 -5.889027 -0.1798874,-7.75068 -5.300968 -0.01210323,-7.622422 -4.796782 0.1126721,-8.415365 -6.668417 -0.2047238,-8.212409 -5.49353 -0.1259717,-8.053371 -4.789463 0.08852717,-7.917542 -4.172361 0.2520908,-8.719184 -6.672567 -0.05199257,-8.580797 -5.552246 0.06237009,-8.462008 -4.854383 0.2753561,-8.340005 -4.260103 0.4336081,-9.04663 -6.854447 0.1127139,-9.069001 -5.966552 0.2742292,-9.057687 -5.396251 0.4266751,-9.019437 -4.8568 0.541028,4.910,
-2.59866 -9.485872 0.311791,-3.203108 -9.347723 0.8715498,-3.785187 -9.036118 1.545388,-4.014023 -8.714422 2.141417,-3.692376 -8.295744 2.644813,-3.648632 -7.413655 1.717982,-3.817369 -7.578477 2.599576,-4.003218 -7.630913 2.966108,-4.180042 -7.575422 3.114477,-3.207293 -6.897043 1.715521,-3.245065 -8.473557 2.475293,-3.226384 -9.207817 2.24429,-3.195407 -9.214222 2.077278,-2.724117 -6.944547 1.835489,-2.734457 -8.504469 2.428003,-2.832282 -9.129084 2.067188,-2.858504 -9.104591 1.815355,-2.279295 -7.241281 2.017072,-2.315673 -8.314524 2.240955,-2.47571 -8.903378 2.037066,-2.555941 -8.962854 1.918744,-8.952064 -9.318354 -0.2907692,-8.32985 -9.082531 -0.1425839,-7.829747 -8.417336 -0.03022274,-7.527496 -7.74564 0.139844,-7.243054 -7.308177 0.3227465,-8.117252 -6.871097 -0.3122577,-7.899975 -5.879752 -0.1804686,-7.744337 -5.289683 -0.01942208,-7.617635 -4.782986 0.09799683,-8.413955 -6.64825 -0.2043763,-8.213289 -5.475378 -0.136127,-8.055136 -4.770257 0.07062757,-7.919374 -4.158148 0.2245303,-8.717779 -6.653157 -0.0566327,-8.588515 -5.536213 0.0483169,-8.470247 -4.842565 0.2516167,-8.346232 -4.251923 0.4040325,-9.042788 -6.834913 0.1045319,-9.071392 -5.954744 0.2635745,-9.058397 -5.385223 0.415674,-9.016098 -4.846644 0.527635,5.010,
-2.626933 -9.461916 0.3171934,-3.232567 -9.334383 0.8928965,-3.830787 -9.031013 1.573298,-4.055946 -8.740042 2.172598,-3.728952 -8.329081 2.661312,-3.685863 -7.454794 1.797247,-3.839215 -7.631977 2.680827,-4.03302 -7.67366 3.032892,-4.220858 -7.611368 3.174471,-3.23881 -6.911602 1.791635,-3.251646 -8.572954 2.553025,-3.252241 -9.268303 2.311951,-3.252234 -9.193899 2.147506,-2.746089 -6.952199 1.911297,-2.753164 -8.58271 2.497046,-2.860207 -9.161604 2.106813,-2.894467 -9.059307 1.848038,-2.293518 -7.248915 2.094893,-2.321543 -8.356354 2.313811,-2.481544 -8.915346 2.103519,-2.56438 -8.923288 1.985859,-8.953378 -9.332584 -0.2792052,-8.32765 -9.081211 -0.132548,-7.826982 -8.413027 -0.01631933,-7.524954 -7.748901 0.158328,-7.243797 -7.319886 0.3384821,-8.118064 -6.874908 -0.2799611,-7.903905 -5.884585 -0.1387756,-7.746407 -5.30684 0.02908087,-7.614014 -4.811199 0.1530548,-8.417671 -6.659661 -0.1656098,-8.219995 -5.500682 -0.08432008,-8.061803 -4.808151 0.124601,-7.923267 -4.20568 0.2849896,-8.722548 -6.668169 -0.0112431,-8.585806 -5.559135 0.1022133,-8.465693 -4.867551 0.3140453,-8.339219 -4.279392 0.4707904,-9.049912 -6.854064 0.155637,-9.074095 -5.974697 0.3156829,-9.062528 -5.407861 0.4639331,-9.021562 -4.873338 0.5767841,5.110,
-2.642493 -9.460329 0.2908868,-3.241487 -9.339437 0.8898058,-3.835003 -9.064026 1.575164,-4.061203 -8.792831 2.179528,-3.754174 -8.337378 2.666555,-3.707161 -7.47893 1.772057,-3.858735 -7.666058 2.663624,-4.048437 -7.698994 3.000123,-4.238249 -7.616445 3.133071,-3.262119 -6.921422 1.76647,-3.257228 -8.520588 2.559721,-3.248619 -9.204248 2.348774,-3.252248 -9.117401 2.197945,-2.759642 -6.94188 1.887635,-2.748565 -8.560114 2.504599,-2.859298 -9.149664 2.103935,-2.903769 -9.027868 1.825069,-2.300649 -7.230594 2.075483,-2.318477 -8.342691 2.324149,-2.481253 -8.904522 2.113615,-2.562666 -8.904108 1.979773,-8.947981 -9.326349 -0.2960137,-8.32479 -9.096754 -0.1465666,-7.824933 -8.42795 -0.03462824,-7.526953 -7.762273 0.133361,-7.247442 -7.336359 0.3142202,-8.112133 -6.876737 -0.3186495,-7.897938 -5.884545 -0.185449,-7.74229 -5.302671 -0.02189407,-7.61265 -4.804846 0.09749937,-8.411109 -6.657539 -0.2092751,-8.217821 -5.489374 -0.1413827,-8.062638 -4.794759 0.05974114,-7.926941 -4.191425 0.2128782,-8.716227 -6.663918 -0.05762498,-8.584813 -5.551671 0.04753914,-8.466588 -4.864271 0.2493175,-8.34285 -4.279581 0.4015449,-9.043657 -6.84904 0.1091898,-9.0706 -5.968154 0.2646111,-9.059448 -5.399055 0.413313,-9.020168 -4.862173 0.5252831,5.210,
-2.618659 -9.48723 0.4382006,-3.243732 -9.361403 1.043265,-3.846073 -9.102438 1.726127,-4.074594 -8.875528 2.328695,-3.763075 -8.444082 2.832333,-3.707964 -7.527412 1.993314,-3.868864 -7.683174 2.907629,-4.058466 -7.708011 3.30252,-4.240019 -7.637702 3.486361,-3.250461 -6.945848 1.988505,-3.246754 -8.563581 2.805044,-3.242741 -9.310675 2.614517,-3.247647 -9.346807 2.480648,-2.740717 -6.952564 2.101736,-2.722104 -8.503506 2.735934,-2.823002 -9.138187 2.344586,-2.866527 -9.120132 2.079226,-2.274913 -7.225194 2.278443,-2.287457 -8.215176 2.558715,-2.441513 -8.815935 2.360015,-2.529233 -8.91478 2.234399,-8.937102 -9.315327 -0.3126703,-8.315468 -9.088263 -0.1670893,-7.817636 -8.425566 -0.05117467,-7.517855 -7.763752 0.122696,-7.233369 -7.335788 0.3087426,-8.106086 -6.869457 -0.336984,-7.890217 -5.877135 -0.2079445,-7.734075 -5.296294 -0.04299611,-7.605509 -4.798185 0.07882488,-8.403649 -6.650733 -0.2244208,-8.209682 -5.484897 -0.1603944,-8.052936 -4.797603 0.04058766,-7.916574 -4.196626 0.1935678,-8.70793 -6.657569 -0.06936666,-8.57835 -5.544697 0.03159803,-8.459437 -4.861297 0.2331712,-8.335873 -4.27589 0.3856913,-9.034613 -6.841825 0.1008984,-9.061617 -5.964823 0.2536384,-9.050379 -5.403242 0.3997161,-9.011141 -4.871426 0.5094675,5.310,
-2.596583 -9.568945 0.7370095,-3.226329 -9.410402 1.373628,-3.837183 -9.135201 2.08177,-4.047664 -8.917847 2.709993,-3.719969 -8.519735 3.252887,-3.720398 -7.518449 2.283199,-3.870279 -7.723812 3.225329,-4.044641 -7.752759 3.659479,-4.21192 -7.658868 3.870336,-3.25503 -6.926261 2.276826,-3.234055 -8.559801 3.157537,-3.236151 -9.373962 2.987514,-3.250128 -9.439495 2.837804,-2.730562 -6.935323 2.403124,-2.686331 -8.454058 3.083646,-2.803649 -9.131142 2.665985,-2.865481 -9.133665 2.366314,-2.250254 -7.220482 2.595699,-2.238663 -8.160183 2.917342,-2.402192 -8.786797 2.713939,-2.504908 -8.900106 2.564601,-8.930235 -9.332493 -0.2838679,-8.311038 -9.09264 -0.138195,-7.814531 -8.420185 -0.02325124,-7.515104 -7.759325 0.1501308,-7.230936 -7.342733 0.3361899,-8.10541 -6.874307 -0.2915963,-7.888927 -5.884387 -0.153931,-7.73242 -5.302858 0.01201823,-7.603013 -4.803375 0.1350734,-8.402373 -6.659175 -0.1744851,-8.209399 -5.493654 -0.0996328,-8.052183 -4.795233 0.1069775,-7.915449 -4.188011 0.2633592,-8.705893 -6.667747 -0.01682279,-8.576437 -5.557106 0.09407818,-8.455343 -4.868754 0.3031816,-8.32933 -4.282373 0.4607872,-9.032769 -6.85491 0.1559992,-9.061286 -5.973408 0.3195181,-9.049504 -5.404474 0.4732315,-9.009108 -4.866722 0.5894649,5.410,
-2.562181 -9.575752 0.5008545,-3.169788 -9.4478 1.083004,-3.781466 -9.199024 1.744543,-4.015092 -8.973949 2.346419,-3.722293 -8.531591 2.895644,-3.647817 -7.57831 2.011424,-3.816852 -7.704741 2.99517,-4.001616 -7.741624 3.483373,-4.168777 -7.736564 3.709496,-3.201195 -6.997812 2.022726,-3.159832 -8.47262 2.897154,-3.138315 -9.297846 2.768551,-3.141117 -9.507019 2.6419,-2.694625 -6.99234 2.154844,-2.630505 -8.385151 2.840725,-2.721474 -9.077715 2.492572,-2.777929 -9.200251 2.244349,-2.230117 -7.237285 2.346601,-2.200468 -8.019562 2.667648,-2.335784 -8.653648 2.518211,-2.437224 -8.873301 2.422815,-8.932824 -9.34849 -0.2615743,-8.312372 -9.108173 -0.1157565,-7.813368 -8.428343 -0.008066565,-7.513761 -7.762012 0.1581883,-7.224665 -7.346864 0.3369901,-8.106301 -6.881692 -0.2830679,-7.888436 -5.892873 -0.1517085,-7.730905 -5.311744 0.01336083,-7.600135 -4.813039 0.1364072,-8.405179 -6.667943 -0.1712093,-8.212533 -5.507484 -0.1068243,-8.053636 -4.818147 0.09439281,-7.91488 -4.218488 0.2472255,-8.709339 -6.676651 -0.01800403,-8.577841 -5.569531 0.08636531,-8.456754 -4.886799 0.2916373,-8.332249 -4.308218 0.4443594,-9.036135 -6.862792 0.1499144,-9.062338 -5.982006 0.3087287,-9.050963 -5.413071 0.4574203,-9.012672 -4.876825 0.569845,5.510,
-2.466156 -9.64646 0.4628124,-3.087736 -9.507576 1.065332,-3.729877 -9.187716 1.733216,-3.933297 -8.898825 2.309261,-3.587912 -8.5436 2.844591,-3.594135 -7.63672 2.003637,-3.735485 -7.766088 2.97789,-3.902928 -7.78339 3.430208,-4.065733 -7.767773 3.643664,-3.135521 -7.114271 2.02608,-3.06089 -8.223186 2.940239,-3.070766 -9.000061 2.970429,-3.088589 -9.283325 3.000263,-2.612016 -7.077196 2.137579,-2.518875 -8.366629 2.821659,-2.623677 -9.070299 2.566877,-2.707649 -9.212202 2.373158,-2.135453 -7.300434 2.31408,-2.08039 -8.101107 2.630633,-2.221422 -8.716951 2.515807,-2.33691 -8.901161 2.445454,-8.92995 -9.349649 -0.306394,-8.312322 -9.114462 -0.1524089,-7.813917 -8.451439 -0.03601977,-7.51288 -7.798833 0.1377555,-7.227827 -7.387256 0.3247381,-8.098806 -6.900274 -0.3166544,-7.88256 -5.909812 -0.1795619,-7.725124 -5.324533 -0.01179883,-7.594966 -4.823343 0.1135252,-8.396689 -6.683653 -0.205436,-8.202824 -5.518102 -0.1321,-8.046701 -4.825042 0.07420677,-7.911966 -4.220434 0.230917,-8.701278 -6.687444 -0.05281216,-8.568289 -5.577848 0.05736598,-8.448839 -4.890403 0.2643332,-8.326138 -4.304227 0.4191153,-9.029928 -6.868238 0.1160979,-9.056059 -5.989208 0.2763189,-9.046107 -5.422206 0.4248219,-9.00979 -4.888078 0.5371211,5.610,
-2.416679 -9.632563 0.7044724,-3.062876 -9.489996 1.303836,-3.702248 -9.176889 2.00122,-3.904582 -8.924776 2.611395,-3.551868 -8.560873 3.170455,-3.595524 -7.600576 2.261703,-3.714172 -7.838797 3.251859,-3.865311 -7.893806 3.736557,-4.005713 -7.864501 3.984051,-3.131239 -7.033599 2.274478,-3.054466 -8.452467 3.180615,-3.048969 -9.284273 3.059395,-3.054005 -9.487907 2.970654,-2.596789 -7.027668 2.40755,-2.504684 -8.421556 3.089728,-2.604825 -9.134821 2.721421,-2.668066 -9.23925 2.457081,-2.109958 -7.293438 2.608468,-2.041657 -8.165865 2.937829,-2.183492 -8.779606 2.764537,-2.289048 -8.938488 2.64694,-8.925175 -9.350576 -0.2594692,-8.307768 -9.119492 -0.1187405,-7.809945 -8.449068 -0.0104223,-7.511351 -7.7898 0.1574899,-7.222864 -7.379978 0.3407719,-8.095766 -6.891698 -0.3030296,-7.881518 -5.910114 -0.1771087,-7.724113 -5.327497 -0.01232329,-7.593143 -4.829074 0.1134005,-8.3935 -6.669671 -0.1862892,-8.198194 -5.518135 -0.1276299,-8.038478 -4.828782 0.07485104,-7.899911 -4.232522 0.2300606,-8.698078 -6.672161 -0.02780794,-8.564789 -5.572261 0.06989741,-8.442825 -4.889439 0.2736571,-8.317595 -4.312074 0.427875,-9.027285 -6.855712 0.1478833,-9.05302 -5.981178 0.3012244,-9.039973 -5.41595 0.4475422,-8.99965 -4.886192 0.5605927,5.710,
-2.411406 -9.730915 0.772418,-3.056383 -9.561722 1.415321,-3.672014 -9.289762 2.133784,-3.837679 -9.106113 2.772088,-3.496706 -8.721809 3.332577,-3.536398 -7.693948 2.399946,-3.663294 -7.908271 3.436005,-3.815993 -7.96931 3.972873,-3.943085 -7.976827 4.254487,-3.046076 -7.129613 2.410018,-2.996082 -8.560022 3.381531,-3.024321 -9.432156 3.333423,-3.047134 -9.736883 3.300773,-2.503551 -7.130297 2.538455,-2.420194 -8.452875 3.268382,-2.540483 -9.165051 2.933177,-2.617833 -9.318262 2.680722,-2.015528 -7.397682 2.728769,-1.972135 -8.100142 3.099671,-2.11589 -8.714125 2.970971,-2.221117 -8.944984 2.878095,-8.917585 -9.338614 -0.2695814,-8.300716 -9.096867 -0.1328133,-7.804562 -8.427515 -0.02454154,-7.507665 -7.772586 0.1454799,-7.220247 -7.364013 0.3313861,-8.098701 -6.874588 -0.3009951,-7.88369 -5.884737 -0.1685276,-7.725663 -5.300865 0.0007982254,-7.594024 -4.799656 0.1295021,-8.395834 -6.659215 -0.179531,-8.20008 -5.507693 -0.1098046,-8.040318 -4.818502 0.09897873,-7.900362 -4.223982 0.255634,-8.699508 -6.664065 -0.0157524,-8.564046 -5.562482 0.09138632,-8.441925 -4.879536 0.3010852,-8.315263 -4.305105 0.4558659,-9.027074 -6.847988 0.1629511,-9.053874 -5.972412 0.3205664,-9.041397 -5.407405 0.4688349,-9.000443 -4.875852 0.5800952,5.810,
-2.383914 -9.738726 0.9372098,-3.037109 -9.510321 1.56425,-3.663436 -9.235075 2.277635,-3.843345 -9.025379 2.905015,-3.488084 -8.628201 3.465385,-3.538444 -7.661031 2.575689,-3.650528 -7.923994 3.600533,-3.80582 -7.959177 4.106429,-3.945015 -7.912437 4.354471,-3.064169 -7.093193 2.576589,-2.992959 -8.536808 3.519227,-3.012079 -9.353312 3.432029,-3.033689 -9.605988 3.376873,-2.524851 -7.08589 2.691677,-2.425367 -8.50091 3.42502,-2.553616 -9.196138 3.063159,-2.639731 -9.321028 2.782108,-2.038568 -7.351238 2.86678,-1.987549 -8.16921 3.229973,-2.13932 -8.789253 3.064726,-2.256244 -8.988373 2.939314,-8.924959 -9.354898 -0.2663575,-8.310705 -9.113039 -0.1323163,-7.81254 -8.440044 -0.02070932,-7.513609 -7.788587 0.1540578,-7.222898 -7.38088 0.346902,-8.101709 -6.889737 -0.3105693,-7.887217 -5.904386 -0.1833426,-7.730449 -5.320243 -0.01663852,-7.598867 -4.821376 0.1064495,-8.398685 -6.675155 -0.1863044,-8.204909 -5.518426 -0.1221856,-8.048849 -4.828953 0.07917854,-7.912766 -4.232571 0.2305639,-8.702894 -6.681262 -0.01998301,-8.567788 -5.578266 0.08064893,-8.443771 -4.896623 0.2809808,-8.317934 -4.323102 0.4311464,-9.031283 -6.86404 0.1621796,-9.055887 -5.983936 0.3157576,-9.041579 -5.419264 0.4610467,-9.002306 -4.889392 0.5714666,5.910,
-2.407285 -9.632227 0.4836874,-3.044436 -9.44372 1.081155,-3.665553 -9.151432 1.775838,-3.857321 -8.916264 2.398479,-3.49628 -8.56793 2.98342,-3.522715 -7.613395 2.03671,-3.635569 -7.83987 3.064119,-3.787977 -7.882171 3.589817,-3.917946 -7.881899 3.847003,-3.060569 -7.095441 2.057965,-3.008337 -8.33045 3.003944,-3.007198 -9.216305 2.92577,-2.999464 -9.579166 2.843127,-2.544378 -7.085004 2.198003,-2.458744 -8.31419 2.937519,-2.56647 -9.074709 2.60799,-2.638281 -9.307943 2.334618,-2.074087 -7.340581 2.401021,-2.015126 -8.051907 2.78596,-2.151405 -8.691309 2.659692,-2.26189 -8.948307 2.556379,-8.9417 -9.35837 -0.3050863,-8.324573 -9.116156 -0.1642378,-7.825969 -8.452963 -0.0519484,-7.524406 -7.799175 0.1188303,-7.238519 -7.387066 0.3007658,-8.113652 -6.909686 -0.3216479,-7.896596 -5.914552 -0.1903718,-7.73769 -5.323642 -0.02588329,-7.60652 -4.81801 0.09732765,-8.410522 -6.691435 -0.2085861,-8.213319 -5.521068 -0.1355447,-8.053095 -4.818096 0.0701974,-7.916012 -4.211387 0.2277225,-8.715726 -6.695813 -0.05591741,-8.578923 -5.580621 0.05035543,-8.455973 -4.888725 0.2543951,-8.331787 -4.306472 0.4083891,-9.04456 -6.877517 0.1095919,-9.069673 -5.995137 0.2694237,-9.055267 -5.425786 0.4231086,-9.014499 -4.895706 0.540441,6.010,
-2.372953 -9.397358 -0.4926861,-2.925034 -9.369692 0.2037075,-3.530686 -9.132591 0.8686131,-3.716467 -8.851509 1.439642,-3.41227 -8.509892 2.005084,-3.413916 -7.578571 1.006519,-3.532061 -7.605392 1.935697,-3.660215 -7.653785 2.381215,-3.790005 -7.804214 2.554085,-2.995946 -7.144552 1.007218,-2.988018 -7.707973 2.006816,-3.081724 -8.320942 2.304804,-3.158195 -8.746836 2.467729,-2.524516 -7.06076 1.077086,-2.467045 -8.047665 1.834886,-2.544068 -8.801247 1.773505,-2.628332 -9.13567 1.642938,-2.060225 -7.217357 1.213087,-1.995014 -7.679181 1.684259,-2.084763 -8.327494 1.730604,-2.17507 -8.706015 1.714301,-8.966722 -9.392544 -0.2809741,-8.34607 -9.14782 -0.1301789,-7.850683 -8.481968 -0.01299262,-7.552391 -7.818256 0.160715,-7.267823 -7.4046 0.3483245,-8.142174 -6.932581 -0.2861036,-7.93022 -5.925869 -0.1492051,-7.774995 -5.331718 0.01774383,-7.645226 -4.824373 0.1444208,-8.439418 -6.718188 -0.173778,-8.243604 -5.539401 -0.09644352,-8.088226 -4.834224 0.1117806,-7.954422 -4.219625 0.2689837,-8.742967 -6.725869 -0.02210569,-8.605278 -5.604271 0.08794296,-8.484442 -4.908055 0.2967131,-8.361536 -4.317209 0.4528295,-9.071333 -6.914653 0.1460435,-9.098574 -6.027458 0.3046787,-9.08803 -5.457677 0.458776,-9.051552 -4.920131 0.577612,6.110,
-2.366411 -9.328199 -1.66719,-2.909412 -9.404406 -0.9305744,-3.436377 -9.156254 -0.3142052,-3.582952 -8.809681 0.200695,-3.315512 -8.552166 0.7329223,-3.255686 -7.775349 -0.1469115,-3.375558 -7.567466 0.7099233,-3.506346 -7.588489 1.271381,-3.608712 -7.775873 1.611786,-2.845552 -7.450231 -0.1819988,-2.822896 -7.113355 0.7951159,-2.886168 -7.644604 1.349682,-2.938051 -8.245871 1.723999,-2.410442 -7.377637 -0.1745692,-2.362695 -7.390371 0.6251647,-2.387599 -8.090261 0.8343456,-2.436971 -8.63549 0.9024649,-1.996348 -7.539348 -0.1160061,-1.919811 -7.438165 0.547785,-1.942231 -7.996145 0.8112879,-1.998294 -8.492739 0.9378681,-8.966938 -9.426291 -0.2145836,-8.34535 -9.182364 -0.05944963,-7.845243 -8.500135 0.05404288,-7.547428 -7.832193 0.223041,-7.260486 -7.414377 0.402996,-8.140863 -6.946784 -0.217115,-7.929418 -5.946546 -0.08590816,-7.773604 -5.353845 0.07740822,-7.641996 -4.847139 0.203442,-8.438699 -6.7326 -0.1125252,-8.245717 -5.561327 -0.03988364,-8.093754 -4.854658 0.1662325,-7.961445 -4.236946 0.3238415,-8.741731 -6.739308 0.03157167,-8.60273 -5.624179 0.1327298,-8.484193 -4.930665 0.333796,-8.363503 -4.34694 0.487572,-9.068973 -6.924843 0.1919414,-9.090341 -6.037088 0.3407246,-9.078814 -5.468361 0.48572,-9.04275 -4.942634 0.5963822,6.210,
-2.009929 -9.302759 -1.784548,-2.516301 -9.389238 -1.026671,-2.998988 -9.23093 -0.3388572,-3.136192 -8.980886 0.1992542,-2.902796 -8.687292 0.7454135,-2.78261 -7.885418 -0.0291996,-2.907053 -7.524909 0.7929301,-2.971322 -7.580984 1.365106,-2.997063 -7.767372 1.734076,-2.37695 -7.62005 -0.1011254,-2.340337 -7.061222 0.7502525,-2.343706 -7.635412 1.224823,-2.366755 -8.129408 1.574743,-1.961163 -7.616758 -0.1581031,-1.889704 -7.295465 0.4806452,-1.927852 -7.896402 0.6784425,-1.990129 -8.29022 0.7844479,-1.574932 -7.817905 -0.1648163,-1.500681 -7.582819 0.3292465,-1.54322 -8.028751 0.5329247,-1.616434 -8.353485 0.6604908,-8.964437 -9.411823 -0.2928157,-8.342179 -9.171099 -0.1295235,-7.841055 -8.512089 -0.004896224,-7.541371 -7.851837 0.1749581,-7.263008 -7.426095 0.365833,-8.132196 -6.954877 -0.2814797,-7.919125 -5.94653 -0.1425169,-7.763225 -5.354373 0.02115241,-7.631635 -4.851188 0.1425597,-8.430492 -6.742604 -0.1775614,-8.234815 -5.559753 -0.09411889,-8.080907 -4.852012 0.1119655,-7.946187 -4.237297 0.267785,-8.733602 -6.752151 -0.03307793,-8.598353 -5.629211 0.07602572,-8.480059 -4.933979 0.2802763,-8.356911 -4.347225 0.4343612,-9.059152 -6.939935 0.128019,-9.085436 -6.053957 0.2836677,-9.077165 -5.487968 0.4353754,-9.041224 -4.960874 0.5502798,6.310,Right Hand Closed 
-1.752738 -9.340031 -1.510407,-2.244651 -9.306414 -0.7183316,-2.702038 -9.105562 0.02331126,-2.830092 -8.891928 0.6129866,-2.601054 -8.67478 1.2407,-2.563708 -7.76589 0.2389357,-2.660148 -7.471437 1.071999,-2.658013 -7.483884 1.674339,-2.628681 -7.68638 2.061498,-2.128154 -7.535844 0.1591461,-2.099335 -7.055945 1.047061,-2.053087 -7.606124 1.533791,-2.044152 -8.17655 1.885344,-1.703084 -7.564437 0.1109513,-1.645063 -7.418667 0.8200133,-1.642965 -8.036211 1.052068,-1.681994 -8.472212 1.172912,-1.317131 -7.791259 0.1011723,-1.25909 -7.598579 0.6392806,-1.287786 -8.077885 0.824975,-1.349773 -8.463451 0.9477062,-8.957771 -9.407194 -0.2920469,-8.336428 -9.167505 -0.13399,-7.835686 -8.509048 -0.01297534,-7.536141 -7.846091 0.1611865,-7.261711 -7.41967 0.3442099,-8.120965 -6.957702 -0.2820689,-7.909512 -5.95504 -0.1358556,-7.754634 -5.363948 0.03263864,-7.624428 -4.858613 0.1571824,-8.417999 -6.738992 -0.1752951,-8.220841 -5.559497 -0.08632129,-8.063561 -4.850756 0.1243744,-7.926496 -4.23439 0.2831885,-8.722075 -6.745546 -0.02887613,-8.587014 -5.625077 0.09071276,-8.466105 -4.927082 0.2977744,-8.341206 -4.33768 0.452951,-9.049947 -6.932101 0.1322854,-9.074889 -6.044256 0.2961861,-9.063692 -5.47078 0.4507567,-9.02452 -4.935583 0.5664654,6.410,Right Hand Closed 
-1.713403 -9.338367 -1.46161,-2.190219 -9.289211 -0.6625845,-2.624282 -9.073267 0.07493722,-2.708937 -8.903776 0.6623621,-2.436252 -8.696032 1.272324,-2.449038 -7.703794 0.3124974,-2.506421 -7.425936 1.145817,-2.522085 -7.400501 1.735117,-2.512317 -7.550954 2.131649,-1.997921 -7.507944 0.2181706,-1.922121 -7.114696 1.139513,-1.88456 -7.631496 1.633031,-1.879346 -8.148386 1.986295,-1.558908 -7.562839 0.1524912,-1.506239 -7.6053 0.8468671,-1.554662 -8.248278 0.9930971,-1.628118 -8.62709 1.055226,-1.176499 -7.8178 0.1391548,-1.15038 -7.705041 0.6570191,-1.216249 -8.176266 0.8114569,-1.298432 -8.491972 0.8990979,-8.947643 -9.424557 -0.2833319,-8.325401 -9.18103 -0.1175984,-7.825075 -8.517365 0.003994226,-7.527472 -7.853189 0.176412,-7.253559 -7.429492 0.3541118,-8.117981 -6.969341 -0.240033,-7.901785 -5.966304 -0.0864864,-7.744857 -5.378152 0.084824,-7.612405 -4.871633 0.2150701,-8.415216 -6.75376 -0.1373527,-8.215304 -5.57695 -0.04022525,-8.057722 -4.870737 0.1764145,-7.918615 -4.246361 0.3395482,-8.71819 -6.75982 0.002643347,-8.578835 -5.639222 0.1243028,-8.46 -4.943971 0.3314902,-8.336234 -4.352719 0.4855341,-9.043003 -6.943016 0.1572584,-9.064915 -6.05228 0.3182763,-9.056945 -5.47684 0.4693092,-9.021882 -4.939077 0.5806043,6.510,
-1.481822 -9.384342 -1.301109,-1.995164 -9.289406 -0.4777781,-2.415082 -8.973274 0.1490331,-2.413562 -8.740847 0.6441412,-2.077946 -8.469807 1.179162,-2.193202 -7.546939 0.2404156,-2.217046 -7.429359 1.148273,-2.156882 -7.398888 1.682424,-2.052688 -7.429765 2.005085,-1.730862 -7.261263 0.0827812,-1.583785 -7.623277 1.048799,-1.536267 -8.488575 1.290184,-1.537219 -9.128624 1.314045,-1.301818 -7.32109 0.0133183,-1.218115 -7.902108 0.8738525,-1.279471 -8.628481 0.9462054,-1.368753 -9.02334 0.82672,-0.9534712 -7.574377 -0.008602142,-0.8839855 -7.768337 0.5525908,-0.9652405 -8.317425 0.6281923,-1.063866 -8.62612 0.5620538,-8.927857 -9.420338 -0.282397,-8.307993 -9.169542 -0.1333538,-7.810179 -8.506756 -0.02041718,-7.514262 -7.850671 0.1471218,-7.24418 -7.432411 0.3214056,-8.096365 -6.960954 -0.2798549,-7.884827 -5.957793 -0.1366431,-7.729181 -5.371415 0.02894187,-7.599959 -4.870546 0.151735,-8.392414 -6.748278 -0.1690496,-8.198914 -5.5713 -0.08386454,-8.043043 -4.86783 0.1224302,-7.907996 -4.252248 0.2795915,-8.694845 -6.755903 -0.01895303,-8.562384 -5.637146 0.09589624,-8.444256 -4.942943 0.3004442,-8.323491 -4.356607 0.4526808,-9.020472 -6.939868 0.1466068,-9.046757 -6.054149 0.3043136,-9.039326 -5.483174 0.4516414,-9.00502 -4.949941 0.5619439,6.610,
-1.400437 -9.489704 -0.73742,-1.928774 -9.315199 0.03132117,-2.32257 -8.924507 0.6683973,-2.247199 -8.61706 1.197836,-1.85785 -8.316084 1.739882,-2.022645 -7.493747 0.8029329,-2.039083 -7.421081 1.731228,-1.978189 -7.453973 2.248874,-1.875739 -7.564912 2.545154,-1.544391 -7.180869 0.6693969,-1.37239 -7.804082 1.607157,-1.417697 -8.717699 1.751396,-1.490942 -9.309498 1.706463,-1.104428 -7.277256 0.6265395,-1.004624 -7.965713 1.424751,-1.119302 -8.681541 1.411473,-1.225526 -9.011158 1.256714,-0.7499647 -7.573094 0.6355454,-0.6665783 -7.859937 1.127444,-0.7873144 -8.420132 1.165558,-0.9066696 -8.692081 1.095062,-8.916677 -9.393459 -0.3272633,-8.294497 -9.157104 -0.1679603,-7.795298 -8.497019 -0.04547322,-7.497591 -7.842188 0.1273181,-7.225605 -7.420925 0.3051198,-8.083826 -6.946809 -0.3014382,-7.868943 -5.937719 -0.1483989,-7.713714 -5.350215 0.02305263,-7.585248 -4.844869 0.145659,-8.382471 -6.735124 -0.1946529,-8.189305 -5.552675 -0.09420031,-8.033202 -4.853606 0.116103,-7.897729 -4.238577 0.2718019,-8.686728 -6.74636 -0.04872137,-8.553774 -5.621242 0.0758957,-8.433551 -4.93503 0.2837287,-8.310313 -4.347896 0.4361611,-9.013773 -6.933467 0.1115277,-9.040783 -6.051174 0.2770857,-9.031683 -5.482584 0.428403,-8.996292 -4.94704 0.5407946,6.710,
-1.38816 -9.566952 -0.0532413,-1.903355 -9.346933 0.6912412,-2.291949 -8.922033 1.337063,-2.193742 -8.642416 1.857302,-1.7661 -8.396261 2.394635,-1.931253 -7.413337 1.609719,-1.935191 -7.438112 2.486059,-1.892346 -7.535049 2.95104,-1.823598 -7.71346 3.220842,-1.447252 -7.100139 1.476004,-1.295108 -7.961393 2.332448,-1.367215 -8.809818 2.455398,-1.44589 -9.336555 2.483311,-1.007059 -7.240201 1.410978,-0.9379358 -8.170309 2.151223,-1.086877 -8.828674 2.1068,-1.204692 -9.112505 1.963617,-0.6506128 -7.605796 1.403071,-0.5858898 -8.068928 1.827231,-0.7459412 -8.592661 1.844064,-0.8812275 -8.804899 1.796482,-8.908918 -9.406219 -0.2751084,-8.287219 -9.170788 -0.122362,-7.786066 -8.496206 -0.0109902,-7.490659 -7.831557 0.1548399,-7.221264 -7.406712 0.3282433,-8.078146 -6.946046 -0.2871169,-7.863116 -5.949761 -0.1480148,-7.705939 -5.36074 0.01897499,-7.573885 -4.854381 0.1424582,-8.376371 -6.73081 -0.1785661,-8.183084 -5.560915 -0.09886971,-8.027802 -4.860775 0.1091036,-7.891582 -4.245224 0.2662694,-8.679971 -6.734857 -0.03052787,-8.54432 -5.620824 0.07998362,-8.423437 -4.935194 0.2825734,-8.298893 -4.353238 0.4326422,-9.006882 -6.9152 0.133214,-9.03011 -6.03149 0.2899359,-9.020727 -5.461531 0.4343419,-8.984786 -4.925733 0.539865,6.810,
-1.246066 -9.740189 0.3634253,-1.761578 -9.459661 1.149812,-2.15638 -9.015675 1.886599,-2.061851 -8.739964 2.471664,-1.598497 -8.545797 3.081707,-1.77755 -7.486833 2.107885,-1.770494 -7.56501 2.974925,-1.674509 -7.697696 3.402619,-1.601479 -7.831277 3.664865,-1.256292 -7.183343 1.974492,-1.077336 -7.769023 2.838382,-1.102299 -8.459398 3.080883,-1.197342 -8.848274 3.254296,-0.8057146 -7.319044 1.903659,-0.7386446 -8.199165 2.63194,-0.8934364 -8.816629 2.543551,-1.070856 -8.981466 2.398967,-0.4592347 -7.726692 1.893959,-0.4257555 -8.277826 2.292408,-0.5998645 -8.760517 2.239482,-0.7746325 -8.845364 2.151679,-8.894059 -9.388891 -0.2716106,-8.275515 -9.146587 -0.1238493,-7.778058 -8.477993 -0.01158169,-7.483271 -7.825789 0.1588876,-7.206096 -7.406183 0.3356358,-8.070872 -6.923491 -0.287978,-7.851096 -5.929809 -0.1498174,-7.695477 -5.340025 0.01873162,-7.567327 -4.829235 0.1431535,-8.368184 -6.711151 -0.1743711,-8.175946 -5.548504 -0.09447613,-8.021847 -4.853346 0.1148981,-7.888835 -4.242987 0.2703346,-8.670466 -6.713291 -0.02079028,-8.53636 -5.606245 0.08953807,-8.415166 -4.925743 0.2930889,-8.291067 -4.348698 0.4434091,-8.997488 -6.887508 0.1484855,-9.020725 -6.015029 0.3083099,-9.009213 -5.449443 0.4529992,-8.969748 -4.919277 0.5590441,6.910,
-1.127229 -9.88611 -0.2118723,-1.606785 -9.545135 0.5976619,-2.004382 -9.015663 1.33873,-1.892635 -8.665136 1.915651,-1.43479 -8.638216 2.474128,-1.607372 -7.6872 1.467906,-1.624022 -7.57794 2.305199,-1.51177 -7.866974 2.679128,-1.455987 -8.11508 2.880031,-1.112512 -7.483923 1.335869,-1.021066 -7.430793 2.23196,-0.975646 -8.058193 2.522573,-1.0301 -8.447355 2.695555,-0.6949711 -7.593877 1.26581,-0.6396284 -7.84806 2.039873,-0.7333155 -8.562878 2.017781,-0.8760376 -8.842312 1.896334,-0.370513 -7.953342 1.249921,-0.306458 -7.978244 1.70074,-0.4338303 -8.44104 1.690694,-0.5741062 -8.613018 1.616384,-8.89913 -9.396135 -0.276869,-8.28239 -9.155209 -0.1413655,-7.786013 -8.480776 -0.03090106,-7.489218 -7.82759 0.1389114,-7.212475 -7.410147 0.3189311,-8.079748 -6.932964 -0.3043173,-7.862192 -5.936447 -0.1678851,-7.704378 -5.344282 0.003267497,-7.574652 -4.833925 0.1300012,-8.375552 -6.719277 -0.18529,-8.18326 -5.546007 -0.1057482,-8.025396 -4.840174 0.1028473,-7.89085 -4.224111 0.2577646,-8.678323 -6.722173 -0.02822664,-8.543805 -5.606136 0.08087167,-8.418777 -4.917819 0.2807212,-8.293809 -4.337629 0.4287645,-9.005141 -6.898067 0.143991,-9.027469 -6.011884 0.3025607,-9.01274 -5.441238 0.4447002,-8.972317 -4.909565 0.5490842,7.010,
-0.9489212 -9.730532 0.4979343,-1.439822 -9.458456 1.403446,-1.885933 -9.111502 2.274536,-1.827105 -8.856447 2.979865,-1.328343 -8.643587 3.660734,-1.515617 -7.549057 2.444639,-1.471273 -7.709529 3.420119,-1.338517 -8.055046 3.870721,-1.2219 -8.224926 4.160283,-0.973856 -7.221974 2.251135,-0.8358274 -7.741617 3.265301,-0.9297886 -8.403339 3.499675,-1.084131 -8.68141 3.621416,-0.5125151 -7.326428 2.147368,-0.4565201 -8.21876 2.944331,-0.6875753 -8.833317 2.697888,-0.8932457 -8.862755 2.435376,-0.1755915 -7.700679 2.101087,-0.1711106 -8.43874 2.486179,-0.3871822 -8.906759 2.326617,-0.5763521 -8.860971 2.141959,-8.912045 -9.405798 -0.2450644,-8.292599 -9.15461 -0.11858,-7.791241 -8.475639 -0.01718709,-7.489873 -7.824507 0.1463418,-7.210039 -7.412506 0.3156797,-8.085885 -6.929876 -0.2869154,-7.866535 -5.939683 -0.1566087,-7.707888 -5.352615 0.01254815,-7.576314 -4.845109 0.137945,-8.381234 -6.720775 -0.1640811,-8.188519 -5.563364 -0.09148246,-8.03216 -4.868321 0.1179422,-7.897609 -4.264782 0.272945,-8.68183 -6.723581 -0.003001854,-8.546566 -5.619424 0.1025106,-8.422482 -4.936599 0.3059959,-8.296232 -4.36621 0.4538564,-9.007161 -6.898853 0.1723465,-9.029457 -6.019683 0.3288693,-9.016585 -5.450656 0.47007,-8.977137 -4.92526 0.5725507,7.110,
-0.8172026 -9.647022 -0.8692631,-1.302666 -9.499065 0.05899161,-1.702325 -9.128653 0.959551,-1.665075 -8.834255 1.685501,-1.218015 -8.566793 2.350097,-1.46285 -7.976629 1.134167,-1.480305 -7.98429 2.142766,-1.315468 -8.355877 2.600736,-1.193354 -8.608622 2.846358,-0.965878 -7.751246 1.004843,-0.9389338 -7.426454 2.142891,-0.8813734 -7.742218 2.553971,-0.9176264 -7.99066 2.793818,-0.4930687 -7.77113 0.9041141,-0.3935709 -7.651939 1.736258,-0.5114851 -8.311047 1.463147,-0.6785669 -8.603258 1.180539,-0.1185694 -8.01869 0.8823843,-0.01428604 -7.812459 1.347411,-0.1638589 -8.315891 1.192471,-0.3482876 -8.553226 0.9661289,-8.907345 -9.384207 -0.2432817,-8.285458 -9.13938 -0.1066662,-7.784612 -8.472357 -0.0002577603,-7.486324 -7.816783 0.1678669,-7.21201 -7.396247 0.342577,-8.080266 -6.913566 -0.2990894,-7.863018 -5.927472 -0.1723665,-7.706442 -5.342301 -0.007206559,-7.575881 -4.841046 0.1135392,-8.377419 -6.69792 -0.1833524,-8.18228 -5.543531 -0.1173629,-8.028388 -4.851566 0.08659285,-7.894854 -4.248616 0.2397633,-8.680193 -6.697952 -0.02655253,-8.540504 -5.597826 0.07046303,-8.417228 -4.919975 0.266213,-8.291726 -4.350645 0.4109845,-9.008378 -6.871992 0.1479245,-9.02842 -5.997701 0.2918388,-9.015317 -5.436165 0.4269189,-8.975192 -4.911952 0.5282646,7.210,Right Hand Closed 
-0.8036814 -9.557487 -1.269006,-1.308176 -9.393654 -0.2844614,-1.680202 -9.074654 0.6344346,-1.563375 -8.815437 1.329592,-1.091971 -8.626135 1.925742,-1.405548 -8.066563 0.7700123,-1.397353 -8.001352 1.776368,-1.270131 -8.241169 2.200636,-1.172937 -8.398447 2.44719,-0.8813314 -7.828507 0.6114796,-0.8213029 -7.514751 1.76495,-0.7900105 -7.719085 2.14086,-0.8203917 -7.903323 2.355513,-0.3961525 -7.813903 0.4872799,-0.3361993 -7.769331 1.304556,-0.5200934 -8.423836 0.9973956,-0.704051 -8.702971 0.6748595,-0.01037312 -8.022284 0.4455785,0.05696201 -7.877804 0.9330169,-0.1369257 -8.36445 0.784012,-0.3217154 -8.600946 0.5463893,-8.904149 -9.353926 -0.3027762,-8.280594 -9.117973 -0.1683284,-7.780602 -8.45713 -0.06381181,-7.483646 -7.801886 0.1015304,-7.209077 -7.376233 0.2718137,-8.07427 -6.902407 -0.3495274,-7.855056 -5.910217 -0.2182392,-7.700087 -5.322795 -0.05054277,-7.573599 -4.815 0.07145265,-8.370155 -6.686069 -0.2308838,-8.177522 -5.524757 -0.1586574,-8.024559 -4.835388 0.0510377,-7.892564 -4.232531 0.204953,-8.672271 -6.686115 -0.07025029,-8.537805 -5.579607 0.03471622,-8.415411 -4.90274 0.2424634,-8.289278 -4.329803 0.3943188,-9.000776 -6.85919 0.1053642,-9.025702 -5.985882 0.2603349,-9.013803 -5.420452 0.4064043,-8.973506 -4.887909 0.5130451,7.310,Right Hand Closed 
-0.7626848 -9.582855 -0.7399978,-1.25752 -9.33551 0.2772794,-1.640872 -8.960896 1.196249,-1.529363 -8.692822 1.902268,-1.036187 -8.631777 2.518216,-1.286688 -7.848732 1.33723,-1.184145 -7.824285 2.302755,-1.082111 -8.187681 2.677813,-1.022659 -8.404202 2.86891,-0.7624006 -7.634573 1.139202,-0.6865215 -7.429788 2.225244,-0.7242317 -7.73281 2.580315,-0.819417 -7.917015 2.780713,-0.2868567 -7.695555 0.9876937,-0.2135644 -7.767581 1.792951,-0.42346 -8.436974 1.529331,-0.6173096 -8.666357 1.255367,0.07612896 -7.993312 0.9099163,0.1592331 -7.893468 1.379613,-0.03081131 -8.383842 1.260283,-0.2108006 -8.593731 1.05852,-8.897822 -9.341681 -0.327356,-8.281561 -9.103666 -0.1711758,-7.78438 -8.447996 -0.04860452,-7.484108 -7.794089 0.1283814,-7.205422 -7.375097 0.3139172,-8.073046 -6.900121 -0.3103028,-7.849633 -5.904355 -0.1617916,-7.693726 -5.31472 0.01231346,-7.567324 -4.805416 0.1409712,-8.369821 -6.681861 -0.2000577,-8.169689 -5.513988 -0.1071982,-8.01122 -4.812873 0.1053685,-7.875013 -4.200177 0.2634915,-8.672888 -6.68331 -0.0504685,-8.532433 -5.569442 0.07018319,-8.409695 -4.881586 0.2758906,-8.284774 -4.300521 0.4280577,-8.99979 -6.859903 0.1139804,-9.018439 -5.982809 0.2807033,-9.005547 -5.413311 0.4300807,-8.964801 -4.879811 0.5406938,7.410,
-0.6595397 -9.581791 -0.9364493,-1.165653 -9.404718 0.08651531,-1.553052 -9.025049 1.026185,-1.446541 -8.73218 1.739886,-0.9367023 -8.528408 2.372015,-1.229424 -7.967598 1.181635,-1.210114 -7.88663 2.172776,-1.091381 -8.210112 2.584738,-0.9857578 -8.433191 2.805337,-0.7140265 -7.782979 1.009647,-0.6794624 -7.399399 2.124141,-0.6723299 -7.758358 2.49971,-0.713892 -8.021692 2.70961,-0.2467976 -7.831645 0.872081,-0.1864395 -7.58476 1.674318,-0.3558083 -8.26515 1.352514,-0.5103531 -8.563194 1.031375,0.1161828 -8.082121 0.815244,0.176466 -7.683803 1.280171,0.0054636 -8.18059 1.078267,-0.1518531 -8.463514 0.8110974,-8.895296 -9.346809 -0.3134248,-8.275208 -9.108459 -0.179689,-7.779092 -8.441854 -0.07611944,-7.482053 -7.786676 0.08461085,-7.205839 -7.378742 0.2541336,-8.07009 -6.897178 -0.3371224,-7.848548 -5.89904 -0.2027397,-7.690371 -5.307113 -0.03507337,-7.562205 -4.79631 0.09092659,-8.364817 -6.681963 -0.222012,-8.165426 -5.515968 -0.1448181,-8.005529 -4.813176 0.06463018,-7.869771 -4.200336 0.2208168,-8.666088 -6.683006 -0.0689695,-8.526089 -5.572099 0.03969646,-8.400421 -4.884415 0.2433066,-8.274327 -4.305929 0.3939005,-8.99087 -6.858007 0.09810716,-9.011684 -5.98138 0.2558217,-9.000028 -5.412098 0.4025659,-8.961371 -4.881252 0.5097941,7.510,Right Hand Closed 
-0.6082268 -9.437191 -1.405425,-1.047637 -9.368027 -0.437637,-1.400944 -9.173899 0.4906368,-1.389451 -9.017359 1.236711,-1.070176 -8.802437 1.925268,-1.297916 -8.041044 0.6451647,-1.406892 -7.985678 1.687524,-1.281978 -8.321678 2.213921,-1.144713 -8.593103 2.526245,-0.805109 -7.831668 0.522541,-0.8498087 -7.334713 1.706245,-0.759872 -7.48809 2.265428,-0.7104664 -7.686786 2.615717,-0.3331423 -7.836126 0.4001545,-0.2805424 -7.535278 1.296178,-0.4044638 -8.206507 1.144114,-0.5375576 -8.52215 0.9454937,0.07284832 -8.064129 0.3496425,0.1525469 -7.756109 0.921659,0.002575874 -8.229471 0.865092,-0.1505299 -8.503325 0.7080684,-8.902759 -9.367182 -0.2949428,-8.290847 -9.125078 -0.1645454,-7.794851 -8.45738 -0.05491462,-7.496086 -7.805997 0.1161384,-7.214747 -7.389066 0.2981912,-8.079486 -6.91375 -0.3173528,-7.854249 -5.920659 -0.1812483,-7.693819 -5.325933 -0.01231897,-7.563273 -4.814506 0.1153659,-8.373553 -6.697065 -0.1933614,-8.173619 -5.527282 -0.1167368,-8.011974 -4.814685 0.09521246,-7.875419 -4.201276 0.251634,-8.676512 -6.69766 -0.03098935,-8.536811 -5.585178 0.08136696,-8.411641 -4.888221 0.2888854,-8.28663 -4.305616 0.4414397,-9.003882 -6.870386 0.1439038,-9.021859 -5.983076 0.310984,-9.007309 -5.409183 0.4646379,-8.965887 -4.878941 0.5748552,7.610,Right Hand Closed 
-0.9810591 -9.469688 -0.9621097,-1.017953 -9.296946 0.02628005,-1.344761 -9.111971 0.9562703,-1.275786 -8.936691 1.685816,-1.027237 -8.625303 2.421311,-1.415016 -7.8939 1.138718,-1.558258 -8.048323 2.187179,-1.418432 -8.521091 2.743824,-1.256491 -8.819956 3.076899,-0.9531889 -7.598258 0.982626,-0.9659185 -7.369319 2.09172,-0.8309245 -7.809919 2.508844,-0.7652912 -8.063377 2.768067,-0.4674177 -7.566627 0.8430785,-0.3615198 -7.520562 1.667505,-0.437686 -8.269428 1.476609,-0.5417957 -8.452299 1.296675,-0.03804111 -7.767201 0.7760291,0.07234001 -7.744071 1.294638,-0.02702188 -8.262033 1.215687,-0.1397977 -8.395563 1.087935,-8.911885 -9.371321 -0.2727487,-8.292091 -9.126642 -0.143763,-7.797369 -8.455284 -0.03832072,-7.499408 -7.801797 0.1262717,-7.218226 -7.389489 0.3005801,-8.085226 -6.912025 -0.3040521,-7.86548 -5.924352 -0.1725965,-7.707388 -5.337711 -0.005398214,-7.578477 -4.833137 0.1198817,-8.381861 -6.694427 -0.184214,-8.185575 -5.528715 -0.1142569,-8.025754 -4.830323 0.09076452,-7.891243 -4.223583 0.2438197,-8.684518 -6.69466 -0.02627601,-8.549108 -5.585256 0.07712543,-8.424475 -4.902013 0.2800149,-8.300751 -4.327049 0.4296199,-9.010234 -6.868814 0.1457919,-9.034744 -5.989715 0.3022686,-9.024617 -5.423451 0.4478202,-8.988985 -4.895139 0.5556689,7.710,
-1.107942 -9.604889 0.0700647,-1.551755 -9.219383 1.164442,-1.867393 -8.783726 2.037281,-1.749152 -8.605516 2.675456,-1.327412 -8.585464 3.288189,-1.502044 -7.294105 1.995171,-1.364612 -7.463451 2.909555,-1.249001 -8.178637 3.306859,-1.185967 -8.525793 3.490102,-0.9957914 -7.185756 1.733976,-0.8471098 -7.360078 2.704432,-0.8061304 -8.105755 2.990373,-0.8394003 -8.44026 3.13246,-0.5760455 -7.373335 1.550571,-0.4405203 -7.690605 2.380461,-0.5922318 -8.367002 2.315586,-0.7394028 -8.554798 2.178953,-0.2668352 -7.783305 1.433295,-0.1601977 -7.953285 1.944973,-0.3165913 -8.462688 1.954421,-0.4383736 -8.621916 1.85954,-8.924824 -9.383028 -0.2643109,-8.303629 -9.137537 -0.1276101,-7.805228 -8.452635 -0.02269475,-7.508254 -7.790346 0.1403571,-7.226672 -7.37545 0.308847,-8.094193 -6.9192 -0.290292,-7.87495 -5.931621 -0.1541998,-7.717359 -5.349302 0.01078933,-7.586287 -4.846498 0.1333804,-8.391535 -6.704391 -0.1740738,-8.199272 -5.542085 -0.09816258,-8.0435 -4.849535 0.1096269,-7.908612 -4.241015 0.263983,-8.695026 -6.706449 -0.01922305,-8.562622 -5.596801 0.09116304,-8.443508 -4.912212 0.2957684,-8.320945 -4.330721 0.4457213,-9.022662 -6.884522 0.1478398,-9.044707 -6.001871 0.3106917,-9.032784 -5.429275 0.4568915,-8.993954 -4.893919 0.5642189,7.810,
-1.094257 -9.241508 -2.90602,-1.480806 -9.100277 -2.153745,-1.710466 -8.813841 -1.454913,-1.703406 -8.562387 -0.8789959,-1.52827 -8.28167 -0.2887409,-1.700542 -7.708322 -1.539832,-1.775125 -7.243877 -0.7294328,-1.676994 -7.682765 -0.3118834,-1.586875 -8.078005 -0.1436558,-1.304194 -7.578136 -1.661737,-1.2616 -7.099573 -0.8069751,-1.162177 -7.724391 -0.5222921,-1.167034 -8.114754 -0.445497,-0.9493103 -7.642721 -1.736337,-0.8730483 -7.362487 -1.019183,-0.8763905 -7.992439 -0.9520551,-0.9470725 -8.28911 -1.038988,-0.665514 -7.826454 -1.762448,-0.5715189 -7.648084 -1.288787,-0.6059952 -8.120422 -1.212454,-0.6907568 -8.387218 -1.281031,-8.914051 -9.351685 -0.3243892,-8.292864 -9.118484 -0.1804481,-7.792155 -8.454084 -0.0702973,-7.492624 -7.79421 0.09365019,-7.221113 -7.373793 0.2657396,-8.083624 -6.912998 -0.3436716,-7.866646 -5.917057 -0.2057215,-7.708402 -5.329412 -0.03913319,-7.577406 -4.824415 0.0853757,-8.378923 -6.69091 -0.2341644,-8.179593 -5.522998 -0.1555791,-8.018886 -4.825551 0.05313617,-7.88068 -4.216146 0.2103276,-8.681834 -6.689968 -0.08503349,-8.545166 -5.578218 0.02621737,-8.422197 -4.892706 0.2278998,-8.296869 -4.311843 0.3787874,-9.008839 -6.866466 0.0780277,-9.031003 -5.985372 0.2356724,-9.018495 -5.417533 0.3817447,-8.978951 -4.884783 0.4894196,7.910,Right Hand Closed 
-1.169945 -8.996836 -4.028734,-1.498055 -8.91115 -3.41099,-1.699705 -8.573988 -2.890568,-1.757414 -8.23665 -2.440896,-1.773041 -7.983676 -1.959069,-1.623384 -7.614488 -2.967052,-1.64553 -7.176512 -2.325509,-1.617947 -7.399532 -1.913383,-1.592816 -7.719743 -1.679652,-1.315131 -7.542673 -3.035401,-1.262631 -7.132509 -2.316206,-1.222651 -7.626948 -2.024557,-1.246004 -8.001415 -1.935516,-1.033113 -7.626112 -3.067564,-0.9765096 -7.38614 -2.411689,-0.9886394 -7.880394 -2.26733,-1.033598 -8.168865 -2.289953,-0.7802825 -7.805334 -3.062863,-0.7217636 -7.658805 -2.576702,-0.77037 -8.023302 -2.447355,-0.836359 -8.252008 -2.452796,-8.910472 -9.346277 -0.3500673,-8.292614 -9.108244 -0.2052385,-7.791695 -8.444847 -0.09142718,-7.492821 -7.790788 0.07768106,-7.224944 -7.368045 0.256783,-8.081606 -6.91321 -0.362074,-7.861354 -5.915718 -0.2169441,-7.70158 -5.325618 -0.04810172,-7.571602 -4.818359 0.07683799,-8.376093 -6.693266 -0.2483588,-8.174664 -5.523326 -0.1606942,-8.013312 -4.81702 0.05309102,-7.8766 -4.200988 0.2122996,-8.67872 -6.692178 -0.09490111,-8.539707 -5.581499 0.02667299,-8.416617 -4.890678 0.2339127,-8.292338 -4.306419 0.3868685,-9.005129 -6.867286 0.07193178,-9.028476 -5.986337 0.239856,-9.018356 -5.416929 0.3904126,-8.981162 -4.884599 0.5010372,8.010,Right Hand Closed 
-1.494756 -9.265839 -2.928661,-2.076631 -9.07485 -2.726859,-2.490327 -8.745447 -2.397337,-2.747549 -8.432306 -2.148261,-2.881655 -8.153158 -1.914898,-2.287538 -7.873044 -1.735028,-2.537765 -7.112228 -1.483667,-2.64641 -7.177105 -1.510141,-2.690598 -7.449163 -1.586084,-1.924846 -7.583745 -1.781012,-2.137546 -6.799354 -1.611897,-2.225277 -7.154941 -1.720987,-2.214279 -7.565578 -1.750815,-1.599737 -7.496238 -1.87558,-1.726486 -6.833471 -1.874691,-1.830259 -7.167793 -2.053267,-1.835698 -7.525932 -2.125642,-1.346879 -7.533966 -1.954159,-1.405505 -7.001188 -2.011754,-1.487088 -7.291106 -2.111805,-1.508798 -7.629451 -2.18022,-8.897302 -9.358414 -0.2740281,-8.285243 -9.110281 -0.1242192,-7.790948 -8.442385 -0.007338911,-7.492586 -7.784954 0.165153,-7.214418 -7.368274 0.3449962,-8.081962 -6.897637 -0.2706651,-7.861659 -5.912275 -0.1240889,-7.705215 -5.328347 0.04893017,-7.578037 -4.82234 0.1764318,-8.378468 -6.680734 -0.1584207,-8.183544 -5.521005 -0.07207163,-8.026806 -4.822103 0.1433319,-7.894726 -4.210409 0.3039202,-8.681577 -6.68589 -0.007262021,-8.550243 -5.584514 0.1092906,-8.431257 -4.900908 0.3153075,-8.310989 -4.321659 0.4674143,-9.007191 -6.866947 0.158071,-9.031757 -5.990808 0.3218955,-9.021233 -5.422908 0.4701083,-8.984297 -4.889412 0.5782142,8.110,Right Hand Closed 
-1.809039 -9.019703 -2.564287,-2.284585 -8.973259 -2.097582,-2.654567 -8.728561 -1.626932,-2.886759 -8.392916 -1.200619,-3.045023 -8.001202 -0.7245593,-2.62516 -7.520874 -1.405689,-2.68791 -7.295613 -0.8289263,-2.763133 -7.244686 -0.5711352,-2.827081 -7.309158 -0.4493356,-2.278456 -7.202545 -1.444444,-2.215762 -7.197958 -0.8611155,-2.22396 -7.824943 -0.8218617,-2.23715 -8.249401 -0.8732951,-1.921906 -7.133383 -1.464292,-1.847172 -7.194402 -0.9561126,-1.897448 -7.792097 -1.089959,-1.943861 -8.11936 -1.274441,-1.605584 -7.23176 -1.455745,-1.520406 -7.05965 -1.137708,-1.576616 -7.508195 -1.199354,-1.644403 -7.818948 -1.340254,-8.903831 -9.34988 -0.2668499,-8.288955 -9.108257 -0.1150822,-7.789701 -8.437542 -0.001500309,-7.491709 -7.783922 0.1685066,-7.213788 -7.364579 0.3460825,-8.080551 -6.886005 -0.2701405,-7.861485 -5.900455 -0.1271051,-7.705727 -5.3138 0.04465523,-7.579784 -4.805822 0.1713598,-8.375006 -6.671961 -0.1535304,-8.181579 -5.519317 -0.06778291,-8.024426 -4.825164 0.1479008,-7.890274 -4.217528 0.3069262,-8.677888 -6.676519 0.004360616,-8.544176 -5.576496 0.1221128,-8.422091 -4.897159 0.3312851,-8.297732 -4.323055 0.4857211,-9.005912 -6.854442 0.1771452,-9.030943 -5.980424 0.3434616,-9.020335 -5.415739 0.4913706,-8.98197 -4.885654 0.5991141,8.210,
-2.091396 -8.992893 -2.454305,-2.677979 -8.811646 -2.14413,-3.134547 -8.342154 -1.87205,-3.389244 -7.870389 -1.602226,-3.62269 -7.470792 -1.267113,-3.048743 -7.19267 -1.991316,-3.151762 -6.908176 -1.462129,-3.213785 -6.738067 -1.161869,-3.286417 -6.645634 -1.013201,-2.742844 -6.926486 -1.985291,-2.808687 -6.842025 -1.36064,-2.765483 -7.531552 -1.106814,-2.713388 -8.058809 -1.063721,-2.406479 -6.833053 -1.918019,-2.426496 -6.766195 -1.401522,-2.429456 -7.418512 -1.344171,-2.424566 -7.879695 -1.453135,-2.056632 -6.869187 -1.844961,-2.073979 -6.750585 -1.499799,-2.125422 -7.23704 -1.451202,-2.164203 -7.626245 -1.520725,-8.8874 -9.365665 -0.275189,-8.276668 -9.122143 -0.1260989,-7.77733 -8.445709 -0.01469409,-7.475797 -7.789407 0.1519895,-7.197232 -7.371889 0.3289812,-8.07264 -6.901681 -0.2702389,-7.853283 -5.905483 -0.1252918,-7.696338 -5.31308 0.04168805,-7.568349 -4.803193 0.1661935,-8.364806 -6.689353 -0.1527115,-8.166054 -5.522836 -0.06108062,-8.010179 -4.816379 0.1531844,-7.877493 -4.19947 0.3124977,-8.665998 -6.700412 0.002983779,-8.524881 -5.589708 0.1259715,-8.399922 -4.897963 0.3412895,-8.274743 -4.315328 0.5022879,-8.992704 -6.888286 0.1759784,-9.018297 -6.013647 0.3432541,-9.008549 -5.445693 0.4986765,-8.97329 -4.915575 0.6130995,8.310,
-2.225597 -8.618628 -3.796726,-2.758444 -8.705778 -3.432575,-3.282845 -8.350628 -3.246823,-3.583803 -7.824655 -3.067251,-3.808052 -7.304641 -2.909883,-3.183561 -7.216533 -3.509998,-3.43427 -6.572689 -3.390734,-3.5994 -6.082407 -3.205992,-3.717581 -5.601394 -3.03346,-2.887447 -6.928609 -3.538432,-3.067247 -6.324955 -3.281142,-3.145072 -5.906474 -2.994985,-3.144064 -5.621274 -2.787767,-2.576397 -6.785636 -3.53872,-2.716149 -6.1562 -3.28249,-2.769712 -5.842086 -2.976033,-2.755344 -5.706526 -2.755459,-2.242451 -6.753936 -3.5194,-2.329164 -6.128035 -3.273044,-2.352142 -5.89891 -3.082125,-2.325628 -5.851518 -2.953021,-8.88021 -9.376865 -0.2868074,-8.264185 -9.123314 -0.1500616,-7.765334 -8.46035 -0.04019892,-7.463363 -7.811899 0.1282062,-7.188307 -7.398704 0.3064222,-8.056761 -6.912458 -0.2873209,-7.83699 -5.907501 -0.1394812,-7.679256 -5.313421 0.03032714,-7.551676 -4.800202 0.1589446,-8.349435 -6.705667 -0.1619181,-8.149958 -5.530743 -0.06195167,-7.992771 -4.820373 0.1598884,-7.860752 -4.198377 0.3229302,-8.651341 -6.717243 -0.0004534423,-8.513413 -5.603057 0.1294177,-8.388359 -4.90895 0.3481892,-8.263054 -4.323478 0.5069715,-8.978312 -6.903606 0.177928,-9.004479 -6.024053 0.350463,-8.996404 -5.452529 0.5072116,-8.96189 -4.915508 0.6199749,8.410,
-2.275968 -8.48807 -3.03624,-2.798441 -8.61352 -2.650039,-3.315268 -8.268497 -2.493985,-3.610161 -7.762231 -2.334976,-3.854845 -7.254837 -2.218012,-3.225119 -6.873016 -2.950794,-3.475431 -6.235811 -2.903248,-3.646748 -5.749891 -2.731366,-3.783394 -5.300592 -2.560363,-2.930791 -6.545306 -2.995921,-3.090042 -5.905389 -2.846093,-3.196592 -5.495067 -2.601648,-3.223144 -5.229816 -2.413902,-2.623934 -6.415268 -2.989969,-2.758807 -5.768869 -2.818838,-2.845404 -5.422006 -2.542637,-2.871215 -5.271551 -2.330537,-2.27883 -6.415457 -2.952095,-2.358006 -5.823518 -2.734952,-2.402578 -5.626109 -2.543523,-2.404093 -5.633953 -2.41858,-8.864945 -9.392599 -0.2284327,-8.252398 -9.143885 -0.08707064,-7.753631 -8.464037 0.02128363,-7.455428 -7.812286 0.1854873,-7.17932 -7.391231 0.3543591,-8.047179 -6.909221 -0.226565,-7.829896 -5.922807 -0.07927091,-7.671534 -5.340033 0.09318694,-7.540889 -4.834623 0.221655,-8.339404 -6.70329 -0.1048661,-8.15185 -5.542905 -0.01398309,-7.997093 -4.845805 0.2038439,-7.864717 -4.23436 0.3634835,-8.640073 -6.716211 0.05534244,-8.510704 -5.60959 0.1799947,-8.388535 -4.925573 0.3926022,-8.264402 -4.350152 0.54695,-8.966415 -6.904423 0.2289521,-8.992676 -6.028274 0.3987188,-8.984899 -5.453646 0.5478752,-8.95204 -4.918142 0.6529722,8.510,
-2.264566 -8.126213 -2.379085,-2.805358 -8.261145 -1.959092,-3.308121 -7.915702 -1.763174,-3.615742 -7.444384 -1.58107,-3.909908 -7.031728 -1.389344,-3.216913 -6.297744 -2.070956,-3.509199 -5.520441 -1.909141,-3.697075 -4.962387 -1.736847,-3.839508 -4.439444 -1.562705,-2.899178 -5.995643 -2.118484,-3.100366 -5.132562 -1.939531,-3.24138 -4.522861 -1.776541,-3.329729 -3.983203 -1.65522,-2.568705 -5.934707 -2.10399,-2.714793 -5.091307 -1.944384,-2.837498 -4.549462 -1.796342,-2.929439 -4.072481 -1.653925,-2.203389 -6.038248 -2.046143,-2.277945 -5.343364 -1.871572,-2.352521 -4.889463 -1.682844,-2.419276 -4.483301 -1.539723,-8.857046 -9.363314 -0.3239563,-8.239475 -9.123163 -0.1834662,-7.7425 -8.464462 -0.07268152,-7.442649 -7.815542 0.09514052,-7.173829 -7.385986 0.272482,-8.035108 -6.916614 -0.3311402,-7.80715 -5.922975 -0.1816338,-7.647707 -5.333837 -0.009504527,-7.519946 -4.822265 0.1188259,-8.328269 -6.701938 -0.2120721,-8.129664 -5.535356 -0.1209117,-7.969095 -4.826877 0.09922111,-7.834641 -4.210786 0.2603496,-8.630758 -6.703199 -0.05372003,-8.494557 -5.597488 0.06806242,-8.369088 -4.909515 0.2815428,-8.243808 -4.33245 0.43963,-8.95661 -6.878891 0.1188251,-8.97846 -6.00385 0.2878637,-8.968249 -5.429521 0.4433933,-8.930059 -4.893695 0.5553362,8.610,
-2.230779 -8.017179 -2.124327,-2.799675 -8.129486 -1.697325,-3.316181 -7.791831 -1.488276,-3.636115 -7.266956 -1.303996,-3.938152 -6.823379 -1.106665,-3.200195 -6.147482 -1.69087,-3.524396 -5.263614 -1.483564,-3.713697 -4.705265 -1.320445,-3.858364 -4.175148 -1.152588,-2.884408 -5.832354 -1.749713,-3.129429 -4.830905 -1.528449,-3.274854 -4.181396 -1.359527,-3.361767 -3.603266 -1.227261,-2.555434 -5.765448 -1.745195,-2.730174 -4.830085 -1.55696,-2.86975 -4.237028 -1.37528,-2.967729 -3.708221 -1.209786,-2.192551 -5.870344 -1.709565,-2.270999 -5.113044 -1.516422,-2.350734 -4.618145 -1.302962,-2.427442 -4.146913 -1.137841,-8.849865 -9.359568 -0.2679852,-8.23643 -9.112066 -0.1308494,-7.744688 -8.440571 -0.01632562,-7.448863 -7.790941 0.1553037,-7.167561 -7.381034 0.3391844,-8.038272 -6.894988 -0.2579749,-7.816425 -5.899764 -0.1043797,-7.659144 -5.300643 0.07434991,-7.532907 -4.779314 0.207254,-8.331434 -6.680947 -0.1329883,-8.136211 -5.508472 -0.03365605,-7.975708 -4.789672 0.1935073,-7.842431 -4.166498 0.3602339,-8.63399 -6.684112 0.02813408,-8.498968 -5.570886 0.1531594,-8.37204 -4.876547 0.3648634,-8.247051 -4.296787 0.5201462,-8.961643 -6.861248 0.2032799,-8.981391 -5.978704 0.3776789,-8.967457 -5.404308 0.5303827,-8.928481 -4.873415 0.6386165,8.710,
