TiagoOliveira98/HandTracking/DataLogging/JointData/Logs(1635027259)_Tiago.csv
WRIST,THUMB_CMC,THUMB_MCP,THUMB_IP,THUMB_TIP,INDEX_FINGER_MCP,INDEX_FINGER_PIP,INDEX_FINGER_DIP,INDEX_FINGER_TIP,MIDDLE_FINGER_MCP,MIDDLE_FINGER_PIP,MIDDLE_FINGER_DIP,MIDDLE_FINGER_TIP,RING_FINGER_MCP,RING_FINGER_PIP,RING_FINGER_DIP,RING_FINGER_TIP,PINKY_MCP,PINKY_PIP,PINKY_DIP,PINKY_TIP,WRIST2,THUMB_CMC2,THUMB_MCP2,THUMB_IP2,THUMB_TIP2,INDEX_FINGER_MCP2,INDEX_FINGER_PIP2,INDEX_FINGER_DIP2,INDEX_FINGER_TIP2,MIDDLE_FINGER_MCP2,MIDDLE_FINGER_PIP2,MIDDLE_FINGER_DIP2,MIDDLE_FINGER_TIP2,RING_FINGER_MCP2,RING_FINGER_PIP2,RING_FINGER_DIP2,RING_FINGER_TIP2,PINKY_MCP2,PINKY_PIP2,PINKY_DIP2,PINKY_TIP2,Timestamp,Event
10 0 0,10 7.47 0,10 7.47 0,10 7.47 0,10 7.47 0,10 7.47 0,10 7.47 0,10 7.47 0,10 7.47 0,10 7.47 0,10 7.47 0,10 7.47 0,10 7.47 0,10 7.47 0,10 7.47 0,10 7.47 0,10 7.47 0,10 7.47 0,10 7.47 0,10 7.47 0,10 7.47 0,10 0 0,10 7.47 0,10 7.47 0,10 7.47 0,10 7.47 0,10 7.47 0,10 7.47 0,10 7.47 0,10 7.47 0,10 7.47 0,10 7.47 0,10 7.47 0,10 7.47 0,10 7.47 0,10 7.47 0,10 7.47 0,10 7.47 0,10 7.47 0,10 7.47 0,10 7.47 0,10 7.47 0,0.020,Dnf
2 0 -8.503192,2 0 -8.503192,2 0 -8.503192,2 0 -8.503192,2 0 -8.503192,2 0 -8.503192,2 0 -8.503192,2 0 -8.503192,2 0 -8.503192,2 0 -8.503192,2 0 -8.503192,2 0 -8.503192,2 0 -8.503192,2 0 -8.503192,2 0 -8.503192,2 0 -8.503192,2 0 -8.503192,2 0 -8.503192,2 0 -8.503192,2 0 -8.503192,2 0 -8.503192,2 0 -8.657054,2 0 -8.657054,2 0 -8.657054,2 0 -8.657054,2 0 -8.657054,2 0 -8.657054,2 0 -8.657054,2 0 -8.657054,2 0 -8.657054,2 0 -8.657054,2 0 -8.657054,2 0 -8.657054,2 0 -8.657054,2 0 -8.657054,2 0 -8.657054,2 0 -8.657054,2 0 -8.657054,2 0 -8.657054,2 0 -8.657054,2 0 -8.657054,2 0 -8.657054,0.040,DnF
2 0 -8.503192,2 0 -8.503192,2 0 -8.503192,2 0 -8.503192,2 0 -8.503192,2 0 -8.503192,2 0 -8.503192,2 0 -8.503192,2 0 -8.503192,2 0 -8.503192,2 0 -8.503192,2 0 -8.503192,2 0 -8.503192,2 0 -8.503192,2 0 -8.503192,2 0 -8.503192,2 0 -8.503192,2 0 -8.503192,2 0 -8.503192,2 0 -8.503192,2 0 -8.503192,2 0 -8.657054,2 0 -8.657054,2 0 -8.657054,2 0 -8.657054,2 0 -8.657054,2 0 -8.657054,2 0 -8.657054,2 0 -8.657054,2 0 -8.657054,2 0 -8.657054,2 0 -8.657054,2 0 -8.657054,2 0 -8.657054,2 0 -8.657054,2 0 -8.657054,2 0 -8.657054,2 0 -8.657054,2 0 -8.657054,2 0 -8.657054,2 0 -8.657054,2 0 -8.657054,0.060,DnF
-1.987787 -6.521569 1.22026,-2.609141 -6.388343 1.685362,-3.147932 -5.638484 2.0185,-3.516024 -5.002271 2.328176,-3.95756 -4.540411 2.673957,-2.811716 -4.139257 2.070557,-3.054489 -3.139032 2.535326,-3.227338 -2.493673 2.861541,-3.425165 -1.941096 3.162736,-2.437432 -3.936898 2.133614,-2.59071 -2.783096 2.704627,-2.751576 -2.075185 3.148052,-2.940206 -1.511095 3.478094,-2.061345 -4.034923 2.237815,-2.150774 -3.010789 2.810504,-2.33675 -2.397958 3.245426,-2.552856 -1.929286 3.559118,-1.686485 -4.404648 2.347015,-1.655781 -3.631599 2.908312,-1.744479 -3.212946 3.288264,-1.860806 -2.920409 3.605374,-9.206339 -8.524235 0.5324706,-8.670359 -8.223181 0.8265551,-8.202192 -7.587417 1.072231,-7.864114 -7.034822 1.343787,-7.513557 -6.684921 1.65278,-8.626145 -6.08006 0.8786831,-8.484686 -5.057811 1.13353,-8.411637 -4.46669 1.350898,-8.355335 -3.918323 1.474898,-8.93339 -5.952137 0.9830014,-8.834015 -4.77175 1.251197,-8.765605 -4.030285 1.51609,-8.694571 -3.378588 1.697,-9.239975 -6.056134 1.111931,-9.187444 -4.925093 1.387806,-9.143503 -4.200696 1.648657,-9.070868 -3.56551 1.833109,-9.562132 -6.346269 1.277341,-9.64097 -5.487098 1.543044,-9.666576 -4.915327 1.73613,-9.649611 -4.358324 1.865286,0.080,DnF
-1.987787 -6.521569 1.22026,-2.609141 -6.388343 1.685362,-3.147932 -5.638484 2.0185,-3.516024 -5.002271 2.328176,-3.95756 -4.540411 2.673957,-2.811716 -4.139257 2.070557,-3.054489 -3.139032 2.535326,-3.227338 -2.493673 2.861541,-3.425165 -1.941096 3.162736,-2.437432 -3.936898 2.133614,-2.59071 -2.783096 2.704627,-2.751576 -2.075185 3.148052,-2.940206 -1.511095 3.478094,-2.061345 -4.034923 2.237815,-2.150774 -3.010789 2.810504,-2.33675 -2.397958 3.245426,-2.552856 -1.929286 3.559118,-1.686485 -4.404648 2.347015,-1.655781 -3.631599 2.908312,-1.744479 -3.212946 3.288264,-1.860806 -2.920409 3.605374,-9.206339 -8.524235 0.5324706,-8.670359 -8.223181 0.8265551,-8.202192 -7.587417 1.072231,-7.864114 -7.034822 1.343787,-7.513557 -6.684921 1.65278,-8.626145 -6.08006 0.8786831,-8.484686 -5.057811 1.13353,-8.411637 -4.46669 1.350898,-8.355335 -3.918323 1.474898,-8.93339 -5.952137 0.9830014,-8.834015 -4.77175 1.251197,-8.765605 -4.030285 1.51609,-8.694571 -3.378588 1.697,-9.239975 -6.056134 1.111931,-9.187444 -4.925093 1.387806,-9.143503 -4.200696 1.648657,-9.070868 -3.56551 1.833109,-9.562132 -6.346269 1.277341,-9.64097 -5.487098 1.543044,-9.666576 -4.915327 1.73613,-9.649611 -4.358324 1.865286,0.100,DnF
-1.987787 -6.521569 1.22026,-2.609141 -6.388343 1.685362,-3.147932 -5.638484 2.0185,-3.516024 -5.002271 2.328176,-3.95756 -4.540411 2.673957,-2.811716 -4.139257 2.070557,-3.054489 -3.139032 2.535326,-3.227338 -2.493673 2.861541,-3.425165 -1.941096 3.162736,-2.437432 -3.936898 2.133614,-2.59071 -2.783096 2.704627,-2.751576 -2.075185 3.148052,-2.940206 -1.511095 3.478094,-2.061345 -4.034923 2.237815,-2.150774 -3.010789 2.810504,-2.33675 -2.397958 3.245426,-2.552856 -1.929286 3.559118,-1.686485 -4.404648 2.347015,-1.655781 -3.631599 2.908312,-1.744479 -3.212946 3.288264,-1.860806 -2.920409 3.605374,-9.206339 -8.524235 0.5324706,-8.670359 -8.223181 0.8265551,-8.202192 -7.587417 1.072231,-7.864114 -7.034822 1.343787,-7.513557 -6.684921 1.65278,-8.626145 -6.08006 0.8786831,-8.484686 -5.057811 1.13353,-8.411637 -4.46669 1.350898,-8.355335 -3.918323 1.474898,-8.93339 -5.952137 0.9830014,-8.834015 -4.77175 1.251197,-8.765605 -4.030285 1.51609,-8.694571 -3.378588 1.697,-9.239975 -6.056134 1.111931,-9.187444 -4.925093 1.387806,-9.143503 -4.200696 1.648657,-9.070868 -3.56551 1.833109,-9.562132 -6.346269 1.277341,-9.64097 -5.487098 1.543044,-9.666576 -4.915327 1.73613,-9.649611 -4.358324 1.865286,0.120,DnF
-1.774393 -6.672189 1.85405,-2.609141 -6.388343 2.320072,-3.147932 -5.638484 2.65321,-3.516024 -5.002271 2.962886,-3.95756 -4.540411 3.308667,-2.811716 -4.139257 2.705267,-3.054489 -3.139032 3.170036,-3.227338 -2.493673 3.496251,-3.425165 -1.941096 3.797446,-2.437432 -3.936898 2.768323,-2.59071 -2.783096 3.339337,-2.751576 -2.075185 3.782762,-2.940206 -1.511095 4.112803,-2.061345 -4.034923 2.872525,-2.150774 -3.010789 3.445214,-2.33675 -2.397958 3.880136,-2.552856 -1.929286 4.193829,-1.686485 -4.404648 2.981725,-1.655781 -3.631599 3.543022,-1.744479 -3.212946 3.922974,-1.860806 -2.920409 4.240084,-9.206339 -8.524235 0.5324706,-8.670359 -8.223181 0.8265551,-8.202192 -7.587417 1.072231,-7.864114 -7.034822 1.343787,-7.513557 -6.684921 1.65278,-8.626145 -6.08006 0.8786831,-8.484686 -5.057811 1.13353,-8.411637 -4.46669 1.350898,-8.355335 -3.918323 1.474898,-8.93339 -5.952137 0.9830014,-8.834015 -4.77175 1.251197,-8.765605 -4.030285 1.51609,-8.694571 -3.378588 1.697,-9.239975 -6.056134 1.111931,-9.187444 -4.925093 1.387806,-9.143503 -4.200696 1.648657,-9.070868 -3.56551 1.833109,-9.562132 -6.346269 1.277341,-9.64097 -5.487098 1.543044,-9.666576 -4.915327 1.73613,-9.649611 -4.358324 1.865286,0.140,DnF
-1.774393 -6.672189 0.8477223,-2.41573 -6.459989 1.21633,-2.975496 -5.773464 1.481055,-3.397422 -5.141588 1.723713,-3.804027 -4.743245 2.021333,-2.617033 -4.358665 1.686849,-2.814354 -3.341141 2.119652,-2.974186 -2.746708 2.413784,-3.152824 -2.167296 2.667881,-2.229729 -4.216913 1.797762,-2.383052 -3.047378 2.35092,-2.526772 -2.354141 2.745139,-2.697422 -1.648513 3.096164,-1.8371 -4.372826 1.914929,-1.929984 -3.315717 2.459352,-2.079004 -2.665017 2.875454,-2.245533 -2.058811 3.199332,-1.449679 -4.753237 2.048273,-1.398392 -3.957721 2.556209,-1.438546 -3.433856 2.908086,-1.518893 -2.930601 3.216324,-9.113989 -8.478497 0.507839,-8.57685 -8.192152 0.8682902,-8.092014 -7.585434 1.154239,-7.720458 -7.055789 1.450068,-7.366695 -6.700943 1.763472,-8.505242 -6.070497 0.9595471,-8.373377 -5.039452 1.245777,-8.293177 -4.416773 1.46219,-8.229184 -3.853567 1.595925,-8.8276 -5.928272 1.028261,-8.735698 -4.739826 1.330686,-8.65682 -3.960346 1.607672,-8.587924 -3.303236 1.797265,-9.14844 -6.020692 1.117893,-9.092266 -4.876625 1.424194,-9.021092 -4.133098 1.692954,-8.931294 -3.503889 1.874722,-9.489212 -6.294065 1.245133,-9.560308 -5.409742 1.544236,-9.578061 -4.812912 1.756632,-9.560203 -4.239187 1.892201,0.160,DnF
-1.774393 -6.672189 0.8477223,-2.41573 -6.459989 1.21633,-2.975496 -5.773464 1.481055,-3.397422 -5.141588 1.723713,-3.804027 -4.743245 2.021333,-2.617033 -4.358665 1.686849,-2.814354 -3.341141 2.119652,-2.974186 -2.746708 2.413784,-3.152824 -2.167296 2.667881,-2.229729 -4.216913 1.797762,-2.383052 -3.047378 2.35092,-2.526772 -2.354141 2.745139,-2.697422 -1.648513 3.096164,-1.8371 -4.372826 1.914929,-1.929984 -3.315717 2.459352,-2.079004 -2.665017 2.875454,-2.245533 -2.058811 3.199332,-1.449679 -4.753237 2.048273,-1.398392 -3.957721 2.556209,-1.438546 -3.433856 2.908086,-1.518893 -2.930601 3.216324,-9.113989 -8.478497 0.507839,-8.57685 -8.192152 0.8682902,-8.092014 -7.585434 1.154239,-7.720458 -7.055789 1.450068,-7.366695 -6.700943 1.763472,-8.505242 -6.070497 0.9595471,-8.373377 -5.039452 1.245777,-8.293177 -4.416773 1.46219,-8.229184 -3.853567 1.595925,-8.8276 -5.928272 1.028261,-8.735698 -4.739826 1.330686,-8.65682 -3.960346 1.607672,-8.587924 -3.303236 1.797265,-9.14844 -6.020692 1.117893,-9.092266 -4.876625 1.424194,-9.021092 -4.133098 1.692954,-8.931294 -3.503889 1.874722,-9.489212 -6.294065 1.245133,-9.560308 -5.409742 1.544236,-9.578061 -4.812912 1.756632,-9.560203 -4.239187 1.892201,0.180,DnF
-1.774393 -6.672189 0.8477223,-2.41573 -6.459989 1.21633,-2.975496 -5.773464 1.481055,-3.397422 -5.141588 1.723713,-3.804027 -4.743245 2.021333,-2.617033 -4.358665 1.686849,-2.814354 -3.341141 2.119652,-2.974186 -2.746708 2.413784,-3.152824 -2.167296 2.667881,-2.229729 -4.216913 1.797762,-2.383052 -3.047378 2.35092,-2.526772 -2.354141 2.745139,-2.697422 -1.648513 3.096164,-1.8371 -4.372826 1.914929,-1.929984 -3.315717 2.459352,-2.079004 -2.665017 2.875454,-2.245533 -2.058811 3.199332,-1.449679 -4.753237 2.048273,-1.398392 -3.957721 2.556209,-1.438546 -3.433856 2.908086,-1.518893 -2.930601 3.216324,-9.113989 -8.478497 0.507839,-8.57685 -8.192152 0.8682902,-8.092014 -7.585434 1.154239,-7.720458 -7.055789 1.450068,-7.366695 -6.700943 1.763472,-8.505242 -6.070497 0.9595471,-8.373377 -5.039452 1.245777,-8.293177 -4.416773 1.46219,-8.229184 -3.853567 1.595925,-8.8276 -5.928272 1.028261,-8.735698 -4.739826 1.330686,-8.65682 -3.960346 1.607672,-8.587924 -3.303236 1.797265,-9.14844 -6.020692 1.117893,-9.092266 -4.876625 1.424194,-9.021092 -4.133098 1.692954,-8.931294 -3.503889 1.874722,-9.489212 -6.294065 1.245133,-9.560308 -5.409742 1.544236,-9.578061 -4.812912 1.756632,-9.560203 -4.239187 1.892201,0.200,DnF
-1.69814 -6.851861 0.8669881,-2.331037 -6.551195 1.212212,-2.8511 -5.858467 1.477225,-3.237625 -5.213947 1.728788,-3.645344 -4.774434 2.034486,-2.441924 -4.504063 1.767657,-2.615658 -3.462178 2.226411,-2.761007 -2.833275 2.50217,-2.907436 -2.213562 2.724701,-2.063994 -4.404695 1.889392,-2.192471 -3.238515 2.462162,-2.302811 -2.529697 2.835715,-2.418875 -1.786858 3.150605,-1.68056 -4.591836 2.011611,-1.744402 -3.543703 2.565551,-1.851247 -2.899436 2.969307,-1.962229 -2.260266 3.273805,-1.307707 -4.990739 2.138345,-1.237612 -4.19972 2.653259,-1.248002 -3.66712 3.02344,-1.285817 -3.13231 3.31918,-9.040686 -8.485289 0.6226166,-8.50246 -8.227264 1.013283,-8.012876 -7.59937 1.311861,-7.649676 -7.053207 1.617014,-7.288844 -6.67448 1.942535,-8.386343 -6.062341 1.06211,-8.249726 -5.033554 1.340363,-8.179043 -4.406303 1.564687,-8.12466 -3.86009 1.700969,-8.719711 -5.900089 1.11571,-8.632866 -4.727489 1.392459,-8.563016 -3.957466 1.647145,-8.504084 -3.304163 1.820213,-9.051232 -5.981549 1.202086,-8.99377 -4.851631 1.483888,-8.92205 -4.117956 1.731753,-8.835651 -3.49157 1.898852,-9.402734 -6.250356 1.331808,-9.463353 -5.368963 1.608352,-9.478479 -4.770695 1.80667,-9.462983 -4.18477 1.937574,0.220,DnF
-1.69814 -6.851861 0.8669881,-2.331037 -6.551195 1.212212,-2.8511 -5.858467 1.477225,-3.237625 -5.213947 1.728788,-3.645344 -4.774434 2.034486,-2.441924 -4.504063 1.767657,-2.615658 -3.462178 2.226411,-2.761007 -2.833275 2.50217,-2.907436 -2.213562 2.724701,-2.063994 -4.404695 1.889392,-2.192471 -3.238515 2.462162,-2.302811 -2.529697 2.835715,-2.418875 -1.786858 3.150605,-1.68056 -4.591836 2.011611,-1.744402 -3.543703 2.565551,-1.851247 -2.899436 2.969307,-1.962229 -2.260266 3.273805,-1.307707 -4.990739 2.138345,-1.237612 -4.19972 2.653259,-1.248002 -3.66712 3.02344,-1.285817 -3.13231 3.31918,-9.040686 -8.485289 0.6226166,-8.50246 -8.227264 1.013283,-8.012876 -7.59937 1.311861,-7.649676 -7.053207 1.617014,-7.288844 -6.67448 1.942535,-8.386343 -6.062341 1.06211,-8.249726 -5.033554 1.340363,-8.179043 -4.406303 1.564687,-8.12466 -3.86009 1.700969,-8.719711 -5.900089 1.11571,-8.632866 -4.727489 1.392459,-8.563016 -3.957466 1.647145,-8.504084 -3.304163 1.820213,-9.051232 -5.981549 1.202086,-8.99377 -4.851631 1.483888,-8.92205 -4.117956 1.731753,-8.835651 -3.49157 1.898852,-9.402734 -6.250356 1.331808,-9.463353 -5.368963 1.608352,-9.478479 -4.770695 1.80667,-9.462983 -4.18477 1.937574,0.240,DnF
-1.69814 -6.851861 0.8669881,-2.331037 -6.551195 1.212212,-2.8511 -5.858467 1.477225,-3.237625 -5.213947 1.728788,-3.645344 -4.774434 2.034486,-2.441924 -4.504063 1.767657,-2.615658 -3.462178 2.226411,-2.761007 -2.833275 2.50217,-2.907436 -2.213562 2.724701,-2.063994 -4.404695 1.889392,-2.192471 -3.238515 2.462162,-2.302811 -2.529697 2.835715,-2.418875 -1.786858 3.150605,-1.68056 -4.591836 2.011611,-1.744402 -3.543703 2.565551,-1.851247 -2.899436 2.969307,-1.962229 -2.260266 3.273805,-1.307707 -4.990739 2.138345,-1.237612 -4.19972 2.653259,-1.248002 -3.66712 3.02344,-1.285817 -3.13231 3.31918,-9.040686 -8.485289 0.6226166,-8.50246 -8.227264 1.013283,-8.012876 -7.59937 1.311861,-7.649676 -7.053207 1.617014,-7.288844 -6.67448 1.942535,-8.386343 -6.062341 1.06211,-8.249726 -5.033554 1.340363,-8.179043 -4.406303 1.564687,-8.12466 -3.86009 1.700969,-8.719711 -5.900089 1.11571,-8.632866 -4.727489 1.392459,-8.563016 -3.957466 1.647145,-8.504084 -3.304163 1.820213,-9.051232 -5.981549 1.202086,-8.99377 -4.851631 1.483888,-8.92205 -4.117956 1.731753,-8.835651 -3.49157 1.898852,-9.402734 -6.250356 1.331808,-9.463353 -5.368963 1.608352,-9.478479 -4.770695 1.80667,-9.462983 -4.18477 1.937574,0.260,DnF
-1.697187 -6.736982 0.8081015,-2.304826 -6.454885 1.235214,-2.851356 -5.780576 1.555293,-3.264244 -5.196126 1.854668,-3.658375 -4.801009 2.192182,-2.439069 -4.442435 1.764227,-2.63104 -3.441846 2.280508,-2.772629 -2.811545 2.55505,-2.927041 -2.201177 2.759468,-2.054356 -4.317424 1.854962,-2.164503 -3.247591 2.462894,-2.283847 -2.534419 2.82303,-2.416514 -1.819438 3.116002,-1.670913 -4.490839 1.974903,-1.726772 -3.51391 2.555725,-1.845943 -2.852281 2.96553,-1.973226 -2.22192 3.281443,-1.298555 -4.894907 2.088553,-1.225343 -4.142486 2.614852,-1.2624 -3.642705 2.98979,-1.336908 -3.127304 3.282356,-9.057433 -8.511679 0.6917269,-8.509099 -8.237509 1.066306,-8.022602 -7.591559 1.362535,-7.664257 -7.046037 1.668835,-7.285765 -6.696802 1.995225,-8.352534 -6.068532 1.1411,-8.219534 -5.031959 1.422472,-8.153989 -4.410926 1.660985,-8.104196 -3.862973 1.817228,-8.700867 -5.913831 1.199881,-8.611067 -4.728071 1.465854,-8.537169 -3.962968 1.736637,-8.473252 -3.305068 1.94036,-9.044406 -5.991285 1.289449,-8.989507 -4.849586 1.552672,-8.924069 -4.112163 1.803822,-8.849918 -3.479043 1.983307,-9.400252 -6.250307 1.41142,-9.46106 -5.348686 1.671518,-9.46785 -4.751192 1.861797,-9.449905 -4.183557 1.991575,0.280,DnF
-1.697187 -6.736982 0.8081015,-2.304826 -6.454885 1.235214,-2.851356 -5.780576 1.555293,-3.264244 -5.196126 1.854668,-3.658375 -4.801009 2.192182,-2.439069 -4.442435 1.764227,-2.63104 -3.441846 2.280508,-2.772629 -2.811545 2.55505,-2.927041 -2.201177 2.759468,-2.054356 -4.317424 1.854962,-2.164503 -3.247591 2.462894,-2.283847 -2.534419 2.82303,-2.416514 -1.819438 3.116002,-1.670913 -4.490839 1.974903,-1.726772 -3.51391 2.555725,-1.845943 -2.852281 2.96553,-1.973226 -2.22192 3.281443,-1.298555 -4.894907 2.088553,-1.225343 -4.142486 2.614852,-1.2624 -3.642705 2.98979,-1.336908 -3.127304 3.282356,-9.057433 -8.511679 0.6917269,-8.509099 -8.237509 1.066306,-8.022602 -7.591559 1.362535,-7.664257 -7.046037 1.668835,-7.285765 -6.696802 1.995225,-8.352534 -6.068532 1.1411,-8.219534 -5.031959 1.422472,-8.153989 -4.410926 1.660985,-8.104196 -3.862973 1.817228,-8.700867 -5.913831 1.199881,-8.611067 -4.728071 1.465854,-8.537169 -3.962968 1.736637,-8.473252 -3.305068 1.94036,-9.044406 -5.991285 1.289449,-8.989507 -4.849586 1.552672,-8.924069 -4.112163 1.803822,-8.849918 -3.479043 1.983307,-9.400252 -6.250307 1.41142,-9.46106 -5.348686 1.671518,-9.46785 -4.751192 1.861797,-9.449905 -4.183557 1.991575,0.300,DnF
-1.697187 -6.736982 0.8081015,-2.304826 -6.454885 1.235214,-2.851356 -5.780576 1.555293,-3.264244 -5.196126 1.854668,-3.658375 -4.801009 2.192182,-2.439069 -4.442435 1.764227,-2.63104 -3.441846 2.280508,-2.772629 -2.811545 2.55505,-2.927041 -2.201177 2.759468,-2.054356 -4.317424 1.854962,-2.164503 -3.247591 2.462894,-2.283847 -2.534419 2.82303,-2.416514 -1.819438 3.116002,-1.670913 -4.490839 1.974903,-1.726772 -3.51391 2.555725,-1.845943 -2.852281 2.96553,-1.973226 -2.22192 3.281443,-1.298555 -4.894907 2.088553,-1.225343 -4.142486 2.614852,-1.2624 -3.642705 2.98979,-1.336908 -3.127304 3.282356,-9.057433 -8.511679 0.6917269,-8.509099 -8.237509 1.066306,-8.022602 -7.591559 1.362535,-7.664257 -7.046037 1.668835,-7.285765 -6.696802 1.995225,-8.352534 -6.068532 1.1411,-8.219534 -5.031959 1.422472,-8.153989 -4.410926 1.660985,-8.104196 -3.862973 1.817228,-8.700867 -5.913831 1.199881,-8.611067 -4.728071 1.465854,-8.537169 -3.962968 1.736637,-8.473252 -3.305068 1.94036,-9.044406 -5.991285 1.289449,-8.989507 -4.849586 1.552672,-8.924069 -4.112163 1.803822,-8.849918 -3.479043 1.983307,-9.400252 -6.250307 1.41142,-9.46106 -5.348686 1.671518,-9.46785 -4.751192 1.861797,-9.449905 -4.183557 1.991575,0.320,DnF
-1.545364 -6.988576 0.665005,-2.169487 -6.686297 1.0095,-2.708667 -6.010554 1.259203,-3.126494 -5.390213 1.501682,-3.557837 -5.008379 1.802012,-2.309278 -4.657381 1.426903,-2.484654 -3.649269 1.832713,-2.614546 -3.038114 2.085667,-2.749629 -2.447679 2.304329,-1.938086 -4.55603 1.553993,-2.056646 -3.402234 2.057336,-2.150962 -2.695869 2.396307,-2.254516 -1.97376 2.692275,-1.562026 -4.752578 1.693926,-1.630304 -3.693948 2.201789,-1.73717 -3.058592 2.568593,-1.847766 -2.429182 2.855083,-1.191068 -5.16898 1.84843,-1.120017 -4.406647 2.335071,-1.117609 -3.889723 2.678477,-1.138206 -3.342752 2.968653,-8.956485 -8.506329 0.7632852,-8.423386 -8.202728 1.146151,-7.935245 -7.555327 1.458017,-7.560219 -7.027124 1.790056,-7.167141 -6.69098 2.169891,-8.290692 -6.026784 1.20445,-8.151325 -4.974155 1.481166,-8.082576 -4.342046 1.727711,-8.029986 -3.801373 1.879567,-8.62561 -5.886333 1.283052,-8.522922 -4.684312 1.544514,-8.453751 -3.911002 1.799249,-8.401659 -3.253532 1.982185,-8.958901 -5.982788 1.390383,-8.890796 -4.824209 1.680314,-8.827192 -4.06424 1.931737,-8.752972 -3.405098 2.108386,-9.308167 -6.268894 1.542209,-9.365943 -5.356689 1.816552,-9.385306 -4.763916 1.997577,-9.374996 -4.180833 2.123462,0.340,DnF
-1.545364 -6.988576 0.665005,-2.169487 -6.686297 1.0095,-2.708667 -6.010554 1.259203,-3.126494 -5.390213 1.501682,-3.557837 -5.008379 1.802012,-2.309278 -4.657381 1.426903,-2.484654 -3.649269 1.832713,-2.614546 -3.038114 2.085667,-2.749629 -2.447679 2.304329,-1.938086 -4.55603 1.553993,-2.056646 -3.402234 2.057336,-2.150962 -2.695869 2.396307,-2.254516 -1.97376 2.692275,-1.562026 -4.752578 1.693926,-1.630304 -3.693948 2.201789,-1.73717 -3.058592 2.568593,-1.847766 -2.429182 2.855083,-1.191068 -5.16898 1.84843,-1.120017 -4.406647 2.335071,-1.117609 -3.889723 2.678477,-1.138206 -3.342752 2.968653,-8.956485 -8.506329 0.7632852,-8.423386 -8.202728 1.146151,-7.935245 -7.555327 1.458017,-7.560219 -7.027124 1.790056,-7.167141 -6.69098 2.169891,-8.290692 -6.026784 1.20445,-8.151325 -4.974155 1.481166,-8.082576 -4.342046 1.727711,-8.029986 -3.801373 1.879567,-8.62561 -5.886333 1.283052,-8.522922 -4.684312 1.544514,-8.453751 -3.911002 1.799249,-8.401659 -3.253532 1.982185,-8.958901 -5.982788 1.390383,-8.890796 -4.824209 1.680314,-8.827192 -4.06424 1.931737,-8.752972 -3.405098 2.108386,-9.308167 -6.268894 1.542209,-9.365943 -5.356689 1.816552,-9.385306 -4.763916 1.997577,-9.374996 -4.180833 2.123462,0.360,DnF
-1.545364 -6.988576 0.665005,-2.169487 -6.686297 1.0095,-2.708667 -6.010554 1.259203,-3.126494 -5.390213 1.501682,-3.557837 -5.008379 1.802012,-2.309278 -4.657381 1.426903,-2.484654 -3.649269 1.832713,-2.614546 -3.038114 2.085667,-2.749629 -2.447679 2.304329,-1.938086 -4.55603 1.553993,-2.056646 -3.402234 2.057336,-2.150962 -2.695869 2.396307,-2.254516 -1.97376 2.692275,-1.562026 -4.752578 1.693926,-1.630304 -3.693948 2.201789,-1.73717 -3.058592 2.568593,-1.847766 -2.429182 2.855083,-1.191068 -5.16898 1.84843,-1.120017 -4.406647 2.335071,-1.117609 -3.889723 2.678477,-1.138206 -3.342752 2.968653,-8.956485 -8.506329 0.7632852,-8.423386 -8.202728 1.146151,-7.935245 -7.555327 1.458017,-7.560219 -7.027124 1.790056,-7.167141 -6.69098 2.169891,-8.290692 -6.026784 1.20445,-8.151325 -4.974155 1.481166,-8.082576 -4.342046 1.727711,-8.029986 -3.801373 1.879567,-8.62561 -5.886333 1.283052,-8.522922 -4.684312 1.544514,-8.453751 -3.911002 1.799249,-8.401659 -3.253532 1.982185,-8.958901 -5.982788 1.390383,-8.890796 -4.824209 1.680314,-8.827192 -4.06424 1.931737,-8.752972 -3.405098 2.108386,-9.308167 -6.268894 1.542209,-9.365943 -5.356689 1.816552,-9.385306 -4.763916 1.997577,-9.374996 -4.180833 2.123462,0.380,DnF
-1.587877 -6.98674 0.8004109,-2.191918 -6.712175 1.260443,-2.722243 -6.067989 1.562083,-3.125927 -5.479119 1.847051,-3.535288 -5.100221 2.176732,-2.307256 -4.624856 1.654806,-2.472835 -3.656892 2.127434,-2.598569 -3.053574 2.423158,-2.734573 -2.469599 2.652152,-1.927315 -4.513877 1.714541,-2.018666 -3.4498 2.253755,-2.116395 -2.774286 2.610135,-2.225531 -2.080066 2.904855,-1.550125 -4.710166 1.801008,-1.585425 -3.743948 2.328044,-1.676462 -3.152405 2.708884,-1.775846 -2.573811 2.987449,-1.182104 -5.125322 1.900066,-1.103699 -4.386413 2.386906,-1.121161 -3.903116 2.736793,-1.168557 -3.397146 2.99966,-8.920694 -8.521255 0.7616929,-8.384562 -8.224058 1.073817,-7.90303 -7.53999 1.338957,-7.549759 -6.97763 1.635391,-7.173985 -6.628304 1.963134,-8.256063 -6.022562 1.130211,-8.127985 -4.958435 1.374984,-8.0474 -4.327484 1.59676,-7.986158 -3.779471 1.740066,-8.592481 -5.891247 1.227327,-8.504354 -4.672981 1.460453,-8.423835 -3.888788 1.705803,-8.363442 -3.226298 1.883734,-8.925124 -5.985122 1.356819,-8.868226 -4.82431 1.60058,-8.796227 -4.070713 1.83562,-8.722111 -3.427105 2.008418,-9.271493 -6.262537 1.514671,-9.341078 -5.336372 1.773172,-9.353077 -4.724418 1.963422,-9.341083 -4.132749 2.096103,0.400,DnF
-1.587877 -6.98674 0.8004109,-2.191918 -6.712175 1.260443,-2.722243 -6.067989 1.562083,-3.125927 -5.479119 1.847051,-3.535288 -5.100221 2.176732,-2.307256 -4.624856 1.654806,-2.472835 -3.656892 2.127434,-2.598569 -3.053574 2.423158,-2.734573 -2.469599 2.652152,-1.927315 -4.513877 1.714541,-2.018666 -3.4498 2.253755,-2.116395 -2.774286 2.610135,-2.225531 -2.080066 2.904855,-1.550125 -4.710166 1.801008,-1.585425 -3.743948 2.328044,-1.676462 -3.152405 2.708884,-1.775846 -2.573811 2.987449,-1.182104 -5.125322 1.900066,-1.103699 -4.386413 2.386906,-1.121161 -3.903116 2.736793,-1.168557 -3.397146 2.99966,-8.920694 -8.521255 0.7616929,-8.384562 -8.224058 1.073817,-7.90303 -7.53999 1.338957,-7.549759 -6.97763 1.635391,-7.173985 -6.628304 1.963134,-8.256063 -6.022562 1.130211,-8.127985 -4.958435 1.374984,-8.0474 -4.327484 1.59676,-7.986158 -3.779471 1.740066,-8.592481 -5.891247 1.227327,-8.504354 -4.672981 1.460453,-8.423835 -3.888788 1.705803,-8.363442 -3.226298 1.883734,-8.925124 -5.985122 1.356819,-8.868226 -4.82431 1.60058,-8.796227 -4.070713 1.83562,-8.722111 -3.427105 2.008418,-9.271493 -6.262537 1.514671,-9.341078 -5.336372 1.773172,-9.353077 -4.724418 1.963422,-9.341083 -4.132749 2.096103,0.420,DnF
-1.587877 -6.98674 0.8004109,-2.191918 -6.712175 1.260443,-2.722243 -6.067989 1.562083,-3.125927 -5.479119 1.847051,-3.535288 -5.100221 2.176732,-2.307256 -4.624856 1.654806,-2.472835 -3.656892 2.127434,-2.598569 -3.053574 2.423158,-2.734573 -2.469599 2.652152,-1.927315 -4.513877 1.714541,-2.018666 -3.4498 2.253755,-2.116395 -2.774286 2.610135,-2.225531 -2.080066 2.904855,-1.550125 -4.710166 1.801008,-1.585425 -3.743948 2.328044,-1.676462 -3.152405 2.708884,-1.775846 -2.573811 2.987449,-1.182104 -5.125322 1.900066,-1.103699 -4.386413 2.386906,-1.121161 -3.903116 2.736793,-1.168557 -3.397146 2.99966,-8.920694 -8.521255 0.7616929,-8.384562 -8.224058 1.073817,-7.90303 -7.53999 1.338957,-7.549759 -6.97763 1.635391,-7.173985 -6.628304 1.963134,-8.256063 -6.022562 1.130211,-8.127985 -4.958435 1.374984,-8.0474 -4.327484 1.59676,-7.986158 -3.779471 1.740066,-8.592481 -5.891247 1.227327,-8.504354 -4.672981 1.460453,-8.423835 -3.888788 1.705803,-8.363442 -3.226298 1.883734,-8.925124 -5.985122 1.356819,-8.868226 -4.82431 1.60058,-8.796227 -4.070713 1.83562,-8.722111 -3.427105 2.008418,-9.271493 -6.262537 1.514671,-9.341078 -5.336372 1.773172,-9.353077 -4.724418 1.963422,-9.341083 -4.132749 2.096103,0.440,DnF
-1.558004 -7.087389 0.7888023,-2.169475 -6.824963 1.214645,-2.715759 -6.176374 1.497373,-3.134066 -5.60642 1.774704,-3.548382 -5.217191 2.104019,-2.309152 -4.683038 1.48524,-2.46137 -3.714909 1.89532,-2.585598 -3.139968 2.154569,-2.733926 -2.590528 2.380044,-1.938066 -4.579637 1.572977,-2.034441 -3.540521 2.062704,-2.135274 -2.904066 2.422752,-2.259806 -2.268762 2.725354,-1.56976 -4.768035 1.70005,-1.605868 -3.793878 2.173214,-1.707806 -3.200298 2.572866,-1.83809 -2.640046 2.883188,-1.202773 -5.173227 1.850973,-1.118485 -4.441658 2.308675,-1.131899 -3.968624 2.661813,-1.189095 -3.478109 2.953427,-8.9023 -8.477873 0.7393846,-8.366018 -8.155699 1.057791,-7.883763 -7.491178 1.336681,-7.525632 -6.935331 1.646683,-7.153401 -6.596463 1.99041,-8.228077 -5.989387 1.137761,-8.101591 -4.916755 1.396953,-8.025002 -4.29412 1.63472,-7.964133 -3.758444 1.788643,-8.570678 -5.86028 1.23489,-8.486332 -4.629022 1.482188,-8.404943 -3.854398 1.733746,-8.33988 -3.197018 1.915254,-8.90582 -5.954493 1.361192,-8.85535 -4.780731 1.6189,-8.785433 -4.030658 1.854752,-8.708682 -3.38116 2.025488,-9.25181 -6.224308 1.515862,-9.317033 -5.295614 1.779649,-9.326336 -4.681385 1.962226,-9.306413 -4.08423 2.085412,0.460,DnF
-1.558004 -7.087389 0.7888023,-2.169475 -6.824963 1.214645,-2.715759 -6.176374 1.497373,-3.134066 -5.60642 1.774704,-3.548382 -5.217191 2.104019,-2.309152 -4.683038 1.48524,-2.46137 -3.714909 1.89532,-2.585598 -3.139968 2.154569,-2.733926 -2.590528 2.380044,-1.938066 -4.579637 1.572977,-2.034441 -3.540521 2.062704,-2.135274 -2.904066 2.422752,-2.259806 -2.268762 2.725354,-1.56976 -4.768035 1.70005,-1.605868 -3.793878 2.173214,-1.707806 -3.200298 2.572866,-1.83809 -2.640046 2.883188,-1.202773 -5.173227 1.850973,-1.118485 -4.441658 2.308675,-1.131899 -3.968624 2.661813,-1.189095 -3.478109 2.953427,-8.9023 -8.477873 0.7393846,-8.366018 -8.155699 1.057791,-7.883763 -7.491178 1.336681,-7.525632 -6.935331 1.646683,-7.153401 -6.596463 1.99041,-8.228077 -5.989387 1.137761,-8.101591 -4.916755 1.396953,-8.025002 -4.29412 1.63472,-7.964133 -3.758444 1.788643,-8.570678 -5.86028 1.23489,-8.486332 -4.629022 1.482188,-8.404943 -3.854398 1.733746,-8.33988 -3.197018 1.915254,-8.90582 -5.954493 1.361192,-8.85535 -4.780731 1.6189,-8.785433 -4.030658 1.854752,-8.708682 -3.38116 2.025488,-9.25181 -6.224308 1.515862,-9.317033 -5.295614 1.779649,-9.326336 -4.681385 1.962226,-9.306413 -4.08423 2.085412,0.480,DnF
-1.558004 -7.087389 0.7888023,-2.169475 -6.824963 1.214645,-2.715759 -6.176374 1.497373,-3.134066 -5.60642 1.774704,-3.548382 -5.217191 2.104019,-2.309152 -4.683038 1.48524,-2.46137 -3.714909 1.89532,-2.585598 -3.139968 2.154569,-2.733926 -2.590528 2.380044,-1.938066 -4.579637 1.572977,-2.034441 -3.540521 2.062704,-2.135274 -2.904066 2.422752,-2.259806 -2.268762 2.725354,-1.56976 -4.768035 1.70005,-1.605868 -3.793878 2.173214,-1.707806 -3.200298 2.572866,-1.83809 -2.640046 2.883188,-1.202773 -5.173227 1.850973,-1.118485 -4.441658 2.308675,-1.131899 -3.968624 2.661813,-1.189095 -3.478109 2.953427,-8.9023 -8.477873 0.7393846,-8.366018 -8.155699 1.057791,-7.883763 -7.491178 1.336681,-7.525632 -6.935331 1.646683,-7.153401 -6.596463 1.99041,-8.228077 -5.989387 1.137761,-8.101591 -4.916755 1.396953,-8.025002 -4.29412 1.63472,-7.964133 -3.758444 1.788643,-8.570678 -5.86028 1.23489,-8.486332 -4.629022 1.482188,-8.404943 -3.854398 1.733746,-8.33988 -3.197018 1.915254,-8.90582 -5.954493 1.361192,-8.85535 -4.780731 1.6189,-8.785433 -4.030658 1.854752,-8.708682 -3.38116 2.025488,-9.25181 -6.224308 1.515862,-9.317033 -5.295614 1.779649,-9.326336 -4.681385 1.962226,-9.306413 -4.08423 2.085412,0.500,DnF
-1.593498 -7.169696 0.8476108,-2.196751 -6.887002 1.229222,-2.720099 -6.230686 1.484595,-3.110537 -5.650081 1.75751,-3.521562 -5.262588 2.078664,-2.322847 -4.681247 1.384137,-2.46095 -3.722148 1.763555,-2.597126 -3.174857 2.036734,-2.770049 -2.671596 2.277946,-1.958713 -4.603655 1.495491,-2.035203 -3.569635 1.968219,-2.146656 -2.957941 2.337631,-2.29579 -2.375318 2.64651,-1.595888 -4.805929 1.650093,-1.616358 -3.834257 2.104923,-1.726688 -3.255452 2.51154,-1.873793 -2.723579 2.822326,-1.236641 -5.221895 1.83422,-1.155478 -4.471797 2.279284,-1.176696 -3.984796 2.63678,-1.245455 -3.481615 2.930202,-8.892459 -8.425278 0.7426939,-8.356357 -8.087152 1.04497,-7.881094 -7.419895 1.317561,-7.53024 -6.860425 1.623707,-7.16334 -6.514257 1.964306,-8.222751 -5.930377 1.112952,-8.085191 -4.872728 1.359862,-8.000796 -4.259559 1.601235,-7.929353 -3.740764 1.760941,-8.567174 -5.800745 1.209881,-8.474556 -4.577262 1.44544,-8.391293 -3.808519 1.699001,-8.321612 -3.164293 1.884091,-8.900214 -5.894137 1.333726,-8.842769 -4.71712 1.568607,-8.766763 -3.973542 1.794376,-8.682276 -3.33311 1.957325,-9.245732 -6.159214 1.484935,-9.306613 -5.233644 1.724649,-9.309256 -4.621303 1.892685,-9.282826 -4.025321 2.001531,0.520,DnF
-1.593498 -7.169696 0.8476108,-2.196751 -6.887002 1.229222,-2.720099 -6.230686 1.484595,-3.110537 -5.650081 1.75751,-3.521562 -5.262588 2.078664,-2.322847 -4.681247 1.384137,-2.46095 -3.722148 1.763555,-2.597126 -3.174857 2.036734,-2.770049 -2.671596 2.277946,-1.958713 -4.603655 1.495491,-2.035203 -3.569635 1.968219,-2.146656 -2.957941 2.337631,-2.29579 -2.375318 2.64651,-1.595888 -4.805929 1.650093,-1.616358 -3.834257 2.104923,-1.726688 -3.255452 2.51154,-1.873793 -2.723579 2.822326,-1.236641 -5.221895 1.83422,-1.155478 -4.471797 2.279284,-1.176696 -3.984796 2.63678,-1.245455 -3.481615 2.930202,-8.892459 -8.425278 0.7426939,-8.356357 -8.087152 1.04497,-7.881094 -7.419895 1.317561,-7.53024 -6.860425 1.623707,-7.16334 -6.514257 1.964306,-8.222751 -5.930377 1.112952,-8.085191 -4.872728 1.359862,-8.000796 -4.259559 1.601235,-7.929353 -3.740764 1.760941,-8.567174 -5.800745 1.209881,-8.474556 -4.577262 1.44544,-8.391293 -3.808519 1.699001,-8.321612 -3.164293 1.884091,-8.900214 -5.894137 1.333726,-8.842769 -4.71712 1.568607,-8.766763 -3.973542 1.794376,-8.682276 -3.33311 1.957325,-9.245732 -6.159214 1.484935,-9.306613 -5.233644 1.724649,-9.309256 -4.621303 1.892685,-9.282826 -4.025321 2.001531,0.540,DnF
-1.593498 -7.169696 0.8476108,-2.196751 -6.887002 1.229222,-2.720099 -6.230686 1.484595,-3.110537 -5.650081 1.75751,-3.521562 -5.262588 2.078664,-2.322847 -4.681247 1.384137,-2.46095 -3.722148 1.763555,-2.597126 -3.174857 2.036734,-2.770049 -2.671596 2.277946,-1.958713 -4.603655 1.495491,-2.035203 -3.569635 1.968219,-2.146656 -2.957941 2.337631,-2.29579 -2.375318 2.64651,-1.595888 -4.805929 1.650093,-1.616358 -3.834257 2.104923,-1.726688 -3.255452 2.51154,-1.873793 -2.723579 2.822326,-1.236641 -5.221895 1.83422,-1.155478 -4.471797 2.279284,-1.176696 -3.984796 2.63678,-1.245455 -3.481615 2.930202,-8.892459 -8.425278 0.7426939,-8.356357 -8.087152 1.04497,-7.881094 -7.419895 1.317561,-7.53024 -6.860425 1.623707,-7.16334 -6.514257 1.964306,-8.222751 -5.930377 1.112952,-8.085191 -4.872728 1.359862,-8.000796 -4.259559 1.601235,-7.929353 -3.740764 1.760941,-8.567174 -5.800745 1.209881,-8.474556 -4.577262 1.44544,-8.391293 -3.808519 1.699001,-8.321612 -3.164293 1.884091,-8.900214 -5.894137 1.333726,-8.842769 -4.71712 1.568607,-8.766763 -3.973542 1.794376,-8.682276 -3.33311 1.957325,-9.245732 -6.159214 1.484935,-9.306613 -5.233644 1.724649,-9.309256 -4.621303 1.892685,-9.282826 -4.025321 2.001531,0.560,DnF
-1.599405 -7.17098 0.7694679,-2.207379 -6.871181 1.085243,-2.716259 -6.18962 1.326511,-3.087416 -5.588382 1.600847,-3.474983 -5.140558 1.913554,-2.307188 -4.686885 1.239585,-2.441393 -3.740076 1.611958,-2.596833 -3.221275 1.874212,-2.799965 -2.744554 2.091143,-1.951673 -4.620111 1.392385,-2.026926 -3.59628 1.888296,-2.166909 -3.007578 2.25959,-2.3489 -2.466463 2.563257,-1.598728 -4.834896 1.593429,-1.616335 -3.865486 2.074327,-1.748371 -3.294303 2.504874,-1.927085 -2.799222 2.821579,-1.255511 -5.259737 1.818952,-1.174442 -4.516071 2.270585,-1.210556 -4.018711 2.646513,-1.304765 -3.527515 2.954365,-8.849522 -8.336763 0.7809004,-8.314598 -7.968212 1.073917,-7.864052 -7.288134 1.358356,-7.522905 -6.725343 1.679325,-7.16402 -6.344288 2.036913,-8.227306 -5.807538 1.166134,-8.099077 -4.760293 1.439072,-8.009459 -4.154994 1.704875,-7.93395 -3.642999 1.882715,-8.562743 -5.701946 1.277529,-8.490221 -4.483284 1.541903,-8.407322 -3.713346 1.817981,-8.329921 -3.059985 2.01091,-8.885106 -5.814872 1.416393,-8.855651 -4.646484 1.674108,-8.784262 -3.915287 1.906362,-8.699152 -3.279975 2.063687,-9.219652 -6.100324 1.581349,-9.293275 -5.178209 1.838324,-9.298623 -4.562358 2.005299,-9.272369 -3.955875 2.105476,0.580,DnF
-1.599405 -7.17098 0.7694679,-2.207379 -6.871181 1.085243,-2.716259 -6.18962 1.326511,-3.087416 -5.588382 1.600847,-3.474983 -5.140558 1.913554,-2.307188 -4.686885 1.239585,-2.441393 -3.740076 1.611958,-2.596833 -3.221275 1.874212,-2.799965 -2.744554 2.091143,-1.951673 -4.620111 1.392385,-2.026926 -3.59628 1.888296,-2.166909 -3.007578 2.25959,-2.3489 -2.466463 2.563257,-1.598728 -4.834896 1.593429,-1.616335 -3.865486 2.074327,-1.748371 -3.294303 2.504874,-1.927085 -2.799222 2.821579,-1.255511 -5.259737 1.818952,-1.174442 -4.516071 2.270585,-1.210556 -4.018711 2.646513,-1.304765 -3.527515 2.954365,-8.849522 -8.336763 0.7809004,-8.314598 -7.968212 1.073917,-7.864052 -7.288134 1.358356,-7.522905 -6.725343 1.679325,-7.16402 -6.344288 2.036913,-8.227306 -5.807538 1.166134,-8.099077 -4.760293 1.439072,-8.009459 -4.154994 1.704875,-7.93395 -3.642999 1.882715,-8.562743 -5.701946 1.277529,-8.490221 -4.483284 1.541903,-8.407322 -3.713346 1.817981,-8.329921 -3.059985 2.01091,-8.885106 -5.814872 1.416393,-8.855651 -4.646484 1.674108,-8.784262 -3.915287 1.906362,-8.699152 -3.279975 2.063687,-9.219652 -6.100324 1.581349,-9.293275 -5.178209 1.838324,-9.298623 -4.562358 2.005299,-9.272369 -3.955875 2.105476,0.600,DnF
-1.599405 -7.17098 0.7694679,-2.207379 -6.871181 1.085243,-2.716259 -6.18962 1.326511,-3.087416 -5.588382 1.600847,-3.474983 -5.140558 1.913554,-2.307188 -4.686885 1.239585,-2.441393 -3.740076 1.611958,-2.596833 -3.221275 1.874212,-2.799965 -2.744554 2.091143,-1.951673 -4.620111 1.392385,-2.026926 -3.59628 1.888296,-2.166909 -3.007578 2.25959,-2.3489 -2.466463 2.563257,-1.598728 -4.834896 1.593429,-1.616335 -3.865486 2.074327,-1.748371 -3.294303 2.504874,-1.927085 -2.799222 2.821579,-1.255511 -5.259737 1.818952,-1.174442 -4.516071 2.270585,-1.210556 -4.018711 2.646513,-1.304765 -3.527515 2.954365,-8.849522 -8.336763 0.7809004,-8.314598 -7.968212 1.073917,-7.864052 -7.288134 1.358356,-7.522905 -6.725343 1.679325,-7.16402 -6.344288 2.036913,-8.227306 -5.807538 1.166134,-8.099077 -4.760293 1.439072,-8.009459 -4.154994 1.704875,-7.93395 -3.642999 1.882715,-8.562743 -5.701946 1.277529,-8.490221 -4.483284 1.541903,-8.407322 -3.713346 1.817981,-8.329921 -3.059985 2.01091,-8.885106 -5.814872 1.416393,-8.855651 -4.646484 1.674108,-8.784262 -3.915287 1.906362,-8.699152 -3.279975 2.063687,-9.219652 -6.100324 1.581349,-9.293275 -5.178209 1.838324,-9.298623 -4.562358 2.005299,-9.272369 -3.955875 2.105476,0.620,DnF
-1.637474 -7.106988 0.8910716,-2.195462 -6.797354 1.011011,-2.692176 -6.031746 1.14118,-3.042552 -5.364283 1.365552,-3.388382 -4.851345 1.649108,-2.277336 -4.583875 0.8032346,-2.448348 -3.70091 1.030576,-2.630353 -3.1991 1.229527,-2.84706 -2.744024 1.378928,-1.973162 -4.446058 0.9931285,-2.162294 -3.517505 1.275898,-2.378067 -2.940212 1.538094,-2.613559 -2.416148 1.758014,-1.64441 -4.531908 1.243506,-1.828169 -3.637514 1.579776,-2.082381 -3.151693 1.860544,-2.341402 -2.753911 2.064176,-1.3062 -4.805835 1.521601,-1.428182 -4.108718 1.873531,-1.625626 -3.793741 2.099594,-1.839937 -3.572308 2.287738,-8.82883 -8.189798 0.8676673,-8.295969 -7.716419 1.002912,-7.866416 -6.961046 1.225312,-7.552388 -6.384103 1.507856,-7.24541 -5.940624 1.80146,-8.284293 -5.566129 1.063441,-8.197222 -4.556819 1.31483,-8.123308 -3.956484 1.570383,-8.049658 -3.420115 1.750434,-8.5955 -5.505863 1.25136,-8.544619 -4.318872 1.506797,-8.466148 -3.560516 1.777694,-8.386703 -2.900466 1.974227,-8.893017 -5.656529 1.460761,-8.902369 -4.498003 1.697179,-8.838544 -3.758541 1.926928,-8.755376 -3.11507 2.084997,-9.199203 -5.988186 1.680476,-9.289105 -5.099209 1.907118,-9.287063 -4.493148 2.058744,-9.253867 -3.905594 2.146085,0.640,DnF
-1.637474 -7.106988 0.8910716,-2.195462 -6.797354 1.011011,-2.692176 -6.031746 1.14118,-3.042552 -5.364283 1.365552,-3.388382 -4.851345 1.649108,-2.277336 -4.583875 0.8032346,-2.448348 -3.70091 1.030576,-2.630353 -3.1991 1.229527,-2.84706 -2.744024 1.378928,-1.973162 -4.446058 0.9931285,-2.162294 -3.517505 1.275898,-2.378067 -2.940212 1.538094,-2.613559 -2.416148 1.758014,-1.64441 -4.531908 1.243506,-1.828169 -3.637514 1.579776,-2.082381 -3.151693 1.860544,-2.341402 -2.753911 2.064176,-1.3062 -4.805835 1.521601,-1.428182 -4.108718 1.873531,-1.625626 -3.793741 2.099594,-1.839937 -3.572308 2.287738,-8.82883 -8.189798 0.8676673,-8.295969 -7.716419 1.002912,-7.866416 -6.961046 1.225312,-7.552388 -6.384103 1.507856,-7.24541 -5.940624 1.80146,-8.284293 -5.566129 1.063441,-8.197222 -4.556819 1.31483,-8.123308 -3.956484 1.570383,-8.049658 -3.420115 1.750434,-8.5955 -5.505863 1.25136,-8.544619 -4.318872 1.506797,-8.466148 -3.560516 1.777694,-8.386703 -2.900466 1.974227,-8.893017 -5.656529 1.460761,-8.902369 -4.498003 1.697179,-8.838544 -3.758541 1.926928,-8.755376 -3.11507 2.084997,-9.199203 -5.988186 1.680476,-9.289105 -5.099209 1.907118,-9.287063 -4.493148 2.058744,-9.253867 -3.905594 2.146085,0.660,DnF
-1.637474 -7.106988 0.8910716,-2.195462 -6.797354 1.011011,-2.692176 -6.031746 1.14118,-3.042552 -5.364283 1.365552,-3.388382 -4.851345 1.649108,-2.277336 -4.583875 0.8032346,-2.448348 -3.70091 1.030576,-2.630353 -3.1991 1.229527,-2.84706 -2.744024 1.378928,-1.973162 -4.446058 0.9931285,-2.162294 -3.517505 1.275898,-2.378067 -2.940212 1.538094,-2.613559 -2.416148 1.758014,-1.64441 -4.531908 1.243506,-1.828169 -3.637514 1.579776,-2.082381 -3.151693 1.860544,-2.341402 -2.753911 2.064176,-1.3062 -4.805835 1.521601,-1.428182 -4.108718 1.873531,-1.625626 -3.793741 2.099594,-1.839937 -3.572308 2.287738,-8.82883 -8.189798 0.8676673,-8.295969 -7.716419 1.002912,-7.866416 -6.961046 1.225312,-7.552388 -6.384103 1.507856,-7.24541 -5.940624 1.80146,-8.284293 -5.566129 1.063441,-8.197222 -4.556819 1.31483,-8.123308 -3.956484 1.570383,-8.049658 -3.420115 1.750434,-8.5955 -5.505863 1.25136,-8.544619 -4.318872 1.506797,-8.466148 -3.560516 1.777694,-8.386703 -2.900466 1.974227,-8.893017 -5.656529 1.460761,-8.902369 -4.498003 1.697179,-8.838544 -3.758541 1.926928,-8.755376 -3.11507 2.084997,-9.199203 -5.988186 1.680476,-9.289105 -5.099209 1.907118,-9.287063 -4.493148 2.058744,-9.253867 -3.905594 2.146085,0.680,DnF
-1.637474 -7.106988 0.8910716,-2.195462 -6.797354 1.011011,-2.692176 -6.031746 1.14118,-3.042552 -5.364283 1.365552,-3.388382 -4.851345 1.649108,-2.277336 -4.583875 0.8032346,-2.448348 -3.70091 1.030576,-2.630353 -3.1991 1.229527,-2.84706 -2.744024 1.378928,-1.973162 -4.446058 0.9931285,-2.162294 -3.517505 1.275898,-2.378067 -2.940212 1.538094,-2.613559 -2.416148 1.758014,-1.64441 -4.531908 1.243506,-1.828169 -3.637514 1.579776,-2.082381 -3.151693 1.860544,-2.341402 -2.753911 2.064176,-1.3062 -4.805835 1.521601,-1.428182 -4.108718 1.873531,-1.625626 -3.793741 2.099594,-1.839937 -3.572308 2.287738,-8.82883 -8.189798 0.8676673,-8.295969 -7.716419 1.002912,-7.866416 -6.961046 1.225312,-7.552388 -6.384103 1.507856,-7.24541 -5.940624 1.80146,-8.284293 -5.566129 1.063441,-8.197222 -4.556819 1.31483,-8.123308 -3.956484 1.570383,-8.049658 -3.420115 1.750434,-8.5955 -5.505863 1.25136,-8.544619 -4.318872 1.506797,-8.466148 -3.560516 1.777694,-8.386703 -2.900466 1.974227,-8.893017 -5.656529 1.460761,-8.902369 -4.498003 1.697179,-8.838544 -3.758541 1.926928,-8.755376 -3.11507 2.084997,-9.199203 -5.988186 1.680476,-9.289105 -5.099209 1.907118,-9.287063 -4.493148 2.058744,-9.253867 -3.905594 2.146085,0.700,DnF
-1.764757 -7.037059 0.8023245,-2.312499 -6.550437 0.6818142,-2.686094 -5.689453 0.7880571,-3.010994 -5.069078 1.037468,-3.318119 -4.492682 1.346011,-2.225634 -4.356471 0.7625547,-2.400005 -3.495466 1.097477,-2.641441 -2.946779 1.337745,-2.913019 -2.529037 1.503241,-1.975458 -4.405426 1.114624,-2.146782 -3.364007 1.554214,-2.46344 -2.840745 1.894773,-2.79577 -2.50222 2.133104,-1.730991 -4.652587 1.510566,-1.901444 -3.633974 1.996359,-2.277765 -3.203976 2.333917,-2.656771 -2.970947 2.531942,-1.528804 -5.070631 1.8786,-1.744212 -4.345266 2.317492,-2.063847 -4.053882 2.578682,-2.402837 -3.862601 2.79197,-8.803838 -7.975172 0.8742329,-8.295932 -7.372135 0.8264917,-7.904249 -6.560888 0.9457892,-7.599724 -5.974 1.171435,-7.309285 -5.483003 1.411895,-8.427958 -5.241751 0.7870262,-8.383084 -4.226287 0.9535059,-8.307791 -3.608766 1.14987,-8.21453 -3.047004 1.295835,-8.672298 -5.261302 1.054956,-8.653398 -4.086341 1.27927,-8.565115 -3.343998 1.515553,-8.465954 -2.683914 1.672547,-8.895771 -5.449223 1.347084,-8.949185 -4.314422 1.566605,-8.888645 -3.581927 1.790439,-8.794531 -2.939762 1.937557,-9.109145 -5.808429 1.63531,-9.223182 -4.932439 1.853478,-9.216559 -4.328485 2.026657,-9.169998 -3.742709 2.140212,0.720,DnF
-1.764757 -7.037059 0.8023245,-2.312499 -6.550437 0.6818142,-2.686094 -5.689453 0.7880571,-3.010994 -5.069078 1.037468,-3.318119 -4.492682 1.346011,-2.225634 -4.356471 0.7625547,-2.400005 -3.495466 1.097477,-2.641441 -2.946779 1.337745,-2.913019 -2.529037 1.503241,-1.975458 -4.405426 1.114624,-2.146782 -3.364007 1.554214,-2.46344 -2.840745 1.894773,-2.79577 -2.50222 2.133104,-1.730991 -4.652587 1.510566,-1.901444 -3.633974 1.996359,-2.277765 -3.203976 2.333917,-2.656771 -2.970947 2.531942,-1.528804 -5.070631 1.8786,-1.744212 -4.345266 2.317492,-2.063847 -4.053882 2.578682,-2.402837 -3.862601 2.79197,-8.803838 -7.975172 0.8742329,-8.295932 -7.372135 0.8264917,-7.904249 -6.560888 0.9457892,-7.599724 -5.974 1.171435,-7.309285 -5.483003 1.411895,-8.427958 -5.241751 0.7870262,-8.383084 -4.226287 0.9535059,-8.307791 -3.608766 1.14987,-8.21453 -3.047004 1.295835,-8.672298 -5.261302 1.054956,-8.653398 -4.086341 1.27927,-8.565115 -3.343998 1.515553,-8.465954 -2.683914 1.672547,-8.895771 -5.449223 1.347084,-8.949185 -4.314422 1.566605,-8.888645 -3.581927 1.790439,-8.794531 -2.939762 1.937557,-9.109145 -5.808429 1.63531,-9.223182 -4.932439 1.853478,-9.216559 -4.328485 2.026657,-9.169998 -3.742709 2.140212,0.740,DnF
-1.764757 -7.037059 0.8023245,-2.312499 -6.550437 0.6818142,-2.686094 -5.689453 0.7880571,-3.010994 -5.069078 1.037468,-3.318119 -4.492682 1.346011,-2.225634 -4.356471 0.7625547,-2.400005 -3.495466 1.097477,-2.641441 -2.946779 1.337745,-2.913019 -2.529037 1.503241,-1.975458 -4.405426 1.114624,-2.146782 -3.364007 1.554214,-2.46344 -2.840745 1.894773,-2.79577 -2.50222 2.133104,-1.730991 -4.652587 1.510566,-1.901444 -3.633974 1.996359,-2.277765 -3.203976 2.333917,-2.656771 -2.970947 2.531942,-1.528804 -5.070631 1.8786,-1.744212 -4.345266 2.317492,-2.063847 -4.053882 2.578682,-2.402837 -3.862601 2.79197,-8.803838 -7.975172 0.8742329,-8.295932 -7.372135 0.8264917,-7.904249 -6.560888 0.9457892,-7.599724 -5.974 1.171435,-7.309285 -5.483003 1.411895,-8.427958 -5.241751 0.7870262,-8.383084 -4.226287 0.9535059,-8.307791 -3.608766 1.14987,-8.21453 -3.047004 1.295835,-8.672298 -5.261302 1.054956,-8.653398 -4.086341 1.27927,-8.565115 -3.343998 1.515553,-8.465954 -2.683914 1.672547,-8.895771 -5.449223 1.347084,-8.949185 -4.314422 1.566605,-8.888645 -3.581927 1.790439,-8.794531 -2.939762 1.937557,-9.109145 -5.808429 1.63531,-9.223182 -4.932439 1.853478,-9.216559 -4.328485 2.026657,-9.169998 -3.742709 2.140212,0.760,DnF
-1.897981 -5.464632 -0.8101468,-2.078578 -4.181484 -1.409229,-2.308235 -3.420222 -1.428264,-2.595563 -3.012196 -1.346478,-2.86542 -2.781909 -1.284973,-2.147212 -2.918957 -0.4677891,-2.738639 -2.317001 -0.4664762,-3.008418 -2.415552 -0.6684802,-3.054782 -2.610169 -0.7875268,-2.134748 -3.394969 -0.1094407,-2.840487 -2.818012 -0.1302707,-3.052305 -3.026731 -0.4785249,-3.054003 -3.257488 -0.6927356,-2.196209 -3.993671 0.1786718,-2.836946 -3.60214 0.07914627,-2.989748 -3.72823 -0.2725943,-2.955012 -3.822691 -0.4332099,-2.321121 -4.64541 0.4092761,-2.820265 -4.433551 0.4312278,-2.993865 -4.436956 0.3929001,-3.033154 -4.407276 0.3823339,-8.802802 -7.751037 0.938544,-8.283002 -7.054494 0.6557196,-7.994819 -6.178913 0.6252276,-7.778171 -5.570449 0.7439278,-7.576557 -4.996794 0.8933691,-8.511681 -4.951425 0.4598508,-8.514679 -3.978595 0.5251741,-8.43008 -3.330363 0.6379994,-8.317397 -2.758684 0.7499018,-8.671188 -5.014421 0.8408987,-8.705724 -3.886212 0.9606615,-8.616439 -3.150001 1.14823,-8.513791 -2.48337 1.280801,-8.814864 -5.239731 1.248987,-8.87756 -4.157083 1.395764,-8.800003 -3.4458 1.581788,-8.684774 -2.835506 1.72325,-8.949286 -5.613059 1.649624,-9.050656 -4.738281 1.852901,-8.999485 -4.139276 2.044273,-8.900481 -3.599406 2.181806,0.780,DnF
-1.897981 -5.464632 -0.8101468,-2.078578 -4.181484 -1.409229,-2.308235 -3.420222 -1.428264,-2.595563 -3.012196 -1.346478,-2.86542 -2.781909 -1.284973,-2.147212 -2.918957 -0.4677891,-2.738639 -2.317001 -0.4664762,-3.008418 -2.415552 -0.6684802,-3.054782 -2.610169 -0.7875268,-2.134748 -3.394969 -0.1094407,-2.840487 -2.818012 -0.1302707,-3.052305 -3.026731 -0.4785249,-3.054003 -3.257488 -0.6927356,-2.196209 -3.993671 0.1786718,-2.836946 -3.60214 0.07914627,-2.989748 -3.72823 -0.2725943,-2.955012 -3.822691 -0.4332099,-2.321121 -4.64541 0.4092761,-2.820265 -4.433551 0.4312278,-2.993865 -4.436956 0.3929001,-3.033154 -4.407276 0.3823339,-8.802802 -7.751037 0.938544,-8.283002 -7.054494 0.6557196,-7.994819 -6.178913 0.6252276,-7.778171 -5.570449 0.7439278,-7.576557 -4.996794 0.8933691,-8.511681 -4.951425 0.4598508,-8.514679 -3.978595 0.5251741,-8.43008 -3.330363 0.6379994,-8.317397 -2.758684 0.7499018,-8.671188 -5.014421 0.8408987,-8.705724 -3.886212 0.9606615,-8.616439 -3.150001 1.14823,-8.513791 -2.48337 1.280801,-8.814864 -5.239731 1.248987,-8.87756 -4.157083 1.395764,-8.800003 -3.4458 1.581788,-8.684774 -2.835506 1.72325,-8.949286 -5.613059 1.649624,-9.050656 -4.738281 1.852901,-8.999485 -4.139276 2.044273,-8.900481 -3.599406 2.181806,0.800,DnF
-1.897981 -5.464632 -0.8101468,-2.078578 -4.181484 -1.409229,-2.308235 -3.420222 -1.428264,-2.595563 -3.012196 -1.346478,-2.86542 -2.781909 -1.284973,-2.147212 -2.918957 -0.4677891,-2.738639 -2.317001 -0.4664762,-3.008418 -2.415552 -0.6684802,-3.054782 -2.610169 -0.7875268,-2.134748 -3.394969 -0.1094407,-2.840487 -2.818012 -0.1302707,-3.052305 -3.026731 -0.4785249,-3.054003 -3.257488 -0.6927356,-2.196209 -3.993671 0.1786718,-2.836946 -3.60214 0.07914627,-2.989748 -3.72823 -0.2725943,-2.955012 -3.822691 -0.4332099,-2.321121 -4.64541 0.4092761,-2.820265 -4.433551 0.4312278,-2.993865 -4.436956 0.3929001,-3.033154 -4.407276 0.3823339,-8.802802 -7.751037 0.938544,-8.283002 -7.054494 0.6557196,-7.994819 -6.178913 0.6252276,-7.778171 -5.570449 0.7439278,-7.576557 -4.996794 0.8933691,-8.511681 -4.951425 0.4598508,-8.514679 -3.978595 0.5251741,-8.43008 -3.330363 0.6379994,-8.317397 -2.758684 0.7499018,-8.671188 -5.014421 0.8408987,-8.705724 -3.886212 0.9606615,-8.616439 -3.150001 1.14823,-8.513791 -2.48337 1.280801,-8.814864 -5.239731 1.248987,-8.87756 -4.157083 1.395764,-8.800003 -3.4458 1.581788,-8.684774 -2.835506 1.72325,-8.949286 -5.613059 1.649624,-9.050656 -4.738281 1.852901,-8.999485 -4.139276 2.044273,-8.900481 -3.599406 2.181806,0.820,DnF
-2.037665 -5.517522 -0.9576926,-2.183943 -4.230875 -1.455762,-2.410467 -3.415825 -1.444497,-2.694019 -2.951086 -1.35404,-2.974098 -2.623708 -1.247328,-2.194505 -3.092773 -0.4590978,-2.690317 -2.428224 -0.238467,-3.028532 -2.189186 -0.2910118,-3.271309 -2.088003 -0.3472054,-2.206974 -3.543911 -0.1072329,-2.732368 -2.85371 0.2148917,-3.106247 -2.632537 0.06637192,-3.375179 -2.519147 -0.05037767,-2.305307 -4.126463 0.184361,-2.760978 -3.554721 0.4338206,-3.082498 -3.293603 0.3190545,-3.302668 -3.095142 0.2377993,-2.45611 -4.754303 0.4198194,-2.852584 -4.426609 0.6589149,-3.094575 -4.215416 0.7334192,-3.270595 -4.053408 0.8119252,-8.839713 -7.597999 0.4669119,-8.352749 -6.797319 0.09982723,-8.191094 -5.801933 0.01038465,-7.981471 -5.059951 -0.0240013,-7.749929 -4.491678 -0.03334114,-8.9685 -5.003335 0.3578509,-8.82652 -3.835287 0.4284659,-8.674918 -3.019217 0.5264482,-8.52319 -2.397114 0.6327548,-9.102022 -5.008121 0.6000792,-8.931859 -3.640542 0.7367721,-8.690775 -2.70305 0.7978349,-8.490483 -1.960892 0.8802179,-9.127037 -5.12235 0.820946,-8.967412 -3.812191 0.9368944,-8.73764 -2.948397 0.9385254,-8.554008 -2.325258 0.9624653,-9.046021 -5.314752 1.010805,-8.935863 -4.307165 1.107624,-8.798588 -3.645082 1.162517,-8.671504 -3.06553 1.224767,0.840,DnF
-2.037665 -5.517522 -0.9576926,-2.183943 -4.230875 -1.455762,-2.410467 -3.415825 -1.444497,-2.694019 -2.951086 -1.35404,-2.974098 -2.623708 -1.247328,-2.194505 -3.092773 -0.4590978,-2.690317 -2.428224 -0.238467,-3.028532 -2.189186 -0.2910118,-3.271309 -2.088003 -0.3472054,-2.206974 -3.543911 -0.1072329,-2.732368 -2.85371 0.2148917,-3.106247 -2.632537 0.06637192,-3.375179 -2.519147 -0.05037767,-2.305307 -4.126463 0.184361,-2.760978 -3.554721 0.4338206,-3.082498 -3.293603 0.3190545,-3.302668 -3.095142 0.2377993,-2.45611 -4.754303 0.4198194,-2.852584 -4.426609 0.6589149,-3.094575 -4.215416 0.7334192,-3.270595 -4.053408 0.8119252,-8.839713 -7.597999 0.4669119,-8.352749 -6.797319 0.09982723,-8.191094 -5.801933 0.01038465,-7.981471 -5.059951 -0.0240013,-7.749929 -4.491678 -0.03334114,-8.9685 -5.003335 0.3578509,-8.82652 -3.835287 0.4284659,-8.674918 -3.019217 0.5264482,-8.52319 -2.397114 0.6327548,-9.102022 -5.008121 0.6000792,-8.931859 -3.640542 0.7367721,-8.690775 -2.70305 0.7978349,-8.490483 -1.960892 0.8802179,-9.127037 -5.12235 0.820946,-8.967412 -3.812191 0.9368944,-8.73764 -2.948397 0.9385254,-8.554008 -2.325258 0.9624653,-9.046021 -5.314752 1.010805,-8.935863 -4.307165 1.107624,-8.798588 -3.645082 1.162517,-8.671504 -3.06553 1.224767,0.860,DnF
-2.037665 -5.517522 -0.9576926,-2.183943 -4.230875 -1.455762,-2.410467 -3.415825 -1.444497,-2.694019 -2.951086 -1.35404,-2.974098 -2.623708 -1.247328,-2.194505 -3.092773 -0.4590978,-2.690317 -2.428224 -0.238467,-3.028532 -2.189186 -0.2910118,-3.271309 -2.088003 -0.3472054,-2.206974 -3.543911 -0.1072329,-2.732368 -2.85371 0.2148917,-3.106247 -2.632537 0.06637192,-3.375179 -2.519147 -0.05037767,-2.305307 -4.126463 0.184361,-2.760978 -3.554721 0.4338206,-3.082498 -3.293603 0.3190545,-3.302668 -3.095142 0.2377993,-2.45611 -4.754303 0.4198194,-2.852584 -4.426609 0.6589149,-3.094575 -4.215416 0.7334192,-3.270595 -4.053408 0.8119252,-8.839713 -7.597999 0.4669119,-8.352749 -6.797319 0.09982723,-8.191094 -5.801933 0.01038465,-7.981471 -5.059951 -0.0240013,-7.749929 -4.491678 -0.03334114,-8.9685 -5.003335 0.3578509,-8.82652 -3.835287 0.4284659,-8.674918 -3.019217 0.5264482,-8.52319 -2.397114 0.6327548,-9.102022 -5.008121 0.6000792,-8.931859 -3.640542 0.7367721,-8.690775 -2.70305 0.7978349,-8.490483 -1.960892 0.8802179,-9.127037 -5.12235 0.820946,-8.967412 -3.812191 0.9368944,-8.73764 -2.948397 0.9385254,-8.554008 -2.325258 0.9624653,-9.046021 -5.314752 1.010805,-8.935863 -4.307165 1.107624,-8.798588 -3.645082 1.162517,-8.671504 -3.06553 1.224767,0.880,DnF
-2.122086 -5.375787 -1.167991,-2.244934 -4.229767 -1.591785,-2.477808 -3.502201 -1.590265,-2.711522 -3.021966 -1.518087,-2.940109 -2.686865 -1.417555,-2.376906 -3.092758 -0.5702861,-2.773436 -2.395125 -0.2884381,-3.075096 -2.115339 -0.2241135,-3.332062 -1.931327 -0.187794,-2.414362 -3.529118 -0.2215386,-2.837151 -2.725118 0.2403558,-3.177151 -2.385603 0.2863346,-3.467899 -2.139219 0.2977654,-2.508267 -4.098324 0.06705809,-2.896681 -3.465052 0.5159086,-3.211653 -3.135953 0.6069521,-3.472496 -2.876871 0.6395881,-2.634739 -4.725593 0.2822714,-3.003914 -4.441223 0.7380573,-3.311648 -4.194321 0.9600955,-3.589811 -3.981382 1.135225,-8.791389 -7.358599 0.2797374,-8.38979 -6.391263 -0.4425552,-8.334887 -5.411056 -0.6617284,-8.199369 -4.749002 -0.7102289,-8.010972 -4.225669 -0.6486969,-9.087599 -4.773315 -0.1532192,-8.898219 -3.667509 -0.2306725,-8.704007 -2.961089 -0.2906029,-8.531773 -2.435249 -0.2682501,-9.130116 -4.82794 0.3012899,-8.915501 -3.41015 0.3344947,-8.722726 -2.488248 0.3247578,-8.550011 -1.786508 0.3689238,-9.020523 -4.969276 0.6879247,-8.826462 -3.585952 0.7519435,-8.647378 -2.650411 0.8172656,-8.485392 -1.947631 0.9231752,-8.778382 -5.168774 1.02129,-8.621797 -4.148448 1.14279,-8.498613 -3.492984 1.229629,-8.380656 -2.92906 1.324677,0.900,DnF
-2.122086 -5.375787 -1.167991,-2.244934 -4.229767 -1.591785,-2.477808 -3.502201 -1.590265,-2.711522 -3.021966 -1.518087,-2.940109 -2.686865 -1.417555,-2.376906 -3.092758 -0.5702861,-2.773436 -2.395125 -0.2884381,-3.075096 -2.115339 -0.2241135,-3.332062 -1.931327 -0.187794,-2.414362 -3.529118 -0.2215386,-2.837151 -2.725118 0.2403558,-3.177151 -2.385603 0.2863346,-3.467899 -2.139219 0.2977654,-2.508267 -4.098324 0.06705809,-2.896681 -3.465052 0.5159086,-3.211653 -3.135953 0.6069521,-3.472496 -2.876871 0.6395881,-2.634739 -4.725593 0.2822714,-3.003914 -4.441223 0.7380573,-3.311648 -4.194321 0.9600955,-3.589811 -3.981382 1.135225,-8.791389 -7.358599 0.2797374,-8.38979 -6.391263 -0.4425552,-8.334887 -5.411056 -0.6617284,-8.199369 -4.749002 -0.7102289,-8.010972 -4.225669 -0.6486969,-9.087599 -4.773315 -0.1532192,-8.898219 -3.667509 -0.2306725,-8.704007 -2.961089 -0.2906029,-8.531773 -2.435249 -0.2682501,-9.130116 -4.82794 0.3012899,-8.915501 -3.41015 0.3344947,-8.722726 -2.488248 0.3247578,-8.550011 -1.786508 0.3689238,-9.020523 -4.969276 0.6879247,-8.826462 -3.585952 0.7519435,-8.647378 -2.650411 0.8172656,-8.485392 -1.947631 0.9231752,-8.778382 -5.168774 1.02129,-8.621797 -4.148448 1.14279,-8.498613 -3.492984 1.229629,-8.380656 -2.92906 1.324677,0.920,DnF
-2.122086 -5.375787 -1.167991,-2.244934 -4.229767 -1.591785,-2.477808 -3.502201 -1.590265,-2.711522 -3.021966 -1.518087,-2.940109 -2.686865 -1.417555,-2.376906 -3.092758 -0.5702861,-2.773436 -2.395125 -0.2884381,-3.075096 -2.115339 -0.2241135,-3.332062 -1.931327 -0.187794,-2.414362 -3.529118 -0.2215386,-2.837151 -2.725118 0.2403558,-3.177151 -2.385603 0.2863346,-3.467899 -2.139219 0.2977654,-2.508267 -4.098324 0.06705809,-2.896681 -3.465052 0.5159086,-3.211653 -3.135953 0.6069521,-3.472496 -2.876871 0.6395881,-2.634739 -4.725593 0.2822714,-3.003914 -4.441223 0.7380573,-3.311648 -4.194321 0.9600955,-3.589811 -3.981382 1.135225,-8.791389 -7.358599 0.2797374,-8.38979 -6.391263 -0.4425552,-8.334887 -5.411056 -0.6617284,-8.199369 -4.749002 -0.7102289,-8.010972 -4.225669 -0.6486969,-9.087599 -4.773315 -0.1532192,-8.898219 -3.667509 -0.2306725,-8.704007 -2.961089 -0.2906029,-8.531773 -2.435249 -0.2682501,-9.130116 -4.82794 0.3012899,-8.915501 -3.41015 0.3344947,-8.722726 -2.488248 0.3247578,-8.550011 -1.786508 0.3689238,-9.020523 -4.969276 0.6879247,-8.826462 -3.585952 0.7519435,-8.647378 -2.650411 0.8172656,-8.485392 -1.947631 0.9231752,-8.778382 -5.168774 1.02129,-8.621797 -4.148448 1.14279,-8.498613 -3.492984 1.229629,-8.380656 -2.92906 1.324677,0.940,DnF
-2.269267 -5.508864 -1.833075,-2.304055 -4.482084 -2.375589,-2.485379 -3.750437 -2.463061,-2.697111 -3.312017 -2.45332,-2.954815 -3.015486 -2.418672,-2.383702 -3.483645 -1.348388,-2.706252 -2.417398 -1.017952,-3.046341 -1.960734 -0.9353231,-3.327532 -1.729837 -0.9207019,-2.475867 -3.821709 -0.971532,-2.845057 -2.622376 -0.4712366,-3.245775 -2.14771 -0.3776699,-3.587067 -1.855527 -0.3384181,-2.630613 -4.283147 -0.6749453,-3.015532 -3.293731 -0.2218451,-3.387516 -2.817568 -0.1031416,-3.69738 -2.480129 -0.04330474,-2.82261 -4.818017 -0.4698631,-3.23897 -4.283916 -0.08598465,-3.575964 -3.989994 0.08892339,-3.871009 -3.72504 0.2185133,-8.892938 -7.103508 -0.09491988,-8.574223 -6.103057 -0.8835628,-8.460651 -5.165609 -1.085527,-8.31211 -4.535833 -1.094465,-8.111907 -4.024649 -1.046379,-9.134195 -4.540267 -0.2568163,-8.966918 -3.273052 -0.2674168,-8.734726 -2.515168 -0.3514496,-8.509528 -1.960138 -0.4012039,-9.097741 -4.687749 0.2301193,-8.911915 -3.133672 0.3922134,-8.640843 -2.198754 0.3719213,-8.385878 -1.535804 0.3709505,-8.912576 -4.938261 0.6153485,-8.722492 -3.438791 0.781992,-8.511046 -2.459876 0.8610957,-8.298432 -1.783974 0.9434129,-8.60649 -5.241747 0.9328496,-8.443134 -4.086776 1.121863,-8.299609 -3.337289 1.257488,-8.142131 -2.713502 1.382847,0.960,DnF
-2.269267 -5.508864 -1.833075,-2.304055 -4.482084 -2.375589,-2.485379 -3.750437 -2.463061,-2.697111 -3.312017 -2.45332,-2.954815 -3.015486 -2.418672,-2.383702 -3.483645 -1.348388,-2.706252 -2.417398 -1.017952,-3.046341 -1.960734 -0.9353231,-3.327532 -1.729837 -0.9207019,-2.475867 -3.821709 -0.971532,-2.845057 -2.622376 -0.4712366,-3.245775 -2.14771 -0.3776699,-3.587067 -1.855527 -0.3384181,-2.630613 -4.283147 -0.6749453,-3.015532 -3.293731 -0.2218451,-3.387516 -2.817568 -0.1031416,-3.69738 -2.480129 -0.04330474,-2.82261 -4.818017 -0.4698631,-3.23897 -4.283916 -0.08598465,-3.575964 -3.989994 0.08892339,-3.871009 -3.72504 0.2185133,-8.892938 -7.103508 -0.09491988,-8.574223 -6.103057 -0.8835628,-8.460651 -5.165609 -1.085527,-8.31211 -4.535833 -1.094465,-8.111907 -4.024649 -1.046379,-9.134195 -4.540267 -0.2568163,-8.966918 -3.273052 -0.2674168,-8.734726 -2.515168 -0.3514496,-8.509528 -1.960138 -0.4012039,-9.097741 -4.687749 0.2301193,-8.911915 -3.133672 0.3922134,-8.640843 -2.198754 0.3719213,-8.385878 -1.535804 0.3709505,-8.912576 -4.938261 0.6153485,-8.722492 -3.438791 0.781992,-8.511046 -2.459876 0.8610957,-8.298432 -1.783974 0.9434129,-8.60649 -5.241747 0.9328496,-8.443134 -4.086776 1.121863,-8.299609 -3.337289 1.257488,-8.142131 -2.713502 1.382847,0.980,DnF
-2.269267 -5.508864 -1.833075,-2.304055 -4.482084 -2.375589,-2.485379 -3.750437 -2.463061,-2.697111 -3.312017 -2.45332,-2.954815 -3.015486 -2.418672,-2.383702 -3.483645 -1.348388,-2.706252 -2.417398 -1.017952,-3.046341 -1.960734 -0.9353231,-3.327532 -1.729837 -0.9207019,-2.475867 -3.821709 -0.971532,-2.845057 -2.622376 -0.4712366,-3.245775 -2.14771 -0.3776699,-3.587067 -1.855527 -0.3384181,-2.630613 -4.283147 -0.6749453,-3.015532 -3.293731 -0.2218451,-3.387516 -2.817568 -0.1031416,-3.69738 -2.480129 -0.04330474,-2.82261 -4.818017 -0.4698631,-3.23897 -4.283916 -0.08598465,-3.575964 -3.989994 0.08892339,-3.871009 -3.72504 0.2185133,-8.892938 -7.103508 -0.09491988,-8.574223 -6.103057 -0.8835628,-8.460651 -5.165609 -1.085527,-8.31211 -4.535833 -1.094465,-8.111907 -4.024649 -1.046379,-9.134195 -4.540267 -0.2568163,-8.966918 -3.273052 -0.2674168,-8.734726 -2.515168 -0.3514496,-8.509528 -1.960138 -0.4012039,-9.097741 -4.687749 0.2301193,-8.911915 -3.133672 0.3922134,-8.640843 -2.198754 0.3719213,-8.385878 -1.535804 0.3709505,-8.912576 -4.938261 0.6153485,-8.722492 -3.438791 0.781992,-8.511046 -2.459876 0.8610957,-8.298432 -1.783974 0.9434129,-8.60649 -5.241747 0.9328496,-8.443134 -4.086776 1.121863,-8.299609 -3.337289 1.257488,-8.142131 -2.713502 1.382847,1.000,DnF
-2.490177 -5.51888 -1.620805,-2.463425 -4.397485 -2.019292,-2.598891 -3.634304 -2.027439,-2.786659 -3.137511 -1.981467,-3.035218 -2.755205 -1.919325,-2.479825 -3.46495 -0.9096434,-2.750134 -2.374469 -0.5544559,-3.078735 -1.868223 -0.4863313,-3.366614 -1.607002 -0.4848962,-2.609134 -3.842975 -0.5992787,-2.964611 -2.644886 -0.07590538,-3.348237 -2.117336 0.01789886,-3.682806 -1.793404 0.0474419,-2.792656 -4.289379 -0.378585,-3.165438 -3.320776 0.05617243,-3.520491 -2.820806 0.146036,-3.827164 -2.485212 0.1672658,-3.004421 -4.766963 -0.2341803,-3.387674 -4.232471 0.1445737,-3.693222 -3.895535 0.3061389,-3.971321 -3.590219 0.4006584,-8.875702 -6.940094 -0.488741,-8.796474 -6.024141 -1.259494,-8.58918 -5.068328 -1.447104,-8.259864 -4.48299 -1.467468,-7.92823 -4.103257 -1.414274,-9.19007 -4.550127 -0.5815592,-8.93115 -3.086878 -0.5524364,-8.689404 -2.301038 -0.6213138,-8.484582 -1.781372 -0.6563241,-9.073183 -4.647447 -0.1009524,-8.830231 -2.95055 0.05251688,-8.556157 -2.009868 0.03319597,-8.313823 -1.389737 0.0603047,-8.818904 -4.867076 0.2797406,-8.562841 -3.270099 0.4226403,-8.344179 -2.326719 0.4475676,-8.145424 -1.684519 0.523723,-8.45055 -5.191692 0.5977527,-8.230977 -3.968797 0.7583983,-8.083454 -3.24654 0.8116379,-7.929629 -2.657458 0.8875949,1.020,DnF
-2.490177 -5.51888 -1.620805,-2.463425 -4.397485 -2.019292,-2.598891 -3.634304 -2.027439,-2.786659 -3.137511 -1.981467,-3.035218 -2.755205 -1.919325,-2.479825 -3.46495 -0.9096434,-2.750134 -2.374469 -0.5544559,-3.078735 -1.868223 -0.4863313,-3.366614 -1.607002 -0.4848962,-2.609134 -3.842975 -0.5992787,-2.964611 -2.644886 -0.07590538,-3.348237 -2.117336 0.01789886,-3.682806 -1.793404 0.0474419,-2.792656 -4.289379 -0.378585,-3.165438 -3.320776 0.05617243,-3.520491 -2.820806 0.146036,-3.827164 -2.485212 0.1672658,-3.004421 -4.766963 -0.2341803,-3.387674 -4.232471 0.1445737,-3.693222 -3.895535 0.3061389,-3.971321 -3.590219 0.4006584,-8.875702 -6.940094 -0.488741,-8.796474 -6.024141 -1.259494,-8.58918 -5.068328 -1.447104,-8.259864 -4.48299 -1.467468,-7.92823 -4.103257 -1.414274,-9.19007 -4.550127 -0.5815592,-8.93115 -3.086878 -0.5524364,-8.689404 -2.301038 -0.6213138,-8.484582 -1.781372 -0.6563241,-9.073183 -4.647447 -0.1009524,-8.830231 -2.95055 0.05251688,-8.556157 -2.009868 0.03319597,-8.313823 -1.389737 0.0603047,-8.818904 -4.867076 0.2797406,-8.562841 -3.270099 0.4226403,-8.344179 -2.326719 0.4475676,-8.145424 -1.684519 0.523723,-8.45055 -5.191692 0.5977527,-8.230977 -3.968797 0.7583983,-8.083454 -3.24654 0.8116379,-7.929629 -2.657458 0.8875949,1.040,DnF
-2.490177 -5.51888 -1.620805,-2.463425 -4.397485 -2.019292,-2.598891 -3.634304 -2.027439,-2.786659 -3.137511 -1.981467,-3.035218 -2.755205 -1.919325,-2.479825 -3.46495 -0.9096434,-2.750134 -2.374469 -0.5544559,-3.078735 -1.868223 -0.4863313,-3.366614 -1.607002 -0.4848962,-2.609134 -3.842975 -0.5992787,-2.964611 -2.644886 -0.07590538,-3.348237 -2.117336 0.01789886,-3.682806 -1.793404 0.0474419,-2.792656 -4.289379 -0.378585,-3.165438 -3.320776 0.05617243,-3.520491 -2.820806 0.146036,-3.827164 -2.485212 0.1672658,-3.004421 -4.766963 -0.2341803,-3.387674 -4.232471 0.1445737,-3.693222 -3.895535 0.3061389,-3.971321 -3.590219 0.4006584,-8.875702 -6.940094 -0.488741,-8.796474 -6.024141 -1.259494,-8.58918 -5.068328 -1.447104,-8.259864 -4.48299 -1.467468,-7.92823 -4.103257 -1.414274,-9.19007 -4.550127 -0.5815592,-8.93115 -3.086878 -0.5524364,-8.689404 -2.301038 -0.6213138,-8.484582 -1.781372 -0.6563241,-9.073183 -4.647447 -0.1009524,-8.830231 -2.95055 0.05251688,-8.556157 -2.009868 0.03319597,-8.313823 -1.389737 0.0603047,-8.818904 -4.867076 0.2797406,-8.562841 -3.270099 0.4226403,-8.344179 -2.326719 0.4475676,-8.145424 -1.684519 0.523723,-8.45055 -5.191692 0.5977527,-8.230977 -3.968797 0.7583983,-8.083454 -3.24654 0.8116379,-7.929629 -2.657458 0.8875949,1.060,DnF
-2.614901 -5.492141 -1.459343,-2.555238 -4.330986 -1.836891,-2.667468 -3.565687 -1.815653,-2.84142 -3.055817 -1.752632,-3.079773 -2.649233 -1.672415,-2.523509 -3.388631 -0.7013561,-2.760836 -2.298142 -0.3269,-3.090384 -1.764107 -0.2362339,-3.38208 -1.475859 -0.2193511,-2.674563 -3.780303 -0.4030031,-2.971693 -2.560676 0.1257174,-3.347496 -1.993731 0.2211232,-3.685841 -1.646222 0.2524641,-2.883269 -4.231215 -0.1971859,-3.218883 -3.221795 0.2522001,-3.574078 -2.693016 0.355484,-3.880564 -2.340818 0.3849869,-3.118988 -4.692483 -0.06946385,-3.492153 -4.110935 0.3010757,-3.788513 -3.740215 0.4552279,-4.055574 -3.400338 0.550349,-8.655766 -6.679906 -0.4543033,-8.642559 -5.790128 -1.2478,-8.484057 -4.93976 -1.445996,-8.170944 -4.403612 -1.498031,-7.850034 -4.082206 -1.506668,-9.03124 -4.238468 -0.6606033,-8.827283 -2.842145 -0.683937,-8.613287 -2.109316 -0.736039,-8.427131 -1.59274 -0.7505184,-8.881516 -4.36305 -0.1831176,-8.668345 -2.699625 -0.08073384,-8.399329 -1.832712 -0.0969958,-8.153476 -1.22306 -0.08009511,-8.613129 -4.584533 0.1915541,-8.375813 -3.038194 0.2363789,-8.159545 -2.185781 0.2312951,-7.986898 -1.554396 0.2879871,-8.25406 -4.919948 0.5060511,-8.069271 -3.706939 0.5806524,-7.910741 -3.062494 0.6004885,-7.767827 -2.519625 0.648205,1.080,DnF
-2.614901 -5.492141 -1.459343,-2.555238 -4.330986 -1.836891,-2.667468 -3.565687 -1.815653,-2.84142 -3.055817 -1.752632,-3.079773 -2.649233 -1.672415,-2.523509 -3.388631 -0.7013561,-2.760836 -2.298142 -0.3269,-3.090384 -1.764107 -0.2362339,-3.38208 -1.475859 -0.2193511,-2.674563 -3.780303 -0.4030031,-2.971693 -2.560676 0.1257174,-3.347496 -1.993731 0.2211232,-3.685841 -1.646222 0.2524641,-2.883269 -4.231215 -0.1971859,-3.218883 -3.221795 0.2522001,-3.574078 -2.693016 0.355484,-3.880564 -2.340818 0.3849869,-3.118988 -4.692483 -0.06946385,-3.492153 -4.110935 0.3010757,-3.788513 -3.740215 0.4552279,-4.055574 -3.400338 0.550349,-8.655766 -6.679906 -0.4543033,-8.642559 -5.790128 -1.2478,-8.484057 -4.93976 -1.445996,-8.170944 -4.403612 -1.498031,-7.850034 -4.082206 -1.506668,-9.03124 -4.238468 -0.6606033,-8.827283 -2.842145 -0.683937,-8.613287 -2.109316 -0.736039,-8.427131 -1.59274 -0.7505184,-8.881516 -4.36305 -0.1831176,-8.668345 -2.699625 -0.08073384,-8.399329 -1.832712 -0.0969958,-8.153476 -1.22306 -0.08009511,-8.613129 -4.584533 0.1915541,-8.375813 -3.038194 0.2363789,-8.159545 -2.185781 0.2312951,-7.986898 -1.554396 0.2879871,-8.25406 -4.919948 0.5060511,-8.069271 -3.706939 0.5806524,-7.910741 -3.062494 0.6004885,-7.767827 -2.519625 0.648205,1.100,DnF
-2.614901 -5.492141 -1.459343,-2.555238 -4.330986 -1.836891,-2.667468 -3.565687 -1.815653,-2.84142 -3.055817 -1.752632,-3.079773 -2.649233 -1.672415,-2.523509 -3.388631 -0.7013561,-2.760836 -2.298142 -0.3269,-3.090384 -1.764107 -0.2362339,-3.38208 -1.475859 -0.2193511,-2.674563 -3.780303 -0.4030031,-2.971693 -2.560676 0.1257174,-3.347496 -1.993731 0.2211232,-3.685841 -1.646222 0.2524641,-2.883269 -4.231215 -0.1971859,-3.218883 -3.221795 0.2522001,-3.574078 -2.693016 0.355484,-3.880564 -2.340818 0.3849869,-3.118988 -4.692483 -0.06946385,-3.492153 -4.110935 0.3010757,-3.788513 -3.740215 0.4552279,-4.055574 -3.400338 0.550349,-8.655766 -6.679906 -0.4543033,-8.642559 -5.790128 -1.2478,-8.484057 -4.93976 -1.445996,-8.170944 -4.403612 -1.498031,-7.850034 -4.082206 -1.506668,-9.03124 -4.238468 -0.6606033,-8.827283 -2.842145 -0.683937,-8.613287 -2.109316 -0.736039,-8.427131 -1.59274 -0.7505184,-8.881516 -4.36305 -0.1831176,-8.668345 -2.699625 -0.08073384,-8.399329 -1.832712 -0.0969958,-8.153476 -1.22306 -0.08009511,-8.613129 -4.584533 0.1915541,-8.375813 -3.038194 0.2363789,-8.159545 -2.185781 0.2312951,-7.986898 -1.554396 0.2879871,-8.25406 -4.919948 0.5060511,-8.069271 -3.706939 0.5806524,-7.910741 -3.062494 0.6004885,-7.767827 -2.519625 0.648205,1.120,DnF
-2.614901 -5.492141 -1.459343,-2.555238 -4.330986 -1.836891,-2.667468 -3.565687 -1.815653,-2.84142 -3.055817 -1.752632,-3.079773 -2.649233 -1.672415,-2.523509 -3.388631 -0.7013561,-2.760836 -2.298142 -0.3269,-3.090384 -1.764107 -0.2362339,-3.38208 -1.475859 -0.2193511,-2.674563 -3.780303 -0.4030031,-2.971693 -2.560676 0.1257174,-3.347496 -1.993731 0.2211232,-3.685841 -1.646222 0.2524641,-2.883269 -4.231215 -0.1971859,-3.218883 -3.221795 0.2522001,-3.574078 -2.693016 0.355484,-3.880564 -2.340818 0.3849869,-3.118988 -4.692483 -0.06946385,-3.492153 -4.110935 0.3010757,-3.788513 -3.740215 0.4552279,-4.055574 -3.400338 0.550349,-8.655766 -6.679906 -0.4543033,-8.642559 -5.790128 -1.2478,-8.484057 -4.93976 -1.445996,-8.170944 -4.403612 -1.498031,-7.850034 -4.082206 -1.506668,-9.03124 -4.238468 -0.6606033,-8.827283 -2.842145 -0.683937,-8.613287 -2.109316 -0.736039,-8.427131 -1.59274 -0.7505184,-8.881516 -4.36305 -0.1831176,-8.668345 -2.699625 -0.08073384,-8.399329 -1.832712 -0.0969958,-8.153476 -1.22306 -0.08009511,-8.613129 -4.584533 0.1915541,-8.375813 -3.038194 0.2363789,-8.159545 -2.185781 0.2312951,-7.986898 -1.554396 0.2879871,-8.25406 -4.919948 0.5060511,-8.069271 -3.706939 0.5806524,-7.910741 -3.062494 0.6004885,-7.767827 -2.519625 0.648205,1.140,DnF
-2.665469 -5.490936 -1.436875,-2.558669 -4.331291 -1.7979,-2.649752 -3.544469 -1.76719,-2.827961 -3.007019 -1.693187,-3.068266 -2.591693 -1.587913,-2.537167 -3.398412 -0.6618822,-2.76396 -2.272273 -0.2883869,-3.075851 -1.72231 -0.1965528,-3.351315 -1.397659 -0.1888946,-2.699558 -3.776559 -0.3713036,-3.002991 -2.517612 0.1573424,-3.36425 -1.922716 0.2346357,-3.68494 -1.52672 0.2342775,-2.923481 -4.229825 -0.1633428,-3.265251 -3.169733 0.2903773,-3.614017 -2.610004 0.391037,-3.907519 -2.218489 0.4083089,-3.175034 -4.704496 -0.03859341,-3.56426 -4.086596 0.3525567,-3.876476 -3.687997 0.5143876,-4.149405 -3.323839 0.5961376,-8.483212 -6.713366 -0.5993794,-8.648964 -5.843245 -1.406609,-8.564964 -4.999252 -1.643792,-8.298359 -4.462337 -1.740005,-8.026193 -4.09649 -1.822278,-8.8675 -4.334133 -0.7310035,-8.735423 -2.875447 -0.6655129,-8.547185 -2.134473 -0.7262996,-8.358802 -1.597148 -0.7520739,-8.689961 -4.44549 -0.2620433,-8.537184 -2.73631 -0.04282248,-8.287297 -1.812567 -0.01541162,-8.050561 -1.147058 0.0131551,-8.398263 -4.670702 0.09698629,-8.228189 -3.079839 0.2779645,-8.036683 -2.141388 0.3047822,-7.881622 -1.474292 0.3453122,-8.015705 -4.993628 0.388769,-7.852949 -3.727087 0.5428079,-7.693418 -3.019594 0.624958,-7.546122 -2.435822 0.6812706,1.160,DnF
-2.665469 -5.490936 -1.436875,-2.558669 -4.331291 -1.7979,-2.649752 -3.544469 -1.76719,-2.827961 -3.007019 -1.693187,-3.068266 -2.591693 -1.587913,-2.537167 -3.398412 -0.6618822,-2.76396 -2.272273 -0.2883869,-3.075851 -1.72231 -0.1965528,-3.351315 -1.397659 -0.1888946,-2.699558 -3.776559 -0.3713036,-3.002991 -2.517612 0.1573424,-3.36425 -1.922716 0.2346357,-3.68494 -1.52672 0.2342775,-2.923481 -4.229825 -0.1633428,-3.265251 -3.169733 0.2903773,-3.614017 -2.610004 0.391037,-3.907519 -2.218489 0.4083089,-3.175034 -4.704496 -0.03859341,-3.56426 -4.086596 0.3525567,-3.876476 -3.687997 0.5143876,-4.149405 -3.323839 0.5961376,-8.483212 -6.713366 -0.5993794,-8.648964 -5.843245 -1.406609,-8.564964 -4.999252 -1.643792,-8.298359 -4.462337 -1.740005,-8.026193 -4.09649 -1.822278,-8.8675 -4.334133 -0.7310035,-8.735423 -2.875447 -0.6655129,-8.547185 -2.134473 -0.7262996,-8.358802 -1.597148 -0.7520739,-8.689961 -4.44549 -0.2620433,-8.537184 -2.73631 -0.04282248,-8.287297 -1.812567 -0.01541162,-8.050561 -1.147058 0.0131551,-8.398263 -4.670702 0.09698629,-8.228189 -3.079839 0.2779645,-8.036683 -2.141388 0.3047822,-7.881622 -1.474292 0.3453122,-8.015705 -4.993628 0.388769,-7.852949 -3.727087 0.5428079,-7.693418 -3.019594 0.624958,-7.546122 -2.435822 0.6812706,1.180,DnF
-2.665469 -5.490936 -1.436875,-2.558669 -4.331291 -1.7979,-2.649752 -3.544469 -1.76719,-2.827961 -3.007019 -1.693187,-3.068266 -2.591693 -1.587913,-2.537167 -3.398412 -0.6618822,-2.76396 -2.272273 -0.2883869,-3.075851 -1.72231 -0.1965528,-3.351315 -1.397659 -0.1888946,-2.699558 -3.776559 -0.3713036,-3.002991 -2.517612 0.1573424,-3.36425 -1.922716 0.2346357,-3.68494 -1.52672 0.2342775,-2.923481 -4.229825 -0.1633428,-3.265251 -3.169733 0.2903773,-3.614017 -2.610004 0.391037,-3.907519 -2.218489 0.4083089,-3.175034 -4.704496 -0.03859341,-3.56426 -4.086596 0.3525567,-3.876476 -3.687997 0.5143876,-4.149405 -3.323839 0.5961376,-8.483212 -6.713366 -0.5993794,-8.648964 -5.843245 -1.406609,-8.564964 -4.999252 -1.643792,-8.298359 -4.462337 -1.740005,-8.026193 -4.09649 -1.822278,-8.8675 -4.334133 -0.7310035,-8.735423 -2.875447 -0.6655129,-8.547185 -2.134473 -0.7262996,-8.358802 -1.597148 -0.7520739,-8.689961 -4.44549 -0.2620433,-8.537184 -2.73631 -0.04282248,-8.287297 -1.812567 -0.01541162,-8.050561 -1.147058 0.0131551,-8.398263 -4.670702 0.09698629,-8.228189 -3.079839 0.2779645,-8.036683 -2.141388 0.3047822,-7.881622 -1.474292 0.3453122,-8.015705 -4.993628 0.388769,-7.852949 -3.727087 0.5428079,-7.693418 -3.019594 0.624958,-7.546122 -2.435822 0.6812706,1.200,DnF
-2.691371 -5.53959 -1.473032,-2.575054 -4.398345 -1.828485,-2.666405 -3.621106 -1.795432,-2.851734 -3.089836 -1.730734,-3.094601 -2.685763 -1.635623,-2.559821 -3.454677 -0.6794443,-2.768724 -2.311587 -0.3154596,-3.059344 -1.743298 -0.2212476,-3.311234 -1.402349 -0.2045853,-2.741933 -3.840654 -0.4029473,-3.016264 -2.56998 0.1158141,-3.361483 -1.948298 0.1851088,-3.668525 -1.51649 0.183285,-2.978534 -4.281621 -0.2065964,-3.314811 -3.214139 0.2466248,-3.648115 -2.628633 0.3495723,-3.922512 -2.194345 0.3673769,-3.231217 -4.730806 -0.08882344,-3.610327 -4.106729 0.3022932,-3.905699 -3.704331 0.463975,-4.158115 -3.309684 0.54719,-8.278107 -6.619366 -0.5497025,-8.567924 -5.616132 -1.285387,-8.604334 -4.785156 -1.473384,-8.534809 -4.144277 -1.544503,-8.369593 -3.714714 -1.609689,-8.69166 -4.244226 -0.5005389,-8.585064 -2.834891 -0.3631539,-8.394549 -2.117337 -0.4119467,-8.228637 -1.584593 -0.4588089,-8.48497 -4.358834 -0.08864534,-8.376678 -2.719514 0.2351402,-8.13362 -1.835644 0.2467716,-7.929554 -1.189214 0.2233086,-8.197042 -4.572484 0.2284384,-8.059699 -3.039428 0.5017345,-7.885407 -2.133786 0.5286016,-7.758861 -1.476883 0.5328828,-7.845998 -4.885629 0.4620767,-7.657516 -3.712244 0.6768978,-7.502337 -3.04034 0.7688379,-7.368798 -2.46156 0.80797,1.220,DnF
-2.691371 -5.53959 -1.473032,-2.575054 -4.398345 -1.828485,-2.666405 -3.621106 -1.795432,-2.851734 -3.089836 -1.730734,-3.094601 -2.685763 -1.635623,-2.559821 -3.454677 -0.6794443,-2.768724 -2.311587 -0.3154596,-3.059344 -1.743298 -0.2212476,-3.311234 -1.402349 -0.2045853,-2.741933 -3.840654 -0.4029473,-3.016264 -2.56998 0.1158141,-3.361483 -1.948298 0.1851088,-3.668525 -1.51649 0.183285,-2.978534 -4.281621 -0.2065964,-3.314811 -3.214139 0.2466248,-3.648115 -2.628633 0.3495723,-3.922512 -2.194345 0.3673769,-3.231217 -4.730806 -0.08882344,-3.610327 -4.106729 0.3022932,-3.905699 -3.704331 0.463975,-4.158115 -3.309684 0.54719,-8.278107 -6.619366 -0.5497025,-8.567924 -5.616132 -1.285387,-8.604334 -4.785156 -1.473384,-8.534809 -4.144277 -1.544503,-8.369593 -3.714714 -1.609689,-8.69166 -4.244226 -0.5005389,-8.585064 -2.834891 -0.3631539,-8.394549 -2.117337 -0.4119467,-8.228637 -1.584593 -0.4588089,-8.48497 -4.358834 -0.08864534,-8.376678 -2.719514 0.2351402,-8.13362 -1.835644 0.2467716,-7.929554 -1.189214 0.2233086,-8.197042 -4.572484 0.2284384,-8.059699 -3.039428 0.5017345,-7.885407 -2.133786 0.5286016,-7.758861 -1.476883 0.5328828,-7.845998 -4.885629 0.4620767,-7.657516 -3.712244 0.6768978,-7.502337 -3.04034 0.7688379,-7.368798 -2.46156 0.80797,1.240,DnF
-2.691371 -5.53959 -1.473032,-2.575054 -4.398345 -1.828485,-2.666405 -3.621106 -1.795432,-2.851734 -3.089836 -1.730734,-3.094601 -2.685763 -1.635623,-2.559821 -3.454677 -0.6794443,-2.768724 -2.311587 -0.3154596,-3.059344 -1.743298 -0.2212476,-3.311234 -1.402349 -0.2045853,-2.741933 -3.840654 -0.4029473,-3.016264 -2.56998 0.1158141,-3.361483 -1.948298 0.1851088,-3.668525 -1.51649 0.183285,-2.978534 -4.281621 -0.2065964,-3.314811 -3.214139 0.2466248,-3.648115 -2.628633 0.3495723,-3.922512 -2.194345 0.3673769,-3.231217 -4.730806 -0.08882344,-3.610327 -4.106729 0.3022932,-3.905699 -3.704331 0.463975,-4.158115 -3.309684 0.54719,-8.278107 -6.619366 -0.5497025,-8.567924 -5.616132 -1.285387,-8.604334 -4.785156 -1.473384,-8.534809 -4.144277 -1.544503,-8.369593 -3.714714 -1.609689,-8.69166 -4.244226 -0.5005389,-8.585064 -2.834891 -0.3631539,-8.394549 -2.117337 -0.4119467,-8.228637 -1.584593 -0.4588089,-8.48497 -4.358834 -0.08864534,-8.376678 -2.719514 0.2351402,-8.13362 -1.835644 0.2467716,-7.929554 -1.189214 0.2233086,-8.197042 -4.572484 0.2284384,-8.059699 -3.039428 0.5017345,-7.885407 -2.133786 0.5286016,-7.758861 -1.476883 0.5328828,-7.845998 -4.885629 0.4620767,-7.657516 -3.712244 0.6768978,-7.502337 -3.04034 0.7688379,-7.368798 -2.46156 0.80797,1.260,DnF
-2.717591 -5.608514 -1.44299,-2.593464 -4.470989 -1.793521,-2.678031 -3.678978 -1.746982,-2.865073 -3.126994 -1.669188,-3.108377 -2.706665 -1.561173,-2.548996 -3.523141 -0.6307865,-2.765646 -2.355846 -0.2484673,-3.058229 -1.773649 -0.136991,-3.310177 -1.41877 -0.1124103,-2.72856 -3.914331 -0.348344,-3.034286 -2.614061 0.1880097,-3.397221 -1.990187 0.2573719,-3.713444 -1.564929 0.2530032,-2.96804 -4.363559 -0.1436502,-3.325191 -3.268341 0.3236507,-3.67163 -2.676887 0.4169234,-3.949764 -2.25215 0.427529,-3.229782 -4.822862 -0.0160203,-3.615165 -4.171708 0.3885492,-3.915853 -3.7628 0.5584849,-4.169115 -3.360797 0.6441644,-8.209926 -6.529424 -0.6883073,-8.455975 -5.49938 -1.453051,-8.538576 -4.630051 -1.66055,-8.589268 -3.910587 -1.731149,-8.583938 -3.343849 -1.801978,-8.578694 -4.160689 -0.6730248,-8.482047 -2.787735 -0.5356061,-8.289732 -2.038865 -0.5459335,-8.105774 -1.474285 -0.5522709,-8.410761 -4.309608 -0.2236487,-8.278577 -2.760824 0.06091595,-8.051023 -1.884383 0.1001018,-7.84437 -1.262369 0.1147424,-8.146173 -4.569423 0.1227644,-7.967653 -3.102603 0.3889588,-7.794858 -2.19202 0.4660791,-7.65523 -1.540892 0.4925866,-7.813002 -4.932357 0.3799472,-7.574534 -3.811651 0.6465096,-7.407462 -3.141981 0.7851574,-7.259019 -2.57074 0.8625243,1.280,DnF
-2.717591 -5.608514 -1.44299,-2.593464 -4.470989 -1.793521,-2.678031 -3.678978 -1.746982,-2.865073 -3.126994 -1.669188,-3.108377 -2.706665 -1.561173,-2.548996 -3.523141 -0.6307865,-2.765646 -2.355846 -0.2484673,-3.058229 -1.773649 -0.136991,-3.310177 -1.41877 -0.1124103,-2.72856 -3.914331 -0.348344,-3.034286 -2.614061 0.1880097,-3.397221 -1.990187 0.2573719,-3.713444 -1.564929 0.2530032,-2.96804 -4.363559 -0.1436502,-3.325191 -3.268341 0.3236507,-3.67163 -2.676887 0.4169234,-3.949764 -2.25215 0.427529,-3.229782 -4.822862 -0.0160203,-3.615165 -4.171708 0.3885492,-3.915853 -3.7628 0.5584849,-4.169115 -3.360797 0.6441644,-8.209926 -6.529424 -0.6883073,-8.455975 -5.49938 -1.453051,-8.538576 -4.630051 -1.66055,-8.589268 -3.910587 -1.731149,-8.583938 -3.343849 -1.801978,-8.578694 -4.160689 -0.6730248,-8.482047 -2.787735 -0.5356061,-8.289732 -2.038865 -0.5459335,-8.105774 -1.474285 -0.5522709,-8.410761 -4.309608 -0.2236487,-8.278577 -2.760824 0.06091595,-8.051023 -1.884383 0.1001018,-7.84437 -1.262369 0.1147424,-8.146173 -4.569423 0.1227644,-7.967653 -3.102603 0.3889588,-7.794858 -2.19202 0.4660791,-7.65523 -1.540892 0.4925866,-7.813002 -4.932357 0.3799472,-7.574534 -3.811651 0.6465096,-7.407462 -3.141981 0.7851574,-7.259019 -2.57074 0.8625243,1.300,DnF
-2.717591 -5.608514 -1.44299,-2.593464 -4.470989 -1.793521,-2.678031 -3.678978 -1.746982,-2.865073 -3.126994 -1.669188,-3.108377 -2.706665 -1.561173,-2.548996 -3.523141 -0.6307865,-2.765646 -2.355846 -0.2484673,-3.058229 -1.773649 -0.136991,-3.310177 -1.41877 -0.1124103,-2.72856 -3.914331 -0.348344,-3.034286 -2.614061 0.1880097,-3.397221 -1.990187 0.2573719,-3.713444 -1.564929 0.2530032,-2.96804 -4.363559 -0.1436502,-3.325191 -3.268341 0.3236507,-3.67163 -2.676887 0.4169234,-3.949764 -2.25215 0.427529,-3.229782 -4.822862 -0.0160203,-3.615165 -4.171708 0.3885492,-3.915853 -3.7628 0.5584849,-4.169115 -3.360797 0.6441644,-8.209926 -6.529424 -0.6883073,-8.455975 -5.49938 -1.453051,-8.538576 -4.630051 -1.66055,-8.589268 -3.910587 -1.731149,-8.583938 -3.343849 -1.801978,-8.578694 -4.160689 -0.6730248,-8.482047 -2.787735 -0.5356061,-8.289732 -2.038865 -0.5459335,-8.105774 -1.474285 -0.5522709,-8.410761 -4.309608 -0.2236487,-8.278577 -2.760824 0.06091595,-8.051023 -1.884383 0.1001018,-7.84437 -1.262369 0.1147424,-8.146173 -4.569423 0.1227644,-7.967653 -3.102603 0.3889588,-7.794858 -2.19202 0.4660791,-7.65523 -1.540892 0.4925866,-7.813002 -4.932357 0.3799472,-7.574534 -3.811651 0.6465096,-7.407462 -3.141981 0.7851574,-7.259019 -2.57074 0.8625243,1.320,DnF
-2.705467 -5.66525 -1.42478,-2.605093 -4.526178 -1.794265,-2.699739 -3.732473 -1.77214,-2.882125 -3.184021 -1.709733,-3.110538 -2.758472 -1.613687,-2.581667 -3.543911 -0.6686834,-2.795444 -2.39046 -0.2936263,-3.085429 -1.828968 -0.1917386,-3.338139 -1.484755 -0.1753449,-2.752553 -3.93368 -0.3812635,-3.045083 -2.663333 0.1506244,-3.397492 -2.055743 0.2139664,-3.709589 -1.629784 0.194285,-2.980988 -4.388656 -0.1710045,-3.328678 -3.308626 0.297701,-3.670644 -2.735814 0.3987173,-3.952847 -2.308229 0.3986952,-3.235573 -4.85361 -0.0389601,-3.614594 -4.203823 0.3610108,-3.911111 -3.801363 0.5264589,-4.1649 -3.409157 0.6011825,-8.210877 -6.466116 -0.917845,-8.462806 -5.513453 -1.673415,-8.542188 -4.64103 -1.881672,-8.550599 -3.918376 -1.96162,-8.497716 -3.367042 -2.044079,-8.554624 -4.172445 -0.873152,-8.449778 -2.794685 -0.7470369,-8.248532 -2.052198 -0.7809932,-8.067185 -1.518304 -0.8202057,-8.384561 -4.310791 -0.455493,-8.235346 -2.755185 -0.2010384,-8.000313 -1.903741 -0.2145022,-7.801615 -1.310739 -0.2258611,-8.12351 -4.55125 -0.1426984,-7.932756 -3.110461 0.09167683,-7.746714 -2.228485 0.1325811,-7.596725 -1.602228 0.1314989,-7.796231 -4.900614 0.0821681,-7.536414 -3.833537 0.3113422,-7.358628 -3.208833 0.4128791,-7.201249 -2.666092 0.4682152,1.340,DnF
-2.705467 -5.66525 -1.42478,-2.605093 -4.526178 -1.794265,-2.699739 -3.732473 -1.77214,-2.882125 -3.184021 -1.709733,-3.110538 -2.758472 -1.613687,-2.581667 -3.543911 -0.6686834,-2.795444 -2.39046 -0.2936263,-3.085429 -1.828968 -0.1917386,-3.338139 -1.484755 -0.1753449,-2.752553 -3.93368 -0.3812635,-3.045083 -2.663333 0.1506244,-3.397492 -2.055743 0.2139664,-3.709589 -1.629784 0.194285,-2.980988 -4.388656 -0.1710045,-3.328678 -3.308626 0.297701,-3.670644 -2.735814 0.3987173,-3.952847 -2.308229 0.3986952,-3.235573 -4.85361 -0.0389601,-3.614594 -4.203823 0.3610108,-3.911111 -3.801363 0.5264589,-4.1649 -3.409157 0.6011825,-8.210877 -6.466116 -0.917845,-8.462806 -5.513453 -1.673415,-8.542188 -4.64103 -1.881672,-8.550599 -3.918376 -1.96162,-8.497716 -3.367042 -2.044079,-8.554624 -4.172445 -0.873152,-8.449778 -2.794685 -0.7470369,-8.248532 -2.052198 -0.7809932,-8.067185 -1.518304 -0.8202057,-8.384561 -4.310791 -0.455493,-8.235346 -2.755185 -0.2010384,-8.000313 -1.903741 -0.2145022,-7.801615 -1.310739 -0.2258611,-8.12351 -4.55125 -0.1426984,-7.932756 -3.110461 0.09167683,-7.746714 -2.228485 0.1325811,-7.596725 -1.602228 0.1314989,-7.796231 -4.900614 0.0821681,-7.536414 -3.833537 0.3113422,-7.358628 -3.208833 0.4128791,-7.201249 -2.666092 0.4682152,1.360,DnF
-2.705467 -5.66525 -1.42478,-2.605093 -4.526178 -1.794265,-2.699739 -3.732473 -1.77214,-2.882125 -3.184021 -1.709733,-3.110538 -2.758472 -1.613687,-2.581667 -3.543911 -0.6686834,-2.795444 -2.39046 -0.2936263,-3.085429 -1.828968 -0.1917386,-3.338139 -1.484755 -0.1753449,-2.752553 -3.93368 -0.3812635,-3.045083 -2.663333 0.1506244,-3.397492 -2.055743 0.2139664,-3.709589 -1.629784 0.194285,-2.980988 -4.388656 -0.1710045,-3.328678 -3.308626 0.297701,-3.670644 -2.735814 0.3987173,-3.952847 -2.308229 0.3986952,-3.235573 -4.85361 -0.0389601,-3.614594 -4.203823 0.3610108,-3.911111 -3.801363 0.5264589,-4.1649 -3.409157 0.6011825,-8.210877 -6.466116 -0.917845,-8.462806 -5.513453 -1.673415,-8.542188 -4.64103 -1.881672,-8.550599 -3.918376 -1.96162,-8.497716 -3.367042 -2.044079,-8.554624 -4.172445 -0.873152,-8.449778 -2.794685 -0.7470369,-8.248532 -2.052198 -0.7809932,-8.067185 -1.518304 -0.8202057,-8.384561 -4.310791 -0.455493,-8.235346 -2.755185 -0.2010384,-8.000313 -1.903741 -0.2145022,-7.801615 -1.310739 -0.2258611,-8.12351 -4.55125 -0.1426984,-7.932756 -3.110461 0.09167683,-7.746714 -2.228485 0.1325811,-7.596725 -1.602228 0.1314989,-7.796231 -4.900614 0.0821681,-7.536414 -3.833537 0.3113422,-7.358628 -3.208833 0.4128791,-7.201249 -2.666092 0.4682152,1.380,DnF
-2.690672 -5.706769 -1.312302,-2.595592 -4.549629 -1.688053,-2.69296 -3.769939 -1.642016,-2.881214 -3.236545 -1.561878,-3.128603 -2.815768 -1.452313,-2.565295 -3.564289 -0.5328351,-2.776587 -2.417953 -0.1607066,-3.066057 -1.860258 -0.0619961,-3.314741 -1.518363 -0.05046988,-2.734682 -3.952231 -0.2445053,-3.039398 -2.682541 0.2867832,-3.400167 -2.08107 0.3441164,-3.714487 -1.671068 0.3255596,-2.964317 -4.39431 -0.04084492,-3.31828 -3.323207 0.420068,-3.659958 -2.748874 0.4982786,-3.940922 -2.335845 0.4934028,-3.215271 -4.837682 0.08658421,-3.591726 -4.193417 0.468695,-3.879841 -3.807649 0.6135314,-4.12772 -3.433662 0.6789623,-8.231856 -6.449489 -1.073914,-8.472893 -5.532556 -1.822057,-8.551497 -4.66525 -2.029674,-8.578458 -3.944966 -2.112031,-8.562252 -3.383052 -2.198252,-8.555526 -4.199744 -1.037512,-8.458068 -2.851802 -0.9121005,-8.259184 -2.128454 -0.9544327,-8.076484 -1.603778 -1.011312,-8.385976 -4.335672 -0.6244954,-8.231975 -2.815554 -0.3552149,-8.004836 -1.971758 -0.3484745,-7.806263 -1.370616 -0.3569992,-8.128093 -4.571884 -0.3178816,-7.936387 -3.146772 -0.08018142,-7.753187 -2.282297 -0.04333389,-7.59606 -1.666663 -0.05333471,-7.801085 -4.910049 -0.1009716,-7.540302 -3.844642 0.1238793,-7.36336 -3.227407 0.2180705,-7.205919 -2.696708 0.2621346,1.400,DnF
-2.690672 -5.706769 -1.312302,-2.595592 -4.549629 -1.688053,-2.69296 -3.769939 -1.642016,-2.881214 -3.236545 -1.561878,-3.128603 -2.815768 -1.452313,-2.565295 -3.564289 -0.5328351,-2.776587 -2.417953 -0.1607066,-3.066057 -1.860258 -0.0619961,-3.314741 -1.518363 -0.05046988,-2.734682 -3.952231 -0.2445053,-3.039398 -2.682541 0.2867832,-3.400167 -2.08107 0.3441164,-3.714487 -1.671068 0.3255596,-2.964317 -4.39431 -0.04084492,-3.31828 -3.323207 0.420068,-3.659958 -2.748874 0.4982786,-3.940922 -2.335845 0.4934028,-3.215271 -4.837682 0.08658421,-3.591726 -4.193417 0.468695,-3.879841 -3.807649 0.6135314,-4.12772 -3.433662 0.6789623,-8.231856 -6.449489 -1.073914,-8.472893 -5.532556 -1.822057,-8.551497 -4.66525 -2.029674,-8.578458 -3.944966 -2.112031,-8.562252 -3.383052 -2.198252,-8.555526 -4.199744 -1.037512,-8.458068 -2.851802 -0.9121005,-8.259184 -2.128454 -0.9544327,-8.076484 -1.603778 -1.011312,-8.385976 -4.335672 -0.6244954,-8.231975 -2.815554 -0.3552149,-8.004836 -1.971758 -0.3484745,-7.806263 -1.370616 -0.3569992,-8.128093 -4.571884 -0.3178816,-7.936387 -3.146772 -0.08018142,-7.753187 -2.282297 -0.04333389,-7.59606 -1.666663 -0.05333471,-7.801085 -4.910049 -0.1009716,-7.540302 -3.844642 0.1238793,-7.36336 -3.227407 0.2180705,-7.205919 -2.696708 0.2621346,1.420,DnF
-2.690672 -5.706769 -1.312302,-2.595592 -4.549629 -1.688053,-2.69296 -3.769939 -1.642016,-2.881214 -3.236545 -1.561878,-3.128603 -2.815768 -1.452313,-2.565295 -3.564289 -0.5328351,-2.776587 -2.417953 -0.1607066,-3.066057 -1.860258 -0.0619961,-3.314741 -1.518363 -0.05046988,-2.734682 -3.952231 -0.2445053,-3.039398 -2.682541 0.2867832,-3.400167 -2.08107 0.3441164,-3.714487 -1.671068 0.3255596,-2.964317 -4.39431 -0.04084492,-3.31828 -3.323207 0.420068,-3.659958 -2.748874 0.4982786,-3.940922 -2.335845 0.4934028,-3.215271 -4.837682 0.08658421,-3.591726 -4.193417 0.468695,-3.879841 -3.807649 0.6135314,-4.12772 -3.433662 0.6789623,-8.231856 -6.449489 -1.073914,-8.472893 -5.532556 -1.822057,-8.551497 -4.66525 -2.029674,-8.578458 -3.944966 -2.112031,-8.562252 -3.383052 -2.198252,-8.555526 -4.199744 -1.037512,-8.458068 -2.851802 -0.9121005,-8.259184 -2.128454 -0.9544327,-8.076484 -1.603778 -1.011312,-8.385976 -4.335672 -0.6244954,-8.231975 -2.815554 -0.3552149,-8.004836 -1.971758 -0.3484745,-7.806263 -1.370616 -0.3569992,-8.128093 -4.571884 -0.3178816,-7.936387 -3.146772 -0.08018142,-7.753187 -2.282297 -0.04333389,-7.59606 -1.666663 -0.05333471,-7.801085 -4.910049 -0.1009716,-7.540302 -3.844642 0.1238793,-7.36336 -3.227407 0.2180705,-7.205919 -2.696708 0.2621346,1.440,DnF
-2.684248 -5.771154 -1.549947,-2.574182 -4.631656 -1.932498,-2.679767 -3.850342 -1.940246,-2.88764 -3.321955 -1.914849,-3.135375 -2.940605 -1.864857,-2.572559 -3.660083 -0.8804882,-2.791045 -2.508127 -0.5456306,-3.075645 -1.963053 -0.4563221,-3.328079 -1.620091 -0.4379919,-2.741591 -4.02075 -0.6124419,-3.043276 -2.75495 -0.1229163,-3.393299 -2.171245 -0.06498557,-3.703803 -1.76198 -0.08211046,-2.966656 -4.448654 -0.4197951,-3.328547 -3.380232 0.003296673,-3.667805 -2.837487 0.08285254,-3.946232 -2.425594 0.08011836,-3.21352 -4.897216 -0.3020046,-3.595808 -4.259618 0.05240184,-3.884724 -3.893052 0.1977207,-4.132728 -3.523073 0.2655781,-8.228897 -6.442441 -1.256157,-8.449092 -5.56425 -2.018722,-8.512123 -4.731313 -2.243187,-8.51724 -4.060768 -2.339778,-8.47266 -3.524402 -2.447071,-8.553058 -4.247366 -1.239611,-8.465226 -2.911939 -1.109863,-8.267162 -2.19996 -1.149771,-8.078582 -1.701801 -1.199755,-8.395927 -4.381025 -0.8158643,-8.244593 -2.865608 -0.5557659,-8.012546 -2.036903 -0.5645061,-7.810629 -1.470552 -0.5852469,-8.142711 -4.615989 -0.4918448,-7.947696 -3.196743 -0.2638461,-7.759395 -2.345525 -0.2367489,-7.602149 -1.748265 -0.2553769,-7.82374 -4.943744 -0.2603613,-7.572975 -3.881956 -0.03208816,-7.398756 -3.262805 0.06540656,-7.245112 -2.729221 0.1002671,1.460,DnF
-2.684248 -5.771154 -1.549947,-2.574182 -4.631656 -1.932498,-2.679767 -3.850342 -1.940246,-2.88764 -3.321955 -1.914849,-3.135375 -2.940605 -1.864857,-2.572559 -3.660083 -0.8804882,-2.791045 -2.508127 -0.5456306,-3.075645 -1.963053 -0.4563221,-3.328079 -1.620091 -0.4379919,-2.741591 -4.02075 -0.6124419,-3.043276 -2.75495 -0.1229163,-3.393299 -2.171245 -0.06498557,-3.703803 -1.76198 -0.08211046,-2.966656 -4.448654 -0.4197951,-3.328547 -3.380232 0.003296673,-3.667805 -2.837487 0.08285254,-3.946232 -2.425594 0.08011836,-3.21352 -4.897216 -0.3020046,-3.595808 -4.259618 0.05240184,-3.884724 -3.893052 0.1977207,-4.132728 -3.523073 0.2655781,-8.228897 -6.442441 -1.256157,-8.449092 -5.56425 -2.018722,-8.512123 -4.731313 -2.243187,-8.51724 -4.060768 -2.339778,-8.47266 -3.524402 -2.447071,-8.553058 -4.247366 -1.239611,-8.465226 -2.911939 -1.109863,-8.267162 -2.19996 -1.149771,-8.078582 -1.701801 -1.199755,-8.395927 -4.381025 -0.8158643,-8.244593 -2.865608 -0.5557659,-8.012546 -2.036903 -0.5645061,-7.810629 -1.470552 -0.5852469,-8.142711 -4.615989 -0.4918448,-7.947696 -3.196743 -0.2638461,-7.759395 -2.345525 -0.2367489,-7.602149 -1.748265 -0.2553769,-7.82374 -4.943744 -0.2603613,-7.572975 -3.881956 -0.03208816,-7.398756 -3.262805 0.06540656,-7.245112 -2.729221 0.1002671,1.480,DnF
-2.684248 -5.771154 -1.549947,-2.574182 -4.631656 -1.932498,-2.679767 -3.850342 -1.940246,-2.88764 -3.321955 -1.914849,-3.135375 -2.940605 -1.864857,-2.572559 -3.660083 -0.8804882,-2.791045 -2.508127 -0.5456306,-3.075645 -1.963053 -0.4563221,-3.328079 -1.620091 -0.4379919,-2.741591 -4.02075 -0.6124419,-3.043276 -2.75495 -0.1229163,-3.393299 -2.171245 -0.06498557,-3.703803 -1.76198 -0.08211046,-2.966656 -4.448654 -0.4197951,-3.328547 -3.380232 0.003296673,-3.667805 -2.837487 0.08285254,-3.946232 -2.425594 0.08011836,-3.21352 -4.897216 -0.3020046,-3.595808 -4.259618 0.05240184,-3.884724 -3.893052 0.1977207,-4.132728 -3.523073 0.2655781,-8.228897 -6.442441 -1.256157,-8.449092 -5.56425 -2.018722,-8.512123 -4.731313 -2.243187,-8.51724 -4.060768 -2.339778,-8.47266 -3.524402 -2.447071,-8.553058 -4.247366 -1.239611,-8.465226 -2.911939 -1.109863,-8.267162 -2.19996 -1.149771,-8.078582 -1.701801 -1.199755,-8.395927 -4.381025 -0.8158643,-8.244593 -2.865608 -0.5557659,-8.012546 -2.036903 -0.5645061,-7.810629 -1.470552 -0.5852469,-8.142711 -4.615989 -0.4918448,-7.947696 -3.196743 -0.2638461,-7.759395 -2.345525 -0.2367489,-7.602149 -1.748265 -0.2553769,-7.82374 -4.943744 -0.2603613,-7.572975 -3.881956 -0.03208816,-7.398756 -3.262805 0.06540656,-7.245112 -2.729221 0.1002671,1.500,DnF
-2.793082 -5.897572 -1.788569,-2.63995 -4.824771 -2.127434,-2.725104 -4.017722 -2.165206,-2.944429 -3.483459 -2.180305,-3.194709 -3.136125 -2.19431,-2.665349 -3.849546 -1.244257,-2.899487 -2.727991 -0.9800736,-3.161132 -2.211037 -0.9263672,-3.398133 -1.875757 -0.9073228,-2.840175 -4.142832 -1.014865,-3.174683 -2.910255 -0.6136134,-3.499525 -2.365374 -0.5736256,-3.783604 -1.987626 -0.603122,-3.070463 -4.522882 -0.8480074,-3.474293 -3.484065 -0.5109398,-3.78669 -3.018125 -0.4934764,-4.031016 -2.69755 -0.5448077,-3.323734 -4.94827 -0.7436068,-3.708931 -4.326325 -0.446022,-3.987847 -3.985827 -0.341143,-4.219205 -3.6837 -0.3028055,-8.229322 -6.515542 -1.006653,-8.443886 -5.60297 -1.773047,-8.495643 -4.790979 -1.996345,-8.484135 -4.141639 -2.096047,-8.427833 -3.588195 -2.205875,-8.516399 -4.340881 -1.012153,-8.465226 -2.911939 -0.8602923,-8.267162 -2.19996 -0.9002002,-8.078582 -1.701801 -0.9501836,-8.395927 -4.381025 -0.5662934,-8.244593 -2.865608 -0.3061949,-8.012546 -2.036903 -0.3149351,-7.810629 -1.470552 -0.335676,-8.142711 -4.615989 -0.2422738,-7.947696 -3.196743 -0.01427513,-7.759395 -2.345525 0.01282203,-7.602149 -1.748265 -0.005805969,-7.82374 -4.943744 -0.01079035,-7.572975 -3.881956 0.2174828,-7.398756 -3.262805 0.3149775,-7.245112 -2.729221 0.349838,1.520,DnF
-2.793082 -5.897572 -1.788569,-2.63995 -4.824771 -2.127434,-2.725104 -4.017722 -2.165206,-2.944429 -3.483459 -2.180305,-3.194709 -3.136125 -2.19431,-2.665349 -3.849546 -1.244257,-2.899487 -2.727991 -0.9800736,-3.161132 -2.211037 -0.9263672,-3.398133 -1.875757 -0.9073228,-2.840175 -4.142832 -1.014865,-3.174683 -2.910255 -0.6136134,-3.499525 -2.365374 -0.5736256,-3.783604 -1.987626 -0.603122,-3.070463 -4.522882 -0.8480074,-3.474293 -3.484065 -0.5109398,-3.78669 -3.018125 -0.4934764,-4.031016 -2.69755 -0.5448077,-3.323734 -4.94827 -0.7436068,-3.708931 -4.326325 -0.446022,-3.987847 -3.985827 -0.341143,-4.219205 -3.6837 -0.3028055,-8.229322 -6.515542 -1.368919,-8.443886 -5.60297 -2.135313,-8.495643 -4.790979 -2.358611,-8.484135 -4.141639 -2.458313,-8.427833 -3.588195 -2.568142,-8.516399 -4.340881 -1.37442,-8.39744 -3.054903 -1.252436,-8.197219 -2.377619 -1.280362,-8.018681 -1.892081 -1.327543,-8.345916 -4.478479 -0.9531736,-8.170628 -3.007712 -0.6848192,-7.926697 -2.204262 -0.6615493,-7.714355 -1.629141 -0.6638749,-8.096482 -4.715112 -0.6370896,-7.885586 -3.35389 -0.3913465,-7.698861 -2.514718 -0.3553166,-7.543523 -1.905096 -0.3661208,-7.789142 -5.047279 -0.4065111,-7.53157 -4.017626 -0.2030132,-7.35987 -3.405625 -0.1282107,-7.204577 -2.877558 -0.09485602,1.540,DnF
-2.793082 -5.897572 -1.788569,-2.63995 -4.824771 -2.127434,-2.725104 -4.017722 -2.165206,-2.944429 -3.483459 -2.180305,-3.194709 -3.136125 -2.19431,-2.665349 -3.849546 -1.244257,-2.899487 -2.727991 -0.9800736,-3.161132 -2.211037 -0.9263672,-3.398133 -1.875757 -0.9073228,-2.840175 -4.142832 -1.014865,-3.174683 -2.910255 -0.6136134,-3.499525 -2.365374 -0.5736256,-3.783604 -1.987626 -0.603122,-3.070463 -4.522882 -0.8480074,-3.474293 -3.484065 -0.5109398,-3.78669 -3.018125 -0.4934764,-4.031016 -2.69755 -0.5448077,-3.323734 -4.94827 -0.7436068,-3.708931 -4.326325 -0.446022,-3.987847 -3.985827 -0.341143,-4.219205 -3.6837 -0.3028055,-8.229322 -6.515542 -1.368919,-8.443886 -5.60297 -2.135313,-8.495643 -4.790979 -2.358611,-8.484135 -4.141639 -2.458313,-8.427833 -3.588195 -2.568142,-8.516399 -4.340881 -1.37442,-8.39744 -3.054903 -1.252436,-8.197219 -2.377619 -1.280362,-8.018681 -1.892081 -1.327543,-8.345916 -4.478479 -0.9531736,-8.170628 -3.007712 -0.6848192,-7.926697 -2.204262 -0.6615493,-7.714355 -1.629141 -0.6638749,-8.096482 -4.715112 -0.6370896,-7.885586 -3.35389 -0.3913465,-7.698861 -2.514718 -0.3553166,-7.543523 -1.905096 -0.3661208,-7.789142 -5.047279 -0.4065111,-7.53157 -4.017626 -0.2030132,-7.35987 -3.405625 -0.1282107,-7.204577 -2.877558 -0.09485602,1.560,DnF
-2.793082 -5.897572 -1.788569,-2.63995 -4.824771 -2.127434,-2.725104 -4.017722 -2.165206,-2.944429 -3.483459 -2.180305,-3.194709 -3.136125 -2.19431,-2.665349 -3.849546 -1.244257,-2.899487 -2.727991 -0.9800736,-3.161132 -2.211037 -0.9263672,-3.398133 -1.875757 -0.9073228,-2.840175 -4.142832 -1.014865,-3.174683 -2.910255 -0.6136134,-3.499525 -2.365374 -0.5736256,-3.783604 -1.987626 -0.603122,-3.070463 -4.522882 -0.8480074,-3.474293 -3.484065 -0.5109398,-3.78669 -3.018125 -0.4934764,-4.031016 -2.69755 -0.5448077,-3.323734 -4.94827 -0.7436068,-3.708931 -4.326325 -0.446022,-3.987847 -3.985827 -0.341143,-4.219205 -3.6837 -0.3028055,-8.229322 -6.515542 -1.368919,-8.443886 -5.60297 -2.135313,-8.495643 -4.790979 -2.358611,-8.484135 -4.141639 -2.458313,-8.427833 -3.588195 -2.568142,-8.516399 -4.340881 -1.37442,-8.39744 -3.054903 -1.252436,-8.197219 -2.377619 -1.280362,-8.018681 -1.892081 -1.327543,-8.345916 -4.478479 -0.9531736,-8.170628 -3.007712 -0.6848192,-7.926697 -2.204262 -0.6615493,-7.714355 -1.629141 -0.6638749,-8.096482 -4.715112 -0.6370896,-7.885586 -3.35389 -0.3913465,-7.698861 -2.514718 -0.3553166,-7.543523 -1.905096 -0.3661208,-7.789142 -5.047279 -0.4065111,-7.53157 -4.017626 -0.2030132,-7.35987 -3.405625 -0.1282107,-7.204577 -2.877558 -0.09485602,1.580,DnF
-2.865006 -5.923934 -1.857654,-2.732379 -4.878383 -2.244002,-2.828207 -4.104326 -2.312188,-3.049156 -3.588564 -2.339548,-3.294687 -3.252841 -2.345034,-2.773363 -3.883391 -1.427692,-2.977275 -2.813591 -1.2053,-3.226936 -2.315782 -1.167817,-3.469704 -2.004467 -1.165902,-2.942103 -4.151664 -1.181046,-3.252741 -2.962815 -0.8280551,-3.569487 -2.427978 -0.8055708,-3.856602 -2.080944 -0.8418074,-3.159279 -4.507046 -0.9995836,-3.544281 -3.507165 -0.7052492,-3.84532 -3.049023 -0.7120669,-4.098025 -2.741519 -0.7780567,-3.393316 -4.920072 -0.887475,-3.772366 -4.327396 -0.6316208,-4.047798 -3.992752 -0.5624756,-4.293067 -3.706081 -0.5494468,-8.197961 -6.476846 -1.460059,-8.393388 -5.561842 -2.203665,-8.417103 -4.7579 -2.413825,-8.394185 -4.1187 -2.487023,-8.330486 -3.626542 -2.563833,-8.454742 -4.325628 -1.474388,-8.322545 -3.067226 -1.349004,-8.131558 -2.390604 -1.350881,-7.95285 -1.892725 -1.362921,-8.298506 -4.46363 -1.053732,-8.104057 -3.026304 -0.7833295,-7.8606 -2.211745 -0.7561695,-7.649527 -1.639176 -0.7516457,-8.060946 -4.702268 -0.7294484,-7.832859 -3.341895 -0.4988253,-7.634779 -2.509386 -0.4527297,-7.47675 -1.907279 -0.4442886,-7.758807 -5.046001 -0.4947957,-7.502275 -4.006092 -0.2837948,-7.330359 -3.408413 -0.1899192,-7.176617 -2.90266 -0.1499532,1.600,DnF
-2.865006 -5.923934 -1.857654,-2.732379 -4.878383 -2.244002,-2.828207 -4.104326 -2.312188,-3.049156 -3.588564 -2.339548,-3.294687 -3.252841 -2.345034,-2.773363 -3.883391 -1.427692,-2.977275 -2.813591 -1.2053,-3.226936 -2.315782 -1.167817,-3.469704 -2.004467 -1.165902,-2.942103 -4.151664 -1.181046,-3.252741 -2.962815 -0.8280551,-3.569487 -2.427978 -0.8055708,-3.856602 -2.080944 -0.8418074,-3.159279 -4.507046 -0.9995836,-3.544281 -3.507165 -0.7052492,-3.84532 -3.049023 -0.7120669,-4.098025 -2.741519 -0.7780567,-3.393316 -4.920072 -0.887475,-3.772366 -4.327396 -0.6316208,-4.047798 -3.992752 -0.5624756,-4.293067 -3.706081 -0.5494468,-8.197961 -6.476846 -1.460059,-8.393388 -5.561842 -2.203665,-8.417103 -4.7579 -2.413825,-8.394185 -4.1187 -2.487023,-8.330486 -3.626542 -2.563833,-8.454742 -4.325628 -1.474388,-8.322545 -3.067226 -1.349004,-8.131558 -2.390604 -1.350881,-7.95285 -1.892725 -1.362921,-8.298506 -4.46363 -1.053732,-8.104057 -3.026304 -0.7833295,-7.8606 -2.211745 -0.7561695,-7.649527 -1.639176 -0.7516457,-8.060946 -4.702268 -0.7294484,-7.832859 -3.341895 -0.4988253,-7.634779 -2.509386 -0.4527297,-7.47675 -1.907279 -0.4442886,-7.758807 -5.046001 -0.4947957,-7.502275 -4.006092 -0.2837948,-7.330359 -3.408413 -0.1899192,-7.176617 -2.90266 -0.1499532,1.620,DnF
