TiagoOliveira98/HandTracking/DataLogging/JointData/Logs(1642686473)_Tiago_Calculator.csv
WRIST,THUMB_CMC,THUMB_MCP,THUMB_IP,THUMB_TIP,INDEX_FINGER_MCP,INDEX_FINGER_PIP,INDEX_FINGER_DIP,INDEX_FINGER_TIP,MIDDLE_FINGER_MCP,MIDDLE_FINGER_PIP,MIDDLE_FINGER_DIP,MIDDLE_FINGER_TIP,RING_FINGER_MCP,RING_FINGER_PIP,RING_FINGER_DIP,RING_FINGER_TIP,PINKY_MCP,PINKY_PIP,PINKY_DIP,PINKY_TIP,WRIST2,THUMB_CMC2,THUMB_MCP2,THUMB_IP2,THUMB_TIP2,INDEX_FINGER_MCP2,INDEX_FINGER_PIP2,INDEX_FINGER_DIP2,INDEX_FINGER_TIP2,MIDDLE_FINGER_MCP2,MIDDLE_FINGER_PIP2,MIDDLE_FINGER_DIP2,MIDDLE_FINGER_TIP2,RING_FINGER_MCP2,RING_FINGER_PIP2,RING_FINGER_DIP2,RING_FINGER_TIP2,PINKY_MCP2,PINKY_PIP2,PINKY_DIP2,PINKY_TIP2,Timestamp,Event
2 0 -9.548512,2 0 -9.548512,2 0 -9.548512,2 0 -9.548512,2 0 -9.548512,2 0 -9.548512,2 0 -9.548512,2 0 -9.548512,2 0 -9.548512,2 0 -9.548512,2 0 -9.548512,2 0 -9.548512,2 0 -9.548512,2 0 -9.548512,2 0 -9.548512,2 0 -9.548512,2 0 -9.548512,2 0 -9.548512,2 0 -9.548512,2 0 -9.548512,2 0 -9.548512,2 0 -8.744473,2 0 -8.744473,2 0 -8.744473,2 0 -8.744473,2 0 -8.744473,2 0 -8.744473,2 0 -8.744473,2 0 -8.744473,2 0 -8.744473,2 0 -8.744473,2 0 -8.744473,2 0 -8.744473,2 0 -8.744473,2 0 -8.744473,2 0 -8.744473,2 0 -8.744473,2 0 -8.744473,2 0 -8.744473,2 0 -8.744473,2 0 -8.744473,2 0 -8.744473,0.010,
2 0 -9.548512,2 0 -9.548512,2 0 -9.548512,2 0 -9.548512,2 0 -9.548512,2 0 -9.548512,2 0 -9.548512,2 0 -9.548512,2 0 -9.548512,2 0 -9.548512,2 0 -9.548512,2 0 -9.548512,2 0 -9.548512,2 0 -9.548512,2 0 -9.548512,2 0 -9.548512,2 0 -9.548512,2 0 -9.548512,2 0 -9.548512,2 0 -9.548512,2 0 -9.548512,2 0 -8.744473,2 0 -8.744473,2 0 -8.744473,2 0 -8.744473,2 0 -8.744473,2 0 -8.744473,2 0 -8.744473,2 0 -8.744473,2 0 -8.744473,2 0 -8.744473,2 0 -8.744473,2 0 -8.744473,2 0 -8.744473,2 0 -8.744473,2 0 -8.744473,2 0 -8.744473,2 0 -8.744473,2 0 -8.744473,2 0 -8.744473,2 0 -8.744473,2 0 -8.744473,0.110,
2 0 -9.548512,2 0 -9.548512,2 0 -9.548512,2 0 -9.548512,2 0 -9.548512,2 0 -9.548512,2 0 -9.548512,2 0 -9.548512,2 0 -9.548512,2 0 -9.548512,2 0 -9.548512,2 0 -9.548512,2 0 -9.548512,2 0 -9.548512,2 0 -9.548512,2 0 -9.548512,2 0 -9.548512,2 0 -9.548512,2 0 -9.548512,2 0 -9.548512,2 0 -9.548512,2 0 -8.744473,2 0 -8.744473,2 0 -8.744473,2 0 -8.744473,2 0 -8.744473,2 0 -8.744473,2 0 -8.744473,2 0 -8.744473,2 0 -8.744473,2 0 -8.744473,2 0 -8.744473,2 0 -8.744473,2 0 -8.744473,2 0 -8.744473,2 0 -8.744473,2 0 -8.744473,2 0 -8.744473,2 0 -8.744473,2 0 -8.744473,2 0 -8.744473,2 0 -8.744473,0.210,
2 0 -9.548512,2 0 -9.548512,2 0 -9.548512,2 0 -9.548512,2 0 -9.548512,2 0 -9.548512,2 0 -9.548512,2 0 -9.548512,2 0 -9.548512,2 0 -9.548512,2 0 -9.548512,2 0 -9.548512,2 0 -9.548512,2 0 -9.548512,2 0 -9.548512,2 0 -9.548512,2 0 -9.548512,2 0 -9.548512,2 0 -9.548512,2 0 -9.548512,2 0 -9.548512,2 0 -8.744473,2 0 -8.744473,2 0 -8.744473,2 0 -8.744473,2 0 -8.744473,2 0 -8.744473,2 0 -8.744473,2 0 -8.744473,2 0 -8.744473,2 0 -8.744473,2 0 -8.744473,2 0 -8.744473,2 0 -8.744473,2 0 -8.744473,2 0 -8.744473,2 0 -8.744473,2 0 -8.744473,2 0 -8.744473,2 0 -8.744473,2 0 -8.744473,2 0 -8.744473,0.310,
2 0 -9.548512,2 0 -9.548512,2 0 -9.548512,2 0 -9.548512,2 0 -9.548512,2 0 -9.548512,2 0 -9.548512,2 0 -9.548512,2 0 -9.548512,2 0 -9.548512,2 0 -9.548512,2 0 -9.548512,2 0 -9.548512,2 0 -9.548512,2 0 -9.548512,2 0 -9.548512,2 0 -9.548512,2 0 -9.548512,2 0 -9.548512,2 0 -9.548512,2 0 -9.548512,2 0 -8.744473,2 0 -8.744473,2 0 -8.744473,2 0 -8.744473,2 0 -8.744473,2 0 -8.744473,2 0 -8.744473,2 0 -8.744473,2 0 -8.744473,2 0 -8.744473,2 0 -8.744473,2 0 -8.744473,2 0 -8.744473,2 0 -8.744473,2 0 -8.744473,2 0 -8.744473,2 0 -8.744473,2 0 -8.744473,2 0 -8.744473,2 0 -8.744473,2 0 -8.744473,0.410,
2 0 -9.548512,2 0 -9.548512,2 0 -9.548512,2 0 -9.548512,2 0 -9.548512,2 0 -9.548512,2 0 -9.548512,2 0 -9.548512,2 0 -9.548512,2 0 -9.548512,2 0 -9.548512,2 0 -9.548512,2 0 -9.548512,2 0 -9.548512,2 0 -9.548512,2 0 -9.548512,2 0 -9.548512,2 0 -9.548512,2 0 -9.548512,2 0 -9.548512,2 0 -9.548512,2 0 -8.744473,2 0 -8.744473,2 0 -8.744473,2 0 -8.744473,2 0 -8.744473,2 0 -8.744473,2 0 -8.744473,2 0 -8.744473,2 0 -8.744473,2 0 -8.744473,2 0 -8.744473,2 0 -8.744473,2 0 -8.744473,2 0 -8.744473,2 0 -8.744473,2 0 -8.744473,2 0 -8.744473,2 0 -8.744473,2 0 -8.744473,2 0 -8.744473,2 0 -8.744473,0.510,
2 0 -9.548512,2 0 -9.548512,2 0 -9.548512,2 0 -9.548512,2 0 -9.548512,2 0 -9.548512,2 0 -9.548512,2 0 -9.548512,2 0 -9.548512,2 0 -9.548512,2 0 -9.548512,2 0 -9.548512,2 0 -9.548512,2 0 -9.548512,2 0 -9.548512,2 0 -9.548512,2 0 -9.548512,2 0 -9.548512,2 0 -9.548512,2 0 -9.548512,2 0 -9.548512,2 0 -8.744473,2 0 -8.744473,2 0 -8.744473,2 0 -8.744473,2 0 -8.744473,2 0 -8.744473,2 0 -8.744473,2 0 -8.744473,2 0 -8.744473,2 0 -8.744473,2 0 -8.744473,2 0 -8.744473,2 0 -8.744473,2 0 -8.744473,2 0 -8.744473,2 0 -8.744473,2 0 -8.744473,2 0 -8.744473,2 0 -8.744473,2 0 -8.744473,2 0 -8.744473,0.610,
2 0 -9.548512,2 0 -9.548512,2 0 -9.548512,2 0 -9.548512,2 0 -9.548512,2 0 -9.548512,2 0 -9.548512,2 0 -9.548512,2 0 -9.548512,2 0 -9.548512,2 0 -9.548512,2 0 -9.548512,2 0 -9.548512,2 0 -9.548512,2 0 -9.548512,2 0 -9.548512,2 0 -9.548512,2 0 -9.548512,2 0 -9.548512,2 0 -9.548512,2 0 -9.548512,2 0 -8.744473,2 0 -8.744473,2 0 -8.744473,2 0 -8.744473,2 0 -8.744473,2 0 -8.744473,2 0 -8.744473,2 0 -8.744473,2 0 -8.744473,2 0 -8.744473,2 0 -8.744473,2 0 -8.744473,2 0 -8.744473,2 0 -8.744473,2 0 -8.744473,2 0 -8.744473,2 0 -8.744473,2 0 -8.744473,2 0 -8.744473,2 0 -8.744473,2 0 -8.744473,0.710,
2 0 -9.548512,2 0 -9.548512,2 0 -9.548512,2 0 -9.548512,2 0 -9.548512,2 0 -9.548512,2 0 -9.548512,2 0 -9.548512,2 0 -9.548512,2 0 -9.548512,2 0 -9.548512,2 0 -9.548512,2 0 -9.548512,2 0 -9.548512,2 0 -9.548512,2 0 -9.548512,2 0 -9.548512,2 0 -9.548512,2 0 -9.548512,2 0 -9.548512,2 0 -9.548512,2 0 -8.744473,2 0 -8.744473,2 0 -8.744473,2 0 -8.744473,2 0 -8.744473,2 0 -8.744473,2 0 -8.744473,2 0 -8.744473,2 0 -8.744473,2 0 -8.744473,2 0 -8.744473,2 0 -8.744473,2 0 -8.744473,2 0 -8.744473,2 0 -8.744473,2 0 -8.744473,2 0 -8.744473,2 0 -8.744473,2 0 -8.744473,2 0 -8.744473,2 0 -8.744473,0.810,
2 0 -9.548512,2 0 -9.548512,2 0 -9.548512,2 0 -9.548512,2 0 -9.548512,2 0 -9.548512,2 0 -9.548512,2 0 -9.548512,2 0 -9.548512,2 0 -9.548512,2 0 -9.548512,2 0 -9.548512,2 0 -9.548512,2 0 -9.548512,2 0 -9.548512,2 0 -9.548512,2 0 -9.548512,2 0 -9.548512,2 0 -9.548512,2 0 -9.548512,2 0 -9.548512,2 0 -8.744473,2 0 -8.744473,2 0 -8.744473,2 0 -8.744473,2 0 -8.744473,2 0 -8.744473,2 0 -8.744473,2 0 -8.744473,2 0 -8.744473,2 0 -8.744473,2 0 -8.744473,2 0 -8.744473,2 0 -8.744473,2 0 -8.744473,2 0 -8.744473,2 0 -8.744473,2 0 -8.744473,2 0 -8.744473,2 0 -8.744473,2 0 -8.744473,2 0 -8.744473,0.910,
2 0 -9.548512,2 0 -9.548512,2 0 -9.548512,2 0 -9.548512,2 0 -9.548512,2 0 -9.548512,2 0 -9.548512,2 0 -9.548512,2 0 -9.548512,2 0 -9.548512,2 0 -9.548512,2 0 -9.548512,2 0 -9.548512,2 0 -9.548512,2 0 -9.548512,2 0 -9.548512,2 0 -9.548512,2 0 -9.548512,2 0 -9.548512,2 0 -9.548512,2 0 -9.548512,2 0 -8.744473,2 0 -8.744473,2 0 -8.744473,2 0 -8.744473,2 0 -8.744473,2 0 -8.744473,2 0 -8.744473,2 0 -8.744473,2 0 -8.744473,2 0 -8.744473,2 0 -8.744473,2 0 -8.744473,2 0 -8.744473,2 0 -8.744473,2 0 -8.744473,2 0 -8.744473,2 0 -8.744473,2 0 -8.744473,2 0 -8.744473,2 0 -8.744473,2 0 -8.744473,1.010,
2 0 -9.548512,2 0 -9.548512,2 0 -9.548512,2 0 -9.548512,2 0 -9.548512,2 0 -9.548512,2 0 -9.548512,2 0 -9.548512,2 0 -9.548512,2 0 -9.548512,2 0 -9.548512,2 0 -9.548512,2 0 -9.548512,2 0 -9.548512,2 0 -9.548512,2 0 -9.548512,2 0 -9.548512,2 0 -9.548512,2 0 -9.548512,2 0 -9.548512,2 0 -9.548512,2 0 -8.744473,2 0 -8.744473,2 0 -8.744473,2 0 -8.744473,2 0 -8.744473,2 0 -8.744473,2 0 -8.744473,2 0 -8.744473,2 0 -8.744473,2 0 -8.744473,2 0 -8.744473,2 0 -8.744473,2 0 -8.744473,2 0 -8.744473,2 0 -8.744473,2 0 -8.744473,2 0 -8.744473,2 0 -8.744473,2 0 -8.744473,2 0 -8.744473,2 0 -8.744473,1.110,
2 0 -9.548512,2 0 -9.548512,2 0 -9.548512,2 0 -9.548512,2 0 -9.548512,2 0 -9.548512,2 0 -9.548512,2 0 -9.548512,2 0 -9.548512,2 0 -9.548512,2 0 -9.548512,2 0 -9.548512,2 0 -9.548512,2 0 -9.548512,2 0 -9.548512,2 0 -9.548512,2 0 -9.548512,2 0 -9.548512,2 0 -9.548512,2 0 -9.548512,2 0 -9.548512,2 0 -8.744473,2 0 -8.744473,2 0 -8.744473,2 0 -8.744473,2 0 -8.744473,2 0 -8.744473,2 0 -8.744473,2 0 -8.744473,2 0 -8.744473,2 0 -8.744473,2 0 -8.744473,2 0 -8.744473,2 0 -8.744473,2 0 -8.744473,2 0 -8.744473,2 0 -8.744473,2 0 -8.744473,2 0 -8.744473,2 0 -8.744473,2 0 -8.744473,2 0 -8.744473,1.210,
2 0 -9.548512,2 0 -9.548512,2 0 -9.548512,2 0 -9.548512,2 0 -9.548512,2 0 -9.548512,2 0 -9.548512,2 0 -9.548512,2 0 -9.548512,2 0 -9.548512,2 0 -9.548512,2 0 -9.548512,2 0 -9.548512,2 0 -9.548512,2 0 -9.548512,2 0 -9.548512,2 0 -9.548512,2 0 -9.548512,2 0 -9.548512,2 0 -9.548512,2 0 -9.548512,2 0 -8.744473,2 0 -8.744473,2 0 -8.744473,2 0 -8.744473,2 0 -8.744473,2 0 -8.744473,2 0 -8.744473,2 0 -8.744473,2 0 -8.744473,2 0 -8.744473,2 0 -8.744473,2 0 -8.744473,2 0 -8.744473,2 0 -8.744473,2 0 -8.744473,2 0 -8.744473,2 0 -8.744473,2 0 -8.744473,2 0 -8.744473,2 0 -8.744473,2 0 -8.744473,1.310,
-1.806376 -14.57967 -1.400006,-2.458706 -14.47693 -1.287663,-2.945394 -13.91648 -1.155747,-3.256169 -13.37124 -0.9850869,-3.465921 -12.79133 -0.8148692,-2.738359 -12.49545 -1.437378,-2.959413 -11.59125 -1.453263,-3.078967 -11.10979 -1.513563,-3.176697 -10.80399 -1.579138,-2.402813 -12.32945 -1.424519,-2.574821 -11.29658 -1.468282,-2.689538 -10.92945 -1.606995,-2.777259 -10.78846 -1.781002,-2.079227 -12.32006 -1.384318,-2.187204 -11.39131 -1.435123,-2.325639 -11.0403 -1.552085,-2.429255 -10.92374 -1.672583,-1.772709 -12.46827 -1.321161,-1.846127 -11.70991 -1.36776,-1.984013 -11.40977 -1.439632,-2.098649 -11.29995 -1.511836,-7.513008 -14.45165 -1.716694,-6.916028 -14.22145 -1.619958,-6.395478 -13.86192 -1.486425,-6.11727 -13.6454 -1.340458,-6.186911 -13.50006 -1.198877,-6.676756 -12.4489 -1.66535,-6.408015 -12.23629 -1.625911,-6.300115 -12.52353 -1.595011,-6.305415 -12.8102 -1.5994,-6.900335 -12.54455 -1.576344,-6.514524 -12.76134 -1.371483,-6.422086 -13.38749 -1.239279,-6.434096 -13.70058 -1.185508,-7.099661 -12.84596 -1.485643,-6.711982 -13.25717 -1.219767,-6.645534 -13.79627 -1.103429,-6.697548 -14.0667 -1.095188,-7.289167 -13.24116 -1.378919,-6.978591 -13.46887 -1.156488,-6.894564 -13.79814 -1.060258,-6.902419 -13.9591 -1.059088,1.410,
-2.080294 -12.14875 -1.132888,-2.711113 -11.96163 -0.8834543,-3.17236 -11.34984 -0.7686902,-3.450336 -10.72939 -0.646426,-3.587233 -9.995167 -0.5660095,-2.901839 -9.955967 -1.320615,-2.997495 -9.006798 -1.388901,-3.050213 -8.510807 -1.401854,-3.09281 -8.165253 -1.401849,-2.57354 -9.81152 -1.406953,-2.623889 -8.755358 -1.559951,-2.697856 -8.275814 -1.641472,-2.747832 -8.019373 -1.723298,-2.267053 -9.819242 -1.443346,-2.29042 -8.846354 -1.57089,-2.370195 -8.39559 -1.646737,-2.437231 -8.150753 -1.69222,-1.985136 -9.950365 -1.422562,-2.017907 -9.236341 -1.50164,-2.100686 -8.859865 -1.538381,-2.186936 -8.608892 -1.591381,-7.615499 -13.09716 -0.9445169,-6.948548 -12.7947 -0.7775444,-6.466084 -12.25396 -0.6084381,-6.14824 -11.78481 -0.4271262,-5.888488 -11.27542 -0.2073132,-6.742599 -11.09253 -0.6175267,-6.630604 -10.26729 -0.4014412,-6.507681 -9.731577 -0.1964716,-6.339822 -9.32349 0.02310908,-6.978615 -11.00231 -0.5301137,-6.857568 -10.1032 -0.2794907,-6.707458 -9.539482 -0.1145113,-6.545315 -9.068848 -0.005598366,-7.207893 -11.02614 -0.409345,-7.12072 -10.21143 -0.2137418,-6.986771 -9.673735 -0.07909977,-6.842037 -9.251688 -0.0003637075,-7.443254 -11.17219 -0.2761848,-7.361605 -10.53705 -0.09557891,-7.277487 -10.11747 0.02387321,-7.183758 -9.761745 0.086532,1.510,
-1.914235 -11.62771 -1.054152,-2.671556 -11.16086 -0.9774978,-3.157135 -10.48178 -0.869121,-3.422446 -9.819731 -0.7205718,-3.636595 -9.149956 -0.5375453,-2.904533 -9.495735 -0.974701,-3.032239 -8.830948 -0.8446037,-3.146128 -8.340527 -0.6329206,-3.243125 -7.858085 -0.5013957,-2.59155 -9.306103 -0.8504254,-2.704221 -8.596025 -0.70823,-2.804466 -8.06502 -0.4836593,-2.86161 -7.554498 -0.3097758,-2.293902 -9.290125 -0.7217731,-2.365186 -8.545162 -0.5791371,-2.417495 -8.016232 -0.3758603,-2.449129 -7.565856 -0.206606,-2.02398 -9.407019 -0.5759816,-2.048975 -8.787258 -0.4160008,-2.07707 -8.340734 -0.2996162,-2.117469 -7.979171 -0.2073282,-7.615499 -13.09716 -0.9445169,-6.948548 -12.7947 -0.7775444,-6.466084 -12.25396 -0.6084381,-6.14824 -11.78481 -0.4271262,-5.888488 -11.27542 -0.2073132,-6.742599 -11.09253 -0.6175267,-6.630604 -10.26729 -0.4014412,-6.507681 -9.731577 -0.1964716,-6.339822 -9.32349 0.02310908,-6.978615 -11.00231 -0.5301137,-6.857568 -10.1032 -0.2794907,-6.707458 -9.539482 -0.1145113,-6.545315 -9.068848 -0.005598366,-7.207893 -11.02614 -0.409345,-7.12072 -10.21143 -0.2137418,-6.986771 -9.673735 -0.07909977,-6.842037 -9.251688 -0.0003637075,-7.443254 -11.17219 -0.2761848,-7.361605 -10.53705 -0.09557891,-7.277487 -10.11747 0.02387321,-7.183758 -9.761745 0.086532,1.610,
-1.813033 -9.442921 0.2880404,-2.537747 -9.000673 0.3443717,-3.062902 -8.38653 0.4045944,-3.362731 -7.740295 0.5462363,-3.617733 -7.177331 0.7155606,-2.939068 -7.045957 0.09080875,-3.241474 -6.286239 0.1720946,-3.432125 -5.80858 0.3198635,-3.600368 -5.35036 0.4114414,-2.665495 -6.765489 0.2350657,-2.941364 -5.912799 0.2802792,-3.137476 -5.380338 0.4319324,-3.293314 -4.896257 0.5260615,-2.388552 -6.686393 0.4362131,-2.566444 -5.773075 0.4892005,-2.725521 -5.276494 0.6015009,-2.885821 -4.833158 0.6979994,-2.089773 -6.801408 0.6667368,-2.154671 -6.077521 0.7389066,-2.246074 -5.619097 0.8106053,-2.354745 -5.197114 0.8899748,-8.018795 -10.48475 3.347303,-7.234196 -9.696789 3.189696,-6.707507 -8.826801 3.173612,-6.415748 -8.068899 3.275423,-6.116722 -7.473294 3.391324,-6.879642 -7.29699 2.976804,-6.704891 -6.294153 3.000336,-6.624016 -5.760375 3.091124,-6.565796 -5.244337 3.161787,-7.155666 -7.142431 3.21339,-6.989566 -6.027816 3.20118,-6.904662 -5.422096 3.320838,-6.812112 -4.858732 3.377071,-7.453504 -7.163894 3.478218,-7.3623 -6.097608 3.457934,-7.318462 -5.521793 3.568419,-7.206715 -5.000302 3.621486,-7.8045 -7.394502 3.723362,-7.80759 -6.623495 3.743219,-7.758183 -6.125798 3.768971,-7.641443 -5.637166 3.803612,1.710,
-1.925354 -8.869268 -0.2925166,-2.544358 -8.588373 -0.2062888,-3.069281 -7.9635 -0.170261,-3.389907 -7.31199 -0.05395967,-3.658817 -6.806434 0.1055199,-2.972159 -6.599514 -0.5204753,-3.254583 -5.799705 -0.4698789,-3.407391 -5.33505 -0.4144242,-3.531448 -4.911209 -0.3725479,-2.689302 -6.340626 -0.4149607,-2.937927 -5.396076 -0.4022034,-3.0963 -4.85535 -0.3125383,-3.221859 -4.386871 -0.2473717,-2.400297 -6.270458 -0.2396016,-2.562538 -5.350163 -0.1964882,-2.687502 -4.853406 -0.09261185,-2.80804 -4.419496 -0.004295826,-2.085665 -6.365964 -0.03128693,-2.160799 -5.640427 0.03931201,-2.239172 -5.225925 0.1293835,-2.327096 -4.817602 0.197651,-7.863508 -9.572033 0.924614,-7.282601 -9.181665 0.9728505,-6.83795 -8.449001 1.086415,-6.567773 -7.751344 1.267768,-6.314566 -7.235519 1.415504,-7.045795 -7.051732 0.9179354,-6.892813 -6.056819 1.054881,-6.804626 -5.51983 1.152832,-6.720352 -5.039937 1.219152,-7.321956 -6.86833 1.091258,-7.16081 -5.710626 1.207872,-7.06901 -5.046052 1.384732,-6.982443 -4.46924 1.500808,-7.603217 -6.897156 1.28234,-7.493237 -5.78865 1.408624,-7.405148 -5.156396 1.585984,-7.291037 -4.631258 1.706628,-7.908259 -7.13377 1.474516,-7.892442 -6.278121 1.63424,-7.8417 -5.750547 1.781013,-7.745936 -5.258173 1.87841,1.810,
-1.920547 -8.764734 -0.4921178,-2.531231 -8.491194 -0.4108101,-3.039492 -7.850675 -0.3845318,-3.348577 -7.19229 -0.2875249,-3.638457 -6.689209 -0.1538168,-2.926969 -6.53684 -0.7097917,-3.198279 -5.725528 -0.6518103,-3.345098 -5.241628 -0.603485,-3.461722 -4.803781 -0.5656387,-2.647874 -6.284481 -0.6068217,-2.880322 -5.345095 -0.5808271,-3.036058 -4.806328 -0.4942451,-3.156408 -4.328817 -0.4209629,-2.361055 -6.211668 -0.4346105,-2.522356 -5.291242 -0.3773671,-2.657687 -4.772167 -0.2634737,-2.779102 -4.307628 -0.1592088,-2.046813 -6.307636 -0.2318098,-2.128453 -5.57168 -0.1452489,-2.21521 -5.135076 -0.04114994,-2.302562 -4.716838 0.04502761,-7.851215 -9.50473 0.7278631,-7.266559 -9.136354 0.7506998,-6.828941 -8.403654 0.8348115,-6.582252 -7.704158 0.9823846,-6.337155 -7.246465 1.136648,-7.058252 -7.033006 0.6918898,-6.895007 -6.081542 0.8367182,-6.79862 -5.5252 0.9647985,-6.72199 -5.030377 1.051189,-7.329815 -6.85214 0.8518711,-7.173717 -5.742845 0.9470304,-7.069662 -5.056571 1.146345,-6.991561 -4.451317 1.29406,-7.601628 -6.881837 1.029613,-7.49847 -5.814376 1.140169,-7.400946 -5.180582 1.328264,-7.30423 -4.640907 1.453893,-7.895197 -7.093164 1.209382,-7.879506 -6.273799 1.363534,-7.832027 -5.764893 1.490962,-7.757013 -5.283494 1.574251,1.910,
-1.932185 -8.653008 -0.8132436,-2.537376 -8.413292 -0.6941051,-3.030589 -7.817873 -0.6582711,-3.320569 -7.184574 -0.5620145,-3.620015 -6.688591 -0.4263065,-2.903954 -6.505998 -0.9835814,-3.180677 -5.727451 -0.8998359,-3.340782 -5.246698 -0.8317724,-3.469374 -4.803888 -0.7663857,-2.618185 -6.255132 -0.8982197,-2.840196 -5.342294 -0.8418751,-3.000642 -4.799171 -0.7319871,-3.126512 -4.307794 -0.6365033,-2.329433 -6.193357 -0.7431021,-2.477683 -5.312573 -0.6611776,-2.612975 -4.774728 -0.5095329,-2.734646 -4.300052 -0.3737792,-2.017768 -6.300128 -0.5615278,-2.086587 -5.576514 -0.4431203,-2.174757 -5.132549 -0.298962,-2.265098 -4.724802 -0.1842638,-7.798625 -9.348377 0.359965,-7.239154 -9.022839 0.4084951,-6.807392 -8.320557 0.5058182,-6.556371 -7.65026 0.6698347,-6.292663 -7.200531 0.8378507,-7.034978 -6.979341 0.3174499,-6.880112 -6.045488 0.466069,-6.780604 -5.490871 0.5979907,-6.698423 -5.004507 0.6830844,-7.297933 -6.798314 0.4702927,-7.151991 -5.711589 0.5760303,-7.04467 -5.024986 0.7678419,-6.957824 -4.421506 0.9105113,-7.566222 -6.83383 0.650685,-7.469269 -5.785225 0.7600422,-7.365559 -5.154594 0.9450536,-7.262322 -4.615304 1.076345,-7.860855 -7.044153 0.8345028,-7.843689 -6.241178 0.9956579,-7.797622 -5.742782 1.133361,-7.72737 -5.271335 1.221872,2.010,
-1.939122 -8.563789 -0.9234592,-2.532447 -8.372244 -0.7952206,-3.024389 -7.772108 -0.7661082,-3.311722 -7.121519 -0.6796013,-3.599186 -6.623685 -0.5526245,-2.903605 -6.454656 -1.093503,-3.168732 -5.677143 -1.027514,-3.320478 -5.205995 -0.9750344,-3.44141 -4.773867 -0.9233376,-2.619153 -6.197319 -1.017732,-2.839608 -5.295048 -0.9838092,-2.992798 -4.760959 -0.8892776,-3.110052 -4.27735 -0.8058001,-2.332144 -6.127389 -0.8706301,-2.478939 -5.254138 -0.8029096,-2.606302 -4.727261 -0.6711622,-2.719553 -4.251709 -0.5479522,-2.021725 -6.220922 -0.6963488,-2.094196 -5.497061 -0.5968814,-2.173752 -5.059212 -0.4695058,-2.253083 -4.642169 -0.3658236,-7.771034 -9.270767 0.256568,-7.215626 -8.971453 0.3288334,-6.784785 -8.292124 0.4399701,-6.538757 -7.626514 0.6119478,-6.284463 -7.168439 0.785161,-7.019879 -6.935726 0.2353059,-6.871973 -5.99774 0.3915646,-6.777001 -5.44428 0.5315586,-6.696349 -4.966603 0.6177824,-7.283186 -6.748685 0.3751899,-7.141791 -5.66062 0.4903573,-7.034911 -4.975137 0.6774572,-6.94411 -4.375564 0.8163847,-7.552834 -6.776851 0.5445342,-7.456267 -5.730787 0.6524626,-7.352822 -5.102042 0.8274797,-7.246131 -4.567579 0.9512488,-7.849154 -6.980274 0.72097,-7.826718 -6.177848 0.873889,-7.782877 -5.681126 1.001696,-7.716355 -5.216419 1.080818,2.110,
-1.895061 -8.479992 -1.186639,-2.490539 -8.278185 -1.058498,-2.971443 -7.718847 -1.030749,-3.24981 -7.089174 -0.9551098,-3.521765 -6.58267 -0.8484714,-2.846174 -6.451945 -1.299899,-3.121027 -5.675802 -1.232686,-3.269531 -5.191315 -1.186512,-3.386882 -4.753351 -1.138999,-2.561305 -6.186735 -1.246834,-2.785583 -5.279645 -1.210675,-2.93571 -4.733008 -1.12502,-3.046333 -4.251964 -1.048046,-2.275649 -6.105905 -1.129715,-2.429191 -5.233445 -1.065447,-2.56054 -4.699497 -0.9384567,-2.671492 -4.232395 -0.8185004,-1.968531 -6.185533 -0.9896292,-2.041082 -5.467644 -0.8945417,-2.122322 -5.032833 -0.7634922,-2.201548 -4.632516 -0.6569771,-7.724072 -9.203842 0.1426703,-7.181732 -8.914618 0.2370783,-6.753336 -8.241331 0.3542024,-6.50592 -7.589972 0.5331567,-6.248873 -7.127137 0.7124953,-6.986164 -6.899095 0.1390001,-6.834217 -5.97332 0.299722,-6.736588 -5.410816 0.4359768,-6.655512 -4.923337 0.5218525,-7.24991 -6.713074 0.2763319,-7.098663 -5.636877 0.3982632,-6.991397 -4.938978 0.5933502,-6.904476 -4.332953 0.7313474,-7.523022 -6.748662 0.4430719,-7.41475 -5.711685 0.5729226,-7.308749 -5.068585 0.761804,-7.202064 -4.525424 0.8936902,-7.824143 -6.958519 0.6179863,-7.803087 -6.153331 0.7983149,-7.755504 -5.647106 0.9507125,-7.683937 -5.178306 1.045744,2.210,
-1.880766 -8.369873 -1.317037,-2.454132 -8.205935 -1.181229,-2.920999 -7.643987 -1.15474,-3.184618 -7.015886 -1.07944,-3.465117 -6.523197 -0.9632295,-2.813318 -6.376033 -1.421518,-3.086044 -5.598857 -1.342485,-3.236535 -5.121337 -1.287387,-3.350693 -4.676574 -1.229599,-2.532826 -6.110841 -1.357522,-2.751796 -5.205762 -1.297992,-2.89809 -4.667135 -1.195682,-3.000767 -4.17896 -1.111319,-2.249579 -6.035409 -1.226802,-2.406262 -5.167532 -1.13635,-2.538764 -4.630801 -0.991946,-2.644808 -4.141842 -0.8618081,-1.937764 -6.122802 -1.075075,-2.007248 -5.412677 -0.957022,-2.087685 -4.977195 -0.808073,-2.157557 -4.567543 -0.6914745,-7.745518 -9.150297 0.08785944,-7.204689 -8.86372 0.1661899,-6.784344 -8.182156 0.2737137,-6.539888 -7.534338 0.4458727,-6.286158 -7.098079 0.6158032,-7.006431 -6.855751 0.08101258,-6.852449 -5.934356 0.2445827,-6.761611 -5.372249 0.3903302,-6.690132 -4.88046 0.4816648,-7.266305 -6.676828 0.2278735,-7.115602 -5.601666 0.3490269,-7.010298 -4.909914 0.5412078,-6.924168 -4.302658 0.6764712,-7.540027 -6.715786 0.4031693,-7.44061 -5.67831 0.5358402,-7.336161 -5.03698 0.7260633,-7.231217 -4.482278 0.8575613,-7.843125 -6.928459 0.5847189,-7.827129 -6.117774 0.7646105,-7.784201 -5.604951 0.9170904,-7.718482 -5.116548 1.011754,2.310,
-1.85754 -8.272575 -1.378075,-2.42382 -8.127867 -1.210735,-2.894033 -7.582651 -1.162219,-3.163897 -6.96666 -1.073007,-3.438747 -6.474189 -0.9439479,-2.794473 -6.301343 -1.431797,-3.068633 -5.522239 -1.358006,-3.217504 -5.044725 -1.307413,-3.3269 -4.602104 -1.248907,-2.513441 -6.03249 -1.390162,-2.741075 -5.125659 -1.340184,-2.885658 -4.588253 -1.245046,-2.982031 -4.099456 -1.167396,-2.231221 -5.95498 -1.282135,-2.392064 -5.086555 -1.205801,-2.526092 -4.554916 -1.074834,-2.631377 -4.068878 -0.950696,-1.920121 -6.040102 -1.152473,-1.993102 -5.337816 -1.048772,-2.073009 -4.911412 -0.9096445,-2.141833 -4.510381 -0.798175,-7.765944 -9.092199 0.06101542,-7.22576 -8.801649 0.1186503,-6.8096 -8.12009 0.2201048,-6.564704 -7.479325 0.3930333,-6.307888 -7.054939 0.5629951,-7.030797 -6.799174 0.03145249,-6.882754 -5.866409 0.1903897,-6.792157 -5.304296 0.3374492,-6.721318 -4.814451 0.4256197,-7.29177 -6.624832 0.1868705,-7.146899 -5.534413 0.3017498,-7.039439 -4.843662 0.4891431,-6.952948 -4.240442 0.6171772,-7.56597 -6.664188 0.3692656,-7.474606 -5.614641 0.4980856,-7.372659 -4.969558 0.6813635,-7.271973 -4.41407 0.8005146,-7.866104 -6.87737 0.5544973,-7.851729 -6.056553 0.7335022,-7.808504 -5.54496 0.8767842,-7.746009 -5.066952 0.9554393,2.410,
-1.801744 -8.085276 -1.450445,-2.354761 -7.91866 -1.231205,-2.824006 -7.399602 -1.140432,-3.103981 -6.78799 -1.021336,-3.385626 -6.270433 -0.8681822,-2.737983 -6.125448 -1.464233,-3.010521 -5.351089 -1.366807,-3.15668 -4.870414 -1.282254,-3.267096 -4.424281 -1.199937,-2.460398 -5.867511 -1.446679,-2.67985 -4.971664 -1.392599,-2.81404 -4.432607 -1.281989,-2.905317 -3.937416 -1.184473,-2.177426 -5.792578 -1.361784,-2.335483 -4.938596 -1.290691,-2.464365 -4.416622 -1.150662,-2.565702 -3.941264 -1.023375,-1.866748 -5.871521 -1.248612,-1.940774 -5.157663 -1.139086,-2.022809 -4.730462 -0.9997016,-2.092565 -4.335567 -0.8853062,-7.797218 -8.9601 0.1316573,-7.260638 -8.67638 0.2211162,-6.837058 -8.007399 0.3263239,-6.590614 -7.367597 0.4975258,-6.33021 -6.933734 0.6681926,-7.084859 -6.651942 0.1196594,-6.937232 -5.730265 0.2700048,-6.840667 -5.164125 0.4099818,-6.76168 -4.663856 0.5062479,-7.346463 -6.468168 0.2650803,-7.208642 -5.397501 0.3763362,-7.109003 -4.697466 0.5765954,-7.026562 -4.086339 0.7165688,-7.6203 -6.506855 0.4408068,-7.52107 -5.483415 0.5748262,-7.429926 -4.824962 0.7759171,-7.332335 -4.26419 0.9155837,-7.921422 -6.722961 0.6246529,-7.918261 -5.907838 0.8142567,-7.891809 -5.392828 0.9846578,-7.836336 -4.911334 1.088224,2.510,
-1.795536 -8.058851 -1.561014,-2.351347 -7.888269 -1.330423,-2.813547 -7.389023 -1.231288,-3.090999 -6.79313 -1.107348,-3.354137 -6.264331 -0.9506954,-2.716872 -6.123588 -1.535952,-2.989447 -5.337837 -1.44641,-3.13346 -4.862274 -1.369188,-3.238844 -4.428401 -1.287881,-2.437039 -5.869144 -1.533616,-2.659261 -4.970037 -1.485839,-2.793638 -4.43316 -1.380805,-2.882359 -3.946487 -1.286501,-2.154837 -5.797416 -1.464726,-2.312892 -4.941845 -1.396696,-2.443007 -4.417787 -1.255399,-2.540856 -3.944032 -1.125505,-1.84624 -5.877939 -1.370367,-1.915831 -5.168722 -1.262825,-1.995061 -4.741598 -1.11361,-2.060374 -4.345514 -0.9934539,-7.814119 -9.001417 0.07380284,-7.278982 -8.706068 0.1274418,-6.857033 -8.031898 0.2055228,-6.603596 -7.413143 0.3553439,-6.337379 -7.021976 0.5007104,-7.09927 -6.699066 0.03591999,-6.949513 -5.762058 0.1765387,-6.850038 -5.195375 0.3108994,-6.770757 -4.694245 0.4055009,-7.35641 -6.527048 0.196602,-7.218077 -5.44968 0.3032792,-7.116053 -4.744458 0.5067,-7.034937 -4.132757 0.6480255,-7.626939 -6.572448 0.3836759,-7.530548 -5.543867 0.5185063,-7.438981 -4.873855 0.7234426,-7.343575 -4.308364 0.8642042,-7.924696 -6.792898 0.573341,-7.92106 -5.971862 0.7687454,-7.891176 -5.449106 0.9454517,-7.834057 -4.968608 1.051685,2.610,
-1.677626 -8.160316 -1.755373,-2.22443 -8.023033 -1.4863,-2.680609 -7.542043 -1.381706,-2.944518 -6.937676 -1.269162,-3.199299 -6.392741 -1.130496,-2.598871 -6.289962 -1.701754,-2.86657 -5.501586 -1.617183,-3.006508 -5.008443 -1.516567,-3.108367 -4.561779 -1.409713,-2.317519 -6.027975 -1.731056,-2.534552 -5.138162 -1.701407,-2.657492 -4.5967 -1.589889,-2.738433 -4.117511 -1.479792,-2.035876 -5.944826 -1.699431,-2.198843 -5.115168 -1.65096,-2.320466 -4.594819 -1.513647,-2.411071 -4.142195 -1.382902,-1.731534 -6.005613 -1.634463,-1.823076 -5.323112 -1.543382,-1.911156 -4.909982 -1.406637,-1.99093 -4.528906 -1.292911,-7.942618 -9.116024 0.2099846,-7.410991 -8.821171 0.3092216,-6.998942 -8.134081 0.428001,-6.755244 -7.493214 0.6083777,-6.497062 -7.078962 0.7767104,-7.229574 -6.779702 0.2522154,-7.087917 -5.849775 0.4102858,-7.005951 -5.273826 0.5578104,-6.94269 -4.762505 0.6538693,-7.496118 -6.602841 0.3804989,-7.370111 -5.536184 0.4903263,-7.271987 -4.840532 0.6858794,-7.192329 -4.229389 0.8293638,-7.776377 -6.650813 0.5326247,-7.697863 -5.638126 0.6510546,-7.610337 -4.996951 0.8287499,-7.520653 -4.442564 0.9516616,-8.077689 -6.882759 0.6884242,-8.075856 -6.076416 0.859089,-8.046062 -5.565686 1.012897,-7.995697 -5.084674 1.109211,2.710,
-1.665235 -8.218735 -1.775844,-2.218294 -8.073553 -1.561906,-2.662827 -7.571271 -1.488474,-2.912069 -6.96195 -1.39443,-3.170315 -6.438449 -1.270789,-2.572999 -6.340343 -1.767644,-2.839873 -5.549385 -1.684899,-2.979791 -5.058675 -1.598663,-3.07777 -4.617167 -1.503211,-2.29124 -6.088243 -1.770521,-2.51252 -5.190341 -1.735182,-2.637609 -4.649137 -1.637581,-2.717482 -4.165933 -1.543397,-2.010187 -6.010797 -1.712159,-2.182881 -5.173892 -1.657535,-2.310206 -4.649559 -1.537133,-2.401605 -4.186299 -1.41501,-1.705465 -6.073347 -1.626442,-1.806044 -5.382896 -1.535751,-1.899533 -4.964992 -1.404774,-1.982492 -4.570188 -1.29622,-7.986158 -9.103012 0.1723013,-7.443269 -8.810724 0.3199219,-7.027043 -8.128382 0.4562396,-6.785437 -7.473592 0.6468391,-6.53626 -7.033805 0.8293644,-7.271675 -6.774843 0.2483484,-7.134087 -5.83871 0.4049305,-7.05605 -5.265152 0.5549077,-6.997787 -4.761819 0.657092,-7.54534 -6.600342 0.3509946,-7.421746 -5.526834 0.4556146,-7.331749 -4.836295 0.6499323,-7.263795 -4.233142 0.7964251,-7.829011 -6.64492 0.4829237,-7.749256 -5.627965 0.5999091,-7.665977 -4.988842 0.7824354,-7.586156 -4.441396 0.9166292,-8.133629 -6.864086 0.6256409,-8.139836 -6.06384 0.7921335,-8.118239 -5.552689 0.9461369,-8.078352 -5.065183 1.049935,2.810,
-1.658138 -8.324785 -1.741657,-2.198878 -8.160355 -1.477287,-2.632334 -7.637054 -1.37584,-2.870001 -7.028879 -1.250487,-3.127628 -6.476743 -1.081395,-2.571179 -6.423604 -1.725475,-2.827173 -5.669071 -1.581291,-2.962081 -5.187267 -1.422378,-3.064286 -4.724761 -1.267647,-2.286672 -6.185037 -1.712389,-2.48937 -5.325483 -1.61084,-2.605495 -4.805803 -1.428689,-2.683517 -4.334812 -1.281982,-2.000519 -6.12308 -1.62826,-2.155743 -5.313674 -1.503926,-2.269361 -4.797815 -1.286845,-2.356741 -4.353886 -1.105922,-1.687478 -6.197277 -1.511147,-1.780279 -5.531864 -1.354728,-1.868001 -5.120636 -1.162712,-1.948539 -4.737798 -1.0109,-7.896715 -9.345261 0.2393655,-7.354299 -9.048763 0.3549632,-6.917083 -8.362028 0.4525955,-6.659554 -7.706224 0.5860162,-6.424767 -7.249946 0.7165651,-7.181916 -7.001321 0.2315856,-6.99542 -6.117815 0.3836842,-6.899275 -5.593168 0.5386373,-6.826012 -5.134067 0.6324033,-7.444652 -6.821117 0.3491275,-7.298768 -5.795132 0.4542468,-7.191672 -5.142045 0.675714,-7.096787 -4.573595 0.8326812,-7.718807 -6.860232 0.4904415,-7.629377 -5.864517 0.5904729,-7.539272 -5.254972 0.789374,-7.428579 -4.741697 0.9513546,-8.011165 -7.063919 0.6593916,-8.029471 -6.257879 0.8049446,-7.98852 -5.739632 0.9690031,-7.904523 -5.254678 1.087666,2.910,
-1.661296 -8.253977 -1.757895,-2.204478 -8.127115 -1.506607,-2.64196 -7.613378 -1.427431,-2.886508 -6.991982 -1.323231,-3.1252 -6.425294 -1.179203,-2.577472 -6.370056 -1.802404,-2.82549 -5.610226 -1.700521,-2.957089 -5.127157 -1.564763,-3.048636 -4.672314 -1.419123,-2.289122 -6.11911 -1.804078,-2.484831 -5.265478 -1.760228,-2.595536 -4.750125 -1.618026,-2.662794 -4.29549 -1.502874,-2.000718 -6.044021 -1.733926,-2.147374 -5.241548 -1.665547,-2.256342 -4.752504 -1.505199,-2.334093 -4.34103 -1.367625,-1.689489 -6.099409 -1.627612,-1.775457 -5.43008 -1.52829,-1.857816 -5.032407 -1.38523,-1.92813 -4.665846 -1.274793,-7.791902 -9.584213 0.2181468,-7.23138 -9.297773 0.2221223,-6.784163 -8.640749 0.2604287,-6.537044 -8.030251 0.3816906,-6.283232 -7.602314 0.5039631,-6.969248 -7.277723 0.02398106,-6.807186 -6.455617 0.1330881,-6.681009 -5.988638 0.2694615,-6.546334 -5.600109 0.3500098,-7.24007 -7.083824 0.1957474,-7.10078 -6.175682 0.2597506,-6.957168 -5.655493 0.4651922,-6.809801 -5.299338 0.6210024,-7.51935 -7.105552 0.3987073,-7.435942 -6.209953 0.4709476,-7.312408 -5.719066 0.680719,-7.166404 -5.396566 0.8496005,-7.818398 -7.300371 0.6163971,-7.792418 -6.557895 0.7244036,-7.699828 -6.113258 0.8612638,-7.56483 -5.76335 0.9889521,3.010,
-1.65429 -8.259205 -1.729384,-2.19176 -8.122641 -1.456849,-2.631401 -7.603035 -1.357341,-2.875698 -6.979156 -1.237867,-3.120996 -6.40901 -1.080727,-2.566771 -6.359163 -1.720892,-2.817338 -5.600038 -1.594678,-2.952032 -5.110591 -1.44718,-3.049563 -4.646945 -1.299473,-2.280586 -6.114942 -1.722214,-2.472739 -5.262611 -1.661697,-2.585644 -4.735369 -1.509675,-2.654894 -4.258581 -1.383872,-1.990386 -6.057588 -1.653285,-2.133339 -5.257759 -1.566103,-2.242171 -4.751329 -1.387638,-2.319942 -4.316183 -1.235507,-1.673056 -6.141487 -1.54611,-1.75421 -5.483676 -1.420837,-1.834667 -5.07862 -1.259767,-1.901725 -4.704978 -1.135211,-7.70591 -9.695642 -0.2692898,-7.150532 -9.481256 -0.1552026,-6.703432 -8.852299 -0.06990416,-6.44698 -8.288092 0.07912725,-6.195809 -7.816385 0.2045491,-6.854884 -7.52342 -0.4790363,-6.60829 -6.687507 -0.3404846,-6.401163 -6.15316 -0.1427263,-6.239201 -5.704708 0.02732098,-7.116602 -7.348266 -0.3444219,-6.951306 -6.227896 -0.09353524,-6.758114 -6.502394 0.3210019,-6.726107 -7.062932 0.5682964,-7.391386 -7.332845 -0.192443,-7.295423 -6.284175 0.05313626,-7.087112 -6.525758 0.3814552,-7.02686 -7.085728 0.5711026,-7.716303 -7.451915 -0.01786533,-7.66419 -6.611814 0.2616282,-7.473775 -6.576135 0.4731843,-7.369499 -6.976441 0.6108899,3.110,
-1.640368 -8.279716 -1.709314,-2.182726 -8.135555 -1.422171,-2.6234 -7.61356 -1.318815,-2.861272 -6.982402 -1.202102,-3.096214 -6.403016 -1.051784,-2.545471 -6.368508 -1.677441,-2.794758 -5.59884 -1.563791,-2.930923 -5.108277 -1.424757,-3.032515 -4.647593 -1.278539,-2.253838 -6.125806 -1.695828,-2.446535 -5.272017 -1.647227,-2.557698 -4.751634 -1.501572,-2.62609 -4.280672 -1.375615,-1.962274 -6.071111 -1.646063,-2.10313 -5.274949 -1.5667,-2.210348 -4.781253 -1.395102,-2.287736 -4.357477 -1.248384,-1.64854 -6.156555 -1.556739,-1.726912 -5.504358 -1.437474,-1.808558 -5.10807 -1.284294,-1.879747 -4.743164 -1.165805,-7.691467 -9.985804 -0.3452129,-7.084201 -9.624365 -0.2788519,-6.653334 -8.997833 -0.1930557,-6.43453 -8.427603 -0.03234854,-6.206034 -7.960683 0.1215284,-6.719342 -7.853551 -0.5221781,-6.446119 -7.035081 -0.3188469,-6.25464 -6.581026 -0.1375853,-6.073865 -6.179916 -0.009447187,-6.989031 -7.691288 -0.3528946,-6.726477 -6.983263 0.08835295,-6.682707 -7.715196 0.5054895,-6.740883 -8.320604 0.6954385,-7.276789 -7.671223 -0.1352469,-7.054049 -6.987449 0.2647183,-6.980911 -7.709585 0.5436815,-7.022461 -8.32659 0.6337638,-7.630167 -7.759789 0.09044054,-7.461125 -7.07648 0.4407214,-7.327544 -7.444351 0.6577494,-7.306205 -7.961061 0.7522022,3.210,
-1.624659 -8.273998 -1.692543,-2.183086 -8.129457 -1.390733,-2.622107 -7.616192 -1.281833,-2.854574 -6.983742 -1.166299,-3.084777 -6.387939 -1.015521,-2.543176 -6.364507 -1.676337,-2.78254 -5.586582 -1.568988,-2.918205 -5.09132 -1.422003,-3.019518 -4.633455 -1.269984,-2.24652 -6.117517 -1.706028,-2.43118 -5.260746 -1.664003,-2.538537 -4.743967 -1.511356,-2.605848 -4.284775 -1.377253,-1.953165 -6.053041 -1.666359,-2.090416 -5.261359 -1.592574,-2.196682 -4.77408 -1.415756,-2.273219 -4.367435 -1.262246,-1.639729 -6.119387 -1.585258,-1.714499 -5.470174 -1.473506,-1.793989 -5.086556 -1.32227,-1.862368 -4.743721 -1.202528,-7.680301 -9.982304 -0.5890538,-7.072712 -9.657883 -0.567055,-6.644484 -9.110929 -0.5198557,-6.418051 -8.547876 -0.375653,-6.205661 -8.018663 -0.2506146,-6.661976 -7.967397 -0.8582245,-6.358992 -7.264593 -0.6332432,-6.162833 -6.884773 -0.4584892,-5.973128 -6.568626 -0.3815667,-6.926961 -7.779274 -0.6744809,-6.639935 -7.617286 -0.2015759,-6.712708 -8.384697 0.1581341,-6.838494 -8.857962 0.2675927,-7.206455 -7.743574 -0.4314333,-6.926771 -7.592868 0.003298521,-6.985918 -8.345352 0.187505,-7.089022 -8.806629 0.1877822,-7.548887 -7.785377 -0.1729838,-7.283924 -7.468095 0.1606054,-7.235229 -7.961898 0.3167007,-7.283717 -8.373966 0.3398291,3.310,
-1.612959 -8.270351 -1.650616,-2.164506 -8.11577 -1.3565,-2.603741 -7.579998 -1.256981,-2.832389 -6.93798 -1.144834,-3.059601 -6.353849 -0.9963065,-2.516711 -6.335062 -1.656048,-2.751971 -5.555225 -1.544406,-2.884355 -5.060581 -1.387345,-2.985046 -4.597791 -1.22798,-2.21614 -6.096231 -1.675054,-2.391867 -5.241666 -1.626746,-2.493004 -4.723775 -1.460622,-2.556897 -4.259164 -1.317994,-1.920259 -6.041908 -1.624357,-2.051198 -5.255472 -1.544018,-2.154637 -4.773128 -1.356741,-2.230799 -4.366827 -1.199389,-1.606039 -6.119295 -1.532875,-1.675309 -5.473058 -1.415187,-1.752903 -5.088819 -1.259851,-1.821185 -4.739925 -1.138908,-7.58398 -9.981522 -0.5326018,-7.004862 -9.797989 -0.5475368,-6.541662 -9.353321 -0.4619077,-6.299571 -8.860407 -0.2566152,-6.173358 -8.383522 -0.08705315,-6.537638 -8.038374 -0.7364057,-6.170988 -7.634729 -0.3725451,-5.941212 -7.419348 -0.08782786,-5.709646 -7.238386 0.03543019,-6.789942 -7.773931 -0.5461816,-6.448563 -8.099007 -0.1352669,-6.640637 -8.822842 0.03141922,-6.817279 -9.000532 -0.004819036,-7.064653 -7.733065 -0.2831665,-6.728296 -8.083973 0.1320714,-6.898355 -8.771355 0.1619083,-7.05903 -8.953209 0.0780524,-7.384568 -7.806947 -0.002985537,-7.062726 -7.942659 0.2512153,-7.092517 -8.475969 0.3016371,-7.203206 -8.679533 0.2724447,3.410,
-1.611667 -8.280148 -1.556885,-2.149774 -8.124365 -1.279535,-2.586433 -7.573791 -1.186008,-2.817116 -6.924886 -1.078077,-3.046377 -6.33908 -0.9372145,-2.507352 -6.31513 -1.575291,-2.743745 -5.551622 -1.470643,-2.876161 -5.05844 -1.321128,-2.974914 -4.5944 -1.167832,-2.211056 -6.077335 -1.591056,-2.391835 -5.233779 -1.559847,-2.494172 -4.721818 -1.40969,-2.556666 -4.263879 -1.278795,-1.916982 -6.027818 -1.536926,-2.052131 -5.238683 -1.473588,-2.153083 -4.751815 -1.299747,-2.226202 -4.340215 -1.151504,-1.600449 -6.119967 -1.441842,-1.675526 -5.469886 -1.337128,-1.751557 -5.074901 -1.18827,-1.816339 -4.714662 -1.071688,-7.541501 -9.998501 -0.869365,-6.975168 -9.829874 -0.8256493,-6.499899 -9.421965 -0.6924617,-6.237445 -8.9702 -0.4604241,-6.155389 -8.491508 -0.2749611,-6.497087 -8.143015 -0.9491493,-6.123379 -7.748136 -0.5621599,-5.885832 -7.533097 -0.2777013,-5.647593 -7.336998 -0.154429,-6.748861 -7.89496 -0.7754099,-6.410971 -8.153727 -0.3452961,-6.592445 -8.854321 -0.2082049,-6.766772 -8.989895 -0.2663758,-7.023567 -7.861274 -0.5265105,-6.693765 -8.14797 -0.1037281,-6.850961 -8.818542 -0.1077923,-7.009405 -8.961691 -0.2165698,-7.336884 -7.937009 -0.2566801,-7.030034 -8.0424 0.001912594,-7.049258 -8.570372 0.0326364,-7.153161 -8.751661 -0.01116472,3.510,
-1.606665 -8.2561 -1.623039,-2.157197 -8.076227 -1.318854,-2.594273 -7.531035 -1.198711,-2.827359 -6.901139 -1.066706,-3.056511 -6.320854 -0.8960081,-2.50687 -6.300492 -1.594092,-2.743656 -5.526779 -1.445629,-2.87729 -5.034291 -1.266042,-2.980758 -4.570781 -1.089425,-2.207099 -6.073045 -1.597745,-2.38904 -5.224809 -1.49577,-2.494522 -4.707445 -1.29783,-2.564776 -4.258569 -1.132837,-1.908153 -6.027323 -1.528469,-2.046505 -5.234277 -1.39999,-2.147435 -4.73113 -1.177562,-2.22382 -4.322694 -0.9883434,-1.586651 -6.116044 -1.423417,-1.659174 -5.45366 -1.263997,-1.734042 -5.053325 -1.071915,-1.802329 -4.701829 -0.9181152,-7.414929 -9.928835 -0.8089736,-6.864874 -9.837467 -0.7108113,-6.3564 -9.480122 -0.5104803,-6.071754 -9.047049 -0.2336472,-6.079272 -8.561121 -0.001133204,-6.345041 -8.119246 -0.7536011,-5.937429 -7.774587 -0.3081546,-5.682537 -7.545771 -0.00903672,-5.428731 -7.315855 0.1212274,-6.605474 -7.822135 -0.5934941,-6.269623 -8.265905 -0.1222268,-6.469793 -8.953959 -0.054618,-6.638774 -8.986425 -0.1804823,-6.884236 -7.787591 -0.3514985,-6.56863 -8.27112 0.05808008,-6.740696 -8.9142 0.02769262,-6.882427 -8.951298 -0.1003074,-7.185285 -7.886446 -0.08241713,-6.909288 -8.232643 0.1500517,-6.948195 -8.760277 0.1447099,-7.040171 -8.836855 0.07721031,3.610,
-1.608294 -8.295992 -1.574364,-2.159357 -8.121704 -1.283578,-2.594134 -7.55615 -1.180887,-2.826548 -6.917612 -1.063089,-3.052526 -6.336294 -0.9063665,-2.506408 -6.327616 -1.595592,-2.743761 -5.560422 -1.465959,-2.877457 -5.059074 -1.293526,-2.97909 -4.590766 -1.12044,-2.207195 -6.098114 -1.599543,-2.387115 -5.248765 -1.526311,-2.49346 -4.723754 -1.336118,-2.561288 -4.263644 -1.174167,-1.908129 -6.048993 -1.530228,-2.039904 -5.256877 -1.429145,-2.139665 -4.754922 -1.214886,-2.212855 -4.345184 -1.029569,-1.587228 -6.133318 -1.422126,-1.657972 -5.475902 -1.278876,-1.733127 -5.07267 -1.094189,-1.800609 -4.712944 -0.9475782,-7.352833 -9.879692 -0.9204563,-6.79396 -9.818031 -0.8058509,-6.272332 -9.475538 -0.595629,-5.970764 -9.039804 -0.3089706,-5.958383 -8.539867 -0.06671667,-6.240615 -8.12364 -0.8479897,-5.833179 -7.759229 -0.4042515,-5.573851 -7.506496 -0.1140587,-5.313847 -7.246606 0.01459086,-6.497446 -7.82759 -0.6890815,-6.176796 -8.226366 -0.2051453,-6.385258 -8.909128 -0.1520709,-6.542126 -8.901506 -0.2933455,-6.774067 -7.779781 -0.448299,-6.477694 -8.225065 -0.03205407,-6.658125 -8.863157 -0.07109326,-6.790009 -8.850348 -0.2122914,-7.077281 -7.848991 -0.1750379,-6.810386 -8.211914 0.03676409,-6.870334 -8.740589 0.02314192,-6.969156 -8.767912 -0.04378206,3.710,
-1.599691 -8.288734 -1.556913,-2.143288 -8.120226 -1.248379,-2.579099 -7.577276 -1.135525,-2.806143 -6.9275 -1.014422,-3.029935 -6.323722 -0.8592393,-2.491351 -6.321674 -1.54845,-2.718206 -5.542202 -1.433675,-2.84958 -5.042061 -1.270741,-2.949334 -4.568174 -1.105794,-2.190872 -6.083526 -1.573786,-2.360258 -5.229617 -1.524407,-2.458186 -4.711102 -1.358435,-2.517454 -4.246006 -1.215915,-1.89473 -6.032306 -1.528029,-2.016518 -5.244731 -1.446463,-2.113385 -4.763578 -1.254433,-2.184202 -4.362163 -1.09308,-1.578738 -6.115674 -1.438471,-1.642485 -5.468061 -1.318868,-1.717035 -5.082819 -1.157489,-1.782596 -4.739997 -1.03005,-7.280452 -9.824863 -0.8455529,-6.718666 -9.782393 -0.7268068,-6.191007 -9.459486 -0.5029417,-5.893793 -9.032566 -0.2015525,-5.906363 -8.524918 0.06037426,-6.160928 -8.07757 -0.7205172,-5.745253 -7.692628 -0.2575389,-5.477937 -7.417922 0.04182506,-5.213129 -7.140565 0.1797801,-6.425161 -7.7562 -0.559751,-6.10781 -8.215273 -0.06264317,-6.316241 -8.902447 0.008101642,-6.479149 -8.917648 -0.1244033,-6.709074 -7.707601 -0.3159593,-6.416869 -8.214945 0.1009253,-6.596336 -8.849466 0.06862843,-6.724545 -8.851904 -0.06695479,-7.015517 -7.785289 -0.04108721,-6.754397 -8.165617 0.1895974,-6.807435 -8.692642 0.1836845,-6.896028 -8.739538 0.1212426,3.810,
-1.586832 -8.314505 -1.486541,-2.133421 -8.138887 -1.189165,-2.570185 -7.589357 -1.069322,-2.79642 -6.93016 -0.9406362,-3.021284 -6.330909 -0.7796696,-2.480378 -6.325881 -1.447414,-2.715803 -5.558959 -1.331575,-2.841427 -5.060197 -1.184512,-2.936425 -4.593973 -1.035745,-2.178771 -6.08867 -1.470533,-2.356693 -5.236915 -1.417297,-2.456462 -4.722977 -1.266314,-2.515273 -4.270969 -1.137653,-1.880311 -6.041862 -1.428993,-2.007142 -5.240978 -1.346994,-2.105158 -4.758965 -1.169022,-2.176079 -4.365407 -1.020367,-1.562782 -6.140979 -1.346749,-1.632744 -5.48245 -1.227247,-1.709016 -5.093763 -1.077085,-1.779732 -4.753061 -0.9576374,-7.229897 -9.775433 -0.8664509,-6.66365 -9.736069 -0.7641893,-6.12414 -9.438599 -0.5368413,-5.824066 -9.012243 -0.2349305,-5.865112 -8.497711 0.03667593,-6.085465 -8.049446 -0.7515736,-5.67935 -7.659774 -0.3003964,-5.417479 -7.37742 -0.01008409,-5.1644 -7.108701 0.1271493,-6.34677 -7.724235 -0.586544,-6.063603 -8.252298 -0.07662928,-6.281088 -8.907705 -0.0004962087,-6.452349 -8.948349 -0.1312748,-6.635176 -7.662941 -0.3389974,-6.372248 -8.23785 0.08842272,-6.548957 -8.837936 0.05802578,-6.676986 -8.856035 -0.08575505,-6.948465 -7.713465 -0.06447333,-6.716233 -8.158897 0.1626189,-6.757939 -8.678259 0.1587018,-6.831859 -8.747765 0.08985591,3.910,
-1.576384 -8.320492 -1.468441,-2.129041 -8.144083 -1.164911,-2.566512 -7.591386 -1.053876,-2.790971 -6.937341 -0.9336584,-3.013049 -6.354092 -0.7801148,-2.479511 -6.329814 -1.471541,-2.706494 -5.565858 -1.355487,-2.829378 -5.065668 -1.191206,-2.920253 -4.598733 -1.026383,-2.176346 -6.091514 -1.49185,-2.349087 -5.244901 -1.443419,-2.442994 -4.726162 -1.276085,-2.495572 -4.276166 -1.13337,-1.875959 -6.039613 -1.441729,-1.999288 -5.252122 -1.35993,-2.092417 -4.769672 -1.16533,-2.157614 -4.380722 -1.004413,-1.554641 -6.130329 -1.347072,-1.623053 -5.484378 -1.222164,-1.697722 -5.105594 -1.058412,-1.763285 -4.771066 -0.9278314,-7.21556 -9.769846 -0.6034663,-6.656353 -9.743172 -0.4903763,-6.114898 -9.43688 -0.2342482,-5.809341 -9.004032 0.09074664,-5.838791 -8.491138 0.3891643,-6.065302 -7.986668 -0.4534625,-5.678852 -7.61651 -0.0043872,-5.417606 -7.342439 0.272157,-5.158421 -7.077087 0.4074283,-6.329266 -7.643407 -0.2835182,-6.064408 -8.272539 0.2260476,-6.288573 -8.931513 0.2828953,-6.459774 -8.952967 0.1488376,-6.62001 -7.589267 -0.02966386,-6.368265 -8.261755 0.3871942,-6.55576 -8.848925 0.3323539,-6.688909 -8.836609 0.1815579,-6.933736 -7.658214 0.2548215,-6.711628 -8.200182 0.4691064,-6.772286 -8.71291 0.4433799,-6.861599 -8.74177 0.3650239,4.010,
-1.582306 -8.313702 -1.491569,-2.127985 -8.137959 -1.21365,-2.560252 -7.574322 -1.107553,-2.782539 -6.914796 -0.9887419,-3.003236 -6.322614 -0.8383574,-2.467198 -6.321664 -1.467693,-2.704446 -5.546741 -1.358047,-2.830745 -5.046566 -1.216565,-2.923813 -4.577652 -1.071002,-2.165587 -6.08707 -1.47825,-2.342168 -5.225002 -1.430195,-2.441358 -4.706056 -1.287527,-2.499114 -4.253992 -1.164515,-1.866945 -6.043466 -1.423886,-1.988111 -5.237652 -1.344905,-2.082745 -4.754014 -1.175903,-2.147254 -4.36394 -1.033185,-1.549235 -6.140096 -1.330508,-1.609657 -5.47826 -1.215652,-1.68 -5.091843 -1.070084,-1.743604 -4.757055 -0.9576743,-7.17728 -9.655596 -0.6265036,-6.666465 -9.632788 -0.4082288,-6.125861 -9.333357 -0.1015427,-5.814095 -8.916653 0.2585618,-5.894741 -8.420666 0.6012254,-6.098158 -7.835261 -0.3563432,-5.704647 -7.430707 0.1177455,-5.450788 -7.134836 0.4215975,-5.207849 -6.882078 0.5954304,-6.380795 -7.517698 -0.2093191,-6.096118 -7.966955 0.3750995,-6.273605 -8.705294 0.5099925,-6.445454 -8.906313 0.4301617,-6.687594 -7.494777 0.02346665,-6.435815 -8.03713 0.5070077,-6.568412 -8.680792 0.4795067,-6.686126 -8.79302 0.336964,-7.016693 -7.6056 0.2907047,-6.806838 -8.051567 0.5835637,-6.806128 -8.581747 0.5898696,-6.848868 -8.704716 0.5258646,4.110,
-1.580508 -8.301319 -1.494659,-2.123215 -8.12701 -1.208269,-2.563605 -7.558353 -1.098538,-2.793461 -6.898471 -0.9751205,-3.0155 -6.31331 -0.8171255,-2.466247 -6.309844 -1.466375,-2.703318 -5.540177 -1.341873,-2.829082 -5.046092 -1.187441,-2.924199 -4.576417 -1.031549,-2.166807 -6.07642 -1.475176,-2.340592 -5.225254 -1.403793,-2.438849 -4.706483 -1.237428,-2.496316 -4.253715 -1.097199,-1.86856 -6.033872 -1.415452,-1.988591 -5.241704 -1.314268,-2.08302 -4.755146 -1.114478,-2.148576 -4.36099 -0.9483024,-1.549726 -6.131935 -1.317975,-1.610312 -5.477188 -1.181369,-1.682132 -5.08801 -1.011192,-1.747776 -4.744063 -0.8754902,-7.184444 -9.627855 -0.470356,-6.682281 -9.618183 -0.2183788,-6.127595 -9.334511 0.123019,-5.811934 -8.938972 0.4939823,-5.906268 -8.431971 0.8520384,-6.100871 -7.783562 -0.1009155,-5.693701 -7.427951 0.4080579,-5.450294 -7.146177 0.7224377,-5.202615 -6.864761 0.9110963,-6.391721 -7.458387 0.03250748,-6.115509 -8.000401 0.6522287,-6.302533 -8.719318 0.7480412,-6.458514 -8.875048 0.6290344,-6.710992 -7.437885 0.2554312,-6.471614 -8.012255 0.7500548,-6.589771 -8.64632 0.6911762,-6.684849 -8.743481 0.5320311,-7.052462 -7.553327 0.5147631,-6.847827 -8.010605 0.8211325,-6.831883 -8.545055 0.8346334,-6.85452 -8.674294 0.7712351,4.210,
-1.616143 -8.2663 -1.62953,-2.152694 -8.092142 -1.361001,-2.585224 -7.534326 -1.266517,-2.81655 -6.898123 -1.15392,-3.03708 -6.333134 -1.006774,-2.48831 -6.302305 -1.624598,-2.729013 -5.522521 -1.50225,-2.860816 -5.02677 -1.350293,-2.962351 -4.556645 -1.192483,-2.193543 -6.07884 -1.622652,-2.374507 -5.223295 -1.552094,-2.479602 -4.70544 -1.38905,-2.545963 -4.249427 -1.250054,-1.897948 -6.038852 -1.552193,-2.024406 -5.235523 -1.452333,-2.123159 -4.734784 -1.258886,-2.194223 -4.318626 -1.094764,-1.580419 -6.139384 -1.446871,-1.643494 -5.484547 -1.308762,-1.719326 -5.079911 -1.137541,-1.787502 -4.715253 -1.002551,-7.188739 -9.553661 -0.453117,-6.698095 -9.547802 -0.1666328,-6.149513 -9.289545 0.1939308,-5.832591 -8.943886 0.5855211,-5.918109 -8.472591 0.9738964,-6.116812 -7.696004 -0.02037919,-5.710646 -7.332809 0.5176353,-5.464529 -7.077083 0.8579592,-5.217842 -6.837833 1.078217,-6.420226 -7.385089 0.1107648,-6.118946 -7.797155 0.775589,-6.258828 -8.549316 0.9352986,-6.400043 -8.786209 0.8568228,-6.753778 -7.383487 0.3297888,-6.5178 -7.857524 0.8568711,-6.589319 -8.526651 0.8407866,-6.667462 -8.691719 0.6973162,-7.107056 -7.536766 0.5894573,-6.913814 -7.898765 0.9536839,-6.859121 -8.443552 1.010399,-6.850541 -8.624613 0.9701616,4.310,
-1.616111 -8.237644 -1.570177,-2.164119 -8.066732 -1.295966,-2.596315 -7.51763 -1.199586,-2.823846 -6.890527 -1.088166,-3.043718 -6.322792 -0.9405289,-2.504217 -6.264692 -1.589196,-2.734574 -5.507556 -1.478465,-2.865191 -5.021368 -1.323871,-2.965151 -4.562465 -1.165022,-2.204943 -6.035807 -1.595166,-2.383103 -5.201744 -1.540924,-2.486583 -4.691732 -1.379129,-2.55055 -4.24356 -1.238801,-1.90612 -5.991593 -1.530445,-2.035299 -5.212034 -1.442778,-2.135154 -4.726266 -1.256322,-2.207398 -4.329231 -1.09644,-1.586037 -6.084222 -1.426358,-1.660015 -5.442522 -1.297369,-1.739933 -5.056713 -1.131408,-1.812721 -4.714111 -0.9984207,-7.180514 -9.548937 -0.3801274,-6.691336 -9.542591 -0.09218818,-6.138901 -9.277119 0.2677122,-5.824974 -8.94371 0.6546861,-5.906246 -8.476303 1.038292,-6.118701 -7.668073 0.03027803,-5.703646 -7.32727 0.5753159,-5.454535 -7.083881 0.9264282,-5.203781 -6.858158 1.159308,-6.424911 -7.348075 0.1636524,-6.123415 -7.813773 0.8355409,-6.262499 -8.556419 0.9957734,-6.402751 -8.801884 0.9171561,-6.757887 -7.350996 0.3891376,-6.51604 -7.874223 0.9323304,-6.586173 -8.525309 0.9214706,-6.663829 -8.694836 0.7768139,-7.107768 -7.517219 0.656516,-6.902886 -7.897834 1.03817,-6.840267 -8.426805 1.10244,-6.824062 -8.617323 1.058649,4.410,
-1.600233 -8.259748 -1.598884,-2.151106 -8.090124 -1.309315,-2.586585 -7.540005 -1.211174,-2.811669 -6.897712 -1.102831,-3.03801 -6.31413 -0.958877,-2.487826 -6.296714 -1.590227,-2.715883 -5.521952 -1.480228,-2.848329 -5.028663 -1.331601,-2.950305 -4.564113 -1.179749,-2.188755 -6.066192 -1.609054,-2.363111 -5.217528 -1.551881,-2.464878 -4.702503 -1.38999,-2.526208 -4.240756 -1.25061,-1.895083 -6.017051 -1.559944,-2.0224 -5.231098 -1.467133,-2.123126 -4.740314 -1.274093,-2.195151 -4.330167 -1.109914,-1.582248 -6.099569 -1.471206,-1.658998 -5.456312 -1.34473,-1.739243 -5.07191 -1.177442,-1.810625 -4.725861 -1.043849,-7.166639 -9.540876 -0.1803709,-6.645461 -9.567997 0.06512605,-6.054765 -9.32408 0.4202812,-5.738509 -9.000483 0.8117942,-5.840181 -8.579559 1.181681,-6.036357 -7.648263 0.2335806,-5.629233 -7.36006 0.7941603,-5.374342 -7.188844 1.138702,-5.110935 -7.027752 1.369039,-6.364428 -7.296781 0.3737095,-6.06347 -7.910671 1.016196,-6.205215 -8.640785 1.133853,-6.348981 -8.811901 1.053362,-6.711536 -7.322583 0.6082534,-6.471435 -7.999067 1.127362,-6.550073 -8.623798 1.082291,-6.635507 -8.712849 0.9431787,-7.067884 -7.523193 0.8789285,-6.850855 -8.036667 1.222536,-6.800526 -8.542561 1.258988,-6.810614 -8.64871 1.20947,4.510,
-1.606579 -8.265253 -1.594084,-2.145153 -8.10302 -1.299938,-2.578286 -7.547721 -1.200703,-2.799888 -6.888892 -1.091185,-3.019855 -6.299314 -0.9525439,-2.478905 -6.298727 -1.576951,-2.705654 -5.524998 -1.455882,-2.835235 -5.028453 -1.301395,-2.935997 -4.552669 -1.147041,-2.181555 -6.066658 -1.593696,-2.351917 -5.213926 -1.534427,-2.451851 -4.696089 -1.377108,-2.51466 -4.231297 -1.2435,-1.888823 -6.018914 -1.539309,-2.010137 -5.230365 -1.446855,-2.108646 -4.745771 -1.263093,-2.181623 -4.336664 -1.109276,-1.575433 -6.109384 -1.445242,-1.643304 -5.462401 -1.319379,-1.719995 -5.07719 -1.163339,-1.790279 -4.727594 -1.041622,-7.141561 -9.543444 -0.3036711,-6.625414 -9.55068 -0.03928602,-6.042336 -9.320122 0.3223636,-5.717958 -9.030136 0.7152576,-5.797104 -8.619135 1.097753,-6.018953 -7.692544 0.1123186,-5.59224 -7.381151 0.6443462,-5.335003 -7.189717 0.9787979,-5.076425 -7.026597 1.21225,-6.334853 -7.34086 0.2560333,-6.019279 -7.901966 0.9161495,-6.161973 -8.634819 1.081666,-6.309395 -8.888031 1.029899,-6.677957 -7.344837 0.4932208,-6.424779 -7.95646 1.021585,-6.498213 -8.603073 1.002427,-6.582476 -8.782816 0.8704062,-7.032232 -7.536462 0.7676113,-6.816989 -8.009325 1.144659,-6.759223 -8.528534 1.210106,-6.758047 -8.70739 1.179756,4.610,
-1.5885 -8.241184 -1.631896,-2.145686 -8.060839 -1.344492,-2.5778 -7.527677 -1.232473,-2.802684 -6.897052 -1.110252,-3.025681 -6.304333 -0.9535365,-2.485894 -6.290659 -1.612042,-2.720333 -5.523441 -1.497139,-2.849738 -5.027631 -1.345329,-2.946122 -4.570177 -1.190491,-2.18413 -6.059315 -1.627383,-2.362727 -5.212318 -1.571372,-2.461118 -4.700666 -1.41754,-2.520351 -4.252916 -1.285006,-1.887749 -6.009411 -1.574349,-2.016918 -5.220201 -1.486848,-2.115069 -4.730573 -1.306394,-2.185927 -4.33002 -1.149442,-1.571209 -6.093417 -1.482704,-1.64176 -5.445135 -1.361779,-1.719404 -5.059714 -1.205257,-1.78844 -4.719697 -1.079775,-7.076519 -9.541616 -0.03849766,-6.515574 -9.552444 0.1618618,-5.928259 -9.323645 0.5375562,-5.61413 -9.009411 0.9477494,-5.740988 -8.608587 1.328964,-5.919159 -7.65038 0.4341354,-5.508986 -7.411903 1.003402,-5.243107 -7.254867 1.352002,-4.969841 -7.106328 1.581863,-6.254605 -7.277026 0.5801035,-5.951942 -8.088614 1.205681,-6.12428 -8.76198 1.263004,-6.268171 -8.825495 1.161548,-6.608683 -7.305096 0.8175545,-6.357182 -8.141575 1.288972,-6.458412 -8.706663 1.196165,-6.544363 -8.71229 1.049861,-6.970313 -7.517219 1.092696,-6.736955 -8.12434 1.393797,-6.69995 -8.61228 1.404469,-6.71675 -8.675955 1.35849,4.710,
-1.597646 -8.257265 -1.587775,-2.13936 -8.096851 -1.291842,-2.576803 -7.550877 -1.18011,-2.804687 -6.896209 -1.05944,-3.027322 -6.304065 -0.9049916,-2.486343 -6.298706 -1.563483,-2.71419 -5.531884 -1.449819,-2.840725 -5.037123 -1.297817,-2.936434 -4.57011 -1.145463,-2.189645 -6.061338 -1.58376,-2.360028 -5.217622 -1.529197,-2.458323 -4.704849 -1.372088,-2.515493 -4.250669 -1.23664,-1.894849 -6.011528 -1.536354,-2.015558 -5.227561 -1.449416,-2.109534 -4.74974 -1.262092,-2.174154 -4.355012 -1.106201,-1.579663 -6.101043 -1.449132,-1.647396 -5.457745 -1.328183,-1.721859 -5.085498 -1.171522,-1.78599 -4.763937 -1.046754,-6.979843 -9.463942 0.06557044,-6.436985 -9.484583 0.2871057,-5.852964 -9.265644 0.6887318,-5.517233 -8.979031 1.118835,-5.589731 -8.599085 1.538736,-5.800397 -7.581901 0.5754618,-5.384078 -7.352722 1.148745,-5.118036 -7.20479 1.485263,-4.842638 -7.064058 1.703527,-6.126715 -7.189674 0.7254044,-5.838245 -8.029064 1.375197,-6.002775 -8.731203 1.43154,-6.14314 -8.828133 1.320489,-6.477001 -7.215541 0.9695589,-6.249989 -8.082783 1.450138,-6.341811 -8.666965 1.350539,-6.420696 -8.683584 1.19547,-6.834187 -7.437937 1.25215,-6.627145 -8.106112 1.566447,-6.591401 -8.594545 1.587794,-6.601315 -8.645491 1.552523,4.810,
-1.595366 -8.274712 -1.549251,-2.133044 -8.11635 -1.255126,-2.570087 -7.563048 -1.145326,-2.801238 -6.910218 -1.023802,-3.028038 -6.328886 -0.8697329,-2.480337 -6.30151 -1.540066,-2.709334 -5.545232 -1.425109,-2.836482 -5.049467 -1.266516,-2.931658 -4.585297 -1.107955,-2.184067 -6.066535 -1.560322,-2.359182 -5.230863 -1.516611,-2.461657 -4.721668 -1.35761,-2.521492 -4.273304 -1.220029,-1.888254 -6.020414 -1.512045,-2.010261 -5.238901 -1.438236,-2.10997 -4.764415 -1.254459,-2.179986 -4.373268 -1.100219,-1.571944 -6.118627 -1.420206,-1.642684 -5.481008 -1.3065,-1.720996 -5.103222 -1.152255,-1.789389 -4.767921 -1.026947,-6.92053 -9.44124 -0.008054454,-6.383618 -9.447605 0.2500248,-5.803677 -9.220312 0.6543619,-5.469891 -8.93129 1.088412,-5.548298 -8.558895 1.518311,-5.766391 -7.554227 0.4889731,-5.34951 -7.286258 1.081216,-5.084982 -7.139237 1.436318,-4.81451 -7.011604 1.66114,-6.098024 -7.173117 0.6315393,-5.79999 -7.861797 1.31608,-5.948988 -8.59614 1.426394,-6.085909 -8.762533 1.3386,-6.452417 -7.184846 0.8711325,-6.220631 -7.950296 1.39452,-6.297437 -8.566549 1.336201,-6.371655 -8.635414 1.196314,-6.811939 -7.397163 1.149799,-6.608997 -8.027945 1.500092,-6.558975 -8.528971 1.552786,-6.55963 -8.604738 1.533592,4.910,
-1.580089 -8.273193 -1.622952,-2.135159 -8.101397 -1.349513,-2.571146 -7.552539 -1.258246,-2.795004 -6.907376 -1.153131,-3.022102 -6.336931 -1.013419,-2.472751 -6.319198 -1.632593,-2.704226 -5.55237 -1.531738,-2.831719 -5.058628 -1.390321,-2.927234 -4.598374 -1.242443,-2.171565 -6.087679 -1.648307,-2.34647 -5.242368 -1.609594,-2.444025 -4.731697 -1.454791,-2.500539 -4.285032 -1.322505,-1.875913 -6.035245 -1.599317,-2.002958 -5.254021 -1.525926,-2.101269 -4.776138 -1.343831,-2.169837 -4.386198 -1.189372,-1.562848 -6.115718 -1.509754,-1.636148 -5.479219 -1.397502,-1.715116 -5.105871 -1.245427,-1.785119 -4.771871 -1.12488,-6.864463 -9.375475 -0.01970215,-6.312313 -9.400801 0.2084719,-5.724177 -9.19945 0.6192086,-5.395508 -8.911036 1.066952,-5.499506 -8.496918 1.497081,-5.698301 -7.502036 0.4942386,-5.267774 -7.227993 1.085712,-4.990828 -7.057359 1.446033,-4.712538 -6.907478 1.674686,-6.038231 -7.120578 0.6481084,-5.721027 -7.893707 1.325538,-5.878099 -8.616859 1.395992,-6.024762 -8.736687 1.277549,-6.393709 -7.149236 0.8958223,-6.146204 -7.95856 1.402474,-6.235553 -8.552959 1.312941,-6.320273 -8.577 1.155193,-6.749179 -7.369081 1.184692,-6.531888 -7.973649 1.507191,-6.490826 -8.461018 1.515799,-6.5042 -8.514933 1.470794,5.010,
-1.561284 -8.278759 -1.635838,-2.112392 -8.116299 -1.339168,-2.554023 -7.576628 -1.228626,-2.785379 -6.934658 -1.110733,-3.003461 -6.345366 -0.9640736,-2.455022 -6.325958 -1.625035,-2.680371 -5.5534 -1.532607,-2.809666 -5.054202 -1.394961,-2.904457 -4.59331 -1.249099,-2.153782 -6.097323 -1.659731,-2.330544 -5.249433 -1.650103,-2.431237 -4.735525 -1.522573,-2.489545 -4.282045 -1.405817,-1.857338 -6.050231 -1.628459,-1.981233 -5.268955 -1.582065,-2.083412 -4.794998 -1.427296,-2.154135 -4.403574 -1.29078,-1.54398 -6.138795 -1.551358,-1.617048 -5.503014 -1.463533,-1.695708 -5.124322 -1.329339,-1.763111 -4.782268 -1.219337,-6.80523 -9.313572 0.0450886,-6.258087 -9.368052 0.2975414,-5.676515 -9.178596 0.7076011,-5.342409 -8.955933 1.14204,-5.374415 -8.598679 1.576308,-5.575747 -7.49625 0.5910357,-5.163411 -7.203001 1.17017,-4.906255 -7.012216 1.523241,-4.6453 -6.838111 1.761272,-5.906075 -7.079708 0.7574004,-5.63547 -7.791502 1.418362,-5.775318 -8.518742 1.569078,-5.909444 -8.736135 1.536791,-6.273553 -7.08192 0.9954518,-6.069911 -7.885681 1.535524,-6.14011 -8.513983 1.522172,-6.213861 -8.64452 1.400465,-6.649307 -7.303283 1.270017,-6.47056 -7.983508 1.640581,-6.420957 -8.470907 1.707712,-6.419292 -8.571043 1.679486,5.110,
-1.556818 -8.297108 -1.665849,-2.104758 -8.135035 -1.365877,-2.543801 -7.589844 -1.251723,-2.766348 -6.920156 -1.128609,-2.988615 -6.321155 -0.9751575,-2.443044 -6.358747 -1.621429,-2.665399 -5.572494 -1.503092,-2.792914 -5.074455 -1.348083,-2.894136 -4.600334 -1.189982,-2.143651 -6.12298 -1.645782,-2.309602 -5.260952 -1.590233,-2.410495 -4.749845 -1.430834,-2.476193 -4.297579 -1.292986,-1.847744 -6.069755 -1.605881,-1.965452 -5.278247 -1.521496,-2.066759 -4.807752 -1.338017,-2.142236 -4.417386 -1.185314,-1.535122 -6.154344 -1.524148,-1.59536 -5.510229 -1.404135,-1.670553 -5.136939 -1.253984,-1.739164 -4.805163 -1.131937,-6.785722 -9.322495 0.0710119,-6.227279 -9.37376 0.3257038,-5.64206 -9.232033 0.7596799,-5.309271 -9.034498 1.210123,-5.388631 -8.650164 1.660755,-5.559384 -7.510255 0.6390949,-5.150395 -7.221344 1.232703,-4.881308 -7.017783 1.590257,-4.616296 -6.840406 1.825906,-5.895346 -7.084098 0.8057531,-5.625517 -7.870674 1.476613,-5.777166 -8.570261 1.603379,-5.92226 -8.759203 1.563081,-6.267867 -7.088512 1.045777,-6.058395 -7.975839 1.582017,-6.140337 -8.565578 1.552004,-6.221558 -8.660307 1.431879,-6.648865 -7.304597 1.326494,-6.455271 -8.035351 1.675526,-6.410978 -8.513439 1.718999,-6.417315 -8.596064 1.689345,5.210,
-1.561419 -8.305307 -1.592951,-2.098865 -8.137415 -1.302907,-2.535314 -7.582693 -1.190398,-2.76677 -6.938596 -1.065746,-2.981596 -6.352001 -0.9078119,-2.437916 -6.340314 -1.580344,-2.666885 -5.573759 -1.465102,-2.790539 -5.081597 -1.309705,-2.884733 -4.613895 -1.147978,-2.142622 -6.10803 -1.592512,-2.309 -5.262426 -1.537917,-2.405135 -4.744521 -1.377023,-2.460989 -4.294464 -1.238297,-1.847395 -6.066585 -1.540265,-1.962258 -5.277413 -1.452707,-2.056139 -4.794899 -1.261558,-2.120713 -4.408705 -1.102622,-1.530914 -6.165478 -1.445725,-1.595453 -5.521129 -1.316453,-1.672205 -5.141469 -1.15064,-1.741836 -4.810589 -1.019937,-6.742344 -9.371267 0.2579604,-6.20284 -9.427021 0.5718039,-5.619808 -9.266262 1.040647,-5.295354 -9.077875 1.488448,-5.412701 -8.715433 1.928876,-5.553516 -7.543838 0.9878752,-5.165426 -7.324199 1.605499,-4.916106 -7.142774 1.965211,-4.660009 -6.955667 2.210713,-5.897205 -7.103689 1.129071,-5.670925 -8.022671 1.841466,-5.831366 -8.731081 1.896409,-5.977386 -8.896978 1.814907,-6.284017 -7.118543 1.347981,-6.119087 -8.087547 1.912968,-6.199212 -8.660107 1.832692,-6.281663 -8.739569 1.693988,-6.680195 -7.350627 1.612486,-6.517711 -8.116032 1.977093,-6.476147 -8.577482 2.005682,-6.483179 -8.650213 1.97635,5.310,
-1.560155 -8.308298 -1.585849,-2.103406 -8.155643 -1.304223,-2.542988 -7.586692 -1.208153,-2.771177 -6.928445 -1.10067,-2.981169 -6.355821 -0.9649562,-2.444646 -6.345233 -1.58634,-2.67003 -5.577094 -1.481588,-2.792964 -5.078529 -1.334762,-2.882491 -4.614572 -1.184073,-2.146383 -6.110322 -1.603089,-2.318746 -5.263296 -1.566012,-2.415771 -4.747682 -1.420903,-2.469294 -4.300203 -1.296471,-1.848391 -6.064036 -1.552594,-1.966562 -5.276693 -1.482687,-2.06078 -4.802265 -1.312081,-2.123956 -4.417932 -1.168146,-1.532102 -6.161293 -1.457682,-1.59792 -5.524141 -1.348568,-1.673427 -5.151697 -1.203409,-1.740365 -4.821116 -1.086897,-6.74966 -9.379269 0.3177376,-6.21575 -9.457054 0.6476145,-5.638079 -9.288664 1.152153,-5.32403 -9.122833 1.636709,-5.448349 -8.834724 2.128798,-5.564984 -7.579362 1.151348,-5.205922 -7.385694 1.795741,-4.971281 -7.246627 2.15624,-4.726101 -7.087411 2.387904,-5.915543 -7.126346 1.28298,-5.720837 -8.050484 2.01307,-5.855467 -8.77253 2.040087,-5.977948 -8.931751 1.943477,-6.312069 -7.144144 1.484841,-6.186204 -8.166952 2.040752,-6.24822 -8.711597 1.931355,-6.312508 -8.729 1.784641,-6.717436 -7.382398 1.731859,-6.584254 -8.234289 2.077482,-6.540874 -8.66057 2.097111,-6.539885 -8.653534 2.074956,5.410,
-1.551643 -8.3039 -1.59756,-2.109332 -8.132299 -1.317019,-2.544858 -7.581858 -1.219356,-2.769403 -6.931075 -1.108747,-2.983027 -6.342334 -0.969044,-2.44077 -6.341376 -1.621759,-2.663175 -5.568498 -1.522737,-2.789315 -5.069366 -1.373078,-2.884913 -4.607091 -1.221475,-2.139771 -6.110254 -1.640217,-2.307096 -5.25854 -1.60959,-2.402881 -4.741384 -1.460467,-2.459918 -4.294447 -1.333014,-1.844305 -6.058918 -1.591603,-1.960629 -5.273254 -1.523904,-2.05677 -4.799558 -1.348545,-2.12699 -4.420585 -1.201952,-1.532459 -6.138937 -1.499022,-1.599371 -5.501319 -1.393309,-1.677411 -5.134231 -1.251777,-1.747738 -4.815361 -1.139876,-6.727744 -9.383373 0.3289656,-6.20176 -9.480021 0.6746856,-5.628366 -9.314413 1.195527,-5.324333 -9.158016 1.687737,-5.469627 -8.886179 2.183196,-5.573068 -7.589654 1.220963,-5.218079 -7.426656 1.873105,-4.98152 -7.310956 2.241544,-4.735125 -7.174613 2.482019,-5.927082 -7.133565 1.337447,-5.728832 -8.096724 2.066954,-5.848597 -8.824303 2.078781,-5.967016 -8.988064 1.980361,-6.329118 -7.160726 1.523922,-6.20228 -8.197582 2.069494,-6.257119 -8.736641 1.943298,-6.321419 -8.750364 1.790587,-6.736948 -7.409082 1.75687,-6.600547 -8.255434 2.106108,-6.548611 -8.673634 2.114824,-6.543482 -8.660931 2.090437,5.510,
-1.563693 -8.296404 -1.620004,-2.107586 -8.135695 -1.355532,-2.541994 -7.570924 -1.260383,-2.763512 -6.908573 -1.153436,-2.9748 -6.342206 -1.015721,-2.439167 -6.340929 -1.60351,-2.661726 -5.562322 -1.49505,-2.780521 -5.069646 -1.353235,-2.872898 -4.603053 -1.207258,-2.139574 -6.105731 -1.614324,-2.303443 -5.246137 -1.568265,-2.400579 -4.735799 -1.428544,-2.460838 -4.293647 -1.304435,-1.842226 -6.057455 -1.561291,-1.954713 -5.262424 -1.480969,-2.049502 -4.79515 -1.309502,-2.119507 -4.418578 -1.165565,-1.527761 -6.151119 -1.470581,-1.59008 -5.503407 -1.351689,-1.665451 -5.135211 -1.207582,-1.737354 -4.812116 -1.091953,-6.715734 -9.358637 0.3410206,-6.214016 -9.50042 0.7115047,-5.656118 -9.330462 1.259578,-5.347017 -9.190691 1.766628,-5.474858 -8.954254 2.279938,-5.581366 -7.586074 1.319761,-5.235088 -7.495103 2.000066,-5.001923 -7.403007 2.402712,-4.752321 -7.294227 2.66977,-5.939323 -7.130579 1.423079,-5.730358 -8.05579 2.161299,-5.809194 -8.797703 2.188452,-5.892004 -9.007952 2.114528,-6.348889 -7.174303 1.59634,-6.230041 -8.207052 2.135752,-6.255303 -8.767862 2.037351,-6.289174 -8.81196 1.918991,-6.75534 -7.457031 1.811955,-6.641572 -8.333736 2.149526,-6.579342 -8.750069 2.162901,-6.561251 -8.722239 2.162232,5.610,
-1.556148 -8.31599 -1.603797,-2.095907 -8.146362 -1.334142,-2.534053 -7.593166 -1.23234,-2.760926 -6.941978 -1.117314,-2.971737 -6.364305 -0.9718294,-2.43046 -6.359314 -1.602392,-2.656111 -5.596788 -1.495401,-2.775731 -5.106937 -1.349795,-2.866247 -4.642965 -1.19885,-2.137143 -6.121886 -1.614019,-2.305134 -5.279176 -1.571042,-2.403019 -4.76132 -1.41976,-2.462234 -4.308788 -1.283897,-1.841661 -6.074792 -1.562503,-1.956937 -5.288428 -1.487996,-2.050185 -4.815212 -1.305452,-2.114849 -4.433911 -1.150331,-1.525879 -6.169634 -1.470067,-1.592163 -5.526725 -1.348428,-1.668525 -5.156242 -1.189138,-1.739172 -4.832825 -1.060732,-6.735588 -9.335928 0.4729528,-6.226676 -9.483473 0.8042634,-5.667351 -9.316586 1.362732,-5.360073 -9.189688 1.880459,-5.448492 -8.968296 2.394208,-5.57078 -7.557966 1.451954,-5.216 -7.502464 2.15512,-4.98209 -7.410302 2.543375,-4.729436 -7.282655 2.794898,-5.934196 -7.080932 1.571997,-5.708841 -8.215563 2.289798,-5.815235 -8.918509 2.205012,-5.91688 -9.009844 2.047513,-6.346191 -7.138677 1.767254,-6.205235 -8.352392 2.270512,-6.258389 -8.84823 2.08949,-6.312572 -8.766867 1.933076,-6.753146 -7.429906 2.006244,-6.610308 -8.410048 2.284814,-6.571581 -8.796844 2.237434,-6.579532 -8.686876 2.200653,5.710,
-1.546655 -8.313814 -1.645569,-2.102687 -8.146343 -1.35447,-2.540849 -7.601872 -1.247266,-2.766386 -6.955232 -1.132992,-2.970958 -6.368069 -0.9932787,-2.435294 -6.365436 -1.636205,-2.658188 -5.593231 -1.535143,-2.78298 -5.094236 -1.389808,-2.876983 -4.636841 -1.240847,-2.134211 -6.133877 -1.662536,-2.305233 -5.280752 -1.631354,-2.406129 -4.767878 -1.493658,-2.467458 -4.325769 -1.370101,-1.837382 -6.083008 -1.622918,-1.955991 -5.29363 -1.556695,-2.055173 -4.820627 -1.391076,-2.125293 -4.441151 -1.247209,-1.524096 -6.166185 -1.540399,-1.593772 -5.526105 -1.438151,-1.67179 -5.151212 -1.298576,-1.741822 -4.820119 -1.182789,-6.678684 -9.314222 0.508893,-6.181006 -9.434727 0.8180701,-5.642966 -9.259335 1.359793,-5.346195 -9.179558 1.865072,-5.410033 -8.986788 2.371689,-5.550749 -7.485384 1.473177,-5.184126 -7.488221 2.153097,-4.948364 -7.417974 2.540259,-4.690842 -7.286064 2.800687,-5.910648 -7.028392 1.592618,-5.663394 -8.259079 2.302979,-5.787028 -8.985073 2.178416,-5.89543 -9.080364 1.985427,-6.321506 -7.119157 1.787854,-6.157025 -8.350695 2.284681,-6.214622 -8.874758 2.077619,-6.272725 -8.830351 1.890842,-6.727996 -7.435557 2.025939,-6.571095 -8.384617 2.288431,-6.529684 -8.793291 2.202348,-6.539665 -8.715282 2.131578,5.810,
-1.535246 -8.331528 -1.663459,-2.084762 -8.177986 -1.364193,-2.52608 -7.624753 -1.254352,-2.751375 -6.961154 -1.137329,-2.952451 -6.366437 -0.9991596,-2.420076 -6.391323 -1.650328,-2.629279 -5.611358 -1.54466,-2.747004 -5.110637 -1.390089,-2.840305 -4.641952 -1.229975,-2.118487 -6.155677 -1.676805,-2.275913 -5.299685 -1.645018,-2.371264 -4.789554 -1.494166,-2.432522 -4.345202 -1.361329,-1.820619 -6.105522 -1.638837,-1.930194 -5.321174 -1.573638,-2.026178 -4.854642 -1.402365,-2.097513 -4.47463 -1.255065,-1.508699 -6.192667 -1.553637,-1.56427 -5.559864 -1.452004,-1.635634 -5.189437 -1.311544,-1.702484 -4.858931 -1.194502,-6.649048 -9.266901 0.4798155,-6.142923 -9.384489 0.7777466,-5.604323 -9.203367 1.322319,-5.306534 -9.140827 1.833455,-5.350435 -8.99081 2.359663,-5.500938 -7.478244 1.454742,-5.137697 -7.464534 2.14962,-4.896579 -7.386018 2.5431,-4.636632 -7.245965 2.798174,-5.856451 -7.006685 1.5793,-5.633261 -8.241259 2.296131,-5.758913 -8.956545 2.159871,-5.871592 -9.039324 1.953852,-6.268221 -7.077837 1.776755,-6.128018 -8.337545 2.270596,-6.188262 -8.847742 2.056734,-6.248056 -8.779156 1.872241,-6.676881 -7.375756 2.015302,-6.535076 -8.380695 2.269475,-6.492443 -8.785664 2.184118,-6.498706 -8.683241 2.125707,5.910,
-1.542431 -8.337629 -1.621537,-2.090687 -8.184313 -1.339175,-2.522431 -7.628138 -1.237933,-2.742323 -6.965608 -1.127554,-2.951467 -6.378612 -0.9940954,-2.415335 -6.37967 -1.629406,-2.632215 -5.604366 -1.538912,-2.752634 -5.108297 -1.401366,-2.845382 -4.649244 -1.257979,-2.114687 -6.146688 -1.654342,-2.276124 -5.286994 -1.64784,-2.375901 -4.776798 -1.524843,-2.43728 -4.335225 -1.41348,-1.818249 -6.100692 -1.615117,-1.927889 -5.310137 -1.572069,-2.028043 -4.846006 -1.419913,-2.102568 -4.470278 -1.290227,-1.507903 -6.195272 -1.529211,-1.564938 -5.556274 -1.444671,-1.640984 -5.185915 -1.319279,-1.712566 -4.857512 -1.215105,-6.616604 -9.242418 0.5050736,-6.110431 -9.376188 0.8383237,-5.577671 -9.219532 1.409769,-5.286263 -9.163967 1.934146,-5.353945 -9.007917 2.46998,-5.472626 -7.465562 1.528677,-5.125196 -7.470656 2.243862,-4.894129 -7.398725 2.650218,-4.641593 -7.259621 2.917238,-5.837135 -6.988115 1.64274,-5.621483 -8.214241 2.364782,-5.731716 -8.930494 2.24272,-5.828884 -9.014273 2.063431,-6.254986 -7.056264 1.832197,-6.120208 -8.3125 2.336131,-6.165739 -8.829609 2.133367,-6.21487 -8.758396 1.966245,-6.668566 -7.357035 2.067314,-6.536014 -8.345757 2.333498,-6.484721 -8.750456 2.258378,-6.484607 -8.653751 2.204486,6.010,
-1.525766 -8.339371 -1.602105,-2.078602 -8.170942 -1.289419,-2.516588 -7.621597 -1.169481,-2.742966 -6.966747 -1.04638,-2.953891 -6.373494 -0.8936259,-2.419583 -6.384787 -1.565697,-2.632605 -5.615154 -1.450937,-2.749484 -5.114101 -1.290894,-2.838683 -4.651035 -1.131459,-2.119194 -6.148071 -1.596094,-2.278362 -5.29994 -1.552058,-2.373201 -4.783433 -1.397382,-2.43062 -4.335908 -1.260976,-1.82115 -6.097408 -1.559455,-1.931717 -5.315355 -1.483265,-2.021529 -4.847103 -1.300175,-2.084674 -4.471866 -1.147602,-1.506898 -6.183785 -1.477683,-1.569679 -5.543462 -1.364528,-1.64215 -5.176639 -1.211879,-1.707562 -4.856946 -1.088076,-6.610707 -9.265081 0.6456608,-6.110826 -9.375961 0.9880342,-5.574972 -9.217136 1.565908,-5.28401 -9.170977 2.096274,-5.335348 -9.038671 2.638276,-5.464305 -7.440628 1.661902,-5.118387 -7.460144 2.377151,-4.889404 -7.401302 2.784633,-4.632657 -7.271259 3.052078,-5.83028 -6.964567 1.784253,-5.614599 -8.190893 2.517579,-5.712098 -8.950268 2.410518,-5.79779 -9.084023 2.242379,-6.252628 -7.040924 1.978014,-6.12221 -8.319471 2.510366,-6.165182 -8.863968 2.303583,-6.2104 -8.822056 2.130859,-6.674191 -7.359424 2.219753,-6.538338 -8.366266 2.492579,-6.489363 -8.780336 2.421142,-6.488915 -8.694813 2.373318,6.110,
-1.536976 -8.342934 -1.627391,-2.098846 -8.172352 -1.357422,-2.535468 -7.611019 -1.267673,-2.752881 -6.944068 -1.170328,-2.953457 -6.361772 -1.052048,-2.41447 -6.387646 -1.625052,-2.630749 -5.612018 -1.528199,-2.747434 -5.117443 -1.391713,-2.838675 -4.661493 -1.252888,-2.10963 -6.153665 -1.648194,-2.2748 -5.297018 -1.625276,-2.372977 -4.787012 -1.492476,-2.436882 -4.342069 -1.372591,-1.810812 -6.102403 -1.608393,-1.923618 -5.319431 -1.549608,-2.02019 -4.853923 -1.386165,-2.093199 -4.47557 -1.247609,-1.500653 -6.188293 -1.526619,-1.558076 -5.556228 -1.431128,-1.636634 -5.185489 -1.295305,-1.714429 -4.853127 -1.183635,-6.593616 -9.286503 0.6925895,-6.096372 -9.378214 1.042244,-5.570662 -9.220295 1.6138,-5.285662 -9.182304 2.136275,-5.341164 -9.059536 2.676071,-5.455695 -7.454153 1.729526,-5.114431 -7.460739 2.431921,-4.889139 -7.401319 2.837516,-4.634462 -7.279148 3.1035,-5.820156 -6.976041 1.847303,-5.614305 -8.160891 2.581023,-5.68935 -8.964079 2.505867,-5.761185 -9.18215 2.370308,-6.246264 -7.047757 2.031071,-6.124343 -8.285896 2.562719,-6.155182 -8.878616 2.38227,-6.194888 -8.921188 2.234959,-6.673685 -7.368211 2.262075,-6.547628 -8.35247 2.539536,-6.493055 -8.793808 2.485823,-6.48685 -8.763327 2.457084,6.210,
-1.532489 -8.324234 -1.652631,-2.088089 -8.158201 -1.390974,-2.520278 -7.612014 -1.296007,-2.74377 -6.958444 -1.189011,-2.951803 -6.379736 -1.054382,-2.420806 -6.377212 -1.678285,-2.633462 -5.599231 -1.593737,-2.749263 -5.099449 -1.461758,-2.834324 -4.641454 -1.322005,-2.119405 -6.14665 -1.700103,-2.281121 -5.284211 -1.69422,-2.376802 -4.770505 -1.572317,-2.434532 -4.330787 -1.45959,-1.821587 -6.094757 -1.658004,-1.930702 -5.302688 -1.621827,-2.023224 -4.83723 -1.474057,-2.090397 -4.465238 -1.346633,-1.509345 -6.179685 -1.574338,-1.571993 -5.536054 -1.49663,-1.646888 -5.17027 -1.375161,-1.717454 -4.845326 -1.274416,-6.623723 -9.264074 0.5490212,-6.140947 -9.400038 0.9241506,-5.618017 -9.279957 1.505991,-5.334622 -9.260286 2.033712,-5.361309 -9.147242 2.5957,-5.484385 -7.492116 1.617124,-5.160566 -7.451578 2.312765,-4.941135 -7.385722 2.742906,-4.691275 -7.290251 3.018037,-5.844649 -7.021501 1.738105,-5.642712 -8.047359 2.49332,-5.675493 -8.889633 2.502508,-5.716833 -9.217379 2.422231,-6.27001 -7.084632 1.914038,-6.162024 -8.214468 2.466419,-6.164721 -8.868979 2.350384,-6.18113 -9.018866 2.246887,-6.705044 -7.39641 2.133552,-6.604227 -8.292416 2.432939,-6.529959 -8.775785 2.410375,-6.5017 -8.823784 2.405151,6.310,
-1.527662 -8.338787 -1.645804,-2.078012 -8.194349 -1.356891,-2.519993 -7.640548 -1.255157,-2.744199 -6.968518 -1.149661,-2.944906 -6.382104 -1.023505,-2.4157 -6.400489 -1.636009,-2.627988 -5.62634 -1.542766,-2.745197 -5.130525 -1.407762,-2.8359 -4.670991 -1.268855,-2.113305 -6.158419 -1.667622,-2.274184 -5.301744 -1.650654,-2.371229 -4.792184 -1.526123,-2.431052 -4.345077 -1.412609,-1.814798 -6.10506 -1.635681,-1.92585 -5.320283 -1.581731,-2.020085 -4.858407 -1.423723,-2.086988 -4.478082 -1.292065,-1.503447 -6.191663 -1.558643,-1.564132 -5.559083 -1.465564,-1.638738 -5.195175 -1.331941,-1.70784 -4.866811 -1.222131,-6.730894 -9.341955 1.03319,-6.200959 -9.412674 1.401879,-5.697453 -9.292454 2.027131,-5.42823 -9.371582 2.582875,-5.408785 -9.36824 3.158875,-5.552509 -7.483257 2.233514,-5.264534 -7.583761 3.014583,-5.063185 -7.570532 3.483181,-4.833021 -7.501585 3.787229,-5.9321 -7.015496 2.357355,-5.730151 -8.330568 3.112738,-5.752848 -9.184362 2.99104,-5.772429 -9.431086 2.859982,-6.374238 -7.130315 2.536273,-6.23585 -8.503185 3.091517,-6.216445 -9.139574 2.862272,-6.218138 -9.203079 2.708867,-6.821412 -7.498319 2.771843,-6.706064 -8.500635 3.059278,-6.61259 -8.976601 2.976492,-6.574231 -8.99382 2.945383,6.410,
-1.531117 -8.337124 -1.620475,-2.07829 -8.179262 -1.330836,-2.517254 -7.62568 -1.225865,-2.740742 -6.972051 -1.108292,-2.947593 -6.391126 -0.9652267,-2.420395 -6.38039 -1.632322,-2.632761 -5.612388 -1.531985,-2.75169 -5.113605 -1.382927,-2.840999 -4.651706 -1.23077,-2.116726 -6.149419 -1.655512,-2.277142 -5.298139 -1.632755,-2.374295 -4.78701 -1.493686,-2.43257 -4.349961 -1.372146,-1.816803 -6.103423 -1.611516,-1.92816 -5.325158 -1.553172,-2.024309 -4.85765 -1.382353,-2.093297 -4.486614 -1.240511,-1.501229 -6.19185 -1.521533,-1.566311 -5.56136 -1.42148,-1.643692 -5.195925 -1.280524,-1.714389 -4.873662 -1.165913,-6.727011 -9.446653 1.28451,-6.196709 -9.470007 1.673348,-5.696885 -9.326984 2.304011,-5.424595 -9.395533 2.854009,-5.409181 -9.381172 3.423824,-5.558504 -7.531604 2.529903,-5.277151 -7.632646 3.313533,-5.079133 -7.621511 3.761792,-4.846336 -7.527702 4.058054,-5.946041 -7.042639 2.633964,-5.764353 -8.467419 3.34885,-5.814614 -9.276791 3.177762,-5.850071 -9.439642 3.031998,-6.399021 -7.154445 2.792834,-6.270261 -8.606991 3.312127,-6.264172 -9.182974 3.048851,-6.277242 -9.169603 2.889094,-6.850311 -7.533172 3.015508,-6.732952 -8.586353 3.28911,-6.652298 -9.036762 3.177606,-6.628445 -9.0056 3.135333,6.510,
-1.522 -8.346512 -1.623916,-2.073814 -8.190819 -1.319289,-2.516681 -7.634663 -1.209909,-2.741112 -6.967823 -1.090901,-2.941246 -6.368919 -0.9479835,-2.414014 -6.393761 -1.65594,-2.623259 -5.623957 -1.561914,-2.738983 -5.127307 -1.405251,-2.822637 -4.669954 -1.247178,-2.111693 -6.161552 -1.686058,-2.274505 -5.312798 -1.666814,-2.369823 -4.795411 -1.509552,-2.425841 -4.349939 -1.372895,-1.812373 -6.112245 -1.64924,-1.927564 -5.340589 -1.594508,-2.023849 -4.878311 -1.407546,-2.090599 -4.511732 -1.252314,-1.497743 -6.194415 -1.56212,-1.562121 -5.564088 -1.464371,-1.637701 -5.198687 -1.314358,-1.703487 -4.8799 -1.190009,-6.724159 -9.518682 1.347981,-6.191746 -9.50943 1.759124,-5.697687 -9.358503 2.408585,-5.429386 -9.453663 2.977771,-5.413422 -9.488693 3.574896,-5.581607 -7.550399 2.625152,-5.31345 -7.668638 3.456043,-5.10868 -7.685347 3.945668,-4.874841 -7.670009 4.26612,-5.980202 -7.097044 2.725087,-5.785749 -8.440636 3.509806,-5.796013 -9.308182 3.392194,-5.807604 -9.582531 3.272416,-6.437586 -7.230592 2.880146,-6.300085 -8.622271 3.461672,-6.278644 -9.25948 3.211077,-6.277811 -9.340679 3.044669,-6.889126 -7.617774 3.097114,-6.759557 -8.667391 3.397032,-6.668918 -9.144108 3.293077,-6.636641 -9.161551 3.2527,6.610,
-1.512046 -8.35714 -1.639835,-2.078736 -8.190439 -1.36889,-2.514132 -7.636081 -1.27927,-2.729915 -6.979192 -1.180143,-2.932421 -6.405232 -1.055858,-2.404069 -6.408073 -1.668432,-2.616152 -5.636357 -1.582981,-2.731723 -5.136634 -1.441401,-2.815948 -4.679276 -1.291642,-2.100594 -6.176198 -1.687961,-2.26104 -5.327613 -1.671428,-2.356841 -4.809627 -1.528975,-2.414762 -4.367448 -1.397405,-1.801861 -6.1229 -1.642501,-1.914668 -5.344005 -1.587684,-2.006868 -4.874364 -1.414446,-2.0717 -4.501636 -1.265535,-1.488492 -6.201469 -1.553447,-1.551554 -5.566789 -1.454859,-1.625014 -5.2017 -1.310219,-1.691976 -4.879018 -1.188778,-6.772305 -9.542765 1.45087,-6.234982 -9.527525 1.827982,-5.721733 -9.401688 2.47927,-5.421469 -9.502686 3.053274,-5.376608 -9.540092 3.674484,-5.600517 -7.576206 2.768245,-5.332407 -7.681111 3.629304,-5.128021 -7.701662 4.130021,-4.893078 -7.712743 4.429852,-6.00484 -7.123748 2.880689,-5.797263 -8.414146 3.676804,-5.801538 -9.279484 3.573381,-5.808281 -9.550129 3.458728,-6.464422 -7.259231 3.038463,-6.323097 -8.620655 3.595214,-6.3053 -9.241617 3.352612,-6.304499 -9.301958 3.210331,-6.923212 -7.643034 3.255339,-6.801348 -8.731539 3.52558,-6.713638 -9.193972 3.426624,-6.681393 -9.183495 3.409721,6.710,
-1.51646 -8.352741 -1.680607,-2.065156 -8.208532 -1.430037,-2.505096 -7.657144 -1.33697,-2.725189 -6.986519 -1.234972,-2.926892 -6.412836 -1.118396,-2.394495 -6.413288 -1.691468,-2.606928 -5.632862 -1.611877,-2.722318 -5.141248 -1.492606,-2.807534 -4.684194 -1.366584,-2.090928 -6.179801 -1.711378,-2.25268 -5.321651 -1.704432,-2.350861 -4.816514 -1.595748,-2.409727 -4.380714 -1.490112,-1.792437 -6.13602 -1.671651,-1.904357 -5.347478 -1.633326,-2.001151 -4.891746 -1.493641,-2.071345 -4.5212 -1.371134,-1.48178 -6.233625 -1.591774,-1.53634 -5.594491 -1.514003,-1.61022 -5.22566 -1.396,-1.681387 -4.891407 -1.295524,-6.787411 -9.61702 1.561721,-6.224666 -9.585894 1.941076,-5.69923 -9.441755 2.602112,-5.407471 -9.55047 3.199625,-5.397026 -9.60536 3.834275,-5.572668 -7.62383 2.862701,-5.317332 -7.731958 3.737079,-5.117985 -7.775751 4.231777,-4.895612 -7.800334 4.525413,-5.982327 -7.159114 2.969201,-5.798502 -8.584671 3.753932,-5.835403 -9.400848 3.59236,-5.862883 -9.567827 3.443579,-6.453314 -7.296632 3.131847,-6.322317 -8.787851 3.692865,-6.328832 -9.342119 3.402546,-6.349059 -9.293957 3.223746,-6.921723 -7.669737 3.358024,-6.795531 -8.830196 3.631125,-6.715113 -9.254295 3.513145,-6.694931 -9.16736 3.475551,6.810,
-1.504158 -8.364805 -1.649253,-2.053216 -8.197512 -1.358147,-2.489573 -7.657489 -1.241485,-2.710744 -7.008317 -1.116917,-2.916753 -6.422128 -0.9704627,-2.379647 -6.409839 -1.641587,-2.587196 -5.643838 -1.542598,-2.702271 -5.152223 -1.396133,-2.788286 -4.691875 -1.24364,-2.077366 -6.182105 -1.665069,-2.234783 -5.336669 -1.638252,-2.335085 -4.829413 -1.496391,-2.399341 -4.384034 -1.366349,-1.777851 -6.144886 -1.625599,-1.884141 -5.368763 -1.567229,-1.984213 -4.908885 -1.396707,-2.060144 -4.535245 -1.247904,-1.466099 -6.244986 -1.540245,-1.521452 -5.60968 -1.440126,-1.596627 -5.240119 -1.295334,-1.669119 -4.911516 -1.170225,-6.754198 -9.676073 1.699571,-6.190239 -9.633398 2.118384,-5.657625 -9.460171 2.7893,-5.3683 -9.554678 3.386517,-5.388889 -9.609863 4.021554,-5.562151 -7.617368 3.035182,-5.31711 -7.772061 3.923682,-5.124386 -7.826853 4.425264,-4.899437 -7.876932 4.732888,-5.987737 -7.168502 3.123868,-5.786346 -8.585165 3.922283,-5.824936 -9.429939 3.771819,-5.852312 -9.627352 3.625607,-6.46168 -7.322124 3.276263,-6.308464 -8.764654 3.836107,-6.315619 -9.360718 3.569373,-6.337522 -9.354488 3.411179,-6.927052 -7.716007 3.497713,-6.795608 -8.793564 3.763611,-6.714393 -9.233894 3.652236,-6.693324 -9.176474 3.627742,6.910,
-1.488196 -8.34831 -1.666819,-2.046441 -8.188913 -1.387387,-2.479739 -7.65749 -1.280494,-2.692791 -7.002912 -1.169808,-2.893843 -6.410177 -1.04446,-2.36581 -6.395183 -1.653001,-2.574349 -5.6229 -1.584098,-2.688747 -5.132574 -1.471887,-2.774052 -4.684874 -1.347571,-2.056015 -6.169482 -1.693451,-2.222146 -5.320093 -1.705058,-2.321465 -4.82563 -1.601386,-2.384806 -4.400415 -1.500518,-1.754544 -6.130231 -1.675056,-1.866353 -5.347406 -1.654474,-1.965009 -4.89771 -1.523357,-2.040233 -4.531074 -1.403255,-1.444938 -6.230245 -1.612999,-1.500745 -5.600317 -1.551266,-1.575254 -5.232379 -1.438264,-1.648317 -4.899739 -1.338184,-6.799052 -9.67581 1.587195,-6.224737 -9.641779 1.938874,-5.664484 -9.505959 2.596292,-5.340364 -9.570074 3.192423,-5.350126 -9.593193 3.82276,-5.561154 -7.662221 2.847477,-5.298199 -7.808298 3.728612,-5.094793 -7.868082 4.228891,-4.854338 -7.922958 4.51947,-5.966896 -7.206804 2.974562,-5.765272 -8.583887 3.779091,-5.800074 -9.441481 3.692246,-5.813519 -9.671251 3.578092,-6.426098 -7.349855 3.150121,-6.286469 -8.774559 3.691897,-6.299696 -9.379427 3.460003,-6.309649 -9.395044 3.324184,-6.889891 -7.736276 3.392247,-6.777223 -8.875019 3.639378,-6.710014 -9.308487 3.543257,-6.686067 -9.241011 3.534674,7.010,
-1.473928 -8.390171 -1.554985,-2.024973 -8.209539 -1.263813,-2.458834 -7.6459 -1.154041,-2.67492 -7.000646 -1.031762,-2.875416 -6.43083 -0.8851017,-2.347404 -6.392637 -1.533441,-2.554218 -5.620952 -1.419872,-2.669051 -5.123754 -1.270794,-2.757439 -4.66896 -1.119982,-2.042134 -6.178316 -1.547591,-2.200844 -5.331851 -1.501753,-2.29982 -4.824511 -1.352548,-2.365003 -4.400568 -1.221286,-1.740937 -6.146713 -1.49646,-1.845496 -5.365124 -1.418738,-1.939074 -4.892382 -1.24268,-2.012759 -4.522295 -1.089915,-1.426029 -6.25394 -1.398571,-1.479964 -5.620355 -1.287657,-1.554084 -5.239574 -1.138121,-1.628476 -4.904081 -1.007643,-6.789839 -9.581665 0.4503581,-6.242375 -9.55891 0.7590491,-5.704316 -9.448124 1.334234,-5.401259 -9.381931 1.86476,-5.540733 -9.211611 2.452143,-5.694069 -7.763764 1.435692,-5.435322 -7.683719 2.153854,-5.228164 -7.64715 2.576631,-4.993273 -7.659868 2.838774,-6.055668 -7.310939 1.548479,-5.891354 -8.375599 2.255243,-5.958483 -9.091492 2.242538,-6.019655 -9.299736 2.150872,-6.456898 -7.388034 1.714239,-6.335059 -8.571274 2.17868,-6.346622 -9.069212 2.023841,-6.361388 -9.100813 1.896886,-6.860447 -7.705715 1.92998,-6.734842 -8.699606 2.199665,-6.6689 -9.096434 2.200162,-6.646889 -9.095087 2.208558,7.110,
-1.481531 -8.379398 -1.621864,-2.051556 -8.18959 -1.314756,-2.483205 -7.649141 -1.193204,-2.698211 -7.016057 -1.062505,-2.898915 -6.434306 -0.9074474,-2.379484 -6.412063 -1.600733,-2.584214 -5.633561 -1.483377,-2.700164 -5.128513 -1.327571,-2.78669 -4.678538 -1.176586,-2.070472 -6.192743 -1.622833,-2.226563 -5.333633 -1.585657,-2.321475 -4.813573 -1.438452,-2.382978 -4.387395 -1.308742,-1.768342 -6.152029 -1.578027,-1.874442 -5.366233 -1.508144,-1.968014 -4.890069 -1.331936,-2.038877 -4.53179 -1.179339,-1.451807 -6.240341 -1.486253,-1.510556 -5.60504 -1.381616,-1.583261 -5.229283 -1.234403,-1.651684 -4.905866 -1.107565,-6.815679 -9.567385 0.339482,-6.284393 -9.517023 0.6410083,-5.762583 -9.362053 1.181247,-5.464297 -9.243887 1.67814,-5.629967 -9.036259 2.215873,-5.783353 -7.689996 1.226546,-5.520986 -7.577329 1.905374,-5.315983 -7.528243 2.30569,-5.087696 -7.5143 2.553949,-6.139627 -7.266138 1.330827,-5.941813 -8.284515 1.996436,-5.996967 -8.992859 1.969503,-6.067856 -9.189827 1.869631,-6.526859 -7.359752 1.501844,-6.370108 -8.492701 1.931155,-6.379753 -8.972733 1.77797,-6.408446 -8.979712 1.647704,-6.90997 -7.688076 1.725531,-6.747861 -8.630354 1.970489,-6.677663 -9.010038 1.966291,-6.661826 -8.994707 1.970458,7.210,
-1.481531 -8.379398 -1.621864,-2.051556 -8.18959 -1.314756,-2.483205 -7.649141 -1.193204,-2.698211 -7.016057 -1.062505,-2.898915 -6.434306 -0.9074474,-2.379484 -6.412063 -1.600733,-2.584214 -5.633561 -1.483377,-2.700164 -5.128513 -1.327571,-2.78669 -4.678538 -1.176586,-2.070472 -6.192743 -1.622833,-2.226563 -5.333633 -1.585657,-2.321475 -4.813573 -1.438452,-2.382978 -4.387395 -1.308742,-1.768342 -6.152029 -1.578027,-1.874442 -5.366233 -1.508144,-1.968014 -4.890069 -1.331936,-2.038877 -4.53179 -1.179339,-1.451807 -6.240341 -1.486253,-1.510556 -5.60504 -1.381616,-1.583261 -5.229283 -1.234403,-1.651684 -4.905866 -1.107565,-6.872359 -9.50386 -0.2449798,-6.360592 -9.500488 0.050024,-5.840102 -9.304829 0.5302954,-5.546515 -9.118942 0.9769262,-5.713633 -8.897097 1.474359,-5.887962 -7.6993 0.5517738,-5.613091 -7.468444 1.175323,-5.407637 -7.397165 1.581869,-5.195814 -7.400701 1.843748,-6.239551 -7.339249 0.6553205,-6.028899 -7.984016 1.310679,-6.052137 -8.71525 1.407365,-6.105692 -9.02878 1.375696,-6.615564 -7.423713 0.8123851,-6.455484 -8.201807 1.273586,-6.44403 -8.733732 1.219241,-6.460349 -8.865776 1.12599,-6.982877 -7.717313 1.009098,-6.83658 -8.405445 1.313806,-6.756364 -8.813589 1.35894,-6.719302 -8.892864 1.372785,7.310,
-1.492539 -8.377296 -1.568278,-2.047539 -8.199415 -1.259705,-2.484629 -7.654088 -1.14905,-2.707989 -6.9955 -1.031945,-2.911775 -6.401815 -0.8948721,-2.384911 -6.402198 -1.581054,-2.584798 -5.624696 -1.489325,-2.697311 -5.125371 -1.329557,-2.784059 -4.664697 -1.167514,-2.07901 -6.174701 -1.619214,-2.23375 -5.328269 -1.602053,-2.325828 -4.822439 -1.446083,-2.386227 -4.390314 -1.306543,-1.77574 -6.127955 -1.590322,-1.880551 -5.35292 -1.539709,-1.97171 -4.903642 -1.357894,-2.040851 -4.550106 -1.205894,-1.457935 -6.214008 -1.512699,-1.514395 -5.580846 -1.421092,-1.58517 -5.218503 -1.276993,-1.651858 -4.895889 -1.157442,-6.979205 -9.467484 -0.8964417,-6.5033 -9.473591 -0.5521894,-5.991219 -9.20635 -0.1662368,-5.712787 -8.929846 0.1854981,-5.892292 -8.669134 0.5473648,-6.087111 -7.706819 -0.2852738,-5.793543 -7.385602 0.2418342,-5.577505 -7.283252 0.5728675,-5.376715 -7.242921 0.7861185,-6.405581 -7.416044 -0.196584,-6.182761 -7.804267 0.4012483,-6.208538 -8.470358 0.5557799,-6.281795 -8.817434 0.5795755,-6.747055 -7.494232 -0.04581332,-6.572772 -8.097473 0.4519588,-6.571768 -8.602348 0.4733536,-6.613792 -8.771919 0.4165777,-7.083934 -7.765176 0.1465448,-6.918571 -8.229654 0.5164706,-6.849737 -8.641291 0.5860288,-6.833055 -8.796896 0.5969114,7.410,
-1.501596 -8.400913 -1.557503,-2.056209 -8.229189 -1.249348,-2.487713 -7.67428 -1.141638,-2.700197 -7.013336 -1.026255,-2.896922 -6.432052 -0.8896492,-2.385993 -6.423364 -1.565725,-2.587546 -5.650175 -1.466901,-2.70053 -5.150421 -1.308898,-2.787602 -4.689035 -1.150622,-2.078316 -6.192331 -1.597753,-2.23002 -5.341733 -1.575193,-2.323764 -4.831449 -1.418554,-2.387252 -4.399209 -1.277122,-1.774022 -6.147271 -1.564367,-1.874978 -5.370843 -1.506682,-1.964904 -4.915935 -1.321452,-2.034623 -4.563659 -1.167021,-1.455928 -6.236966 -1.48068,-1.509627 -5.607401 -1.379343,-1.578792 -5.244594 -1.227983,-1.646225 -4.929193 -1.103069,-7.194009 -9.438089 -1.589162,-6.793428 -9.395903 -1.313941,-6.306097 -8.990419 -1.028667,-6.064054 -8.577883 -0.7400293,-6.227648 -8.255465 -0.4748085,-6.456402 -7.665363 -1.263439,-6.181561 -7.204851 -0.8859787,-5.971373 -6.965826 -0.6581417,-5.761994 -6.812267 -0.4907002,-6.726209 -7.494369 -1.162797,-6.455449 -7.696572 -0.6063235,-6.500321 -8.378366 -0.4805396,-6.600214 -8.753332 -0.5423076,-7.015376 -7.581541 -0.9842237,-6.775196 -7.891849 -0.5329812,-6.805593 -8.484253 -0.5460529,-6.893211 -8.767282 -0.6566216,-7.321699 -7.784922 -0.7745031,-7.098916 -7.922462 -0.4394064,-7.047956 -8.401617 -0.3944622,-7.079724 -8.64852 -0.4131724,7.510,
-1.49917 -8.415552 -1.53261,-2.057296 -8.239355 -1.241124,-2.489246 -7.67798 -1.137224,-2.705502 -7.022497 -1.021391,-2.90609 -6.441616 -0.8816845,-2.378662 -6.425043 -1.56245,-2.580952 -5.650534 -1.465852,-2.701003 -5.150798 -1.312657,-2.795504 -4.688248 -1.158064,-2.074064 -6.19938 -1.583005,-2.221606 -5.357143 -1.554504,-2.314665 -4.847381 -1.397233,-2.375675 -4.416444 -1.255777,-1.771882 -6.157096 -1.537498,-1.871267 -5.387654 -1.475687,-1.961008 -4.930002 -1.290744,-2.028605 -4.576051 -1.134121,-1.456676 -6.248617 -1.444584,-1.505901 -5.61626 -1.341233,-1.573685 -5.250041 -1.192541,-1.637427 -4.935297 -1.066883,-7.238132 -9.395599 -1.59899,-6.831903 -9.284555 -1.380154,-6.35647 -8.849581 -1.114877,-6.127729 -8.378441 -0.824109,-6.296278 -8.02301 -0.5469534,-6.52592 -7.609106 -1.386625,-6.292994 -7.09233 -1.043574,-6.109168 -6.78403 -0.8286018,-5.92543 -6.565786 -0.6797742,-6.793489 -7.431011 -1.267811,-6.534789 -7.656017 -0.7462505,-6.592475 -8.318911 -0.6268293,-6.705385 -8.669926 -0.6906685,-7.074602 -7.503252 -1.071219,-6.835505 -7.833572 -0.6460578,-6.88069 -8.423283 -0.6531821,-6.974647 -8.701887 -0.7602932,-7.37608 -7.677193 -0.8420885,-7.160428 -7.839651 -0.5618632,-7.118618 -8.310921 -0.5392519,-7.158348 -8.552719 -0.5662949,7.610,
-1.48428 -8.431946 -1.474953,-2.034877 -8.269772 -1.164058,-2.470397 -7.707736 -1.047318,-2.687203 -7.042984 -0.9233238,-2.882504 -6.443115 -0.7801831,-2.372167 -6.425933 -1.490052,-2.572369 -5.654819 -1.405928,-2.692994 -5.157942 -1.265939,-2.789954 -4.707525 -1.121697,-2.061221 -6.199318 -1.527457,-2.21399 -5.361648 -1.52248,-2.309981 -4.867961 -1.393273,-2.374927 -4.458807 -1.277961,-1.754632 -6.160799 -1.498291,-1.859685 -5.391846 -1.460528,-1.954417 -4.946512 -1.305664,-2.030975 -4.604054 -1.173448,-1.434988 -6.259708 -1.417256,-1.491368 -5.628738 -1.338775,-1.564555 -5.263229 -1.2109,-1.636394 -4.948477 -1.102165,-7.256168 -9.217119 -1.651066,-6.880315 -9.099113 -1.457462,-6.430707 -8.542835 -1.264056,-6.25493 -7.980819 -1.047142,-6.425104 -7.581372 -0.829271,-6.680405 -7.352783 -1.555091,-6.524962 -6.662961 -1.309307,-6.39934 -6.201152 -1.134139,-6.265982 -5.810275 -0.9892071,-6.961367 -7.224561 -1.428667,-6.707456 -7.245613 -0.9537045,-6.726049 -7.983978 -0.8418982,-6.82003 -8.463434 -0.8935797,-7.244305 -7.319866 -1.229978,-6.988754 -7.436927 -0.768742,-7.007395 -8.122076 -0.7225291,-7.087863 -8.531807 -0.8257208,-7.547116 -7.501741 -1.014408,-7.307844 -7.410734 -0.6828666,-7.238071 -7.901903 -0.6681819,-7.265554 -8.234787 -0.7227588,7.710,
-1.478573 -8.4611 -1.499263,-2.027762 -8.272552 -1.185934,-2.450403 -7.680883 -1.074584,-2.63947 -6.997595 -0.9585111,-2.835187 -6.394545 -0.8154907,-2.362289 -6.44697 -1.493588,-2.565846 -5.679432 -1.403984,-2.685217 -5.17781 -1.264772,-2.78141 -4.718847 -1.126287,-2.047694 -6.233181 -1.524801,-2.206963 -5.40343 -1.473877,-2.300935 -4.931758 -1.313199,-2.36674 -4.570825 -1.179949,-1.74004 -6.198959 -1.489168,-1.852848 -5.431554 -1.40266,-1.947415 -4.981168 -1.205877,-2.029647 -4.661587 -1.049134,-1.41953 -6.294113 -1.404379,-1.484853 -5.66735 -1.286175,-1.562117 -5.302339 -1.134514,-1.641119 -5.008394 -1.00865,-7.325126 -9.047501 -1.947089,-6.938944 -8.918167 -1.701977,-6.51589 -8.318153 -1.520095,-6.36547 -7.71254 -1.329453,-6.53935 -7.317441 -1.161494,-6.846189 -7.181417 -1.841744,-6.722348 -6.352374 -1.561795,-6.650156 -5.772727 -1.372271,-6.591002 -5.244162 -1.238142,-7.121325 -7.12748 -1.739351,-6.929168 -6.923322 -1.161697,-6.895341 -7.734194 -1.069447,-6.952741 -8.29837 -1.17006,-7.397761 -7.242029 -1.555293,-7.199682 -7.124669 -1.009112,-7.149916 -7.843214 -0.9442821,-7.181917 -8.29257 -1.060074,-7.697858 -7.426631 -1.360013,-7.513723 -7.123764 -0.9755647,-7.40652 -7.588654 -0.9392809,-7.387074 -7.9245 -0.9888895,7.810,
-1.44079 -8.516081 -1.771101,-1.946629 -8.327953 -1.343403,-2.334389 -7.726177 -1.105537,-2.525204 -7.057472 -0.8894087,-2.66732 -6.427936 -0.6485761,-2.343036 -6.552316 -1.663768,-2.535094 -5.817763 -1.533089,-2.626084 -5.286602 -1.308938,-2.683942 -4.823703 -1.107257,-2.021096 -6.372544 -1.696023,-2.14103 -5.484931 -1.346731,-2.149142 -5.499854 -0.9824262,-2.088752 -5.764219 -0.7880777,-1.711721 -6.336164 -1.663715,-1.777901 -5.505103 -1.309058,-1.785617 -5.77169 -0.9882196,-1.75444 -6.218937 -0.8606555,-1.373169 -6.40531 -1.579137,-1.410998 -5.750944 -1.270285,-1.465372 -5.91866 -1.031321,-1.473468 -6.282352 -0.8946028,-7.399852 -8.923939 -1.903388,-7.013762 -8.856823 -1.48229,-6.582837 -8.292934 -1.167713,-6.422533 -7.686908 -0.8808699,-6.56906 -7.223875 -0.639122,-6.873456 -7.081694 -1.522472,-6.764413 -6.129961 -1.182823,-6.739972 -5.499046 -0.9721974,-6.718178 -4.917917 -0.8226004,-7.168709 -7.028884 -1.48514,-7.001845 -6.6795 -0.8072532,-6.978132 -7.560985 -0.7157789,-6.992473 -8.160589 -0.8761231,-7.465671 -7.138771 -1.362229,-7.303338 -6.906695 -0.7506534,-7.252184 -7.681585 -0.6670307,-7.23875 -8.154474 -0.8074052,-7.783841 -7.314571 -1.224757,-7.639962 -6.935318 -0.8015889,-7.524599 -7.420469 -0.745003,-7.47723 -7.777587 -0.8158646,7.910,
-1.311728 -8.816154 -2.236719,-1.727258 -8.679411 -1.621961,-2.098895 -8.082188 -1.320852,-2.253889 -7.421473 -1.058966,-2.399515 -6.80286 -0.7715932,-2.169222 -6.981177 -1.601568,-2.344739 -6.21071 -1.151481,-2.397848 -5.698123 -0.753886,-2.416867 -5.322977 -0.4352292,-1.812171 -6.865758 -1.680818,-1.804129 -6.202137 -1.009399,-1.714337 -6.936568 -0.7527,-1.688071 -7.573686 -0.6965365,-1.465952 -6.88062 -1.69409,-1.418841 -6.530456 -1.014906,-1.401707 -7.3696 -0.9343728,-1.43786 -7.93597 -1.006535,-1.146763 -7.004973 -1.665778,-1.095672 -6.617967 -1.088967,-1.135157 -7.237651 -0.9971309,-1.214018 -7.684265 -1.022442,-7.456749 -8.914438 -1.607376,-7.067196 -8.839344 -1.22308,-6.633657 -8.20499 -0.9225801,-6.49894 -7.592577 -0.6553815,-6.675473 -7.175613 -0.4431115,-6.924267 -6.971584 -1.242332,-6.83 -5.948452 -0.9252583,-6.807148 -5.312746 -0.7478285,-6.77946 -4.720954 -0.6031547,-7.235868 -6.930079 -1.194276,-7.051219 -6.666829 -0.5111331,-7.039361 -7.56956 -0.4542644,-7.069773 -8.174221 -0.6427158,-7.541482 -7.043705 -1.057982,-7.355753 -6.862671 -0.4399191,-7.317564 -7.659713 -0.373423,-7.32114 -8.143549 -0.5200483,-7.866504 -7.230888 -0.9101545,-7.696153 -6.873714 -0.4723738,-7.58637 -7.402799 -0.4092008,-7.56013 -7.788269 -0.466643,8.010,
-1.253923 -8.939377 -2.115694,-1.650634 -8.813095 -1.549196,-2.011987 -8.181717 -1.282548,-2.143155 -7.519987 -1.040143,-2.276347 -6.933562 -0.7669675,-2.028129 -7.056006 -1.476669,-2.198763 -6.339954 -0.9866998,-2.269165 -5.870849 -0.5873784,-2.313314 -5.505556 -0.2866845,-1.690504 -6.939581 -1.550823,-1.662601 -6.493148 -0.84016,-1.564933 -7.288503 -0.6567439,-1.535805 -7.927757 -0.6734259,-1.356246 -6.975652 -1.559134,-1.316157 -6.779342 -0.8564655,-1.294822 -7.611591 -0.8456746,-1.326097 -8.172348 -0.967983,-1.049272 -7.113657 -1.523154,-1.00377 -6.883379 -0.9507389,-1.038921 -7.509618 -0.8928,-1.118052 -7.947237 -0.9479998,-7.476337 -8.926828 -1.499512,-7.083012 -8.837486 -1.129504,-6.642015 -8.198097 -0.8343682,-6.505406 -7.583578 -0.5609016,-6.692384 -7.169311 -0.352394,-6.947727 -6.941514 -1.211149,-6.856797 -5.912229 -0.8888761,-6.834248 -5.281078 -0.7271401,-6.806078 -4.677439 -0.6065235,-7.262436 -6.898458 -1.147858,-7.049519 -6.6762 -0.4369442,-7.040108 -7.618884 -0.4177978,-7.077378 -8.20392 -0.6601665,-7.569905 -7.008562 -0.9861961,-7.356134 -6.828313 -0.3252807,-7.321858 -7.669626 -0.2810634,-7.338794 -8.151876 -0.4672666,-7.901644 -7.19112 -0.8159411,-7.710226 -6.814165 -0.3720737,-7.590501 -7.362508 -0.3186892,-7.567697 -7.756988 -0.395394,8.110,
-1.133467 -9.05862 -1.685946,-1.525118 -8.943573 -1.092451,-1.88572 -8.361586 -0.7786266,-1.999264 -7.734437 -0.5003299,-2.110648 -7.152372 -0.186372,-1.895071 -7.104808 -1.066596,-2.020965 -6.529874 -0.568489,-2.070029 -6.182176 -0.2100563,-2.099135 -5.875265 0.04640698,-1.566586 -6.925126 -1.132738,-1.485398 -6.905377 -0.3712142,-1.374496 -7.792657 -0.2134495,-1.36426 -8.363523 -0.2552872,-1.234647 -6.972206 -1.123163,-1.171061 -7.090482 -0.4065791,-1.117238 -7.957317 -0.4471761,-1.143101 -8.475046 -0.5992789,-0.927186 -7.135288 -1.063604,-0.8446307 -7.076949 -0.4886668,-0.8562713 -7.729497 -0.4525903,-0.9352798 -8.160475 -0.5110126,-7.499964 -8.879543 -1.189486,-7.106688 -8.769659 -0.8525088,-6.656384 -8.149088 -0.5724499,-6.514394 -7.529695 -0.3043051,-6.697159 -7.103583 -0.08076203,-6.971805 -6.815082 -0.9525613,-6.867367 -5.823894 -0.6429684,-6.844473 -5.177699 -0.4508311,-6.818867 -4.571115 -0.3001091,-7.282254 -6.754564 -0.8811444,-7.052272 -6.577898 -0.2173373,-7.037482 -7.505662 -0.142778,-7.078428 -8.103769 -0.3266816,-7.588539 -6.865865 -0.7136174,-7.355989 -6.770422 -0.1222959,-7.326454 -7.599168 -0.04995632,-7.348258 -8.088724 -0.1895174,-7.918609 -7.055801 -0.5348644,-7.685603 -6.792267 -0.11906,-7.576554 -7.354487 -0.05580401,-7.567864 -7.738401 -0.1151637,8.210,
-1.039811 -9.150616 -1.311371,-1.472955 -9.053944 -0.7393057,-1.804334 -8.486656 -0.3478962,-1.896046 -7.884319 0.001024246,-1.976023 -7.273192 0.4138434,-1.816647 -7.240293 -0.5034141,-1.927402 -6.719404 0.01888275,-1.945385 -6.419038 0.3755985,-1.949997 -6.176483 0.6244293,-1.462463 -6.969226 -0.536617,-1.38607 -7.195707 0.1439866,-1.305572 -8.051693 0.283875,-1.301124 -8.626202 0.2699018,-1.106366 -6.991663 -0.5263023,-1.056481 -7.426023 0.09596789,-1.016893 -8.230776 0.08141136,-1.035302 -8.724863 -0.01080287,-0.7891898 -7.163375 -0.4502549,-0.7323108 -7.356164 0.02988768,-0.7529283 -7.999708 0.05255866,-0.8217835 -8.429285 0.01141512,-7.517817 -8.786673 -1.218441,-7.113502 -8.644979 -0.8789135,-6.677157 -8.02932 -0.5936878,-6.539161 -7.401969 -0.3150587,-6.722895 -6.977622 -0.08126342,-6.986527 -6.708437 -0.9904934,-6.871043 -5.692338 -0.6655917,-6.845228 -5.03322 -0.4573355,-6.817593 -4.414411 -0.3090065,-7.297408 -6.669427 -0.9167451,-7.06371 -6.444655 -0.2488542,-7.055333 -7.360967 -0.1514246,-7.097507 -7.943241 -0.3119569,-7.600699 -6.78318 -0.7439781,-7.366887 -6.654767 -0.1535618,-7.343479 -7.47551 -0.07210422,-7.365274 -7.956571 -0.1995481,-7.930101 -6.969943 -0.5563049,-7.698711 -6.66278 -0.1394349,-7.594738 -7.215156 -0.06823218,-7.5839 -7.593242 -0.1171719,8.310,
-0.9479623 -9.216665 -1.383972,-1.369868 -9.141302 -0.733441,-1.666054 -8.717531 -0.2896361,-1.713156 -8.267706 0.09188163,-1.745277 -7.705057 0.5447907,-1.651306 -7.408874 -0.3914415,-1.734061 -7.053943 0.2025669,-1.731746 -6.79919 0.626731,-1.692386 -6.587177 0.9283494,-1.288278 -7.095599 -0.4751254,-1.212074 -7.505241 0.2089247,-1.146317 -8.34609 0.3321582,-1.122668 -8.877748 0.3073763,-0.9215775 -7.128359 -0.4981869,-0.8627148 -7.648601 0.11122,-0.8550987 -8.440401 0.05972445,-0.8740082 -8.887085 -0.06822801,-0.6044173 -7.31763 -0.4543583,-0.5468469 -7.573265 0.01129115,-0.5958471 -8.197515 0.01758957,-0.6676259 -8.57686 -0.04009962,-7.506825 -8.695358 -1.084382,-7.090846 -8.561604 -0.7709581,-6.645159 -7.917381 -0.5088682,-6.522628 -7.296176 -0.2569511,-6.758267 -6.89398 -0.05676913,-6.944389 -6.600983 -0.8626465,-6.835778 -5.543243 -0.5657435,-6.805136 -4.884534 -0.3612903,-6.775179 -4.284656 -0.1958896,-7.266404 -6.542383 -0.7752541,-7.045761 -6.336254 -0.1487398,-7.043111 -7.224201 -0.03350723,-7.091668 -7.819751 -0.1551858,-7.584039 -6.644422 -0.5950671,-7.356466 -6.547241 -0.0270679,-7.332769 -7.365842 0.07187819,-7.356041 -7.88961 -0.02393985,-7.91755 -6.838809 -0.3997,-7.684505 -6.601583 -0.003705978,-7.583035 -7.1548 0.07881081,-7.572124 -7.555168 0.04149508,8.410,
-0.9029522 -9.166782 -1.560253,-1.296707 -9.146143 -0.8666834,-1.591059 -8.821005 -0.412033,-1.618214 -8.414717 -0.03541899,-1.590231 -7.820825 0.3991568,-1.628473 -7.470027 -0.4881128,-1.716025 -7.202899 0.1336211,-1.68826 -6.944982 0.5518633,-1.620271 -6.714351 0.8401381,-1.269212 -7.126607 -0.6051074,-1.183326 -7.57287 0.1070143,-1.086641 -8.379671 0.2552905,-1.034895 -8.923767 0.2548391,-0.8941846 -7.135067 -0.6459334,-0.8210049 -7.67185 -0.02537811,-0.7866435 -8.449236 -0.042171,-0.7857466 -8.915087 -0.1373792,-0.5679727 -7.295139 -0.6229037,-0.5118399 -7.577243 -0.1410608,-0.5408535 -8.205706 -0.0959872,-0.588953 -8.595812 -0.1109394,-7.504482 -8.718863 -1.067824,-7.094759 -8.565567 -0.7348085,-6.658327 -7.885458 -0.4628761,-6.551806 -7.261238 -0.205125,-6.790221 -6.884407 -0.007366776,-6.946591 -6.61248 -0.8273706,-6.839739 -5.531881 -0.5005101,-6.811219 -4.87071 -0.3034028,-6.786287 -4.255067 -0.1482866,-7.275962 -6.562944 -0.7373472,-7.062905 -6.38145 -0.05259895,-7.061169 -7.305074 0.02203071,-7.110152 -7.895282 -0.1495271,-7.595518 -6.675979 -0.5503043,-7.374942 -6.554859 0.07464659,-7.34384 -7.376832 0.1377037,-7.365665 -7.882762 0.002280474,-7.933733 -6.874926 -0.3479047,-7.714812 -6.582954 0.07534277,-7.601094 -7.128103 0.1480837,-7.58309 -7.521219 0.09060133,8.510,
