TiagoOliveira98/HandTracking/DataLogging/JointData/Logs(1637001326)_tia.csv
WRIST,THUMB_CMC,THUMB_MCP,THUMB_IP,THUMB_TIP,INDEX_FINGER_MCP,INDEX_FINGER_PIP,INDEX_FINGER_DIP,INDEX_FINGER_TIP,MIDDLE_FINGER_MCP,MIDDLE_FINGER_PIP,MIDDLE_FINGER_DIP,MIDDLE_FINGER_TIP,RING_FINGER_MCP,RING_FINGER_PIP,RING_FINGER_DIP,RING_FINGER_TIP,PINKY_MCP,PINKY_PIP,PINKY_DIP,PINKY_TIP,WRIST2,THUMB_CMC2,THUMB_MCP2,THUMB_IP2,THUMB_TIP2,INDEX_FINGER_MCP2,INDEX_FINGER_PIP2,INDEX_FINGER_DIP2,INDEX_FINGER_TIP2,MIDDLE_FINGER_MCP2,MIDDLE_FINGER_PIP2,MIDDLE_FINGER_DIP2,MIDDLE_FINGER_TIP2,RING_FINGER_MCP2,RING_FINGER_PIP2,RING_FINGER_DIP2,RING_FINGER_TIP2,PINKY_MCP2,PINKY_PIP2,PINKY_DIP2,PINKY_TIP2,Timestamp,Event
2 0 -9.119089,2 0 -9.119089,2 0 -9.119089,2 0 -9.119089,2 0 -9.119089,2 0 -9.119089,2 0 -9.119089,2 0 -9.119089,2 0 -9.119089,2 0 -9.119089,2 0 -9.119089,2 0 -9.119089,2 0 -9.119089,2 0 -9.119089,2 0 -9.119089,2 0 -9.119089,2 0 -9.119089,2 0 -9.119089,2 0 -9.119089,2 0 -9.119089,2 0 -9.119089,2 0 -9.760046,2 0 -9.760046,2 0 -9.760046,2 0 -9.760046,2 0 -9.760046,2 0 -9.760046,2 0 -9.760046,2 0 -9.760046,2 0 -9.760046,2 0 -9.760046,2 0 -9.760046,2 0 -9.760046,2 0 -9.760046,2 0 -9.760046,2 0 -9.760046,2 0 -9.760046,2 0 -9.760046,2 0 -9.760046,2 0 -9.760046,2 0 -9.760046,2 0 -9.760046,0.020,Dnf
2 0 -9.119089,2 0 -9.119089,2 0 -9.119089,2 0 -9.119089,2 0 -9.119089,2 0 -9.119089,2 0 -9.119089,2 0 -9.119089,2 0 -9.119089,2 0 -9.119089,2 0 -9.119089,2 0 -9.119089,2 0 -9.119089,2 0 -9.119089,2 0 -9.119089,2 0 -9.119089,2 0 -9.119089,2 0 -9.119089,2 0 -9.119089,2 0 -9.119089,2 0 -9.119089,2 0 -9.760046,2 0 -9.760046,2 0 -9.760046,2 0 -9.760046,2 0 -9.760046,2 0 -9.760046,2 0 -9.760046,2 0 -9.760046,2 0 -9.760046,2 0 -9.760046,2 0 -9.760046,2 0 -9.760046,2 0 -9.760046,2 0 -9.760046,2 0 -9.760046,2 0 -9.760046,2 0 -9.760046,2 0 -9.760046,2 0 -9.760046,2 0 -9.760046,2 0 -9.760046,0.040,DnF
-3.353748 -5.126816 1.191986,-4.123571 -4.953931 1.233671,-4.838905 -4.381961 1.378874,-5.321117 -3.860408 1.610715,-5.848892 -3.493125 1.920875,-4.750725 -2.718938 1.561268,-5.177846 -1.637953 1.967742,-5.518291 -1.099374 2.293957,-5.897269 -0.71594 2.57047,-4.415534 -2.464406 1.872491,-4.826614 -1.324787 2.458797,-5.191854 -0.7695594 2.917498,-5.589093 -0.3720484 3.256773,-4.018433 -2.447139 2.198969,-4.342041 -1.37653 2.730737,-4.65683 -0.7800736 3.132333,-5.014183 -0.3301635 3.436906,-3.573635 -2.632452 2.524881,-3.676597 -1.781736 3.031955,-3.886157 -1.23976 3.372571,-4.162937 -0.7944579 3.645368,-9.856947 -7.237972 0.3192034,-9.206614 -6.983459 0.5480152,-8.682473 -6.344012 0.7480134,-8.324205 -5.669647 0.9666356,-8.007317 -5.287487 1.183729,-9.099011 -4.61962 0.6065395,-8.941483 -3.406028 0.7509196,-8.885738 -2.655855 0.8725171,-8.848209 -2.042231 0.9538923,-9.469733 -4.39758 0.5913957,-9.328235 -3.029785 0.7070339,-9.256556 -2.182527 0.8628115,-9.213042 -1.48234 1.001034,-9.830926 -4.433314 0.5734282,-9.72899 -3.137266 0.6702247,-9.65304 -2.348995 0.7817681,-9.583775 -1.705759 0.8674257,-10.18829 -4.673581 0.5793626,-10.24809 -3.690553 0.6597644,-10.25213 -3.088066 0.7578919,-10.22493 -2.50901 0.8168326,0.060,DnF
-3.353748 -5.126816 1.191986,-4.123571 -4.953931 1.233671,-4.838905 -4.381961 1.378874,-5.321117 -3.860408 1.610715,-5.848892 -3.493125 1.920875,-4.750725 -2.718938 1.561268,-5.177846 -1.637953 1.967742,-5.518291 -1.099374 2.293957,-5.897269 -0.71594 2.57047,-4.415534 -2.464406 1.872491,-4.826614 -1.324787 2.458797,-5.191854 -0.7695594 2.917498,-5.589093 -0.3720484 3.256773,-4.018433 -2.447139 2.198969,-4.342041 -1.37653 2.730737,-4.65683 -0.7800736 3.132333,-5.014183 -0.3301635 3.436906,-3.573635 -2.632452 2.524881,-3.676597 -1.781736 3.031955,-3.886157 -1.23976 3.372571,-4.162937 -0.7944579 3.645368,-9.856947 -7.237972 0.3192034,-9.206614 -6.983459 0.5480152,-8.682473 -6.344012 0.7480134,-8.324205 -5.669647 0.9666356,-8.007317 -5.287487 1.183729,-9.099011 -4.61962 0.6065395,-8.941483 -3.406028 0.7509196,-8.885738 -2.655855 0.8725171,-8.848209 -2.042231 0.9538923,-9.469733 -4.39758 0.5913957,-9.328235 -3.029785 0.7070339,-9.256556 -2.182527 0.8628115,-9.213042 -1.48234 1.001034,-9.830926 -4.433314 0.5734282,-9.72899 -3.137266 0.6702247,-9.65304 -2.348995 0.7817681,-9.583775 -1.705759 0.8674257,-10.18829 -4.673581 0.5793626,-10.24809 -3.690553 0.6597644,-10.25213 -3.088066 0.7578919,-10.22493 -2.50901 0.8168326,0.080,DnF
-3.353748 -5.126816 1.191986,-4.123571 -4.953931 1.233671,-4.838905 -4.381961 1.378874,-5.321117 -3.860408 1.610715,-5.848892 -3.493125 1.920875,-4.750725 -2.718938 1.561268,-5.177846 -1.637953 1.967742,-5.518291 -1.099374 2.293957,-5.897269 -0.71594 2.57047,-4.415534 -2.464406 1.872491,-4.826614 -1.324787 2.458797,-5.191854 -0.7695594 2.917498,-5.589093 -0.3720484 3.256773,-4.018433 -2.447139 2.198969,-4.342041 -1.37653 2.730737,-4.65683 -0.7800736 3.132333,-5.014183 -0.3301635 3.436906,-3.573635 -2.632452 2.524881,-3.676597 -1.781736 3.031955,-3.886157 -1.23976 3.372571,-4.162937 -0.7944579 3.645368,-9.856947 -7.237972 0.3192034,-9.206614 -6.983459 0.5480152,-8.682473 -6.344012 0.7480134,-8.324205 -5.669647 0.9666356,-8.007317 -5.287487 1.183729,-9.099011 -4.61962 0.6065395,-8.941483 -3.406028 0.7509196,-8.885738 -2.655855 0.8725171,-8.848209 -2.042231 0.9538923,-9.469733 -4.39758 0.5913957,-9.328235 -3.029785 0.7070339,-9.256556 -2.182527 0.8628115,-9.213042 -1.48234 1.001034,-9.830926 -4.433314 0.5734282,-9.72899 -3.137266 0.6702247,-9.65304 -2.348995 0.7817681,-9.583775 -1.705759 0.8674257,-10.18829 -4.673581 0.5793626,-10.24809 -3.690553 0.6597644,-10.25213 -3.088066 0.7578919,-10.22493 -2.50901 0.8168326,0.100,DnF
-3.353748 -5.126816 1.191986,-4.123571 -4.953931 1.233671,-4.838905 -4.381961 1.378874,-5.321117 -3.860408 1.610715,-5.848892 -3.493125 1.920875,-4.750725 -2.718938 1.561268,-5.177846 -1.637953 1.967742,-5.518291 -1.099374 2.293957,-5.897269 -0.71594 2.57047,-4.415534 -2.464406 1.872491,-4.826614 -1.324787 2.458797,-5.191854 -0.7695594 2.917498,-5.589093 -0.3720484 3.256773,-4.018433 -2.447139 2.198969,-4.342041 -1.37653 2.730737,-4.65683 -0.7800736 3.132333,-5.014183 -0.3301635 3.436906,-3.573635 -2.632452 2.524881,-3.676597 -1.781736 3.031955,-3.886157 -1.23976 3.372571,-4.162937 -0.7944579 3.645368,-9.856947 -7.237972 0.3192034,-9.206614 -6.983459 0.5480152,-8.682473 -6.344012 0.7480134,-8.324205 -5.669647 0.9666356,-8.007317 -5.287487 1.183729,-9.099011 -4.61962 0.6065395,-8.941483 -3.406028 0.7509196,-8.885738 -2.655855 0.8725171,-8.848209 -2.042231 0.9538923,-9.469733 -4.39758 0.5913957,-9.328235 -3.029785 0.7070339,-9.256556 -2.182527 0.8628115,-9.213042 -1.48234 1.001034,-9.830926 -4.433314 0.5734282,-9.72899 -3.137266 0.6702247,-9.65304 -2.348995 0.7817681,-9.583775 -1.705759 0.8674257,-10.18829 -4.673581 0.5793626,-10.24809 -3.690553 0.6597644,-10.25213 -3.088066 0.7578919,-10.22493 -2.50901 0.8168326,0.120,DnF
-3.114532 -5.225215 1.305277,-3.85245 -5.027032 1.380336,-4.541793 -4.400634 1.479506,-5.019294 -3.847631 1.64097,-5.528967 -3.54685 1.88092,-4.41426 -2.7181 1.569351,-4.842535 -1.700369 1.882212,-5.151453 -1.145307 2.134854,-5.48895 -0.696259 2.363994,-4.071676 -2.451152 1.814278,-4.453461 -1.318867 2.294355,-4.751801 -0.7370601 2.673267,-5.080862 -0.2736688 2.961946,-3.667389 -2.422943 2.088264,-3.972051 -1.354435 2.527725,-4.230488 -0.7392621 2.869197,-4.541563 -0.2560353 3.125878,-3.215752 -2.601607 2.367854,-3.306942 -1.735537 2.793372,-3.469761 -1.193275 3.071063,-3.693998 -0.7463651 3.314117,-9.82033 -7.267719 0.4334837,-9.178381 -7.001722 0.7005415,-8.649134 -6.354486 0.9218748,-8.285987 -5.674549 1.16256,-7.970998 -5.268116 1.391191,-9.073116 -4.62393 0.7799115,-8.910909 -3.439199 0.969017,-8.85596 -2.699741 1.124444,-8.822488 -2.084359 1.230875,-9.4454 -4.400039 0.7753502,-9.307215 -3.052117 0.9309545,-9.240067 -2.204263 1.126215,-9.20377 -1.488609 1.294545,-9.808298 -4.445067 0.7752876,-9.725881 -3.176357 0.9075939,-9.656944 -2.39291 1.050651,-9.594436 -1.742902 1.158184,-10.171 -4.704343 0.7997873,-10.2457 -3.744745 0.9197565,-10.25265 -3.141222 1.043319,-10.2246 -2.558102 1.119394,0.140,DnF
-3.114532 -5.225215 1.305277,-3.85245 -5.027032 1.380336,-4.541793 -4.400634 1.479506,-5.019294 -3.847631 1.64097,-5.528967 -3.54685 1.88092,-4.41426 -2.7181 1.569351,-4.842535 -1.700369 1.882212,-5.151453 -1.145307 2.134854,-5.48895 -0.696259 2.363994,-4.071676 -2.451152 1.814278,-4.453461 -1.318867 2.294355,-4.751801 -0.7370601 2.673267,-5.080862 -0.2736688 2.961946,-3.667389 -2.422943 2.088264,-3.972051 -1.354435 2.527725,-4.230488 -0.7392621 2.869197,-4.541563 -0.2560353 3.125878,-3.215752 -2.601607 2.367854,-3.306942 -1.735537 2.793372,-3.469761 -1.193275 3.071063,-3.693998 -0.7463651 3.314117,-9.82033 -7.267719 0.4334837,-9.178381 -7.001722 0.7005415,-8.649134 -6.354486 0.9218748,-8.285987 -5.674549 1.16256,-7.970998 -5.268116 1.391191,-9.073116 -4.62393 0.7799115,-8.910909 -3.439199 0.969017,-8.85596 -2.699741 1.124444,-8.822488 -2.084359 1.230875,-9.4454 -4.400039 0.7753502,-9.307215 -3.052117 0.9309545,-9.240067 -2.204263 1.126215,-9.20377 -1.488609 1.294545,-9.808298 -4.445067 0.7752876,-9.725881 -3.176357 0.9075939,-9.656944 -2.39291 1.050651,-9.594436 -1.742902 1.158184,-10.171 -4.704343 0.7997873,-10.2457 -3.744745 0.9197565,-10.25265 -3.141222 1.043319,-10.2246 -2.558102 1.119394,0.160,DnF
-3.114532 -5.225215 1.305277,-3.85245 -5.027032 1.380336,-4.541793 -4.400634 1.479506,-5.019294 -3.847631 1.64097,-5.528967 -3.54685 1.88092,-4.41426 -2.7181 1.569351,-4.842535 -1.700369 1.882212,-5.151453 -1.145307 2.134854,-5.48895 -0.696259 2.363994,-4.071676 -2.451152 1.814278,-4.453461 -1.318867 2.294355,-4.751801 -0.7370601 2.673267,-5.080862 -0.2736688 2.961946,-3.667389 -2.422943 2.088264,-3.972051 -1.354435 2.527725,-4.230488 -0.7392621 2.869197,-4.541563 -0.2560353 3.125878,-3.215752 -2.601607 2.367854,-3.306942 -1.735537 2.793372,-3.469761 -1.193275 3.071063,-3.693998 -0.7463651 3.314117,-9.82033 -7.267719 0.4334837,-9.178381 -7.001722 0.7005415,-8.649134 -6.354486 0.9218748,-8.285987 -5.674549 1.16256,-7.970998 -5.268116 1.391191,-9.073116 -4.62393 0.7799115,-8.910909 -3.439199 0.969017,-8.85596 -2.699741 1.124444,-8.822488 -2.084359 1.230875,-9.4454 -4.400039 0.7753502,-9.307215 -3.052117 0.9309545,-9.240067 -2.204263 1.126215,-9.20377 -1.488609 1.294545,-9.808298 -4.445067 0.7752876,-9.725881 -3.176357 0.9075939,-9.656944 -2.39291 1.050651,-9.594436 -1.742902 1.158184,-10.171 -4.704343 0.7997873,-10.2457 -3.744745 0.9197565,-10.25265 -3.141222 1.043319,-10.2246 -2.558102 1.119394,0.180,DnF
-2.85907 -5.301763 1.289551,-3.592544 -5.091909 1.339981,-4.263308 -4.432083 1.423469,-4.760712 -3.901783 1.565719,-5.244478 -3.65273 1.796201,-4.055213 -2.722837 1.429202,-4.436178 -1.708548 1.647679,-4.726594 -1.136072 1.871077,-5.033023 -0.6742311 2.08635,-3.714196 -2.479291 1.672214,-4.050993 -1.358881 2.035336,-4.345003 -0.7488809 2.380982,-4.660467 -0.2900567 2.658212,-3.313444 -2.487907 1.942438,-3.56093 -1.395065 2.272893,-3.792439 -0.7691369 2.588783,-4.073372 -0.3145142 2.827146,-2.881464 -2.718993 2.223667,-2.925902 -1.839541 2.577159,-3.069693 -1.280729 2.823805,-3.275902 -0.8467631 3.062094,-9.807252 -7.257958 0.4004298,-9.164537 -7.000017 0.6925595,-8.629501 -6.356586 0.9321208,-8.27036 -5.678133 1.18798,-7.949695 -5.272232 1.440449,-9.05275 -4.627557 0.7819504,-8.8956 -3.418499 0.9880989,-8.835028 -2.671233 1.149509,-8.793447 -2.04206 1.258739,-9.427133 -4.405897 0.7843044,-9.286369 -3.049126 0.962545,-9.215006 -2.204925 1.157739,-9.16949 -1.485074 1.324707,-9.790934 -4.444652 0.7924293,-9.690335 -3.156893 0.9439999,-9.617164 -2.374482 1.085873,-9.547857 -1.716598 1.192112,-10.1549 -4.688709 0.8267618,-10.21481 -3.713592 0.957502,-10.22016 -3.10498 1.074611,-10.19123 -2.509115 1.150534,0.200,DnF
-2.85907 -5.301763 1.289551,-3.592544 -5.091909 1.339981,-4.263308 -4.432083 1.423469,-4.760712 -3.901783 1.565719,-5.244478 -3.65273 1.796201,-4.055213 -2.722837 1.429202,-4.436178 -1.708548 1.647679,-4.726594 -1.136072 1.871077,-5.033023 -0.6742311 2.08635,-3.714196 -2.479291 1.672214,-4.050993 -1.358881 2.035336,-4.345003 -0.7488809 2.380982,-4.660467 -0.2900567 2.658212,-3.313444 -2.487907 1.942438,-3.56093 -1.395065 2.272893,-3.792439 -0.7691369 2.588783,-4.073372 -0.3145142 2.827146,-2.881464 -2.718993 2.223667,-2.925902 -1.839541 2.577159,-3.069693 -1.280729 2.823805,-3.275902 -0.8467631 3.062094,-9.807252 -7.257958 0.4004298,-9.164537 -7.000017 0.6925595,-8.629501 -6.356586 0.9321208,-8.27036 -5.678133 1.18798,-7.949695 -5.272232 1.440449,-9.05275 -4.627557 0.7819504,-8.8956 -3.418499 0.9880989,-8.835028 -2.671233 1.149509,-8.793447 -2.04206 1.258739,-9.427133 -4.405897 0.7843044,-9.286369 -3.049126 0.962545,-9.215006 -2.204925 1.157739,-9.16949 -1.485074 1.324707,-9.790934 -4.444652 0.7924293,-9.690335 -3.156893 0.9439999,-9.617164 -2.374482 1.085873,-9.547857 -1.716598 1.192112,-10.1549 -4.688709 0.8267618,-10.21481 -3.713592 0.957502,-10.22016 -3.10498 1.074611,-10.19123 -2.509115 1.150534,0.220,DnF
-2.85907 -5.301763 1.289551,-3.592544 -5.091909 1.339981,-4.263308 -4.432083 1.423469,-4.760712 -3.901783 1.565719,-5.244478 -3.65273 1.796201,-4.055213 -2.722837 1.429202,-4.436178 -1.708548 1.647679,-4.726594 -1.136072 1.871077,-5.033023 -0.6742311 2.08635,-3.714196 -2.479291 1.672214,-4.050993 -1.358881 2.035336,-4.345003 -0.7488809 2.380982,-4.660467 -0.2900567 2.658212,-3.313444 -2.487907 1.942438,-3.56093 -1.395065 2.272893,-3.792439 -0.7691369 2.588783,-4.073372 -0.3145142 2.827146,-2.881464 -2.718993 2.223667,-2.925902 -1.839541 2.577159,-3.069693 -1.280729 2.823805,-3.275902 -0.8467631 3.062094,-9.807252 -7.257958 0.4004298,-9.164537 -7.000017 0.6925595,-8.629501 -6.356586 0.9321208,-8.27036 -5.678133 1.18798,-7.949695 -5.272232 1.440449,-9.05275 -4.627557 0.7819504,-8.8956 -3.418499 0.9880989,-8.835028 -2.671233 1.149509,-8.793447 -2.04206 1.258739,-9.427133 -4.405897 0.7843044,-9.286369 -3.049126 0.962545,-9.215006 -2.204925 1.157739,-9.16949 -1.485074 1.324707,-9.790934 -4.444652 0.7924293,-9.690335 -3.156893 0.9439999,-9.617164 -2.374482 1.085873,-9.547857 -1.716598 1.192112,-10.1549 -4.688709 0.8267618,-10.21481 -3.713592 0.957502,-10.22016 -3.10498 1.074611,-10.19123 -2.509115 1.150534,0.240,DnF
-2.732999 -3.974985 0.06400023,-3.434752 -4.337964 0.568883,-4.066681 -4.239819 0.9951746,-4.598274 -3.982006 1.245795,-4.965429 -3.824223 1.383432,-3.877 -2.212374 1.408002,-4.384706 -0.7345834 1.572564,-4.575614 -0.7576346 1.534243,-4.594347 -1.053719 1.474502,-3.462682 -1.725843 1.201171,-3.912527 -0.2187052 1.35288,-4.092245 -0.3862906 1.206031,-4.095551 -0.8211255 1.142664,-3.05056 -1.60422 0.9649031,-3.435603 -0.365756 1.024736,-3.629626 -0.559936 0.8539884,-3.679537 -0.9445128 0.7694664,-2.697022 -1.743374 0.7495534,-2.927439 -0.7201219 0.7938097,-3.11937 -0.8094573 0.7183731,-3.232003 -1.1028 0.6367117,-9.774891 -7.238396 0.4513759,-9.128839 -6.949177 0.7374126,-8.598112 -6.319911 0.9865685,-8.233413 -5.665096 1.262735,-7.910617 -5.259202 1.536313,-9.02196 -4.584779 0.787798,-8.857918 -3.410263 0.9986756,-8.794985 -2.682224 1.171217,-8.751168 -2.061626 1.290945,-9.383614 -4.372547 0.8317633,-9.239684 -3.042642 1.02708,-9.169857 -2.20753 1.243398,-9.117875 -1.49751 1.417548,-9.739254 -4.418598 0.8885958,-9.64158 -3.145952 1.06874,-9.570511 -2.357728 1.235682,-9.495633 -1.697025 1.356679,-10.10206 -4.671977 0.9746072,-10.17201 -3.72146 1.140031,-10.18123 -3.109102 1.277309,-10.15249 -2.514336 1.365748,0.260,Right Hand Closed
-2.732999 -3.974985 0.06400023,-3.434752 -4.337964 0.568883,-4.066681 -4.239819 0.9951746,-4.598274 -3.982006 1.245795,-4.965429 -3.824223 1.383432,-3.877 -2.212374 1.408002,-4.384706 -0.7345834 1.572564,-4.575614 -0.7576346 1.534243,-4.594347 -1.053719 1.474502,-3.462682 -1.725843 1.201171,-3.912527 -0.2187052 1.35288,-4.092245 -0.3862906 1.206031,-4.095551 -0.8211255 1.142664,-3.05056 -1.60422 0.9649031,-3.435603 -0.365756 1.024736,-3.629626 -0.559936 0.8539884,-3.679537 -0.9445128 0.7694664,-2.697022 -1.743374 0.7495534,-2.927439 -0.7201219 0.7938097,-3.11937 -0.8094573 0.7183731,-3.232003 -1.1028 0.6367117,-9.774891 -7.238396 0.4513759,-9.128839 -6.949177 0.7374126,-8.598112 -6.319911 0.9865685,-8.233413 -5.665096 1.262735,-7.910617 -5.259202 1.536313,-9.02196 -4.584779 0.787798,-8.857918 -3.410263 0.9986756,-8.794985 -2.682224 1.171217,-8.751168 -2.061626 1.290945,-9.383614 -4.372547 0.8317633,-9.239684 -3.042642 1.02708,-9.169857 -2.20753 1.243398,-9.117875 -1.49751 1.417548,-9.739254 -4.418598 0.8885958,-9.64158 -3.145952 1.06874,-9.570511 -2.357728 1.235682,-9.495633 -1.697025 1.356679,-10.10206 -4.671977 0.9746072,-10.17201 -3.72146 1.140031,-10.18123 -3.109102 1.277309,-10.15249 -2.514336 1.365748,0.280,Object Dropped
-2.732999 -3.974985 0.06400023,-3.434752 -4.337964 0.568883,-4.066681 -4.239819 0.9951746,-4.598274 -3.982006 1.245795,-4.965429 -3.824223 1.383432,-3.877 -2.212374 1.408002,-4.384706 -0.7345834 1.572564,-4.575614 -0.7576346 1.534243,-4.594347 -1.053719 1.474502,-3.462682 -1.725843 1.201171,-3.912527 -0.2187052 1.35288,-4.092245 -0.3862906 1.206031,-4.095551 -0.8211255 1.142664,-3.05056 -1.60422 0.9649031,-3.435603 -0.365756 1.024736,-3.629626 -0.559936 0.8539884,-3.679537 -0.9445128 0.7694664,-2.697022 -1.743374 0.7495534,-2.927439 -0.7201219 0.7938097,-3.11937 -0.8094573 0.7183731,-3.232003 -1.1028 0.6367117,-9.774891 -7.238396 0.4513759,-9.128839 -6.949177 0.7374126,-8.598112 -6.319911 0.9865685,-8.233413 -5.665096 1.262735,-7.910617 -5.259202 1.536313,-9.02196 -4.584779 0.787798,-8.857918 -3.410263 0.9986756,-8.794985 -2.682224 1.171217,-8.751168 -2.061626 1.290945,-9.383614 -4.372547 0.8317633,-9.239684 -3.042642 1.02708,-9.169857 -2.20753 1.243398,-9.117875 -1.49751 1.417548,-9.739254 -4.418598 0.8885958,-9.64158 -3.145952 1.06874,-9.570511 -2.357728 1.235682,-9.495633 -1.697025 1.356679,-10.10206 -4.671977 0.9746072,-10.17201 -3.72146 1.140031,-10.18123 -3.109102 1.277309,-10.15249 -2.514336 1.365748,0.300,DnF
-2.814357 -4.199931 -2.353354,-3.453403 -4.469274 -2.008587,-3.936365 -4.363109 -1.704147,-4.353038 -4.163995 -1.452053,-4.764306 -4.006036 -1.251023,-3.588972 -2.694494 -1.497871,-3.928614 -1.664144 -1.138992,-4.149524 -1.212827 -1.047706,-4.330765 -0.9852548 -1.045535,-3.166428 -2.470431 -1.565054,-3.337449 -1.214469 -1.161889,-3.496214 -0.6346688 -1.015359,-3.633831 -0.3753409 -0.9395171,-2.767527 -2.486612 -1.637289,-2.818129 -1.378296 -1.334544,-2.959931 -0.7829375 -1.112602,-3.144009 -0.4320536 -0.9466371,-2.45795 -2.720319 -1.695077,-2.31159 -1.924729 -1.475068,-2.300849 -1.443107 -1.223786,-2.420674 -1.17704 -1.003412,-9.719715 -7.226758 0.5055541,-9.083644 -6.943487 0.8051934,-8.554924 -6.316471 1.063647,-8.186467 -5.672367 1.349429,-7.857154 -5.268249 1.63822,-8.986479 -4.558137 0.8352224,-8.823192 -3.395116 1.044733,-8.757005 -2.680727 1.221445,-8.710546 -2.072668 1.345732,-9.34341 -4.343369 0.8873405,-9.200299 -3.027752 1.075412,-9.127541 -2.198437 1.293591,-9.073396 -1.488136 1.475305,-9.697501 -4.394107 0.9584684,-9.601424 -3.143195 1.13774,-9.52864 -2.357001 1.316566,-9.453272 -1.69299 1.451235,-10.06132 -4.656766 1.062961,-10.14345 -3.711988 1.234162,-10.15889 -3.093496 1.381583,-10.13524 -2.495431 1.483133,0.320,DnF
-2.814357 -4.199931 -2.353354,-3.453403 -4.469274 -2.008587,-3.936365 -4.363109 -1.704147,-4.353038 -4.163995 -1.452053,-4.764306 -4.006036 -1.251023,-3.588972 -2.694494 -1.497871,-3.928614 -1.664144 -1.138992,-4.149524 -1.212827 -1.047706,-4.330765 -0.9852548 -1.045535,-3.166428 -2.470431 -1.565054,-3.337449 -1.214469 -1.161889,-3.496214 -0.6346688 -1.015359,-3.633831 -0.3753409 -0.9395171,-2.767527 -2.486612 -1.637289,-2.818129 -1.378296 -1.334544,-2.959931 -0.7829375 -1.112602,-3.144009 -0.4320536 -0.9466371,-2.45795 -2.720319 -1.695077,-2.31159 -1.924729 -1.475068,-2.300849 -1.443107 -1.223786,-2.420674 -1.17704 -1.003412,-9.719715 -7.226758 0.5055541,-9.083644 -6.943487 0.8051934,-8.554924 -6.316471 1.063647,-8.186467 -5.672367 1.349429,-7.857154 -5.268249 1.63822,-8.986479 -4.558137 0.8352224,-8.823192 -3.395116 1.044733,-8.757005 -2.680727 1.221445,-8.710546 -2.072668 1.345732,-9.34341 -4.343369 0.8873405,-9.200299 -3.027752 1.075412,-9.127541 -2.198437 1.293591,-9.073396 -1.488136 1.475305,-9.697501 -4.394107 0.9584684,-9.601424 -3.143195 1.13774,-9.52864 -2.357001 1.316566,-9.453272 -1.69299 1.451235,-10.06132 -4.656766 1.062961,-10.14345 -3.711988 1.234162,-10.15889 -3.093496 1.381583,-10.13524 -2.495431 1.483133,0.340,DnF
-2.814357 -4.199931 -2.353354,-3.453403 -4.469274 -2.008587,-3.936365 -4.363109 -1.704147,-4.353038 -4.163995 -1.452053,-4.764306 -4.006036 -1.251023,-3.588972 -2.694494 -1.497871,-3.928614 -1.664144 -1.138992,-4.149524 -1.212827 -1.047706,-4.330765 -0.9852548 -1.045535,-3.166428 -2.470431 -1.565054,-3.337449 -1.214469 -1.161889,-3.496214 -0.6346688 -1.015359,-3.633831 -0.3753409 -0.9395171,-2.767527 -2.486612 -1.637289,-2.818129 -1.378296 -1.334544,-2.959931 -0.7829375 -1.112602,-3.144009 -0.4320536 -0.9466371,-2.45795 -2.720319 -1.695077,-2.31159 -1.924729 -1.475068,-2.300849 -1.443107 -1.223786,-2.420674 -1.17704 -1.003412,-9.719715 -7.226758 0.5055541,-9.083644 -6.943487 0.8051934,-8.554924 -6.316471 1.063647,-8.186467 -5.672367 1.349429,-7.857154 -5.268249 1.63822,-8.986479 -4.558137 0.8352224,-8.823192 -3.395116 1.044733,-8.757005 -2.680727 1.221445,-8.710546 -2.072668 1.345732,-9.34341 -4.343369 0.8873405,-9.200299 -3.027752 1.075412,-9.127541 -2.198437 1.293591,-9.073396 -1.488136 1.475305,-9.697501 -4.394107 0.9584684,-9.601424 -3.143195 1.13774,-9.52864 -2.357001 1.316566,-9.453272 -1.69299 1.451235,-10.06132 -4.656766 1.062961,-10.14345 -3.711988 1.234162,-10.15889 -3.093496 1.381583,-10.13524 -2.495431 1.483133,0.360,DnF
-2.40871 -5.071605 -0.3822871,-3.067219 -5.132967 0.1179865,-3.632402 -4.766006 0.4187101,-4.101411 -4.419928 0.671698,-4.544113 -4.208465 0.9759337,-3.28413 -2.919116 0.3753568,-3.607357 -1.8465 0.6832821,-3.785113 -1.370704 0.8993742,-3.963297 -1.041151 1.073484,-2.862294 -2.721711 0.3266628,-3.074623 -1.468532 0.6518068,-3.209055 -0.8360963 0.8881248,-3.368435 -0.405808 1.077728,-2.453447 -2.815453 0.3225946,-2.561063 -1.625744 0.6570662,-2.672188 -0.9746976 0.9137039,-2.841033 -0.4888058 1.133327,-2.0757 -3.150677 0.3530102,-2.035619 -2.200171 0.6766156,-2.007029 -1.685385 0.9184692,-2.072637 -1.262349 1.140231,-9.685459 -7.183687 0.4465732,-9.038135 -6.923309 0.7236109,-8.495507 -6.309545 0.9563758,-8.119319 -5.668941 1.21576,-7.796825 -5.288018 1.47252,-8.934496 -4.526321 0.7196648,-8.766645 -3.351321 0.8833846,-8.708035 -2.63318 1.032528,-8.667972 -2.021478 1.132125,-9.299606 -4.308517 0.7421986,-9.150387 -2.983653 0.8753428,-9.081919 -2.160545 1.055264,-9.032045 -1.466191 1.209077,-9.657468 -4.350564 0.7760199,-9.549356 -3.08505 0.9066294,-9.47922 -2.300975 1.052247,-9.408827 -1.647553 1.161014,-10.01687 -4.597433 0.8440163,-10.07422 -3.643241 0.9644342,-10.08409 -3.028139 1.084134,-10.05956 -2.430392 1.163266,0.380,DnF
-2.40871 -5.071605 -0.3822871,-3.067219 -5.132967 0.1179865,-3.632402 -4.766006 0.4187101,-4.101411 -4.419928 0.671698,-4.544113 -4.208465 0.9759337,-3.28413 -2.919116 0.3753568,-3.607357 -1.8465 0.6832821,-3.785113 -1.370704 0.8993742,-3.963297 -1.041151 1.073484,-2.862294 -2.721711 0.3266628,-3.074623 -1.468532 0.6518068,-3.209055 -0.8360963 0.8881248,-3.368435 -0.405808 1.077728,-2.453447 -2.815453 0.3225946,-2.561063 -1.625744 0.6570662,-2.672188 -0.9746976 0.9137039,-2.841033 -0.4888058 1.133327,-2.0757 -3.150677 0.3530102,-2.035619 -2.200171 0.6766156,-2.007029 -1.685385 0.9184692,-2.072637 -1.262349 1.140231,-9.685459 -7.183687 0.4465732,-9.038135 -6.923309 0.7236109,-8.495507 -6.309545 0.9563758,-8.119319 -5.668941 1.21576,-7.796825 -5.288018 1.47252,-8.934496 -4.526321 0.7196648,-8.766645 -3.351321 0.8833846,-8.708035 -2.63318 1.032528,-8.667972 -2.021478 1.132125,-9.299606 -4.308517 0.7421986,-9.150387 -2.983653 0.8753428,-9.081919 -2.160545 1.055264,-9.032045 -1.466191 1.209077,-9.657468 -4.350564 0.7760199,-9.549356 -3.08505 0.9066294,-9.47922 -2.300975 1.052247,-9.408827 -1.647553 1.161014,-10.01687 -4.597433 0.8440163,-10.07422 -3.643241 0.9644342,-10.08409 -3.028139 1.084134,-10.05956 -2.430392 1.163266,0.400,Object Dropped
-2.40871 -5.071605 -0.3822871,-3.067219 -5.132967 0.1179865,-3.632402 -4.766006 0.4187101,-4.101411 -4.419928 0.671698,-4.544113 -4.208465 0.9759337,-3.28413 -2.919116 0.3753568,-3.607357 -1.8465 0.6832821,-3.785113 -1.370704 0.8993742,-3.963297 -1.041151 1.073484,-2.862294 -2.721711 0.3266628,-3.074623 -1.468532 0.6518068,-3.209055 -0.8360963 0.8881248,-3.368435 -0.405808 1.077728,-2.453447 -2.815453 0.3225946,-2.561063 -1.625744 0.6570662,-2.672188 -0.9746976 0.9137039,-2.841033 -0.4888058 1.133327,-2.0757 -3.150677 0.3530102,-2.035619 -2.200171 0.6766156,-2.007029 -1.685385 0.9184692,-2.072637 -1.262349 1.140231,-9.685459 -7.183687 0.4465732,-9.038135 -6.923309 0.7236109,-8.495507 -6.309545 0.9563758,-8.119319 -5.668941 1.21576,-7.796825 -5.288018 1.47252,-8.934496 -4.526321 0.7196648,-8.766645 -3.351321 0.8833846,-8.708035 -2.63318 1.032528,-8.667972 -2.021478 1.132125,-9.299606 -4.308517 0.7421986,-9.150387 -2.983653 0.8753428,-9.081919 -2.160545 1.055264,-9.032045 -1.466191 1.209077,-9.657468 -4.350564 0.7760199,-9.549356 -3.08505 0.9066294,-9.47922 -2.300975 1.052247,-9.408827 -1.647553 1.161014,-10.01687 -4.597433 0.8440163,-10.07422 -3.643241 0.9644342,-10.08409 -3.028139 1.084134,-10.05956 -2.430392 1.163266,0.420,DnF
-2.149377 -5.687811 0.5751737,-2.807077 -5.655709 1.067197,-3.412436 -5.125993 1.327087,-3.874276 -4.667637 1.546734,-4.299053 -4.379694 1.833247,-3.063523 -3.242869 1.183132,-3.337343 -2.158329 1.476965,-3.489745 -1.58289 1.716711,-3.638118 -1.111987 1.921234,-2.652857 -3.027462 1.158587,-2.862771 -1.767029 1.437391,-2.989073 -1.105249 1.674555,-3.127467 -0.5454459 1.865298,-2.245413 -3.115777 1.186829,-2.362222 -1.91705 1.481288,-2.455979 -1.275478 1.767451,-2.587034 -0.7187715 1.987588,-1.847751 -3.429458 1.25282,-1.804768 -2.482729 1.59508,-1.793483 -1.944907 1.840659,-1.842608 -1.4473 2.055802,-9.632998 -7.167949 0.4412666,-8.986923 -6.92914 0.7380736,-8.444402 -6.319661 0.9894957,-8.066107 -5.689265 1.267756,-7.737814 -5.304063 1.541756,-8.875552 -4.524948 0.7416641,-8.706868 -3.352764 0.9210562,-8.640938 -2.634883 1.083312,-8.595954 -2.023887 1.197745,-9.232729 -4.301162 0.7805238,-9.084373 -2.97871 0.9432343,-9.005935 -2.144065 1.156079,-8.95206 -1.432951 1.33467,-9.589333 -4.346519 0.8337483,-9.48734 -3.087919 1.000075,-9.411185 -2.289355 1.176335,-9.338887 -1.617364 1.306731,-9.95544 -4.60434 0.9190603,-10.0321 -3.644405 1.089863,-10.04423 -3.017281 1.247036,-10.02033 -2.411541 1.351413,0.440,DnF
-2.149377 -5.687811 0.5751737,-2.807077 -5.655709 1.067197,-3.412436 -5.125993 1.327087,-3.874276 -4.667637 1.546734,-4.299053 -4.379694 1.833247,-3.063523 -3.242869 1.183132,-3.337343 -2.158329 1.476965,-3.489745 -1.58289 1.716711,-3.638118 -1.111987 1.921234,-2.652857 -3.027462 1.158587,-2.862771 -1.767029 1.437391,-2.989073 -1.105249 1.674555,-3.127467 -0.5454459 1.865298,-2.245413 -3.115777 1.186829,-2.362222 -1.91705 1.481288,-2.455979 -1.275478 1.767451,-2.587034 -0.7187715 1.987588,-1.847751 -3.429458 1.25282,-1.804768 -2.482729 1.59508,-1.793483 -1.944907 1.840659,-1.842608 -1.4473 2.055802,-9.632998 -7.167949 0.4412666,-8.986923 -6.92914 0.7380736,-8.444402 -6.319661 0.9894957,-8.066107 -5.689265 1.267756,-7.737814 -5.304063 1.541756,-8.875552 -4.524948 0.7416641,-8.706868 -3.352764 0.9210562,-8.640938 -2.634883 1.083312,-8.595954 -2.023887 1.197745,-9.232729 -4.301162 0.7805238,-9.084373 -2.97871 0.9432343,-9.005935 -2.144065 1.156079,-8.95206 -1.432951 1.33467,-9.589333 -4.346519 0.8337483,-9.48734 -3.087919 1.000075,-9.411185 -2.289355 1.176335,-9.338887 -1.617364 1.306731,-9.95544 -4.60434 0.9190603,-10.0321 -3.644405 1.089863,-10.04423 -3.017281 1.247036,-10.02033 -2.411541 1.351413,0.460,DnF
-2.149377 -5.687811 0.5751737,-2.807077 -5.655709 1.067197,-3.412436 -5.125993 1.327087,-3.874276 -4.667637 1.546734,-4.299053 -4.379694 1.833247,-3.063523 -3.242869 1.183132,-3.337343 -2.158329 1.476965,-3.489745 -1.58289 1.716711,-3.638118 -1.111987 1.921234,-2.652857 -3.027462 1.158587,-2.862771 -1.767029 1.437391,-2.989073 -1.105249 1.674555,-3.127467 -0.5454459 1.865298,-2.245413 -3.115777 1.186829,-2.362222 -1.91705 1.481288,-2.455979 -1.275478 1.767451,-2.587034 -0.7187715 1.987588,-1.847751 -3.429458 1.25282,-1.804768 -2.482729 1.59508,-1.793483 -1.944907 1.840659,-1.842608 -1.4473 2.055802,-9.632998 -7.167949 0.4412666,-8.986923 -6.92914 0.7380736,-8.444402 -6.319661 0.9894957,-8.066107 -5.689265 1.267756,-7.737814 -5.304063 1.541756,-8.875552 -4.524948 0.7416641,-8.706868 -3.352764 0.9210562,-8.640938 -2.634883 1.083312,-8.595954 -2.023887 1.197745,-9.232729 -4.301162 0.7805238,-9.084373 -2.97871 0.9432343,-9.005935 -2.144065 1.156079,-8.95206 -1.432951 1.33467,-9.589333 -4.346519 0.8337483,-9.48734 -3.087919 1.000075,-9.411185 -2.289355 1.176335,-9.338887 -1.617364 1.306731,-9.95544 -4.60434 0.9190603,-10.0321 -3.644405 1.089863,-10.04423 -3.017281 1.247036,-10.02033 -2.411541 1.351413,0.480,DnF
-1.995397 -5.998479 0.9180422,-2.638698 -5.890361 1.418677,-3.253003 -5.393711 1.70244,-3.721575 -4.925622 1.959674,-4.150429 -4.641201 2.270952,-2.898801 -3.486928 1.461832,-3.143454 -2.40803 1.739602,-3.269123 -1.79487 1.96513,-3.387419 -1.258098 2.161706,-2.500929 -3.226348 1.451226,-2.689063 -2.010939 1.715643,-2.795731 -1.308519 1.942128,-2.915599 -0.6777091 2.143609,-2.099831 -3.28756 1.497221,-2.194316 -2.138654 1.779158,-2.277004 -1.493332 2.046142,-2.386517 -0.9209847 2.266403,-1.691382 -3.575347 1.596521,-1.631509 -2.687686 1.901279,-1.627026 -2.156038 2.116778,-1.670134 -1.649808 2.321065,-9.580423 -7.158168 0.4896107,-8.939492 -6.920669 0.786641,-8.399903 -6.32456 1.049674,-8.024047 -5.718799 1.343494,-7.698332 -5.333684 1.639265,-8.82247 -4.50375 0.7972853,-8.649054 -3.354326 0.9931945,-8.575986 -2.642439 1.173452,-8.521685 -2.032018 1.299132,-9.179165 -4.280774 0.8560251,-9.025613 -2.981815 1.023219,-8.937544 -2.157409 1.244595,-8.872871 -1.454586 1.428167,-9.538143 -4.322526 0.9329523,-9.432349 -3.082288 1.099519,-9.349199 -2.29604 1.282482,-9.267988 -1.634169 1.414649,-9.910999 -4.574184 1.042293,-9.977468 -3.608962 1.222497,-9.982756 -2.965806 1.378276,-9.951244 -2.351677 1.478814,0.500,DnF
-1.995397 -5.998479 0.9180422,-2.638698 -5.890361 1.418677,-3.253003 -5.393711 1.70244,-3.721575 -4.925622 1.959674,-4.150429 -4.641201 2.270952,-2.898801 -3.486928 1.461832,-3.143454 -2.40803 1.739602,-3.269123 -1.79487 1.96513,-3.387419 -1.258098 2.161706,-2.500929 -3.226348 1.451226,-2.689063 -2.010939 1.715643,-2.795731 -1.308519 1.942128,-2.915599 -0.6777091 2.143609,-2.099831 -3.28756 1.497221,-2.194316 -2.138654 1.779158,-2.277004 -1.493332 2.046142,-2.386517 -0.9209847 2.266403,-1.691382 -3.575347 1.596521,-1.631509 -2.687686 1.901279,-1.627026 -2.156038 2.116778,-1.670134 -1.649808 2.321065,-9.580423 -7.158168 0.4896107,-8.939492 -6.920669 0.786641,-8.399903 -6.32456 1.049674,-8.024047 -5.718799 1.343494,-7.698332 -5.333684 1.639265,-8.82247 -4.50375 0.7972853,-8.649054 -3.354326 0.9931945,-8.575986 -2.642439 1.173452,-8.521685 -2.032018 1.299132,-9.179165 -4.280774 0.8560251,-9.025613 -2.981815 1.023219,-8.937544 -2.157409 1.244595,-8.872871 -1.454586 1.428167,-9.538143 -4.322526 0.9329523,-9.432349 -3.082288 1.099519,-9.349199 -2.29604 1.282482,-9.267988 -1.634169 1.414649,-9.910999 -4.574184 1.042293,-9.977468 -3.608962 1.222497,-9.982756 -2.965806 1.378276,-9.951244 -2.351677 1.478814,0.520,DnF
-1.995397 -5.998479 0.9180422,-2.638698 -5.890361 1.418677,-3.253003 -5.393711 1.70244,-3.721575 -4.925622 1.959674,-4.150429 -4.641201 2.270952,-2.898801 -3.486928 1.461832,-3.143454 -2.40803 1.739602,-3.269123 -1.79487 1.96513,-3.387419 -1.258098 2.161706,-2.500929 -3.226348 1.451226,-2.689063 -2.010939 1.715643,-2.795731 -1.308519 1.942128,-2.915599 -0.6777091 2.143609,-2.099831 -3.28756 1.497221,-2.194316 -2.138654 1.779158,-2.277004 -1.493332 2.046142,-2.386517 -0.9209847 2.266403,-1.691382 -3.575347 1.596521,-1.631509 -2.687686 1.901279,-1.627026 -2.156038 2.116778,-1.670134 -1.649808 2.321065,-9.580423 -7.158168 0.4896107,-8.939492 -6.920669 0.786641,-8.399903 -6.32456 1.049674,-8.024047 -5.718799 1.343494,-7.698332 -5.333684 1.639265,-8.82247 -4.50375 0.7972853,-8.649054 -3.354326 0.9931945,-8.575986 -2.642439 1.173452,-8.521685 -2.032018 1.299132,-9.179165 -4.280774 0.8560251,-9.025613 -2.981815 1.023219,-8.937544 -2.157409 1.244595,-8.872871 -1.454586 1.428167,-9.538143 -4.322526 0.9329523,-9.432349 -3.082288 1.099519,-9.349199 -2.29604 1.282482,-9.267988 -1.634169 1.414649,-9.910999 -4.574184 1.042293,-9.977468 -3.608962 1.222497,-9.982756 -2.965806 1.378276,-9.951244 -2.351677 1.478814,0.540,DnF
-1.938046 -6.228527 1.221589,-2.559268 -6.069152 1.72394,-3.156432 -5.563105 2.000344,-3.611055 -5.06459 2.259751,-4.029627 -4.767683 2.556081,-2.798037 -3.634289 1.66977,-3.046302 -2.628122 1.944285,-3.165985 -2.020214 2.19039,-3.277967 -1.439211 2.39418,-2.407353 -3.346399 1.67177,-2.58149 -2.202604 1.944439,-2.687015 -1.489988 2.20979,-2.788146 -0.8251939 2.434743,-2.013488 -3.384839 1.736554,-2.084576 -2.284944 2.016263,-2.160375 -1.636959 2.326761,-2.256992 -1.065067 2.572176,-1.602451 -3.661727 1.858522,-1.543033 -2.813956 2.147972,-1.532386 -2.296202 2.372234,-1.565458 -1.79593 2.577826,-9.530741 -7.149132 0.4623237,-8.88453 -6.902232 0.7392586,-8.34262 -6.301269 0.9918689,-7.957112 -5.692026 1.279059,-7.624521 -5.300024 1.574255,-8.770494 -4.489423 0.7175991,-8.596244 -3.33249 0.9090996,-8.517347 -2.61444 1.092257,-8.454056 -2.002803 1.219009,-9.130295 -4.274383 0.7854497,-8.976665 -2.965887 0.9472972,-8.884748 -2.129178 1.172277,-8.813698 -1.425139 1.352632,-9.490469 -4.332023 0.8721741,-9.385036 -3.087862 1.035347,-9.298259 -2.286977 1.220958,-9.210317 -1.613009 1.350443,-9.862128 -4.599623 0.9920795,-9.929358 -3.63073 1.173568,-9.928917 -2.984037 1.334939,-9.888759 -2.364411 1.435253,0.560,DnF
-1.938046 -6.228527 1.221589,-2.559268 -6.069152 1.72394,-3.156432 -5.563105 2.000344,-3.611055 -5.06459 2.259751,-4.029627 -4.767683 2.556081,-2.798037 -3.634289 1.66977,-3.046302 -2.628122 1.944285,-3.165985 -2.020214 2.19039,-3.277967 -1.439211 2.39418,-2.407353 -3.346399 1.67177,-2.58149 -2.202604 1.944439,-2.687015 -1.489988 2.20979,-2.788146 -0.8251939 2.434743,-2.013488 -3.384839 1.736554,-2.084576 -2.284944 2.016263,-2.160375 -1.636959 2.326761,-2.256992 -1.065067 2.572176,-1.602451 -3.661727 1.858522,-1.543033 -2.813956 2.147972,-1.532386 -2.296202 2.372234,-1.565458 -1.79593 2.577826,-9.530741 -7.149132 0.4623237,-8.88453 -6.902232 0.7392586,-8.34262 -6.301269 0.9918689,-7.957112 -5.692026 1.279059,-7.624521 -5.300024 1.574255,-8.770494 -4.489423 0.7175991,-8.596244 -3.33249 0.9090996,-8.517347 -2.61444 1.092257,-8.454056 -2.002803 1.219009,-9.130295 -4.274383 0.7854497,-8.976665 -2.965887 0.9472972,-8.884748 -2.129178 1.172277,-8.813698 -1.425139 1.352632,-9.490469 -4.332023 0.8721741,-9.385036 -3.087862 1.035347,-9.298259 -2.286977 1.220958,-9.210317 -1.613009 1.350443,-9.862128 -4.599623 0.9920795,-9.929358 -3.63073 1.173568,-9.928917 -2.984037 1.334939,-9.888759 -2.364411 1.435253,0.580,DnF
-1.938046 -6.228527 1.221589,-2.559268 -6.069152 1.72394,-3.156432 -5.563105 2.000344,-3.611055 -5.06459 2.259751,-4.029627 -4.767683 2.556081,-2.798037 -3.634289 1.66977,-3.046302 -2.628122 1.944285,-3.165985 -2.020214 2.19039,-3.277967 -1.439211 2.39418,-2.407353 -3.346399 1.67177,-2.58149 -2.202604 1.944439,-2.687015 -1.489988 2.20979,-2.788146 -0.8251939 2.434743,-2.013488 -3.384839 1.736554,-2.084576 -2.284944 2.016263,-2.160375 -1.636959 2.326761,-2.256992 -1.065067 2.572176,-1.602451 -3.661727 1.858522,-1.543033 -2.813956 2.147972,-1.532386 -2.296202 2.372234,-1.565458 -1.79593 2.577826,-9.530741 -7.149132 0.4623237,-8.88453 -6.902232 0.7392586,-8.34262 -6.301269 0.9918689,-7.957112 -5.692026 1.279059,-7.624521 -5.300024 1.574255,-8.770494 -4.489423 0.7175991,-8.596244 -3.33249 0.9090996,-8.517347 -2.61444 1.092257,-8.454056 -2.002803 1.219009,-9.130295 -4.274383 0.7854497,-8.976665 -2.965887 0.9472972,-8.884748 -2.129178 1.172277,-8.813698 -1.425139 1.352632,-9.490469 -4.332023 0.8721741,-9.385036 -3.087862 1.035347,-9.298259 -2.286977 1.220958,-9.210317 -1.613009 1.350443,-9.862128 -4.599623 0.9920795,-9.929358 -3.63073 1.173568,-9.928917 -2.984037 1.334939,-9.888759 -2.364411 1.435253,0.600,DnF
-1.879548 -6.286619 1.054953,-2.495029 -6.087327 1.560443,-3.07954 -5.591424 1.863446,-3.524732 -5.106885 2.141279,-3.934258 -4.802862 2.470816,-2.732383 -3.729672 1.5808,-2.983714 -2.724056 1.880344,-3.096907 -2.124831 2.142708,-3.200212 -1.554967 2.348787,-2.339705 -3.464693 1.579408,-2.493886 -2.328351 1.875589,-2.580101 -1.594515 2.149901,-2.662436 -0.9229064 2.384081,-1.94278 -3.499137 1.64333,-2.004086 -2.409033 1.915358,-2.067641 -1.750351 2.222002,-2.146651 -1.185974 2.46728,-1.525336 -3.750444 1.757902,-1.463721 -2.89377 2.027524,-1.45207 -2.354754 2.252909,-1.477795 -1.842433 2.456947,-9.49667 -7.11972 0.4812066,-8.853389 -6.884723 0.7455691,-8.314501 -6.280393 0.9877935,-7.935204 -5.67444 1.269052,-7.608713 -5.283317 1.556967,-8.722104 -4.44854 0.7172496,-8.551316 -3.294452 0.9039813,-8.471534 -2.577199 1.088133,-8.40894 -1.962303 1.221342,-9.078786 -4.241327 0.7992209,-8.929909 -2.930261 0.9458798,-8.835264 -2.093494 1.16359,-8.763827 -1.378951 1.346003,-9.437635 -4.30298 0.903119,-9.337979 -3.063235 1.056947,-9.255758 -2.265899 1.241072,-9.178732 -1.584304 1.377617,-9.810412 -4.577707 1.042216,-9.885116 -3.610576 1.218193,-9.894043 -2.956798 1.379079,-9.868151 -2.324171 1.486513,0.620,DnF
-1.879548 -6.286619 1.054953,-2.495029 -6.087327 1.560443,-3.07954 -5.591424 1.863446,-3.524732 -5.106885 2.141279,-3.934258 -4.802862 2.470816,-2.732383 -3.729672 1.5808,-2.983714 -2.724056 1.880344,-3.096907 -2.124831 2.142708,-3.200212 -1.554967 2.348787,-2.339705 -3.464693 1.579408,-2.493886 -2.328351 1.875589,-2.580101 -1.594515 2.149901,-2.662436 -0.9229064 2.384081,-1.94278 -3.499137 1.64333,-2.004086 -2.409033 1.915358,-2.067641 -1.750351 2.222002,-2.146651 -1.185974 2.46728,-1.525336 -3.750444 1.757902,-1.463721 -2.89377 2.027524,-1.45207 -2.354754 2.252909,-1.477795 -1.842433 2.456947,-9.49667 -7.11972 0.4812066,-8.853389 -6.884723 0.7455691,-8.314501 -6.280393 0.9877935,-7.935204 -5.67444 1.269052,-7.608713 -5.283317 1.556967,-8.722104 -4.44854 0.7172496,-8.551316 -3.294452 0.9039813,-8.471534 -2.577199 1.088133,-8.40894 -1.962303 1.221342,-9.078786 -4.241327 0.7992209,-8.929909 -2.930261 0.9458798,-8.835264 -2.093494 1.16359,-8.763827 -1.378951 1.346003,-9.437635 -4.30298 0.903119,-9.337979 -3.063235 1.056947,-9.255758 -2.265899 1.241072,-9.178732 -1.584304 1.377617,-9.810412 -4.577707 1.042216,-9.885116 -3.610576 1.218193,-9.894043 -2.956798 1.379079,-9.868151 -2.324171 1.486513,0.640,DnF
-1.879548 -6.286619 1.054953,-2.495029 -6.087327 1.560443,-3.07954 -5.591424 1.863446,-3.524732 -5.106885 2.141279,-3.934258 -4.802862 2.470816,-2.732383 -3.729672 1.5808,-2.983714 -2.724056 1.880344,-3.096907 -2.124831 2.142708,-3.200212 -1.554967 2.348787,-2.339705 -3.464693 1.579408,-2.493886 -2.328351 1.875589,-2.580101 -1.594515 2.149901,-2.662436 -0.9229064 2.384081,-1.94278 -3.499137 1.64333,-2.004086 -2.409033 1.915358,-2.067641 -1.750351 2.222002,-2.146651 -1.185974 2.46728,-1.525336 -3.750444 1.757902,-1.463721 -2.89377 2.027524,-1.45207 -2.354754 2.252909,-1.477795 -1.842433 2.456947,-9.49667 -7.11972 0.4812066,-8.853389 -6.884723 0.7455691,-8.314501 -6.280393 0.9877935,-7.935204 -5.67444 1.269052,-7.608713 -5.283317 1.556967,-8.722104 -4.44854 0.7172496,-8.551316 -3.294452 0.9039813,-8.471534 -2.577199 1.088133,-8.40894 -1.962303 1.221342,-9.078786 -4.241327 0.7992209,-8.929909 -2.930261 0.9458798,-8.835264 -2.093494 1.16359,-8.763827 -1.378951 1.346003,-9.437635 -4.30298 0.903119,-9.337979 -3.063235 1.056947,-9.255758 -2.265899 1.241072,-9.178732 -1.584304 1.377617,-9.810412 -4.577707 1.042216,-9.885116 -3.610576 1.218193,-9.894043 -2.956798 1.379079,-9.868151 -2.324171 1.486513,0.660,DnF
-1.826145 -6.300177 1.014302,-2.430355 -6.100526 1.552346,-3.005948 -5.611919 1.882789,-3.436513 -5.113828 2.178192,-3.845345 -4.791301 2.529962,-2.659151 -3.763927 1.662761,-2.909398 -2.749578 1.979324,-3.019744 -2.13898 2.241058,-3.116762 -1.545719 2.450312,-2.263394 -3.508449 1.644868,-2.415988 -2.379787 1.965336,-2.493668 -1.644088 2.236515,-2.567328 -0.9730201 2.469943,-1.868223 -3.556764 1.68511,-1.926564 -2.469888 1.98777,-1.985625 -1.803951 2.304806,-2.05868 -1.230679 2.554095,-1.457815 -3.824206 1.772794,-1.386289 -2.980609 2.067694,-1.359733 -2.432448 2.315859,-1.369614 -1.907466 2.536044,-9.47644 -7.072896 0.4635817,-8.820752 -6.843979 0.7362094,-8.277248 -6.24599 0.9790553,-7.891496 -5.642065 1.25766,-7.559607 -5.260639 1.544116,-8.681723 -4.4197 0.7201709,-8.505759 -3.254378 0.9191478,-8.425289 -2.535203 1.105457,-8.364208 -1.919238 1.233128,-9.045283 -4.202703 0.7915218,-8.889609 -2.874854 0.9592279,-8.794949 -2.038277 1.184091,-8.72448 -1.326403 1.368509,-9.408996 -4.258672 0.8819727,-9.305971 -3.000577 1.048587,-9.22178 -2.205813 1.233877,-9.142252 -1.533969 1.370955,-9.786305 -4.524948 1.006842,-9.854375 -3.55838 1.187132,-9.856598 -2.902799 1.347533,-9.820811 -2.277166 1.45916,0.680,DnF
-1.826145 -6.300177 1.014302,-2.430355 -6.100526 1.552346,-3.005948 -5.611919 1.882789,-3.436513 -5.113828 2.178192,-3.845345 -4.791301 2.529962,-2.659151 -3.763927 1.662761,-2.909398 -2.749578 1.979324,-3.019744 -2.13898 2.241058,-3.116762 -1.545719 2.450312,-2.263394 -3.508449 1.644868,-2.415988 -2.379787 1.965336,-2.493668 -1.644088 2.236515,-2.567328 -0.9730201 2.469943,-1.868223 -3.556764 1.68511,-1.926564 -2.469888 1.98777,-1.985625 -1.803951 2.304806,-2.05868 -1.230679 2.554095,-1.457815 -3.824206 1.772794,-1.386289 -2.980609 2.067694,-1.359733 -2.432448 2.315859,-1.369614 -1.907466 2.536044,-9.47644 -7.072896 0.4635817,-8.820752 -6.843979 0.7362094,-8.277248 -6.24599 0.9790553,-7.891496 -5.642065 1.25766,-7.559607 -5.260639 1.544116,-8.681723 -4.4197 0.7201709,-8.505759 -3.254378 0.9191478,-8.425289 -2.535203 1.105457,-8.364208 -1.919238 1.233128,-9.045283 -4.202703 0.7915218,-8.889609 -2.874854 0.9592279,-8.794949 -2.038277 1.184091,-8.72448 -1.326403 1.368509,-9.408996 -4.258672 0.8819727,-9.305971 -3.000577 1.048587,-9.22178 -2.205813 1.233877,-9.142252 -1.533969 1.370955,-9.786305 -4.524948 1.006842,-9.854375 -3.55838 1.187132,-9.856598 -2.902799 1.347533,-9.820811 -2.277166 1.45916,0.700,DnF
-1.826145 -6.300177 1.014302,-2.430355 -6.100526 1.552346,-3.005948 -5.611919 1.882789,-3.436513 -5.113828 2.178192,-3.845345 -4.791301 2.529962,-2.659151 -3.763927 1.662761,-2.909398 -2.749578 1.979324,-3.019744 -2.13898 2.241058,-3.116762 -1.545719 2.450312,-2.263394 -3.508449 1.644868,-2.415988 -2.379787 1.965336,-2.493668 -1.644088 2.236515,-2.567328 -0.9730201 2.469943,-1.868223 -3.556764 1.68511,-1.926564 -2.469888 1.98777,-1.985625 -1.803951 2.304806,-2.05868 -1.230679 2.554095,-1.457815 -3.824206 1.772794,-1.386289 -2.980609 2.067694,-1.359733 -2.432448 2.315859,-1.369614 -1.907466 2.536044,-9.47644 -7.072896 0.4635817,-8.820752 -6.843979 0.7362094,-8.277248 -6.24599 0.9790553,-7.891496 -5.642065 1.25766,-7.559607 -5.260639 1.544116,-8.681723 -4.4197 0.7201709,-8.505759 -3.254378 0.9191478,-8.425289 -2.535203 1.105457,-8.364208 -1.919238 1.233128,-9.045283 -4.202703 0.7915218,-8.889609 -2.874854 0.9592279,-8.794949 -2.038277 1.184091,-8.72448 -1.326403 1.368509,-9.408996 -4.258672 0.8819727,-9.305971 -3.000577 1.048587,-9.22178 -2.205813 1.233877,-9.142252 -1.533969 1.370955,-9.786305 -4.524948 1.006842,-9.854375 -3.55838 1.187132,-9.856598 -2.902799 1.347533,-9.820811 -2.277166 1.45916,0.720,DnF
-1.826145 -6.300177 1.014302,-2.430355 -6.100526 1.552346,-3.005948 -5.611919 1.882789,-3.436513 -5.113828 2.178192,-3.845345 -4.791301 2.529962,-2.659151 -3.763927 1.662761,-2.909398 -2.749578 1.979324,-3.019744 -2.13898 2.241058,-3.116762 -1.545719 2.450312,-2.263394 -3.508449 1.644868,-2.415988 -2.379787 1.965336,-2.493668 -1.644088 2.236515,-2.567328 -0.9730201 2.469943,-1.868223 -3.556764 1.68511,-1.926564 -2.469888 1.98777,-1.985625 -1.803951 2.304806,-2.05868 -1.230679 2.554095,-1.457815 -3.824206 1.772794,-1.386289 -2.980609 2.067694,-1.359733 -2.432448 2.315859,-1.369614 -1.907466 2.536044,-9.47644 -7.072896 0.4635817,-8.820752 -6.843979 0.7362094,-8.277248 -6.24599 0.9790553,-7.891496 -5.642065 1.25766,-7.559607 -5.260639 1.544116,-8.681723 -4.4197 0.7201709,-8.505759 -3.254378 0.9191478,-8.425289 -2.535203 1.105457,-8.364208 -1.919238 1.233128,-9.045283 -4.202703 0.7915218,-8.889609 -2.874854 0.9592279,-8.794949 -2.038277 1.184091,-8.72448 -1.326403 1.368509,-9.408996 -4.258672 0.8819727,-9.305971 -3.000577 1.048587,-9.22178 -2.205813 1.233877,-9.142252 -1.533969 1.370955,-9.786305 -4.524948 1.006842,-9.854375 -3.55838 1.187132,-9.856598 -2.902799 1.347533,-9.820811 -2.277166 1.45916,0.740,DnF
-1.794138 -6.33896 0.9344677,-2.385816 -6.131385 1.419229,-2.959723 -5.628192 1.714293,-3.387978 -5.124757 1.988457,-3.779509 -4.788713 2.315362,-2.599923 -3.797312 1.448497,-2.839588 -2.785604 1.721172,-2.949746 -2.172325 1.959343,-3.045477 -1.584887 2.156659,-2.209353 -3.542591 1.443223,-2.352455 -2.416095 1.700814,-2.424858 -1.675411 1.957791,-2.491052 -1.011901 2.180275,-1.819623 -3.583205 1.498866,-1.863613 -2.514208 1.746916,-1.907696 -1.845307 2.037285,-1.966423 -1.269701 2.271735,-1.415725 -3.843568 1.596004,-1.339087 -3.006232 1.847001,-1.308274 -2.466379 2.069247,-1.314938 -1.942483 2.273788,-9.440263 -7.049341 0.4990834,-8.783903 -6.83205 0.7620724,-8.236464 -6.228087 0.9961878,-7.851196 -5.620715 1.271374,-7.51798 -5.237769 1.554604,-8.638776 -4.39079 0.7352264,-8.463811 -3.21949 0.9266059,-8.384042 -2.495206 1.110209,-8.322308 -1.872113 1.236346,-9.004549 -4.166961 0.8038611,-8.847299 -2.832511 0.9597441,-8.752189 -1.991675 1.179552,-8.681154 -1.287787 1.358832,-9.371209 -4.213586 0.8933099,-9.263582 -2.943696 1.045815,-9.174706 -2.147229 1.221845,-9.091335 -1.484182 1.351274,-9.751542 -4.471004 1.01853,-9.818908 -3.490414 1.183047,-9.817767 -2.830417 1.336578,-9.77785 -2.202913 1.43973,0.760,DnF
-1.794138 -6.33896 0.9344677,-2.385816 -6.131385 1.419229,-2.959723 -5.628192 1.714293,-3.387978 -5.124757 1.988457,-3.779509 -4.788713 2.315362,-2.599923 -3.797312 1.448497,-2.839588 -2.785604 1.721172,-2.949746 -2.172325 1.959343,-3.045477 -1.584887 2.156659,-2.209353 -3.542591 1.443223,-2.352455 -2.416095 1.700814,-2.424858 -1.675411 1.957791,-2.491052 -1.011901 2.180275,-1.819623 -3.583205 1.498866,-1.863613 -2.514208 1.746916,-1.907696 -1.845307 2.037285,-1.966423 -1.269701 2.271735,-1.415725 -3.843568 1.596004,-1.339087 -3.006232 1.847001,-1.308274 -2.466379 2.069247,-1.314938 -1.942483 2.273788,-9.440263 -7.049341 0.4990834,-8.783903 -6.83205 0.7620724,-8.236464 -6.228087 0.9961878,-7.851196 -5.620715 1.271374,-7.51798 -5.237769 1.554604,-8.638776 -4.39079 0.7352264,-8.463811 -3.21949 0.9266059,-8.384042 -2.495206 1.110209,-8.322308 -1.872113 1.236346,-9.004549 -4.166961 0.8038611,-8.847299 -2.832511 0.9597441,-8.752189 -1.991675 1.179552,-8.681154 -1.287787 1.358832,-9.371209 -4.213586 0.8933099,-9.263582 -2.943696 1.045815,-9.174706 -2.147229 1.221845,-9.091335 -1.484182 1.351274,-9.751542 -4.471004 1.01853,-9.818908 -3.490414 1.183047,-9.817767 -2.830417 1.336578,-9.77785 -2.202913 1.43973,0.780,DnF
-1.794138 -6.33896 0.9344677,-2.385816 -6.131385 1.419229,-2.959723 -5.628192 1.714293,-3.387978 -5.124757 1.988457,-3.779509 -4.788713 2.315362,-2.599923 -3.797312 1.448497,-2.839588 -2.785604 1.721172,-2.949746 -2.172325 1.959343,-3.045477 -1.584887 2.156659,-2.209353 -3.542591 1.443223,-2.352455 -2.416095 1.700814,-2.424858 -1.675411 1.957791,-2.491052 -1.011901 2.180275,-1.819623 -3.583205 1.498866,-1.863613 -2.514208 1.746916,-1.907696 -1.845307 2.037285,-1.966423 -1.269701 2.271735,-1.415725 -3.843568 1.596004,-1.339087 -3.006232 1.847001,-1.308274 -2.466379 2.069247,-1.314938 -1.942483 2.273788,-9.440263 -7.049341 0.4990834,-8.783903 -6.83205 0.7620724,-8.236464 -6.228087 0.9961878,-7.851196 -5.620715 1.271374,-7.51798 -5.237769 1.554604,-8.638776 -4.39079 0.7352264,-8.463811 -3.21949 0.9266059,-8.384042 -2.495206 1.110209,-8.322308 -1.872113 1.236346,-9.004549 -4.166961 0.8038611,-8.847299 -2.832511 0.9597441,-8.752189 -1.991675 1.179552,-8.681154 -1.287787 1.358832,-9.371209 -4.213586 0.8933099,-9.263582 -2.943696 1.045815,-9.174706 -2.147229 1.221845,-9.091335 -1.484182 1.351274,-9.751542 -4.471004 1.01853,-9.818908 -3.490414 1.183047,-9.817767 -2.830417 1.336578,-9.77785 -2.202913 1.43973,0.800,DnF
-1.770733 -6.373461 0.9150128,-2.355838 -6.174634 1.40827,-2.930498 -5.660009 1.702101,-3.355303 -5.151857 1.971491,-3.74114 -4.827001 2.295949,-2.565867 -3.836431 1.452273,-2.802762 -2.824692 1.719133,-2.908993 -2.20173 1.942833,-2.99747 -1.608376 2.13624,-2.169203 -3.583119 1.438632,-2.308974 -2.459247 1.683337,-2.380804 -1.728379 1.926637,-2.444444 -1.079041 2.140277,-1.778569 -3.621175 1.488336,-1.822648 -2.553651 1.729618,-1.871873 -1.890581 2.00547,-1.933868 -1.317074 2.234924,-1.375434 -3.883523 1.578349,-1.29246 -3.054252 1.826114,-1.262887 -2.521092 2.038998,-1.270011 -1.997587 2.242135,-9.441223 -7.028476 0.4916877,-8.77992 -6.813524 0.7340178,-8.225148 -6.204292 0.951213,-7.839842 -5.581315 1.206095,-7.513138 -5.197045 1.467974,-8.611023 -4.383749 0.7011445,-8.429359 -3.22358 0.892138,-8.347372 -2.502313 1.083241,-8.286017 -1.883918 1.21756,-8.976504 -4.149417 0.7624999,-8.816829 -2.817188 0.9114043,-8.722149 -1.970025 1.13924,-8.65591 -1.261467 1.331831,-9.343786 -4.182905 0.8476849,-9.24287 -2.939649 0.9869464,-9.160858 -2.158392 1.152704,-9.088912 -1.513184 1.281036,-9.72466 -4.429425 0.9646229,-9.788271 -3.457615 1.119473,-9.785679 -2.804867 1.264242,-9.748492 -2.18335 1.364851,0.820,DnF
-1.770733 -6.373461 0.9150128,-2.355838 -6.174634 1.40827,-2.930498 -5.660009 1.702101,-3.355303 -5.151857 1.971491,-3.74114 -4.827001 2.295949,-2.565867 -3.836431 1.452273,-2.802762 -2.824692 1.719133,-2.908993 -2.20173 1.942833,-2.99747 -1.608376 2.13624,-2.169203 -3.583119 1.438632,-2.308974 -2.459247 1.683337,-2.380804 -1.728379 1.926637,-2.444444 -1.079041 2.140277,-1.778569 -3.621175 1.488336,-1.822648 -2.553651 1.729618,-1.871873 -1.890581 2.00547,-1.933868 -1.317074 2.234924,-1.375434 -3.883523 1.578349,-1.29246 -3.054252 1.826114,-1.262887 -2.521092 2.038998,-1.270011 -1.997587 2.242135,-9.441223 -7.028476 0.4916877,-8.77992 -6.813524 0.7340178,-8.225148 -6.204292 0.951213,-7.839842 -5.581315 1.206095,-7.513138 -5.197045 1.467974,-8.611023 -4.383749 0.7011445,-8.429359 -3.22358 0.892138,-8.347372 -2.502313 1.083241,-8.286017 -1.883918 1.21756,-8.976504 -4.149417 0.7624999,-8.816829 -2.817188 0.9114043,-8.722149 -1.970025 1.13924,-8.65591 -1.261467 1.331831,-9.343786 -4.182905 0.8476849,-9.24287 -2.939649 0.9869464,-9.160858 -2.158392 1.152704,-9.088912 -1.513184 1.281036,-9.72466 -4.429425 0.9646229,-9.788271 -3.457615 1.119473,-9.785679 -2.804867 1.264242,-9.748492 -2.18335 1.364851,0.840,DnF
-1.770733 -6.373461 0.9150128,-2.355838 -6.174634 1.40827,-2.930498 -5.660009 1.702101,-3.355303 -5.151857 1.971491,-3.74114 -4.827001 2.295949,-2.565867 -3.836431 1.452273,-2.802762 -2.824692 1.719133,-2.908993 -2.20173 1.942833,-2.99747 -1.608376 2.13624,-2.169203 -3.583119 1.438632,-2.308974 -2.459247 1.683337,-2.380804 -1.728379 1.926637,-2.444444 -1.079041 2.140277,-1.778569 -3.621175 1.488336,-1.822648 -2.553651 1.729618,-1.871873 -1.890581 2.00547,-1.933868 -1.317074 2.234924,-1.375434 -3.883523 1.578349,-1.29246 -3.054252 1.826114,-1.262887 -2.521092 2.038998,-1.270011 -1.997587 2.242135,-9.441223 -7.028476 0.4916877,-8.77992 -6.813524 0.7340178,-8.225148 -6.204292 0.951213,-7.839842 -5.581315 1.206095,-7.513138 -5.197045 1.467974,-8.611023 -4.383749 0.7011445,-8.429359 -3.22358 0.892138,-8.347372 -2.502313 1.083241,-8.286017 -1.883918 1.21756,-8.976504 -4.149417 0.7624999,-8.816829 -2.817188 0.9114043,-8.722149 -1.970025 1.13924,-8.65591 -1.261467 1.331831,-9.343786 -4.182905 0.8476849,-9.24287 -2.939649 0.9869464,-9.160858 -2.158392 1.152704,-9.088912 -1.513184 1.281036,-9.72466 -4.429425 0.9646229,-9.788271 -3.457615 1.119473,-9.785679 -2.804867 1.264242,-9.748492 -2.18335 1.364851,0.860,DnF
-1.743562 -6.405273 0.9251599,-2.330281 -6.187781 1.448881,-2.903899 -5.678805 1.756267,-3.327164 -5.176036 2.03338,-3.708275 -4.835512 2.360791,-2.535129 -3.860731 1.49447,-2.760962 -2.851591 1.774379,-2.861167 -2.239337 2.010578,-2.94625 -1.65557 2.214668,-2.13373 -3.614156 1.466447,-2.261637 -2.488527 1.714383,-2.326055 -1.759168 1.965391,-2.38709 -1.100216 2.184569,-1.735998 -3.668557 1.502129,-1.77075 -2.623127 1.747112,-1.819586 -1.973579 2.027058,-1.882666 -1.412804 2.255622,-1.325461 -3.945254 1.581159,-1.229456 -3.128616 1.829648,-1.187093 -2.605604 2.043835,-1.180277 -2.088364 2.250507,-9.412226 -7.015232 0.5629816,-8.757162 -6.783081 0.7520326,-8.214443 -6.176538 0.9508786,-7.837035 -5.568472 1.202684,-7.511366 -5.205299 1.466377,-8.597582 -4.327001 0.6968179,-8.438657 -3.163139 0.8464522,-8.365666 -2.44678 1.017702,-8.301924 -1.849159 1.14404,-8.961958 -4.108388 0.7767699,-8.821776 -2.770095 0.8924424,-8.725174 -1.935318 1.107229,-8.647867 -1.238862 1.293461,-9.332344 -4.160297 0.8758703,-9.239065 -2.899401 0.98729,-9.149716 -2.111568 1.149974,-9.06551 -1.452348 1.278261,-9.716889 -4.428245 1.000273,-9.799721 -3.445199 1.12289,-9.805378 -2.794837 1.253624,-9.773688 -2.174961 1.345026,0.880,DnF
-1.743562 -6.405273 0.9251599,-2.330281 -6.187781 1.448881,-2.903899 -5.678805 1.756267,-3.327164 -5.176036 2.03338,-3.708275 -4.835512 2.360791,-2.535129 -3.860731 1.49447,-2.760962 -2.851591 1.774379,-2.861167 -2.239337 2.010578,-2.94625 -1.65557 2.214668,-2.13373 -3.614156 1.466447,-2.261637 -2.488527 1.714383,-2.326055 -1.759168 1.965391,-2.38709 -1.100216 2.184569,-1.735998 -3.668557 1.502129,-1.77075 -2.623127 1.747112,-1.819586 -1.973579 2.027058,-1.882666 -1.412804 2.255622,-1.325461 -3.945254 1.581159,-1.229456 -3.128616 1.829648,-1.187093 -2.605604 2.043835,-1.180277 -2.088364 2.250507,-9.412226 -7.015232 0.5629816,-8.757162 -6.783081 0.7520326,-8.214443 -6.176538 0.9508786,-7.837035 -5.568472 1.202684,-7.511366 -5.205299 1.466377,-8.597582 -4.327001 0.6968179,-8.438657 -3.163139 0.8464522,-8.365666 -2.44678 1.017702,-8.301924 -1.849159 1.14404,-8.961958 -4.108388 0.7767699,-8.821776 -2.770095 0.8924424,-8.725174 -1.935318 1.107229,-8.647867 -1.238862 1.293461,-9.332344 -4.160297 0.8758703,-9.239065 -2.899401 0.98729,-9.149716 -2.111568 1.149974,-9.06551 -1.452348 1.278261,-9.716889 -4.428245 1.000273,-9.799721 -3.445199 1.12289,-9.805378 -2.794837 1.253624,-9.773688 -2.174961 1.345026,0.900,DnF
-1.743562 -6.405273 0.9251599,-2.330281 -6.187781 1.448881,-2.903899 -5.678805 1.756267,-3.327164 -5.176036 2.03338,-3.708275 -4.835512 2.360791,-2.535129 -3.860731 1.49447,-2.760962 -2.851591 1.774379,-2.861167 -2.239337 2.010578,-2.94625 -1.65557 2.214668,-2.13373 -3.614156 1.466447,-2.261637 -2.488527 1.714383,-2.326055 -1.759168 1.965391,-2.38709 -1.100216 2.184569,-1.735998 -3.668557 1.502129,-1.77075 -2.623127 1.747112,-1.819586 -1.973579 2.027058,-1.882666 -1.412804 2.255622,-1.325461 -3.945254 1.581159,-1.229456 -3.128616 1.829648,-1.187093 -2.605604 2.043835,-1.180277 -2.088364 2.250507,-9.412226 -7.015232 0.5629816,-8.757162 -6.783081 0.7520326,-8.214443 -6.176538 0.9508786,-7.837035 -5.568472 1.202684,-7.511366 -5.205299 1.466377,-8.597582 -4.327001 0.6968179,-8.438657 -3.163139 0.8464522,-8.365666 -2.44678 1.017702,-8.301924 -1.849159 1.14404,-8.961958 -4.108388 0.7767699,-8.821776 -2.770095 0.8924424,-8.725174 -1.935318 1.107229,-8.647867 -1.238862 1.293461,-9.332344 -4.160297 0.8758703,-9.239065 -2.899401 0.98729,-9.149716 -2.111568 1.149974,-9.06551 -1.452348 1.278261,-9.716889 -4.428245 1.000273,-9.799721 -3.445199 1.12289,-9.805378 -2.794837 1.253624,-9.773688 -2.174961 1.345026,0.920,DnF
-1.689571 -6.45309 1.022667,-2.288219 -6.234121 1.537584,-2.87224 -5.709763 1.841535,-3.293864 -5.18555 2.11825,-3.677242 -4.841798 2.442482,-2.507141 -3.877834 1.575809,-2.720223 -2.858179 1.84562,-2.817358 -2.252542 2.066216,-2.906043 -1.676645 2.256888,-2.10259 -3.633239 1.546242,-2.22732 -2.499988 1.773589,-2.294508 -1.777294 2.004651,-2.361531 -1.136625 2.204743,-1.703096 -3.687625 1.581597,-1.735755 -2.639406 1.804196,-1.786022 -2.005299 2.070186,-1.854555 -1.470364 2.28472,-1.28949 -3.958098 1.662135,-1.196322 -3.145074 1.892521,-1.160543 -2.638454 2.095496,-1.164755 -2.148519 2.287617,-9.42796 -7.02975 0.6263341,-8.768514 -6.802013 0.8225104,-8.220581 -6.181467 1.008764,-7.8442 -5.55812 1.236199,-7.53371 -5.186559 1.463649,-8.610236 -4.331707 0.752682,-8.448956 -3.167783 0.8889641,-8.381653 -2.446055 1.051443,-8.326907 -1.838868 1.171928,-8.978458 -4.102523 0.8117601,-8.84115 -2.759854 0.9086632,-8.751259 -1.918926 1.120022,-8.683859 -1.221568 1.304466,-9.349831 -4.145489 0.8868997,-9.261479 -2.880508 0.9889033,-9.182679 -2.088159 1.153844,-9.1102 -1.429241 1.279598,-9.733376 -4.411203 0.9840027,-9.815406 -3.437933 1.099119,-9.822019 -2.800213 1.227749,-9.792978 -2.197317 1.314878,0.940,DnF
-1.689571 -6.45309 1.022667,-2.288219 -6.234121 1.537584,-2.87224 -5.709763 1.841535,-3.293864 -5.18555 2.11825,-3.677242 -4.841798 2.442482,-2.507141 -3.877834 1.575809,-2.720223 -2.858179 1.84562,-2.817358 -2.252542 2.066216,-2.906043 -1.676645 2.256888,-2.10259 -3.633239 1.546242,-2.22732 -2.499988 1.773589,-2.294508 -1.777294 2.004651,-2.361531 -1.136625 2.204743,-1.703096 -3.687625 1.581597,-1.735755 -2.639406 1.804196,-1.786022 -2.005299 2.070186,-1.854555 -1.470364 2.28472,-1.28949 -3.958098 1.662135,-1.196322 -3.145074 1.892521,-1.160543 -2.638454 2.095496,-1.164755 -2.148519 2.287617,-9.42796 -7.02975 0.6263341,-8.768514 -6.802013 0.8225104,-8.220581 -6.181467 1.008764,-7.8442 -5.55812 1.236199,-7.53371 -5.186559 1.463649,-8.610236 -4.331707 0.752682,-8.448956 -3.167783 0.8889641,-8.381653 -2.446055 1.051443,-8.326907 -1.838868 1.171928,-8.978458 -4.102523 0.8117601,-8.84115 -2.759854 0.9086632,-8.751259 -1.918926 1.120022,-8.683859 -1.221568 1.304466,-9.349831 -4.145489 0.8868997,-9.261479 -2.880508 0.9889033,-9.182679 -2.088159 1.153844,-9.1102 -1.429241 1.279598,-9.733376 -4.411203 0.9840027,-9.815406 -3.437933 1.099119,-9.822019 -2.800213 1.227749,-9.792978 -2.197317 1.314878,0.960,DnF
-1.689571 -6.45309 1.022667,-2.288219 -6.234121 1.537584,-2.87224 -5.709763 1.841535,-3.293864 -5.18555 2.11825,-3.677242 -4.841798 2.442482,-2.507141 -3.877834 1.575809,-2.720223 -2.858179 1.84562,-2.817358 -2.252542 2.066216,-2.906043 -1.676645 2.256888,-2.10259 -3.633239 1.546242,-2.22732 -2.499988 1.773589,-2.294508 -1.777294 2.004651,-2.361531 -1.136625 2.204743,-1.703096 -3.687625 1.581597,-1.735755 -2.639406 1.804196,-1.786022 -2.005299 2.070186,-1.854555 -1.470364 2.28472,-1.28949 -3.958098 1.662135,-1.196322 -3.145074 1.892521,-1.160543 -2.638454 2.095496,-1.164755 -2.148519 2.287617,-9.42796 -7.02975 0.6263341,-8.768514 -6.802013 0.8225104,-8.220581 -6.181467 1.008764,-7.8442 -5.55812 1.236199,-7.53371 -5.186559 1.463649,-8.610236 -4.331707 0.752682,-8.448956 -3.167783 0.8889641,-8.381653 -2.446055 1.051443,-8.326907 -1.838868 1.171928,-8.978458 -4.102523 0.8117601,-8.84115 -2.759854 0.9086632,-8.751259 -1.918926 1.120022,-8.683859 -1.221568 1.304466,-9.349831 -4.145489 0.8868997,-9.261479 -2.880508 0.9889033,-9.182679 -2.088159 1.153844,-9.1102 -1.429241 1.279598,-9.733376 -4.411203 0.9840027,-9.815406 -3.437933 1.099119,-9.822019 -2.800213 1.227749,-9.792978 -2.197317 1.314878,0.980,DnF
-1.657331 -6.471992 1.017422,-2.258049 -6.25525 1.522791,-2.838741 -5.723917 1.829104,-3.260124 -5.18964 2.113235,-3.638987 -4.81565 2.443109,-2.469343 -3.89994 1.533738,-2.684504 -2.899187 1.807359,-2.781428 -2.304574 2.040462,-2.870831 -1.730464 2.242281,-2.067419 -3.649538 1.520633,-2.193449 -2.526784 1.762935,-2.255847 -1.800747 2.018028,-2.322752 -1.166107 2.242635,-1.668223 -3.71411 1.571296,-1.704224 -2.675142 1.812795,-1.75921 -2.043708 2.10917,-1.837204 -1.529115 2.345858,-1.254481 -3.999236 1.665396,-1.159379 -3.193695 1.912106,-1.122845 -2.687788 2.132039,-1.1336 -2.207327 2.332832,-9.462496 -7.064241 0.6719725,-8.812959 -6.838844 0.9037582,-8.264165 -6.213463 1.103832,-7.895219 -5.582563 1.335162,-7.58385 -5.202021 1.556365,-8.636003 -4.372629 0.8478587,-8.46953 -3.219409 0.9995899,-8.403953 -2.492842 1.163766,-8.351399 -1.882592 1.283256,-9.006792 -4.126947 0.8892148,-8.861421 -2.786243 1.004597,-8.775831 -1.937854 1.220209,-8.7136 -1.236131 1.407997,-9.379145 -4.155719 0.9478023,-9.283382 -2.885991 1.063236,-9.208666 -2.082023 1.234627,-9.139252 -1.41819 1.366572,-9.762757 -4.414145 1.029715,-9.841585 -3.440826 1.154994,-9.85538 -2.810322 1.290299,-9.833712 -2.213881 1.387891,1.000,DnF
-1.657331 -6.471992 1.017422,-2.258049 -6.25525 1.522791,-2.838741 -5.723917 1.829104,-3.260124 -5.18964 2.113235,-3.638987 -4.81565 2.443109,-2.469343 -3.89994 1.533738,-2.684504 -2.899187 1.807359,-2.781428 -2.304574 2.040462,-2.870831 -1.730464 2.242281,-2.067419 -3.649538 1.520633,-2.193449 -2.526784 1.762935,-2.255847 -1.800747 2.018028,-2.322752 -1.166107 2.242635,-1.668223 -3.71411 1.571296,-1.704224 -2.675142 1.812795,-1.75921 -2.043708 2.10917,-1.837204 -1.529115 2.345858,-1.254481 -3.999236 1.665396,-1.159379 -3.193695 1.912106,-1.122845 -2.687788 2.132039,-1.1336 -2.207327 2.332832,-9.462496 -7.064241 0.6719725,-8.812959 -6.838844 0.9037582,-8.264165 -6.213463 1.103832,-7.895219 -5.582563 1.335162,-7.58385 -5.202021 1.556365,-8.636003 -4.372629 0.8478587,-8.46953 -3.219409 0.9995899,-8.403953 -2.492842 1.163766,-8.351399 -1.882592 1.283256,-9.006792 -4.126947 0.8892148,-8.861421 -2.786243 1.004597,-8.775831 -1.937854 1.220209,-8.7136 -1.236131 1.407997,-9.379145 -4.155719 0.9478023,-9.283382 -2.885991 1.063236,-9.208666 -2.082023 1.234627,-9.139252 -1.41819 1.366572,-9.762757 -4.414145 1.029715,-9.841585 -3.440826 1.154994,-9.85538 -2.810322 1.290299,-9.833712 -2.213881 1.387891,1.020,DnF
-1.657331 -6.471992 1.017422,-2.258049 -6.25525 1.522791,-2.838741 -5.723917 1.829104,-3.260124 -5.18964 2.113235,-3.638987 -4.81565 2.443109,-2.469343 -3.89994 1.533738,-2.684504 -2.899187 1.807359,-2.781428 -2.304574 2.040462,-2.870831 -1.730464 2.242281,-2.067419 -3.649538 1.520633,-2.193449 -2.526784 1.762935,-2.255847 -1.800747 2.018028,-2.322752 -1.166107 2.242635,-1.668223 -3.71411 1.571296,-1.704224 -2.675142 1.812795,-1.75921 -2.043708 2.10917,-1.837204 -1.529115 2.345858,-1.254481 -3.999236 1.665396,-1.159379 -3.193695 1.912106,-1.122845 -2.687788 2.132039,-1.1336 -2.207327 2.332832,-9.462496 -7.064241 0.6719725,-8.812959 -6.838844 0.9037582,-8.264165 -6.213463 1.103832,-7.895219 -5.582563 1.335162,-7.58385 -5.202021 1.556365,-8.636003 -4.372629 0.8478587,-8.46953 -3.219409 0.9995899,-8.403953 -2.492842 1.163766,-8.351399 -1.882592 1.283256,-9.006792 -4.126947 0.8892148,-8.861421 -2.786243 1.004597,-8.775831 -1.937854 1.220209,-8.7136 -1.236131 1.407997,-9.379145 -4.155719 0.9478023,-9.283382 -2.885991 1.063236,-9.208666 -2.082023 1.234627,-9.139252 -1.41819 1.366572,-9.762757 -4.414145 1.029715,-9.841585 -3.440826 1.154994,-9.85538 -2.810322 1.290299,-9.833712 -2.213881 1.387891,1.040,DnF
-1.654478 -6.459674 1.046317,-2.255958 -6.243093 1.507985,-2.831389 -5.687536 1.777298,-3.249088 -5.139169 2.038603,-3.627031 -4.78288 2.335193,-2.450686 -3.851785 1.461312,-2.661105 -2.869802 1.700564,-2.757879 -2.284458 1.899201,-2.84937 -1.722206 2.073612,-2.048131 -3.612065 1.460597,-2.167785 -2.502304 1.671845,-2.231473 -1.79619 1.901693,-2.295184 -1.198052 2.101235,-1.65036 -3.695098 1.528227,-1.671367 -2.679529 1.747461,-1.725264 -2.077141 2.016798,-1.803643 -1.594901 2.230255,-1.242354 -4.002836 1.63569,-1.137382 -3.232534 1.87901,-1.103316 -2.756429 2.089954,-1.117585 -2.312046 2.274398,-9.460043 -7.084616 0.6469287,-8.819605 -6.841444 0.92905,-8.286433 -6.235244 1.166767,-7.926727 -5.61827 1.426264,-7.627268 -5.246404 1.669487,-8.67485 -4.387676 0.9329664,-8.507647 -3.23541 1.120181,-8.44765 -2.51984 1.306543,-8.404857 -1.900689 1.44485,-9.039824 -4.159825 0.9769466,-8.899341 -2.820978 1.136742,-8.824389 -1.981237 1.377301,-8.775692 -1.274307 1.582033,-9.39888 -4.206123 1.042274,-9.325256 -2.943982 1.209682,-9.262564 -2.148368 1.411013,-9.204809 -1.485401 1.560738,-9.769568 -4.481147 1.130232,-9.855238 -3.512404 1.312952,-9.869485 -2.881444 1.47005,-9.848882 -2.281637 1.578283,1.060,DnF
-1.654478 -6.459674 1.046317,-2.255958 -6.243093 1.507985,-2.831389 -5.687536 1.777298,-3.249088 -5.139169 2.038603,-3.627031 -4.78288 2.335193,-2.450686 -3.851785 1.461312,-2.661105 -2.869802 1.700564,-2.757879 -2.284458 1.899201,-2.84937 -1.722206 2.073612,-2.048131 -3.612065 1.460597,-2.167785 -2.502304 1.671845,-2.231473 -1.79619 1.901693,-2.295184 -1.198052 2.101235,-1.65036 -3.695098 1.528227,-1.671367 -2.679529 1.747461,-1.725264 -2.077141 2.016798,-1.803643 -1.594901 2.230255,-1.242354 -4.002836 1.63569,-1.137382 -3.232534 1.87901,-1.103316 -2.756429 2.089954,-1.117585 -2.312046 2.274398,-9.460043 -7.084616 0.6469287,-8.819605 -6.841444 0.92905,-8.286433 -6.235244 1.166767,-7.926727 -5.61827 1.426264,-7.627268 -5.246404 1.669487,-8.67485 -4.387676 0.9329664,-8.507647 -3.23541 1.120181,-8.44765 -2.51984 1.306543,-8.404857 -1.900689 1.44485,-9.039824 -4.159825 0.9769466,-8.899341 -2.820978 1.136742,-8.824389 -1.981237 1.377301,-8.775692 -1.274307 1.582033,-9.39888 -4.206123 1.042274,-9.325256 -2.943982 1.209682,-9.262564 -2.148368 1.411013,-9.204809 -1.485401 1.560738,-9.769568 -4.481147 1.130232,-9.855238 -3.512404 1.312952,-9.869485 -2.881444 1.47005,-9.848882 -2.281637 1.578283,1.080,DnF
-1.654478 -6.459674 1.046317,-2.255958 -6.243093 1.507985,-2.831389 -5.687536 1.777298,-3.249088 -5.139169 2.038603,-3.627031 -4.78288 2.335193,-2.450686 -3.851785 1.461312,-2.661105 -2.869802 1.700564,-2.757879 -2.284458 1.899201,-2.84937 -1.722206 2.073612,-2.048131 -3.612065 1.460597,-2.167785 -2.502304 1.671845,-2.231473 -1.79619 1.901693,-2.295184 -1.198052 2.101235,-1.65036 -3.695098 1.528227,-1.671367 -2.679529 1.747461,-1.725264 -2.077141 2.016798,-1.803643 -1.594901 2.230255,-1.242354 -4.002836 1.63569,-1.137382 -3.232534 1.87901,-1.103316 -2.756429 2.089954,-1.117585 -2.312046 2.274398,-9.460043 -7.084616 0.6469287,-8.819605 -6.841444 0.92905,-8.286433 -6.235244 1.166767,-7.926727 -5.61827 1.426264,-7.627268 -5.246404 1.669487,-8.67485 -4.387676 0.9329664,-8.507647 -3.23541 1.120181,-8.44765 -2.51984 1.306543,-8.404857 -1.900689 1.44485,-9.039824 -4.159825 0.9769466,-8.899341 -2.820978 1.136742,-8.824389 -1.981237 1.377301,-8.775692 -1.274307 1.582033,-9.39888 -4.206123 1.042274,-9.325256 -2.943982 1.209682,-9.262564 -2.148368 1.411013,-9.204809 -1.485401 1.560738,-9.769568 -4.481147 1.130232,-9.855238 -3.512404 1.312952,-9.869485 -2.881444 1.47005,-9.848882 -2.281637 1.578283,1.100,DnF
-1.6424 -6.462714 1.092367,-2.239584 -6.242143 1.568189,-2.812975 -5.688324 1.834616,-3.223434 -5.138788 2.092674,-3.594412 -4.770773 2.389652,-2.429738 -3.839667 1.504111,-2.635234 -2.867986 1.75382,-2.726311 -2.296251 1.953731,-2.812833 -1.744695 2.129425,-2.029092 -3.599201 1.496187,-2.143123 -2.504328 1.701145,-2.200922 -1.817183 1.920654,-2.261066 -1.225411 2.111636,-1.633794 -3.698225 1.56173,-1.645061 -2.697013 1.778443,-1.692189 -2.124494 2.049528,-1.765536 -1.668197 2.26265,-1.229025 -4.028211 1.670014,-1.116098 -3.288393 1.918528,-1.084742 -2.844657 2.135888,-1.101626 -2.444491 2.321168,-9.480841 -7.111107 0.5446848,-8.85628 -6.874481 0.8805821,-8.335512 -6.297837 1.155154,-7.9891 -5.701646 1.428684,-7.700027 -5.305679 1.676765,-8.735065 -4.464001 0.949568,-8.560493 -3.358692 1.184096,-8.50016 -2.697183 1.385162,-8.458826 -2.101455 1.524113,-9.098745 -4.225279 0.9839626,-8.975919 -2.906975 1.194582,-8.926758 -2.096961 1.456347,-8.898214 -1.403265 1.679435,-9.448893 -4.261426 1.042299,-9.39124 -3.025554 1.244798,-9.352947 -2.242585 1.460402,-9.320058 -1.589212 1.630363,-9.807631 -4.529867 1.122131,-9.895651 -3.575038 1.322697,-9.919682 -2.964968 1.492456,-9.915497 -2.40365 1.619591,1.120,DnF
-1.6424 -6.462714 1.092367,-2.239584 -6.242143 1.568189,-2.812975 -5.688324 1.834616,-3.223434 -5.138788 2.092674,-3.594412 -4.770773 2.389652,-2.429738 -3.839667 1.504111,-2.635234 -2.867986 1.75382,-2.726311 -2.296251 1.953731,-2.812833 -1.744695 2.129425,-2.029092 -3.599201 1.496187,-2.143123 -2.504328 1.701145,-2.200922 -1.817183 1.920654,-2.261066 -1.225411 2.111636,-1.633794 -3.698225 1.56173,-1.645061 -2.697013 1.778443,-1.692189 -2.124494 2.049528,-1.765536 -1.668197 2.26265,-1.229025 -4.028211 1.670014,-1.116098 -3.288393 1.918528,-1.084742 -2.844657 2.135888,-1.101626 -2.444491 2.321168,-9.480841 -7.111107 0.5446848,-8.85628 -6.874481 0.8805821,-8.335512 -6.297837 1.155154,-7.9891 -5.701646 1.428684,-7.700027 -5.305679 1.676765,-8.735065 -4.464001 0.949568,-8.560493 -3.358692 1.184096,-8.50016 -2.697183 1.385162,-8.458826 -2.101455 1.524113,-9.098745 -4.225279 0.9839626,-8.975919 -2.906975 1.194582,-8.926758 -2.096961 1.456347,-8.898214 -1.403265 1.679435,-9.448893 -4.261426 1.042299,-9.39124 -3.025554 1.244798,-9.352947 -2.242585 1.460402,-9.320058 -1.589212 1.630363,-9.807631 -4.529867 1.122131,-9.895651 -3.575038 1.322697,-9.919682 -2.964968 1.492456,-9.915497 -2.40365 1.619591,1.140,DnF
-1.6424 -6.462714 1.092367,-2.239584 -6.242143 1.568189,-2.812975 -5.688324 1.834616,-3.223434 -5.138788 2.092674,-3.594412 -4.770773 2.389652,-2.429738 -3.839667 1.504111,-2.635234 -2.867986 1.75382,-2.726311 -2.296251 1.953731,-2.812833 -1.744695 2.129425,-2.029092 -3.599201 1.496187,-2.143123 -2.504328 1.701145,-2.200922 -1.817183 1.920654,-2.261066 -1.225411 2.111636,-1.633794 -3.698225 1.56173,-1.645061 -2.697013 1.778443,-1.692189 -2.124494 2.049528,-1.765536 -1.668197 2.26265,-1.229025 -4.028211 1.670014,-1.116098 -3.288393 1.918528,-1.084742 -2.844657 2.135888,-1.101626 -2.444491 2.321168,-9.480841 -7.111107 0.5446848,-8.85628 -6.874481 0.8805821,-8.335512 -6.297837 1.155154,-7.9891 -5.701646 1.428684,-7.700027 -5.305679 1.676765,-8.735065 -4.464001 0.949568,-8.560493 -3.358692 1.184096,-8.50016 -2.697183 1.385162,-8.458826 -2.101455 1.524113,-9.098745 -4.225279 0.9839626,-8.975919 -2.906975 1.194582,-8.926758 -2.096961 1.456347,-8.898214 -1.403265 1.679435,-9.448893 -4.261426 1.042299,-9.39124 -3.025554 1.244798,-9.352947 -2.242585 1.460402,-9.320058 -1.589212 1.630363,-9.807631 -4.529867 1.122131,-9.895651 -3.575038 1.322697,-9.919682 -2.964968 1.492456,-9.915497 -2.40365 1.619591,1.160,DnF
-1.626546 -6.434869 1.055909,-2.227931 -6.223842 1.532106,-2.797545 -5.690435 1.795999,-3.205884 -5.151714 2.054397,-3.578304 -4.79434 2.349211,-2.419888 -3.808318 1.416672,-2.62219 -2.834697 1.653223,-2.709526 -2.267644 1.845188,-2.788464 -1.745766 2.005902,-2.020705 -3.574296 1.392564,-2.133761 -2.492494 1.558008,-2.187519 -1.816579 1.748406,-2.238409 -1.24543 1.914701,-1.626443 -3.678787 1.447866,-1.634288 -2.705651 1.628052,-1.675749 -2.163461 1.867691,-1.740125 -1.732974 2.055174,-1.222127 -4.007497 1.549855,-1.110279 -3.287882 1.770236,-1.078755 -2.873107 1.965582,-1.090784 -2.509069 2.132434,-9.490806 -7.188544 0.4818037,-8.888544 -6.992948 0.8978651,-8.387974 -6.395858 1.210618,-8.071637 -5.796999 1.517685,-7.78578 -5.385715 1.798363,-8.796467 -4.566926 0.9841194,-8.650097 -3.50028 1.255399,-8.607092 -2.885828 1.474688,-8.576361 -2.311045 1.624059,-9.161584 -4.329057 1.007698,-9.069716 -3.046176 1.249858,-9.040584 -2.264001 1.524236,-9.024012 -1.570909 1.755302,-9.507981 -4.366088 1.062434,-9.477235 -3.160758 1.28903,-9.454128 -2.407088 1.516157,-9.428991 -1.767633 1.705253,-9.861767 -4.633544 1.146847,-9.952798 -3.689506 1.356492,-9.982295 -3.090875 1.519067,-9.98384 -2.534319 1.653784,1.180,DnF
-1.626546 -6.434869 1.055909,-2.227931 -6.223842 1.532106,-2.797545 -5.690435 1.795999,-3.205884 -5.151714 2.054397,-3.578304 -4.79434 2.349211,-2.419888 -3.808318 1.416672,-2.62219 -2.834697 1.653223,-2.709526 -2.267644 1.845188,-2.788464 -1.745766 2.005902,-2.020705 -3.574296 1.392564,-2.133761 -2.492494 1.558008,-2.187519 -1.816579 1.748406,-2.238409 -1.24543 1.914701,-1.626443 -3.678787 1.447866,-1.634288 -2.705651 1.628052,-1.675749 -2.163461 1.867691,-1.740125 -1.732974 2.055174,-1.222127 -4.007497 1.549855,-1.110279 -3.287882 1.770236,-1.078755 -2.873107 1.965582,-1.090784 -2.509069 2.132434,-9.490806 -7.188544 0.4818037,-8.888544 -6.992948 0.8978651,-8.387974 -6.395858 1.210618,-8.071637 -5.796999 1.517685,-7.78578 -5.385715 1.798363,-8.796467 -4.566926 0.9841194,-8.650097 -3.50028 1.255399,-8.607092 -2.885828 1.474688,-8.576361 -2.311045 1.624059,-9.161584 -4.329057 1.007698,-9.069716 -3.046176 1.249858,-9.040584 -2.264001 1.524236,-9.024012 -1.570909 1.755302,-9.507981 -4.366088 1.062434,-9.477235 -3.160758 1.28903,-9.454128 -2.407088 1.516157,-9.428991 -1.767633 1.705253,-9.861767 -4.633544 1.146847,-9.952798 -3.689506 1.356492,-9.982295 -3.090875 1.519067,-9.98384 -2.534319 1.653784,1.200,DnF
-1.626546 -6.434869 1.055909,-2.227931 -6.223842 1.532106,-2.797545 -5.690435 1.795999,-3.205884 -5.151714 2.054397,-3.578304 -4.79434 2.349211,-2.419888 -3.808318 1.416672,-2.62219 -2.834697 1.653223,-2.709526 -2.267644 1.845188,-2.788464 -1.745766 2.005902,-2.020705 -3.574296 1.392564,-2.133761 -2.492494 1.558008,-2.187519 -1.816579 1.748406,-2.238409 -1.24543 1.914701,-1.626443 -3.678787 1.447866,-1.634288 -2.705651 1.628052,-1.675749 -2.163461 1.867691,-1.740125 -1.732974 2.055174,-1.222127 -4.007497 1.549855,-1.110279 -3.287882 1.770236,-1.078755 -2.873107 1.965582,-1.090784 -2.509069 2.132434,-9.490806 -7.188544 0.4818037,-8.888544 -6.992948 0.8978651,-8.387974 -6.395858 1.210618,-8.071637 -5.796999 1.517685,-7.78578 -5.385715 1.798363,-8.796467 -4.566926 0.9841194,-8.650097 -3.50028 1.255399,-8.607092 -2.885828 1.474688,-8.576361 -2.311045 1.624059,-9.161584 -4.329057 1.007698,-9.069716 -3.046176 1.249858,-9.040584 -2.264001 1.524236,-9.024012 -1.570909 1.755302,-9.507981 -4.366088 1.062434,-9.477235 -3.160758 1.28903,-9.454128 -2.407088 1.516157,-9.428991 -1.767633 1.705253,-9.861767 -4.633544 1.146847,-9.952798 -3.689506 1.356492,-9.982295 -3.090875 1.519067,-9.98384 -2.534319 1.653784,1.220,DnF
-1.628324 -6.459407 1.06615,-2.229223 -6.25988 1.548429,-2.803862 -5.704746 1.809884,-3.205931 -5.147714 2.0662,-3.568048 -4.769901 2.362762,-2.417535 -3.849097 1.431381,-2.618366 -2.898877 1.678237,-2.705445 -2.337759 1.878209,-2.782726 -1.812535 2.049531,-2.016936 -3.596779 1.416989,-2.126397 -2.531235 1.599158,-2.179971 -1.856542 1.804193,-2.232695 -1.281506 1.981502,-1.621124 -3.691776 1.48399,-1.624364 -2.722486 1.679517,-1.665215 -2.194396 1.943999,-1.731853 -1.79295 2.145581,-1.21401 -4.014562 1.59508,-1.107223 -3.278167 1.836396,-1.082743 -2.881261 2.044328,-1.103498 -2.559076 2.217455,-9.542574 -7.243722 0.2376186,-8.944448 -7.098232 0.7241873,-8.472857 -6.493141 1.058631,-8.192601 -5.8908 1.362558,-7.920622 -5.478063 1.645006,-8.886187 -4.692811 0.8459778,-8.76627 -3.658105 1.155466,-8.739487 -3.07866 1.38369,-8.725546 -2.506855 1.537778,-9.257441 -4.464805 0.8331109,-9.200738 -3.216848 1.089705,-9.196385 -2.491579 1.35212,-9.197863 -1.836549 1.578402,-9.600909 -4.50642 0.8629231,-9.614441 -3.328933 1.097584,-9.620585 -2.61955 1.341486,-9.619224 -2.013422 1.550621,-9.944416 -4.770522 0.923885,-10.05716 -3.848255 1.149999,-10.10309 -3.255307 1.339347,-10.11284 -2.712689 1.506005,1.240,DnF
-1.628324 -6.459407 1.06615,-2.229223 -6.25988 1.548429,-2.803862 -5.704746 1.809884,-3.205931 -5.147714 2.0662,-3.568048 -4.769901 2.362762,-2.417535 -3.849097 1.431381,-2.618366 -2.898877 1.678237,-2.705445 -2.337759 1.878209,-2.782726 -1.812535 2.049531,-2.016936 -3.596779 1.416989,-2.126397 -2.531235 1.599158,-2.179971 -1.856542 1.804193,-2.232695 -1.281506 1.981502,-1.621124 -3.691776 1.48399,-1.624364 -2.722486 1.679517,-1.665215 -2.194396 1.943999,-1.731853 -1.79295 2.145581,-1.21401 -4.014562 1.59508,-1.107223 -3.278167 1.836396,-1.082743 -2.881261 2.044328,-1.103498 -2.559076 2.217455,-9.542574 -7.243722 0.2376186,-8.944448 -7.098232 0.7241873,-8.472857 -6.493141 1.058631,-8.192601 -5.8908 1.362558,-7.920622 -5.478063 1.645006,-8.886187 -4.692811 0.8459778,-8.76627 -3.658105 1.155466,-8.739487 -3.07866 1.38369,-8.725546 -2.506855 1.537778,-9.257441 -4.464805 0.8331109,-9.200738 -3.216848 1.089705,-9.196385 -2.491579 1.35212,-9.197863 -1.836549 1.578402,-9.600909 -4.50642 0.8629231,-9.614441 -3.328933 1.097584,-9.620585 -2.61955 1.341486,-9.619224 -2.013422 1.550621,-9.944416 -4.770522 0.923885,-10.05716 -3.848255 1.149999,-10.10309 -3.255307 1.339347,-10.11284 -2.712689 1.506005,1.260,DnF
-1.628324 -6.459407 1.06615,-2.229223 -6.25988 1.548429,-2.803862 -5.704746 1.809884,-3.205931 -5.147714 2.0662,-3.568048 -4.769901 2.362762,-2.417535 -3.849097 1.431381,-2.618366 -2.898877 1.678237,-2.705445 -2.337759 1.878209,-2.782726 -1.812535 2.049531,-2.016936 -3.596779 1.416989,-2.126397 -2.531235 1.599158,-2.179971 -1.856542 1.804193,-2.232695 -1.281506 1.981502,-1.621124 -3.691776 1.48399,-1.624364 -2.722486 1.679517,-1.665215 -2.194396 1.943999,-1.731853 -1.79295 2.145581,-1.21401 -4.014562 1.59508,-1.107223 -3.278167 1.836396,-1.082743 -2.881261 2.044328,-1.103498 -2.559076 2.217455,-9.542574 -7.243722 0.2376186,-8.944448 -7.098232 0.7241873,-8.472857 -6.493141 1.058631,-8.192601 -5.8908 1.362558,-7.920622 -5.478063 1.645006,-8.886187 -4.692811 0.8459778,-8.76627 -3.658105 1.155466,-8.739487 -3.07866 1.38369,-8.725546 -2.506855 1.537778,-9.257441 -4.464805 0.8331109,-9.200738 -3.216848 1.089705,-9.196385 -2.491579 1.35212,-9.197863 -1.836549 1.578402,-9.600909 -4.50642 0.8629231,-9.614441 -3.328933 1.097584,-9.620585 -2.61955 1.341486,-9.619224 -2.013422 1.550621,-9.944416 -4.770522 0.923885,-10.05716 -3.848255 1.149999,-10.10309 -3.255307 1.339347,-10.11284 -2.712689 1.506005,1.280,DnF
-1.609152 -6.472454 1.067562,-2.213231 -6.272612 1.550847,-2.794552 -5.722579 1.811436,-3.201292 -5.169023 2.064605,-3.560216 -4.797027 2.3537,-2.411426 -3.868472 1.425727,-2.614174 -2.927076 1.66285,-2.702204 -2.374087 1.85809,-2.789047 -1.848826 2.028776,-2.015444 -3.610727 1.409021,-2.128079 -2.561398 1.588192,-2.187882 -1.907238 1.797031,-2.249702 -1.349337 1.981212,-1.625166 -3.695304 1.47601,-1.634077 -2.738537 1.66976,-1.681673 -2.224426 1.938287,-1.75858 -1.83478 2.145119,-1.224061 -4.012538 1.585543,-1.109296 -3.297229 1.825342,-1.0823 -2.91533 2.040828,-1.10286 -2.605606 2.2161,-9.615022 -7.311885 0.07274912,-9.036705 -7.225051 0.5993713,-8.592227 -6.62923 0.956786,-8.348495 -6.014396 1.268735,-8.102702 -5.571816 1.548544,-9.007455 -4.817314 0.6965953,-8.905332 -3.858016 1.018479,-8.891121 -3.322354 1.269674,-8.887088 -2.805332 1.441976,-9.377804 -4.57674 0.6676614,-9.341449 -3.420042 0.9251248,-9.344906 -2.771902 1.177688,-9.363881 -2.192461 1.401502,-9.720461 -4.611352 0.6888141,-9.754182 -3.489982 0.9333009,-9.769334 -2.860094 1.172932,-9.789971 -2.321685 1.380851,-10.06386 -4.886228 0.7473986,-10.19049 -3.989093 0.9789536,-10.25337 -3.432967 1.157756,-10.29256 -2.910151 1.320511,1.300,DnF
-1.609152 -6.472454 1.067562,-2.213231 -6.272612 1.550847,-2.794552 -5.722579 1.811436,-3.201292 -5.169023 2.064605,-3.560216 -4.797027 2.3537,-2.411426 -3.868472 1.425727,-2.614174 -2.927076 1.66285,-2.702204 -2.374087 1.85809,-2.789047 -1.848826 2.028776,-2.015444 -3.610727 1.409021,-2.128079 -2.561398 1.588192,-2.187882 -1.907238 1.797031,-2.249702 -1.349337 1.981212,-1.625166 -3.695304 1.47601,-1.634077 -2.738537 1.66976,-1.681673 -2.224426 1.938287,-1.75858 -1.83478 2.145119,-1.224061 -4.012538 1.585543,-1.109296 -3.297229 1.825342,-1.0823 -2.91533 2.040828,-1.10286 -2.605606 2.2161,-9.615022 -7.311885 0.07274912,-9.036705 -7.225051 0.5993713,-8.592227 -6.62923 0.956786,-8.348495 -6.014396 1.268735,-8.102702 -5.571816 1.548544,-9.007455 -4.817314 0.6965953,-8.905332 -3.858016 1.018479,-8.891121 -3.322354 1.269674,-8.887088 -2.805332 1.441976,-9.377804 -4.57674 0.6676614,-9.341449 -3.420042 0.9251248,-9.344906 -2.771902 1.177688,-9.363881 -2.192461 1.401502,-9.720461 -4.611352 0.6888141,-9.754182 -3.489982 0.9333009,-9.769334 -2.860094 1.172932,-9.789971 -2.321685 1.380851,-10.06386 -4.886228 0.7473986,-10.19049 -3.989093 0.9789536,-10.25337 -3.432967 1.157756,-10.29256 -2.910151 1.320511,1.320,DnF
-1.609152 -6.472454 1.067562,-2.213231 -6.272612 1.550847,-2.794552 -5.722579 1.811436,-3.201292 -5.169023 2.064605,-3.560216 -4.797027 2.3537,-2.411426 -3.868472 1.425727,-2.614174 -2.927076 1.66285,-2.702204 -2.374087 1.85809,-2.789047 -1.848826 2.028776,-2.015444 -3.610727 1.409021,-2.128079 -2.561398 1.588192,-2.187882 -1.907238 1.797031,-2.249702 -1.349337 1.981212,-1.625166 -3.695304 1.47601,-1.634077 -2.738537 1.66976,-1.681673 -2.224426 1.938287,-1.75858 -1.83478 2.145119,-1.224061 -4.012538 1.585543,-1.109296 -3.297229 1.825342,-1.0823 -2.91533 2.040828,-1.10286 -2.605606 2.2161,-9.615022 -7.311885 0.07274912,-9.036705 -7.225051 0.5993713,-8.592227 -6.62923 0.956786,-8.348495 -6.014396 1.268735,-8.102702 -5.571816 1.548544,-9.007455 -4.817314 0.6965953,-8.905332 -3.858016 1.018479,-8.891121 -3.322354 1.269674,-8.887088 -2.805332 1.441976,-9.377804 -4.57674 0.6676614,-9.341449 -3.420042 0.9251248,-9.344906 -2.771902 1.177688,-9.363881 -2.192461 1.401502,-9.720461 -4.611352 0.6888141,-9.754182 -3.489982 0.9333009,-9.769334 -2.860094 1.172932,-9.789971 -2.321685 1.380851,-10.06386 -4.886228 0.7473986,-10.19049 -3.989093 0.9789536,-10.25337 -3.432967 1.157756,-10.29256 -2.910151 1.320511,1.340,DnF
-1.62 -6.460796 1.082445,-2.22117 -6.261529 1.534998,-2.80295 -5.694331 1.779025,-3.202982 -5.135959 2.027854,-3.563503 -4.742855 2.315645,-2.431233 -3.826353 1.366331,-2.62716 -2.905384 1.579209,-2.710708 -2.37084 1.759268,-2.790553 -1.897232 1.918677,-2.02744 -3.587346 1.352857,-2.13029 -2.571908 1.500956,-2.185895 -1.947648 1.702306,-2.246857 -1.482951 1.888262,-1.634092 -3.684844 1.425035,-1.638915 -2.761714 1.593201,-1.683793 -2.287117 1.866374,-1.758779 -1.986159 2.076904,-1.228993 -4.008783 1.537798,-1.131126 -3.292563 1.77075,-1.113991 -2.943522 1.992597,-1.147161 -2.711358 2.174902,-9.795132 -7.388287 -0.5538471,-9.225137 -7.332624 0.1173272,-8.829334 -6.79246 0.5399975,-8.611285 -6.251319 0.8704199,-8.463581 -5.804454 1.137971,-9.224641 -4.987199 0.1712266,-9.158798 -4.000377 0.5514466,-9.188882 -3.664836 0.9170471,-9.253883 -3.595245 1.187794,-9.617642 -4.833084 0.04345995,-9.629586 -3.762144 0.315728,-9.663882 -3.316233 0.6055206,-9.701089 -3.080331 0.8175608,-9.96207 -4.902328 -0.01773202,-10.04985 -3.894258 0.2220497,-10.10105 -3.335391 0.4948756,-10.13777 -2.927907 0.7025698,-10.27707 -5.173286 -0.02859604,-10.44723 -4.36691 0.170422,-10.55136 -3.88567 0.3545644,-10.60917 -3.465292 0.4904022,1.360,DnF
-1.62 -6.460796 1.082445,-2.22117 -6.261529 1.534998,-2.80295 -5.694331 1.779025,-3.202982 -5.135959 2.027854,-3.563503 -4.742855 2.315645,-2.431233 -3.826353 1.366331,-2.62716 -2.905384 1.579209,-2.710708 -2.37084 1.759268,-2.790553 -1.897232 1.918677,-2.02744 -3.587346 1.352857,-2.13029 -2.571908 1.500956,-2.185895 -1.947648 1.702306,-2.246857 -1.482951 1.888262,-1.634092 -3.684844 1.425035,-1.638915 -2.761714 1.593201,-1.683793 -2.287117 1.866374,-1.758779 -1.986159 2.076904,-1.228993 -4.008783 1.537798,-1.131126 -3.292563 1.77075,-1.113991 -2.943522 1.992597,-1.147161 -2.711358 2.174902,-9.795132 -7.388287 -0.5538471,-9.225137 -7.332624 0.1173272,-8.829334 -6.79246 0.5399975,-8.611285 -6.251319 0.8704199,-8.463581 -5.804454 1.137971,-9.224641 -4.987199 0.1712266,-9.158798 -4.000377 0.5514466,-9.188882 -3.664836 0.9170471,-9.253883 -3.595245 1.187794,-9.617642 -4.833084 0.04345995,-9.629586 -3.762144 0.315728,-9.663882 -3.316233 0.6055206,-9.701089 -3.080331 0.8175608,-9.96207 -4.902328 -0.01773202,-10.04985 -3.894258 0.2220497,-10.10105 -3.335391 0.4948756,-10.13777 -2.927907 0.7025698,-10.27707 -5.173286 -0.02859604,-10.44723 -4.36691 0.170422,-10.55136 -3.88567 0.3545644,-10.60917 -3.465292 0.4904022,1.380,DnF
-1.62 -6.460796 1.082445,-2.22117 -6.261529 1.534998,-2.80295 -5.694331 1.779025,-3.202982 -5.135959 2.027854,-3.563503 -4.742855 2.315645,-2.431233 -3.826353 1.366331,-2.62716 -2.905384 1.579209,-2.710708 -2.37084 1.759268,-2.790553 -1.897232 1.918677,-2.02744 -3.587346 1.352857,-2.13029 -2.571908 1.500956,-2.185895 -1.947648 1.702306,-2.246857 -1.482951 1.888262,-1.634092 -3.684844 1.425035,-1.638915 -2.761714 1.593201,-1.683793 -2.287117 1.866374,-1.758779 -1.986159 2.076904,-1.228993 -4.008783 1.537798,-1.131126 -3.292563 1.77075,-1.113991 -2.943522 1.992597,-1.147161 -2.711358 2.174902,-9.795132 -7.388287 -0.5538471,-9.225137 -7.332624 0.1173272,-8.829334 -6.79246 0.5399975,-8.611285 -6.251319 0.8704199,-8.463581 -5.804454 1.137971,-9.224641 -4.987199 0.1712266,-9.158798 -4.000377 0.5514466,-9.188882 -3.664836 0.9170471,-9.253883 -3.595245 1.187794,-9.617642 -4.833084 0.04345995,-9.629586 -3.762144 0.315728,-9.663882 -3.316233 0.6055206,-9.701089 -3.080331 0.8175608,-9.96207 -4.902328 -0.01773202,-10.04985 -3.894258 0.2220497,-10.10105 -3.335391 0.4948756,-10.13777 -2.927907 0.7025698,-10.27707 -5.173286 -0.02859604,-10.44723 -4.36691 0.170422,-10.55136 -3.88567 0.3545644,-10.60917 -3.465292 0.4904022,1.400,DnF
-1.62 -6.460796 1.082445,-2.22117 -6.261529 1.534998,-2.80295 -5.694331 1.779025,-3.202982 -5.135959 2.027854,-3.563503 -4.742855 2.315645,-2.431233 -3.826353 1.366331,-2.62716 -2.905384 1.579209,-2.710708 -2.37084 1.759268,-2.790553 -1.897232 1.918677,-2.02744 -3.587346 1.352857,-2.13029 -2.571908 1.500956,-2.185895 -1.947648 1.702306,-2.246857 -1.482951 1.888262,-1.634092 -3.684844 1.425035,-1.638915 -2.761714 1.593201,-1.683793 -2.287117 1.866374,-1.758779 -1.986159 2.076904,-1.228993 -4.008783 1.537798,-1.131126 -3.292563 1.77075,-1.113991 -2.943522 1.992597,-1.147161 -2.711358 2.174902,-9.795132 -7.388287 -0.5538471,-9.225137 -7.332624 0.1173272,-8.829334 -6.79246 0.5399975,-8.611285 -6.251319 0.8704199,-8.463581 -5.804454 1.137971,-9.224641 -4.987199 0.1712266,-9.158798 -4.000377 0.5514466,-9.188882 -3.664836 0.9170471,-9.253883 -3.595245 1.187794,-9.617642 -4.833084 0.04345995,-9.629586 -3.762144 0.315728,-9.663882 -3.316233 0.6055206,-9.701089 -3.080331 0.8175608,-9.96207 -4.902328 -0.01773202,-10.04985 -3.894258 0.2220497,-10.10105 -3.335391 0.4948756,-10.13777 -2.927907 0.7025698,-10.27707 -5.173286 -0.02859604,-10.44723 -4.36691 0.170422,-10.55136 -3.88567 0.3545644,-10.60917 -3.465292 0.4904022,1.420,DnF
-1.620448 -6.423664 1.086465,-2.217199 -6.230782 1.571726,-2.794942 -5.664625 1.839278,-3.188534 -5.106434 2.106343,-3.552116 -4.697652 2.419483,-2.438044 -3.785457 1.398459,-2.624373 -2.880654 1.608997,-2.705267 -2.349824 1.800006,-2.784442 -1.89594 1.976888,-2.030769 -3.551961 1.382305,-2.121141 -2.563653 1.555171,-2.174164 -1.957365 1.791285,-2.241421 -1.559184 2.009806,-1.635139 -3.655336 1.452962,-1.635883 -2.758601 1.657884,-1.671907 -2.318434 1.988832,-1.746552 -2.096609 2.238286,-1.227939 -3.984967 1.561119,-1.138742 -3.251498 1.854628,-1.131181 -2.954074 2.129424,-1.183086 -2.843568 2.344369,-9.814938 -7.419252 -0.695221,-9.304359 -7.338157 -0.1454697,-8.942638 -6.92267 0.2871346,-8.757756 -6.440721 0.639029,-8.693259 -5.967514 0.9262397,-9.293945 -5.054232 -0.009083986,-9.242698 -4.13311 0.3923174,-9.253203 -3.853472 0.818617,-9.300682 -4.022748 1.092906,-9.670599 -4.907895 -0.07906675,-9.692802 -3.910791 0.3027328,-9.70817 -3.574954 0.7002934,-9.733855 -3.664214 0.9641013,-10.01537 -4.996843 -0.09952706,-10.11525 -4.092502 0.2183609,-10.15768 -3.658094 0.5371538,-10.19512 -3.519425 0.7408066,-10.33434 -5.277599 -0.08932793,-10.52753 -4.535642 0.1396241,-10.63521 -4.109936 0.3331546,-10.69288 -3.804553 0.4498847,1.440,DnF
-1.620448 -6.423664 1.086465,-2.217199 -6.230782 1.571726,-2.794942 -5.664625 1.839278,-3.188534 -5.106434 2.106343,-3.552116 -4.697652 2.419483,-2.438044 -3.785457 1.398459,-2.624373 -2.880654 1.608997,-2.705267 -2.349824 1.800006,-2.784442 -1.89594 1.976888,-2.030769 -3.551961 1.382305,-2.121141 -2.563653 1.555171,-2.174164 -1.957365 1.791285,-2.241421 -1.559184 2.009806,-1.635139 -3.655336 1.452962,-1.635883 -2.758601 1.657884,-1.671907 -2.318434 1.988832,-1.746552 -2.096609 2.238286,-1.227939 -3.984967 1.561119,-1.138742 -3.251498 1.854628,-1.131181 -2.954074 2.129424,-1.183086 -2.843568 2.344369,-9.814938 -7.419252 -0.695221,-9.304359 -7.338157 -0.1454697,-8.942638 -6.92267 0.2871346,-8.757756 -6.440721 0.639029,-8.693259 -5.967514 0.9262397,-9.293945 -5.054232 -0.009083986,-9.242698 -4.13311 0.3923174,-9.253203 -3.853472 0.818617,-9.300682 -4.022748 1.092906,-9.670599 -4.907895 -0.07906675,-9.692802 -3.910791 0.3027328,-9.70817 -3.574954 0.7002934,-9.733855 -3.664214 0.9641013,-10.01537 -4.996843 -0.09952706,-10.11525 -4.092502 0.2183609,-10.15768 -3.658094 0.5371538,-10.19512 -3.519425 0.7408066,-10.33434 -5.277599 -0.08932793,-10.52753 -4.535642 0.1396241,-10.63521 -4.109936 0.3331546,-10.69288 -3.804553 0.4498847,1.460,DnF
-1.620448 -6.423664 1.086465,-2.217199 -6.230782 1.571726,-2.794942 -5.664625 1.839278,-3.188534 -5.106434 2.106343,-3.552116 -4.697652 2.419483,-2.438044 -3.785457 1.398459,-2.624373 -2.880654 1.608997,-2.705267 -2.349824 1.800006,-2.784442 -1.89594 1.976888,-2.030769 -3.551961 1.382305,-2.121141 -2.563653 1.555171,-2.174164 -1.957365 1.791285,-2.241421 -1.559184 2.009806,-1.635139 -3.655336 1.452962,-1.635883 -2.758601 1.657884,-1.671907 -2.318434 1.988832,-1.746552 -2.096609 2.238286,-1.227939 -3.984967 1.561119,-1.138742 -3.251498 1.854628,-1.131181 -2.954074 2.129424,-1.183086 -2.843568 2.344369,-9.814938 -7.419252 -0.695221,-9.304359 -7.338157 -0.1454697,-8.942638 -6.92267 0.2871346,-8.757756 -6.440721 0.639029,-8.693259 -5.967514 0.9262397,-9.293945 -5.054232 -0.009083986,-9.242698 -4.13311 0.3923174,-9.253203 -3.853472 0.818617,-9.300682 -4.022748 1.092906,-9.670599 -4.907895 -0.07906675,-9.692802 -3.910791 0.3027328,-9.70817 -3.574954 0.7002934,-9.733855 -3.664214 0.9641013,-10.01537 -4.996843 -0.09952706,-10.11525 -4.092502 0.2183609,-10.15768 -3.658094 0.5371538,-10.19512 -3.519425 0.7408066,-10.33434 -5.277599 -0.08932793,-10.52753 -4.535642 0.1396241,-10.63521 -4.109936 0.3331546,-10.69288 -3.804553 0.4498847,1.480,DnF
-1.635475 -6.425296 1.075492,-2.226612 -6.22933 1.565492,-2.798064 -5.632277 1.829129,-3.186158 -5.057849 2.088255,-3.543739 -4.647139 2.396916,-2.439497 -3.786878 1.391366,-2.633525 -2.896113 1.601888,-2.714512 -2.367345 1.788126,-2.800728 -1.916206 1.954076,-2.034688 -3.556166 1.380728,-2.12167 -2.583639 1.587431,-2.179439 -1.992325 1.847277,-2.253539 -1.633352 2.069699,-1.640406 -3.652735 1.454805,-1.627555 -2.740955 1.694975,-1.66788 -2.335012 2.050783,-1.751393 -2.189283 2.299821,-1.228651 -3.975341 1.562205,-1.141603 -3.210672 1.883804,-1.148454 -2.946441 2.182938,-1.216316 -2.920297 2.402573,-9.813285 -7.38582 -0.7835246,-9.355116 -7.297888 -0.1659501,-8.984416 -6.88752 0.3297942,-8.817906 -6.408485 0.7514174,-8.878517 -5.895699 1.09504,-9.323664 -5.078935 0.01777697,-9.263598 -4.168509 0.4984843,-9.257376 -3.990294 1.017476,-9.261894 -4.327919 1.35955,-9.712442 -4.931754 -0.04534453,-9.745162 -3.940677 0.4553937,-9.71633 -3.698205 0.9637836,-9.651868 -3.936033 1.302213,-10.0638 -5.052541 -0.06112188,-10.1476 -4.153071 0.3505213,-10.14171 -3.789398 0.766559,-10.07091 -3.764398 1.050082,-10.38765 -5.361879 -0.03915691,-10.56651 -4.639963 0.2746279,-10.6122 -4.309963 0.5286882,-10.54213 -4.184371 0.6999054,1.500,DnF
-1.635475 -6.425296 1.075492,-2.226612 -6.22933 1.565492,-2.798064 -5.632277 1.829129,-3.186158 -5.057849 2.088255,-3.543739 -4.647139 2.396916,-2.439497 -3.786878 1.391366,-2.633525 -2.896113 1.601888,-2.714512 -2.367345 1.788126,-2.800728 -1.916206 1.954076,-2.034688 -3.556166 1.380728,-2.12167 -2.583639 1.587431,-2.179439 -1.992325 1.847277,-2.253539 -1.633352 2.069699,-1.640406 -3.652735 1.454805,-1.627555 -2.740955 1.694975,-1.66788 -2.335012 2.050783,-1.751393 -2.189283 2.299821,-1.228651 -3.975341 1.562205,-1.141603 -3.210672 1.883804,-1.148454 -2.946441 2.182938,-1.216316 -2.920297 2.402573,-9.813285 -7.38582 -0.7835246,-9.355116 -7.297888 -0.1659501,-8.984416 -6.88752 0.3297942,-8.817906 -6.408485 0.7514174,-8.878517 -5.895699 1.09504,-9.323664 -5.078935 0.01777697,-9.263598 -4.168509 0.4984843,-9.257376 -3.990294 1.017476,-9.261894 -4.327919 1.35955,-9.712442 -4.931754 -0.04534453,-9.745162 -3.940677 0.4553937,-9.71633 -3.698205 0.9637836,-9.651868 -3.936033 1.302213,-10.0638 -5.052541 -0.06112188,-10.1476 -4.153071 0.3505213,-10.14171 -3.789398 0.766559,-10.07091 -3.764398 1.050082,-10.38765 -5.361879 -0.03915691,-10.56651 -4.639963 0.2746279,-10.6122 -4.309963 0.5286882,-10.54213 -4.184371 0.6999054,1.520,DnF
-1.635475 -6.425296 1.075492,-2.226612 -6.22933 1.565492,-2.798064 -5.632277 1.829129,-3.186158 -5.057849 2.088255,-3.543739 -4.647139 2.396916,-2.439497 -3.786878 1.391366,-2.633525 -2.896113 1.601888,-2.714512 -2.367345 1.788126,-2.800728 -1.916206 1.954076,-2.034688 -3.556166 1.380728,-2.12167 -2.583639 1.587431,-2.179439 -1.992325 1.847277,-2.253539 -1.633352 2.069699,-1.640406 -3.652735 1.454805,-1.627555 -2.740955 1.694975,-1.66788 -2.335012 2.050783,-1.751393 -2.189283 2.299821,-1.228651 -3.975341 1.562205,-1.141603 -3.210672 1.883804,-1.148454 -2.946441 2.182938,-1.216316 -2.920297 2.402573,-9.813285 -7.38582 -0.7835246,-9.355116 -7.297888 -0.1659501,-8.984416 -6.88752 0.3297942,-8.817906 -6.408485 0.7514174,-8.878517 -5.895699 1.09504,-9.323664 -5.078935 0.01777697,-9.263598 -4.168509 0.4984843,-9.257376 -3.990294 1.017476,-9.261894 -4.327919 1.35955,-9.712442 -4.931754 -0.04534453,-9.745162 -3.940677 0.4553937,-9.71633 -3.698205 0.9637836,-9.651868 -3.936033 1.302213,-10.0638 -5.052541 -0.06112188,-10.1476 -4.153071 0.3505213,-10.14171 -3.789398 0.766559,-10.07091 -3.764398 1.050082,-10.38765 -5.361879 -0.03915691,-10.56651 -4.639963 0.2746279,-10.6122 -4.309963 0.5286882,-10.54213 -4.184371 0.6999054,1.540,DnF
-1.63587 -6.392282 1.02423,-2.22524 -6.208623 1.543679,-2.794241 -5.600414 1.830698,-3.174702 -5.013732 2.106961,-3.523916 -4.578128 2.438477,-2.460396 -3.758764 1.347166,-2.647103 -2.873174 1.602966,-2.724598 -2.349618 1.852287,-2.803733 -1.941192 2.058382,-2.063584 -3.542238 1.330095,-2.152431 -2.584489 1.58617,-2.211522 -2.022229 1.918219,-2.282894 -1.74908 2.188532,-1.675973 -3.634175 1.40489,-1.660536 -2.713756 1.689037,-1.694602 -2.355731 2.113215,-1.767683 -2.309327 2.39796,-1.269717 -3.944268 1.514423,-1.18051 -3.171492 1.877255,-1.192222 -2.958124 2.227255,-1.264614 -3.026624 2.484454,-9.832374 -7.404886 -0.982936,-9.359379 -7.275886 -0.2449827,-8.997507 -6.797287 0.3177735,-8.87202 -6.244495 0.7886815,-9.021425 -5.735363 1.186367,-9.345404 -5.135129 0.008880317,-9.339432 -4.24822 0.6070713,-9.368516 -4.067829 1.219254,-9.392348 -4.369195 1.648488,-9.735527 -5.066726 -0.08164442,-9.839886 -4.057084 0.5799344,-9.8237 -3.949132 1.190835,-9.752857 -4.254909 1.619126,-10.08536 -5.219724 -0.1190075,-10.23442 -4.297088 0.4064456,-10.2207 -4.154703 0.8719004,-10.12937 -4.327775 1.179589,-10.41764 -5.521406 -0.1229064,-10.62913 -4.792335 0.3160806,-10.61942 -4.626438 0.6257703,-10.49879 -4.717378 0.8262255,1.560,DnF
-1.63587 -6.392282 1.02423,-2.22524 -6.208623 1.543679,-2.794241 -5.600414 1.830698,-3.174702 -5.013732 2.106961,-3.523916 -4.578128 2.438477,-2.460396 -3.758764 1.347166,-2.647103 -2.873174 1.602966,-2.724598 -2.349618 1.852287,-2.803733 -1.941192 2.058382,-2.063584 -3.542238 1.330095,-2.152431 -2.584489 1.58617,-2.211522 -2.022229 1.918219,-2.282894 -1.74908 2.188532,-1.675973 -3.634175 1.40489,-1.660536 -2.713756 1.689037,-1.694602 -2.355731 2.113215,-1.767683 -2.309327 2.39796,-1.269717 -3.944268 1.514423,-1.18051 -3.171492 1.877255,-1.192222 -2.958124 2.227255,-1.264614 -3.026624 2.484454,-9.832374 -7.404886 -0.982936,-9.359379 -7.275886 -0.2449827,-8.997507 -6.797287 0.3177735,-8.87202 -6.244495 0.7886815,-9.021425 -5.735363 1.186367,-9.345404 -5.135129 0.008880317,-9.339432 -4.24822 0.6070713,-9.368516 -4.067829 1.219254,-9.392348 -4.369195 1.648488,-9.735527 -5.066726 -0.08164442,-9.839886 -4.057084 0.5799344,-9.8237 -3.949132 1.190835,-9.752857 -4.254909 1.619126,-10.08536 -5.219724 -0.1190075,-10.23442 -4.297088 0.4064456,-10.2207 -4.154703 0.8719004,-10.12937 -4.327775 1.179589,-10.41764 -5.521406 -0.1229064,-10.62913 -4.792335 0.3160806,-10.61942 -4.626438 0.6257703,-10.49879 -4.717378 0.8262255,1.580,DnF
-1.63587 -6.392282 1.02423,-2.22524 -6.208623 1.543679,-2.794241 -5.600414 1.830698,-3.174702 -5.013732 2.106961,-3.523916 -4.578128 2.438477,-2.460396 -3.758764 1.347166,-2.647103 -2.873174 1.602966,-2.724598 -2.349618 1.852287,-2.803733 -1.941192 2.058382,-2.063584 -3.542238 1.330095,-2.152431 -2.584489 1.58617,-2.211522 -2.022229 1.918219,-2.282894 -1.74908 2.188532,-1.675973 -3.634175 1.40489,-1.660536 -2.713756 1.689037,-1.694602 -2.355731 2.113215,-1.767683 -2.309327 2.39796,-1.269717 -3.944268 1.514423,-1.18051 -3.171492 1.877255,-1.192222 -2.958124 2.227255,-1.264614 -3.026624 2.484454,-9.832374 -7.404886 -0.982936,-9.359379 -7.275886 -0.2449827,-8.997507 -6.797287 0.3177735,-8.87202 -6.244495 0.7886815,-9.021425 -5.735363 1.186367,-9.345404 -5.135129 0.008880317,-9.339432 -4.24822 0.6070713,-9.368516 -4.067829 1.219254,-9.392348 -4.369195 1.648488,-9.735527 -5.066726 -0.08164442,-9.839886 -4.057084 0.5799344,-9.8237 -3.949132 1.190835,-9.752857 -4.254909 1.619126,-10.08536 -5.219724 -0.1190075,-10.23442 -4.297088 0.4064456,-10.2207 -4.154703 0.8719004,-10.12937 -4.327775 1.179589,-10.41764 -5.521406 -0.1229064,-10.62913 -4.792335 0.3160806,-10.61942 -4.626438 0.6257703,-10.49879 -4.717378 0.8262255,1.600,DnF
-1.667376 -6.351237 0.8434583,-2.253095 -6.188725 1.382636,-2.82439 -5.57472 1.667305,-3.199827 -4.983005 1.931368,-3.527472 -4.50613 2.244728,-2.485181 -3.753519 1.18534,-2.665575 -2.869592 1.466875,-2.746738 -2.351846 1.74342,-2.835743 -1.990164 1.961508,-2.083124 -3.552015 1.150063,-2.156651 -2.604824 1.432919,-2.216494 -2.078718 1.791572,-2.294047 -1.899527 2.081646,-1.694478 -3.640367 1.204296,-1.681194 -2.726166 1.506934,-1.725172 -2.39072 1.952918,-1.811863 -2.404127 2.247915,-1.288715 -3.93363 1.292515,-1.193223 -3.152803 1.658842,-1.204719 -2.94428 2.030159,-1.280013 -3.033648 2.304492,-9.879682 -7.34977 -1.193572,-9.387353 -7.277309 -0.4083434,-9.011037 -6.755064 0.1429548,-8.921404 -6.129812 0.5935215,-9.137355 -5.636112 0.9725782,-9.345358 -5.065588 -0.3367382,-9.378394 -4.088428 0.3565463,-9.427209 -4.358222 0.927904,-9.451428 -4.905822 1.216991,-9.735946 -5.026077 -0.4385352,-9.847815 -3.996807 0.3150343,-9.843004 -4.439405 0.8306645,-9.796041 -4.965229 1.062518,-10.09099 -5.176952 -0.4668681,-10.22538 -4.229223 0.176066,-10.1933 -4.554574 0.6201273,-10.1234 -5.038059 0.8169159,-10.43349 -5.447664 -0.4541219,-10.60529 -4.718652 0.06848383,-10.55752 -4.822191 0.4114866,-10.4564 -5.156604 0.5685159,1.620,Left Hand Closed
