TiagoOliveira98/HandTracking/DataLogging/JointData/Logs(1643109154)_Tiago_Calculator.csv
WRIST,THUMB_CMC,THUMB_MCP,THUMB_IP,THUMB_TIP,INDEX_FINGER_MCP,INDEX_FINGER_PIP,INDEX_FINGER_DIP,INDEX_FINGER_TIP,MIDDLE_FINGER_MCP,MIDDLE_FINGER_PIP,MIDDLE_FINGER_DIP,MIDDLE_FINGER_TIP,RING_FINGER_MCP,RING_FINGER_PIP,RING_FINGER_DIP,RING_FINGER_TIP,PINKY_MCP,PINKY_PIP,PINKY_DIP,PINKY_TIP,WRIST2,THUMB_CMC2,THUMB_MCP2,THUMB_IP2,THUMB_TIP2,INDEX_FINGER_MCP2,INDEX_FINGER_PIP2,INDEX_FINGER_DIP2,INDEX_FINGER_TIP2,MIDDLE_FINGER_MCP2,MIDDLE_FINGER_PIP2,MIDDLE_FINGER_DIP2,MIDDLE_FINGER_TIP2,RING_FINGER_MCP2,RING_FINGER_PIP2,RING_FINGER_DIP2,RING_FINGER_TIP2,PINKY_MCP2,PINKY_PIP2,PINKY_DIP2,PINKY_TIP2,Timestamp,Event
10 0 0,10 7.47 0,10 7.47 0,10 7.47 0,10 7.47 0,10 7.47 0,10 7.47 0,10 7.47 0,10 7.47 0,10 7.47 0,10 7.47 0,10 7.47 0,10 7.47 0,10 7.47 0,10 7.47 0,10 7.47 0,10 7.47 0,10 7.47 0,10 7.47 0,10 7.47 0,10 7.47 0,10 0 0,10 7.47 0,10 7.47 0,10 7.47 0,10 7.47 0,10 7.47 0,10 7.47 0,10 7.47 0,10 7.47 0,10 7.47 0,10 7.47 0,10 7.47 0,10 7.47 0,10 7.47 0,10 7.47 0,10 7.47 0,10 7.47 0,10 7.47 0,10 7.47 0,10 7.47 0,10 7.47 0,0.010,
2 0 -8.519892,2 0 -8.519892,2 0 -8.519892,2 0 -8.519892,2 0 -8.519892,2 0 -8.519892,2 0 -8.519892,2 0 -8.519892,2 0 -8.519892,2 0 -8.519892,2 0 -8.519892,2 0 -8.519892,2 0 -8.519892,2 0 -8.519892,2 0 -8.519892,2 0 -8.519892,2 0 -8.519892,2 0 -8.519892,2 0 -8.519892,2 0 -8.519892,2 0 -8.519892,2 0 -8.366122,2 0 -8.366122,2 0 -8.366122,2 0 -8.366122,2 0 -8.366122,2 0 -8.366122,2 0 -8.366122,2 0 -8.366122,2 0 -8.366122,2 0 -8.366122,2 0 -8.366122,2 0 -8.366122,2 0 -8.366122,2 0 -8.366122,2 0 -8.366122,2 0 -8.366122,2 0 -8.366122,2 0 -8.366122,2 0 -8.366122,2 0 -8.366122,2 0 -8.366122,0.110,
2 0 -8.519892,2 0 -8.519892,2 0 -8.519892,2 0 -8.519892,2 0 -8.519892,2 0 -8.519892,2 0 -8.519892,2 0 -8.519892,2 0 -8.519892,2 0 -8.519892,2 0 -8.519892,2 0 -8.519892,2 0 -8.519892,2 0 -8.519892,2 0 -8.519892,2 0 -8.519892,2 0 -8.519892,2 0 -8.519892,2 0 -8.519892,2 0 -8.519892,2 0 -8.519892,2 0 -8.366122,2 0 -8.366122,2 0 -8.366122,2 0 -8.366122,2 0 -8.366122,2 0 -8.366122,2 0 -8.366122,2 0 -8.366122,2 0 -8.366122,2 0 -8.366122,2 0 -8.366122,2 0 -8.366122,2 0 -8.366122,2 0 -8.366122,2 0 -8.366122,2 0 -8.366122,2 0 -8.366122,2 0 -8.366122,2 0 -8.366122,2 0 -8.366122,2 0 -8.366122,0.210,
2 0 -8.519892,2 0 -8.519892,2 0 -8.519892,2 0 -8.519892,2 0 -8.519892,2 0 -8.519892,2 0 -8.519892,2 0 -8.519892,2 0 -8.519892,2 0 -8.519892,2 0 -8.519892,2 0 -8.519892,2 0 -8.519892,2 0 -8.519892,2 0 -8.519892,2 0 -8.519892,2 0 -8.519892,2 0 -8.519892,2 0 -8.519892,2 0 -8.519892,2 0 -8.519892,2 0 -8.366122,2 0 -8.366122,2 0 -8.366122,2 0 -8.366122,2 0 -8.366122,2 0 -8.366122,2 0 -8.366122,2 0 -8.366122,2 0 -8.366122,2 0 -8.366122,2 0 -8.366122,2 0 -8.366122,2 0 -8.366122,2 0 -8.366122,2 0 -8.366122,2 0 -8.366122,2 0 -8.366122,2 0 -8.366122,2 0 -8.366122,2 0 -8.366122,2 0 -8.366122,0.310,
2 0 -8.519892,2 0 -8.519892,2 0 -8.519892,2 0 -8.519892,2 0 -8.519892,2 0 -8.519892,2 0 -8.519892,2 0 -8.519892,2 0 -8.519892,2 0 -8.519892,2 0 -8.519892,2 0 -8.519892,2 0 -8.519892,2 0 -8.519892,2 0 -8.519892,2 0 -8.519892,2 0 -8.519892,2 0 -8.519892,2 0 -8.519892,2 0 -8.519892,2 0 -8.519892,2 0 -8.366122,2 0 -8.366122,2 0 -8.366122,2 0 -8.366122,2 0 -8.366122,2 0 -8.366122,2 0 -8.366122,2 0 -8.366122,2 0 -8.366122,2 0 -8.366122,2 0 -8.366122,2 0 -8.366122,2 0 -8.366122,2 0 -8.366122,2 0 -8.366122,2 0 -8.366122,2 0 -8.366122,2 0 -8.366122,2 0 -8.366122,2 0 -8.366122,2 0 -8.366122,0.410,
2 0 -8.519892,2 0 -8.519892,2 0 -8.519892,2 0 -8.519892,2 0 -8.519892,2 0 -8.519892,2 0 -8.519892,2 0 -8.519892,2 0 -8.519892,2 0 -8.519892,2 0 -8.519892,2 0 -8.519892,2 0 -8.519892,2 0 -8.519892,2 0 -8.519892,2 0 -8.519892,2 0 -8.519892,2 0 -8.519892,2 0 -8.519892,2 0 -8.519892,2 0 -8.519892,2 0 -8.366122,2 0 -8.366122,2 0 -8.366122,2 0 -8.366122,2 0 -8.366122,2 0 -8.366122,2 0 -8.366122,2 0 -8.366122,2 0 -8.366122,2 0 -8.366122,2 0 -8.366122,2 0 -8.366122,2 0 -8.366122,2 0 -8.366122,2 0 -8.366122,2 0 -8.366122,2 0 -8.366122,2 0 -8.366122,2 0 -8.366122,2 0 -8.366122,2 0 -8.366122,0.510,
2 0 -8.519892,2 0 -8.519892,2 0 -8.519892,2 0 -8.519892,2 0 -8.519892,2 0 -8.519892,2 0 -8.519892,2 0 -8.519892,2 0 -8.519892,2 0 -8.519892,2 0 -8.519892,2 0 -8.519892,2 0 -8.519892,2 0 -8.519892,2 0 -8.519892,2 0 -8.519892,2 0 -8.519892,2 0 -8.519892,2 0 -8.519892,2 0 -8.519892,2 0 -8.519892,2 0 -8.366122,2 0 -8.366122,2 0 -8.366122,2 0 -8.366122,2 0 -8.366122,2 0 -8.366122,2 0 -8.366122,2 0 -8.366122,2 0 -8.366122,2 0 -8.366122,2 0 -8.366122,2 0 -8.366122,2 0 -8.366122,2 0 -8.366122,2 0 -8.366122,2 0 -8.366122,2 0 -8.366122,2 0 -8.366122,2 0 -8.366122,2 0 -8.366122,2 0 -8.366122,0.610,
2 0 -8.519892,2 0 -8.519892,2 0 -8.519892,2 0 -8.519892,2 0 -8.519892,2 0 -8.519892,2 0 -8.519892,2 0 -8.519892,2 0 -8.519892,2 0 -8.519892,2 0 -8.519892,2 0 -8.519892,2 0 -8.519892,2 0 -8.519892,2 0 -8.519892,2 0 -8.519892,2 0 -8.519892,2 0 -8.519892,2 0 -8.519892,2 0 -8.519892,2 0 -8.519892,2 0 -8.366122,2 0 -8.366122,2 0 -8.366122,2 0 -8.366122,2 0 -8.366122,2 0 -8.366122,2 0 -8.366122,2 0 -8.366122,2 0 -8.366122,2 0 -8.366122,2 0 -8.366122,2 0 -8.366122,2 0 -8.366122,2 0 -8.366122,2 0 -8.366122,2 0 -8.366122,2 0 -8.366122,2 0 -8.366122,2 0 -8.366122,2 0 -8.366122,2 0 -8.366122,0.710,
2 0 -8.519892,2 0 -8.519892,2 0 -8.519892,2 0 -8.519892,2 0 -8.519892,2 0 -8.519892,2 0 -8.519892,2 0 -8.519892,2 0 -8.519892,2 0 -8.519892,2 0 -8.519892,2 0 -8.519892,2 0 -8.519892,2 0 -8.519892,2 0 -8.519892,2 0 -8.519892,2 0 -8.519892,2 0 -8.519892,2 0 -8.519892,2 0 -8.519892,2 0 -8.519892,2 0 -8.366122,2 0 -8.366122,2 0 -8.366122,2 0 -8.366122,2 0 -8.366122,2 0 -8.366122,2 0 -8.366122,2 0 -8.366122,2 0 -8.366122,2 0 -8.366122,2 0 -8.366122,2 0 -8.366122,2 0 -8.366122,2 0 -8.366122,2 0 -8.366122,2 0 -8.366122,2 0 -8.366122,2 0 -8.366122,2 0 -8.366122,2 0 -8.366122,2 0 -8.366122,0.810,
2 0 -8.519892,2 0 -8.519892,2 0 -8.519892,2 0 -8.519892,2 0 -8.519892,2 0 -8.519892,2 0 -8.519892,2 0 -8.519892,2 0 -8.519892,2 0 -8.519892,2 0 -8.519892,2 0 -8.519892,2 0 -8.519892,2 0 -8.519892,2 0 -8.519892,2 0 -8.519892,2 0 -8.519892,2 0 -8.519892,2 0 -8.519892,2 0 -8.519892,2 0 -8.519892,2 0 -8.366122,2 0 -8.366122,2 0 -8.366122,2 0 -8.366122,2 0 -8.366122,2 0 -8.366122,2 0 -8.366122,2 0 -8.366122,2 0 -8.366122,2 0 -8.366122,2 0 -8.366122,2 0 -8.366122,2 0 -8.366122,2 0 -8.366122,2 0 -8.366122,2 0 -8.366122,2 0 -8.366122,2 0 -8.366122,2 0 -8.366122,2 0 -8.366122,2 0 -8.366122,0.910,
2 0 -8.519892,2 0 -8.519892,2 0 -8.519892,2 0 -8.519892,2 0 -8.519892,2 0 -8.519892,2 0 -8.519892,2 0 -8.519892,2 0 -8.519892,2 0 -8.519892,2 0 -8.519892,2 0 -8.519892,2 0 -8.519892,2 0 -8.519892,2 0 -8.519892,2 0 -8.519892,2 0 -8.519892,2 0 -8.519892,2 0 -8.519892,2 0 -8.519892,2 0 -8.519892,2 0 -8.366122,2 0 -8.366122,2 0 -8.366122,2 0 -8.366122,2 0 -8.366122,2 0 -8.366122,2 0 -8.366122,2 0 -8.366122,2 0 -8.366122,2 0 -8.366122,2 0 -8.366122,2 0 -8.366122,2 0 -8.366122,2 0 -8.366122,2 0 -8.366122,2 0 -8.366122,2 0 -8.366122,2 0 -8.366122,2 0 -8.366122,2 0 -8.366122,2 0 -8.366122,1.010,
2 0 -8.519892,2 0 -8.519892,2 0 -8.519892,2 0 -8.519892,2 0 -8.519892,2 0 -8.519892,2 0 -8.519892,2 0 -8.519892,2 0 -8.519892,2 0 -8.519892,2 0 -8.519892,2 0 -8.519892,2 0 -8.519892,2 0 -8.519892,2 0 -8.519892,2 0 -8.519892,2 0 -8.519892,2 0 -8.519892,2 0 -8.519892,2 0 -8.519892,2 0 -8.519892,2 0 -8.366122,2 0 -8.366122,2 0 -8.366122,2 0 -8.366122,2 0 -8.366122,2 0 -8.366122,2 0 -8.366122,2 0 -8.366122,2 0 -8.366122,2 0 -8.366122,2 0 -8.366122,2 0 -8.366122,2 0 -8.366122,2 0 -8.366122,2 0 -8.366122,2 0 -8.366122,2 0 -8.366122,2 0 -8.366122,2 0 -8.366122,2 0 -8.366122,2 0 -8.366122,1.110,
2 0 -8.519892,2 0 -8.519892,2 0 -8.519892,2 0 -8.519892,2 0 -8.519892,2 0 -8.519892,2 0 -8.519892,2 0 -8.519892,2 0 -8.519892,2 0 -8.519892,2 0 -8.519892,2 0 -8.519892,2 0 -8.519892,2 0 -8.519892,2 0 -8.519892,2 0 -8.519892,2 0 -8.519892,2 0 -8.519892,2 0 -8.519892,2 0 -8.519892,2 0 -8.519892,2 0 -8.366122,2 0 -8.366122,2 0 -8.366122,2 0 -8.366122,2 0 -8.366122,2 0 -8.366122,2 0 -8.366122,2 0 -8.366122,2 0 -8.366122,2 0 -8.366122,2 0 -8.366122,2 0 -8.366122,2 0 -8.366122,2 0 -8.366122,2 0 -8.366122,2 0 -8.366122,2 0 -8.366122,2 0 -8.366122,2 0 -8.366122,2 0 -8.366122,2 0 -8.366122,1.210,
2 0 -8.519892,2 0 -8.519892,2 0 -8.519892,2 0 -8.519892,2 0 -8.519892,2 0 -8.519892,2 0 -8.519892,2 0 -8.519892,2 0 -8.519892,2 0 -8.519892,2 0 -8.519892,2 0 -8.519892,2 0 -8.519892,2 0 -8.519892,2 0 -8.519892,2 0 -8.519892,2 0 -8.519892,2 0 -8.519892,2 0 -8.519892,2 0 -8.519892,2 0 -8.519892,2 0 -8.366122,2 0 -8.366122,2 0 -8.366122,2 0 -8.366122,2 0 -8.366122,2 0 -8.366122,2 0 -8.366122,2 0 -8.366122,2 0 -8.366122,2 0 -8.366122,2 0 -8.366122,2 0 -8.366122,2 0 -8.366122,2 0 -8.366122,2 0 -8.366122,2 0 -8.366122,2 0 -8.366122,2 0 -8.366122,2 0 -8.366122,2 0 -8.366122,2 0 -8.366122,1.310,
2 0 -8.519892,2 0 -8.519892,2 0 -8.519892,2 0 -8.519892,2 0 -8.519892,2 0 -8.519892,2 0 -8.519892,2 0 -8.519892,2 0 -8.519892,2 0 -8.519892,2 0 -8.519892,2 0 -8.519892,2 0 -8.519892,2 0 -8.519892,2 0 -8.519892,2 0 -8.519892,2 0 -8.519892,2 0 -8.519892,2 0 -8.519892,2 0 -8.519892,2 0 -8.519892,2 0 -8.366122,2 0 -8.366122,2 0 -8.366122,2 0 -8.366122,2 0 -8.366122,2 0 -8.366122,2 0 -8.366122,2 0 -8.366122,2 0 -8.366122,2 0 -8.366122,2 0 -8.366122,2 0 -8.366122,2 0 -8.366122,2 0 -8.366122,2 0 -8.366122,2 0 -8.366122,2 0 -8.366122,2 0 -8.366122,2 0 -8.366122,2 0 -8.366122,2 0 -8.366122,1.410,
2 0 -8.519892,2 0 -8.519892,2 0 -8.519892,2 0 -8.519892,2 0 -8.519892,2 0 -8.519892,2 0 -8.519892,2 0 -8.519892,2 0 -8.519892,2 0 -8.519892,2 0 -8.519892,2 0 -8.519892,2 0 -8.519892,2 0 -8.519892,2 0 -8.519892,2 0 -8.519892,2 0 -8.519892,2 0 -8.519892,2 0 -8.519892,2 0 -8.519892,2 0 -8.519892,2 0 -8.366122,2 0 -8.366122,2 0 -8.366122,2 0 -8.366122,2 0 -8.366122,2 0 -8.366122,2 0 -8.366122,2 0 -8.366122,2 0 -8.366122,2 0 -8.366122,2 0 -8.366122,2 0 -8.366122,2 0 -8.366122,2 0 -8.366122,2 0 -8.366122,2 0 -8.366122,2 0 -8.366122,2 0 -8.366122,2 0 -8.366122,2 0 -8.366122,2 0 -8.366122,1.510,
2 0 -8.519892,2 0 -8.519892,2 0 -8.519892,2 0 -8.519892,2 0 -8.519892,2 0 -8.519892,2 0 -8.519892,2 0 -8.519892,2 0 -8.519892,2 0 -8.519892,2 0 -8.519892,2 0 -8.519892,2 0 -8.519892,2 0 -8.519892,2 0 -8.519892,2 0 -8.519892,2 0 -8.519892,2 0 -8.519892,2 0 -8.519892,2 0 -8.519892,2 0 -8.519892,2 0 -8.366122,2 0 -8.366122,2 0 -8.366122,2 0 -8.366122,2 0 -8.366122,2 0 -8.366122,2 0 -8.366122,2 0 -8.366122,2 0 -8.366122,2 0 -8.366122,2 0 -8.366122,2 0 -8.366122,2 0 -8.366122,2 0 -8.366122,2 0 -8.366122,2 0 -8.366122,2 0 -8.366122,2 0 -8.366122,2 0 -8.366122,2 0 -8.366122,2 0 -8.366122,1.610,
2 0 -8.519892,2 0 -8.519892,2 0 -8.519892,2 0 -8.519892,2 0 -8.519892,2 0 -8.519892,2 0 -8.519892,2 0 -8.519892,2 0 -8.519892,2 0 -8.519892,2 0 -8.519892,2 0 -8.519892,2 0 -8.519892,2 0 -8.519892,2 0 -8.519892,2 0 -8.519892,2 0 -8.519892,2 0 -8.519892,2 0 -8.519892,2 0 -8.519892,2 0 -8.519892,2 0 -8.366122,2 0 -8.366122,2 0 -8.366122,2 0 -8.366122,2 0 -8.366122,2 0 -8.366122,2 0 -8.366122,2 0 -8.366122,2 0 -8.366122,2 0 -8.366122,2 0 -8.366122,2 0 -8.366122,2 0 -8.366122,2 0 -8.366122,2 0 -8.366122,2 0 -8.366122,2 0 -8.366122,2 0 -8.366122,2 0 -8.366122,2 0 -8.366122,2 0 -8.366122,1.710,
2 0 -8.519892,2 0 -8.519892,2 0 -8.519892,2 0 -8.519892,2 0 -8.519892,2 0 -8.519892,2 0 -8.519892,2 0 -8.519892,2 0 -8.519892,2 0 -8.519892,2 0 -8.519892,2 0 -8.519892,2 0 -8.519892,2 0 -8.519892,2 0 -8.519892,2 0 -8.519892,2 0 -8.519892,2 0 -8.519892,2 0 -8.519892,2 0 -8.519892,2 0 -8.519892,2 0 -8.366122,2 0 -8.366122,2 0 -8.366122,2 0 -8.366122,2 0 -8.366122,2 0 -8.366122,2 0 -8.366122,2 0 -8.366122,2 0 -8.366122,2 0 -8.366122,2 0 -8.366122,2 0 -8.366122,2 0 -8.366122,2 0 -8.366122,2 0 -8.366122,2 0 -8.366122,2 0 -8.366122,2 0 -8.366122,2 0 -8.366122,2 0 -8.366122,2 0 -8.366122,1.810,
2 0 -8.519892,2 0 -8.519892,2 0 -8.519892,2 0 -8.519892,2 0 -8.519892,2 0 -8.519892,2 0 -8.519892,2 0 -8.519892,2 0 -8.519892,2 0 -8.519892,2 0 -8.519892,2 0 -8.519892,2 0 -8.519892,2 0 -8.519892,2 0 -8.519892,2 0 -8.519892,2 0 -8.519892,2 0 -8.519892,2 0 -8.519892,2 0 -8.519892,2 0 -8.519892,2 0 -8.366122,2 0 -8.366122,2 0 -8.366122,2 0 -8.366122,2 0 -8.366122,2 0 -8.366122,2 0 -8.366122,2 0 -8.366122,2 0 -8.366122,2 0 -8.366122,2 0 -8.366122,2 0 -8.366122,2 0 -8.366122,2 0 -8.366122,2 0 -8.366122,2 0 -8.366122,2 0 -8.366122,2 0 -8.366122,2 0 -8.366122,2 0 -8.366122,2 0 -8.366122,1.910,
2 0 -8.519892,2 0 -8.519892,2 0 -8.519892,2 0 -8.519892,2 0 -8.519892,2 0 -8.519892,2 0 -8.519892,2 0 -8.519892,2 0 -8.519892,2 0 -8.519892,2 0 -8.519892,2 0 -8.519892,2 0 -8.519892,2 0 -8.519892,2 0 -8.519892,2 0 -8.519892,2 0 -8.519892,2 0 -8.519892,2 0 -8.519892,2 0 -8.519892,2 0 -8.519892,2 0 -8.366122,2 0 -8.366122,2 0 -8.366122,2 0 -8.366122,2 0 -8.366122,2 0 -8.366122,2 0 -8.366122,2 0 -8.366122,2 0 -8.366122,2 0 -8.366122,2 0 -8.366122,2 0 -8.366122,2 0 -8.366122,2 0 -8.366122,2 0 -8.366122,2 0 -8.366122,2 0 -8.366122,2 0 -8.366122,2 0 -8.366122,2 0 -8.366122,2 0 -8.366122,2.010,
2 0 -8.519892,2 0 -8.519892,2 0 -8.519892,2 0 -8.519892,2 0 -8.519892,2 0 -8.519892,2 0 -8.519892,2 0 -8.519892,2 0 -8.519892,2 0 -8.519892,2 0 -8.519892,2 0 -8.519892,2 0 -8.519892,2 0 -8.519892,2 0 -8.519892,2 0 -8.519892,2 0 -8.519892,2 0 -8.519892,2 0 -8.519892,2 0 -8.519892,2 0 -8.519892,2 0 -8.366122,2 0 -8.366122,2 0 -8.366122,2 0 -8.366122,2 0 -8.366122,2 0 -8.366122,2 0 -8.366122,2 0 -8.366122,2 0 -8.366122,2 0 -8.366122,2 0 -8.366122,2 0 -8.366122,2 0 -8.366122,2 0 -8.366122,2 0 -8.366122,2 0 -8.366122,2 0 -8.366122,2 0 -8.366122,2 0 -8.366122,2 0 -8.366122,2 0 -8.366122,2.110,
2 0 -8.519892,2 0 -8.519892,2 0 -8.519892,2 0 -8.519892,2 0 -8.519892,2 0 -8.519892,2 0 -8.519892,2 0 -8.519892,2 0 -8.519892,2 0 -8.519892,2 0 -8.519892,2 0 -8.519892,2 0 -8.519892,2 0 -8.519892,2 0 -8.519892,2 0 -8.519892,2 0 -8.519892,2 0 -8.519892,2 0 -8.519892,2 0 -8.519892,2 0 -8.519892,2 0 -8.366122,2 0 -8.366122,2 0 -8.366122,2 0 -8.366122,2 0 -8.366122,2 0 -8.366122,2 0 -8.366122,2 0 -8.366122,2 0 -8.366122,2 0 -8.366122,2 0 -8.366122,2 0 -8.366122,2 0 -8.366122,2 0 -8.366122,2 0 -8.366122,2 0 -8.366122,2 0 -8.366122,2 0 -8.366122,2 0 -8.366122,2 0 -8.366122,2 0 -8.366122,2.210,
2 0 -8.519892,2 0 -8.519892,2 0 -8.519892,2 0 -8.519892,2 0 -8.519892,2 0 -8.519892,2 0 -8.519892,2 0 -8.519892,2 0 -8.519892,2 0 -8.519892,2 0 -8.519892,2 0 -8.519892,2 0 -8.519892,2 0 -8.519892,2 0 -8.519892,2 0 -8.519892,2 0 -8.519892,2 0 -8.519892,2 0 -8.519892,2 0 -8.519892,2 0 -8.519892,2 0 -8.366122,2 0 -8.366122,2 0 -8.366122,2 0 -8.366122,2 0 -8.366122,2 0 -8.366122,2 0 -8.366122,2 0 -8.366122,2 0 -8.366122,2 0 -8.366122,2 0 -8.366122,2 0 -8.366122,2 0 -8.366122,2 0 -8.366122,2 0 -8.366122,2 0 -8.366122,2 0 -8.366122,2 0 -8.366122,2 0 -8.366122,2 0 -8.366122,2 0 -8.366122,2.310,
2 0 -8.519892,2 0 -8.519892,2 0 -8.519892,2 0 -8.519892,2 0 -8.519892,2 0 -8.519892,2 0 -8.519892,2 0 -8.519892,2 0 -8.519892,2 0 -8.519892,2 0 -8.519892,2 0 -8.519892,2 0 -8.519892,2 0 -8.519892,2 0 -8.519892,2 0 -8.519892,2 0 -8.519892,2 0 -8.519892,2 0 -8.519892,2 0 -8.519892,2 0 -8.519892,2 0 -8.366122,2 0 -8.366122,2 0 -8.366122,2 0 -8.366122,2 0 -8.366122,2 0 -8.366122,2 0 -8.366122,2 0 -8.366122,2 0 -8.366122,2 0 -8.366122,2 0 -8.366122,2 0 -8.366122,2 0 -8.366122,2 0 -8.366122,2 0 -8.366122,2 0 -8.366122,2 0 -8.366122,2 0 -8.366122,2 0 -8.366122,2 0 -8.366122,2 0 -8.366122,2.410,
2 0 -8.519892,2 0 -8.519892,2 0 -8.519892,2 0 -8.519892,2 0 -8.519892,2 0 -8.519892,2 0 -8.519892,2 0 -8.519892,2 0 -8.519892,2 0 -8.519892,2 0 -8.519892,2 0 -8.519892,2 0 -8.519892,2 0 -8.519892,2 0 -8.519892,2 0 -8.519892,2 0 -8.519892,2 0 -8.519892,2 0 -8.519892,2 0 -8.519892,2 0 -8.519892,2 0 -8.366122,2 0 -8.366122,2 0 -8.366122,2 0 -8.366122,2 0 -8.366122,2 0 -8.366122,2 0 -8.366122,2 0 -8.366122,2 0 -8.366122,2 0 -8.366122,2 0 -8.366122,2 0 -8.366122,2 0 -8.366122,2 0 -8.366122,2 0 -8.366122,2 0 -8.366122,2 0 -8.366122,2 0 -8.366122,2 0 -8.366122,2 0 -8.366122,2 0 -8.366122,2.510,
2 0 -8.519892,2 0 -8.519892,2 0 -8.519892,2 0 -8.519892,2 0 -8.519892,2 0 -8.519892,2 0 -8.519892,2 0 -8.519892,2 0 -8.519892,2 0 -8.519892,2 0 -8.519892,2 0 -8.519892,2 0 -8.519892,2 0 -8.519892,2 0 -8.519892,2 0 -8.519892,2 0 -8.519892,2 0 -8.519892,2 0 -8.519892,2 0 -8.519892,2 0 -8.519892,2 0 -8.366122,2 0 -8.366122,2 0 -8.366122,2 0 -8.366122,2 0 -8.366122,2 0 -8.366122,2 0 -8.366122,2 0 -8.366122,2 0 -8.366122,2 0 -8.366122,2 0 -8.366122,2 0 -8.366122,2 0 -8.366122,2 0 -8.366122,2 0 -8.366122,2 0 -8.366122,2 0 -8.366122,2 0 -8.366122,2 0 -8.366122,2 0 -8.366122,2 0 -8.366122,2.610,
2 0 -8.519892,2 0 -8.519892,2 0 -8.519892,2 0 -8.519892,2 0 -8.519892,2 0 -8.519892,2 0 -8.519892,2 0 -8.519892,2 0 -8.519892,2 0 -8.519892,2 0 -8.519892,2 0 -8.519892,2 0 -8.519892,2 0 -8.519892,2 0 -8.519892,2 0 -8.519892,2 0 -8.519892,2 0 -8.519892,2 0 -8.519892,2 0 -8.519892,2 0 -8.519892,2 0 -8.366122,2 0 -8.366122,2 0 -8.366122,2 0 -8.366122,2 0 -8.366122,2 0 -8.366122,2 0 -8.366122,2 0 -8.366122,2 0 -8.366122,2 0 -8.366122,2 0 -8.366122,2 0 -8.366122,2 0 -8.366122,2 0 -8.366122,2 0 -8.366122,2 0 -8.366122,2 0 -8.366122,2 0 -8.366122,2 0 -8.366122,2 0 -8.366122,2 0 -8.366122,2.710,
2 0 -8.519892,2 0 -8.519892,2 0 -8.519892,2 0 -8.519892,2 0 -8.519892,2 0 -8.519892,2 0 -8.519892,2 0 -8.519892,2 0 -8.519892,2 0 -8.519892,2 0 -8.519892,2 0 -8.519892,2 0 -8.519892,2 0 -8.519892,2 0 -8.519892,2 0 -8.519892,2 0 -8.519892,2 0 -8.519892,2 0 -8.519892,2 0 -8.519892,2 0 -8.519892,2 0 -8.366122,2 0 -8.366122,2 0 -8.366122,2 0 -8.366122,2 0 -8.366122,2 0 -8.366122,2 0 -8.366122,2 0 -8.366122,2 0 -8.366122,2 0 -8.366122,2 0 -8.366122,2 0 -8.366122,2 0 -8.366122,2 0 -8.366122,2 0 -8.366122,2 0 -8.366122,2 0 -8.366122,2 0 -8.366122,2 0 -8.366122,2 0 -8.366122,2 0 -8.366122,2.810,
2 0 -8.519892,2 0 -8.519892,2 0 -8.519892,2 0 -8.519892,2 0 -8.519892,2 0 -8.519892,2 0 -8.519892,2 0 -8.519892,2 0 -8.519892,2 0 -8.519892,2 0 -8.519892,2 0 -8.519892,2 0 -8.519892,2 0 -8.519892,2 0 -8.519892,2 0 -8.519892,2 0 -8.519892,2 0 -8.519892,2 0 -8.519892,2 0 -8.519892,2 0 -8.519892,2 0 -8.366122,2 0 -8.366122,2 0 -8.366122,2 0 -8.366122,2 0 -8.366122,2 0 -8.366122,2 0 -8.366122,2 0 -8.366122,2 0 -8.366122,2 0 -8.366122,2 0 -8.366122,2 0 -8.366122,2 0 -8.366122,2 0 -8.366122,2 0 -8.366122,2 0 -8.366122,2 0 -8.366122,2 0 -8.366122,2 0 -8.366122,2 0 -8.366122,2 0 -8.366122,2.910,
2 0 -8.519892,2 0 -8.519892,2 0 -8.519892,2 0 -8.519892,2 0 -8.519892,2 0 -8.519892,2 0 -8.519892,2 0 -8.519892,2 0 -8.519892,2 0 -8.519892,2 0 -8.519892,2 0 -8.519892,2 0 -8.519892,2 0 -8.519892,2 0 -8.519892,2 0 -8.519892,2 0 -8.519892,2 0 -8.519892,2 0 -8.519892,2 0 -8.519892,2 0 -8.519892,2 0 -8.366122,2 0 -8.366122,2 0 -8.366122,2 0 -8.366122,2 0 -8.366122,2 0 -8.366122,2 0 -8.366122,2 0 -8.366122,2 0 -8.366122,2 0 -8.366122,2 0 -8.366122,2 0 -8.366122,2 0 -8.366122,2 0 -8.366122,2 0 -8.366122,2 0 -8.366122,2 0 -8.366122,2 0 -8.366122,2 0 -8.366122,2 0 -8.366122,2 0 -8.366122,3.010,
2 0 -8.519892,2 0 -8.519892,2 0 -8.519892,2 0 -8.519892,2 0 -8.519892,2 0 -8.519892,2 0 -8.519892,2 0 -8.519892,2 0 -8.519892,2 0 -8.519892,2 0 -8.519892,2 0 -8.519892,2 0 -8.519892,2 0 -8.519892,2 0 -8.519892,2 0 -8.519892,2 0 -8.519892,2 0 -8.519892,2 0 -8.519892,2 0 -8.519892,2 0 -8.519892,2 0 -8.366122,2 0 -8.366122,2 0 -8.366122,2 0 -8.366122,2 0 -8.366122,2 0 -8.366122,2 0 -8.366122,2 0 -8.366122,2 0 -8.366122,2 0 -8.366122,2 0 -8.366122,2 0 -8.366122,2 0 -8.366122,2 0 -8.366122,2 0 -8.366122,2 0 -8.366122,2 0 -8.366122,2 0 -8.366122,2 0 -8.366122,2 0 -8.366122,2 0 -8.366122,3.110,
2 0 -8.519892,2 0 -8.519892,2 0 -8.519892,2 0 -8.519892,2 0 -8.519892,2 0 -8.519892,2 0 -8.519892,2 0 -8.519892,2 0 -8.519892,2 0 -8.519892,2 0 -8.519892,2 0 -8.519892,2 0 -8.519892,2 0 -8.519892,2 0 -8.519892,2 0 -8.519892,2 0 -8.519892,2 0 -8.519892,2 0 -8.519892,2 0 -8.519892,2 0 -8.519892,2 0 -8.366122,2 0 -8.366122,2 0 -8.366122,2 0 -8.366122,2 0 -8.366122,2 0 -8.366122,2 0 -8.366122,2 0 -8.366122,2 0 -8.366122,2 0 -8.366122,2 0 -8.366122,2 0 -8.366122,2 0 -8.366122,2 0 -8.366122,2 0 -8.366122,2 0 -8.366122,2 0 -8.366122,2 0 -8.366122,2 0 -8.366122,2 0 -8.366122,2 0 -8.366122,3.210,
2 0 -8.519892,2 0 -8.519892,2 0 -8.519892,2 0 -8.519892,2 0 -8.519892,2 0 -8.519892,2 0 -8.519892,2 0 -8.519892,2 0 -8.519892,2 0 -8.519892,2 0 -8.519892,2 0 -8.519892,2 0 -8.519892,2 0 -8.519892,2 0 -8.519892,2 0 -8.519892,2 0 -8.519892,2 0 -8.519892,2 0 -8.519892,2 0 -8.519892,2 0 -8.519892,2 0 -8.366122,2 0 -8.366122,2 0 -8.366122,2 0 -8.366122,2 0 -8.366122,2 0 -8.366122,2 0 -8.366122,2 0 -8.366122,2 0 -8.366122,2 0 -8.366122,2 0 -8.366122,2 0 -8.366122,2 0 -8.366122,2 0 -8.366122,2 0 -8.366122,2 0 -8.366122,2 0 -8.366122,2 0 -8.366122,2 0 -8.366122,2 0 -8.366122,2 0 -8.366122,3.310,
2 0 -8.519892,2 0 -8.519892,2 0 -8.519892,2 0 -8.519892,2 0 -8.519892,2 0 -8.519892,2 0 -8.519892,2 0 -8.519892,2 0 -8.519892,2 0 -8.519892,2 0 -8.519892,2 0 -8.519892,2 0 -8.519892,2 0 -8.519892,2 0 -8.519892,2 0 -8.519892,2 0 -8.519892,2 0 -8.519892,2 0 -8.519892,2 0 -8.519892,2 0 -8.519892,2 0 -8.366122,2 0 -8.366122,2 0 -8.366122,2 0 -8.366122,2 0 -8.366122,2 0 -8.366122,2 0 -8.366122,2 0 -8.366122,2 0 -8.366122,2 0 -8.366122,2 0 -8.366122,2 0 -8.366122,2 0 -8.366122,2 0 -8.366122,2 0 -8.366122,2 0 -8.366122,2 0 -8.366122,2 0 -8.366122,2 0 -8.366122,2 0 -8.366122,2 0 -8.366122,3.410,
2 0 -8.519892,2 0 -8.519892,2 0 -8.519892,2 0 -8.519892,2 0 -8.519892,2 0 -8.519892,2 0 -8.519892,2 0 -8.519892,2 0 -8.519892,2 0 -8.519892,2 0 -8.519892,2 0 -8.519892,2 0 -8.519892,2 0 -8.519892,2 0 -8.519892,2 0 -8.519892,2 0 -8.519892,2 0 -8.519892,2 0 -8.519892,2 0 -8.519892,2 0 -8.519892,2 0 -8.366122,2 0 -8.366122,2 0 -8.366122,2 0 -8.366122,2 0 -8.366122,2 0 -8.366122,2 0 -8.366122,2 0 -8.366122,2 0 -8.366122,2 0 -8.366122,2 0 -8.366122,2 0 -8.366122,2 0 -8.366122,2 0 -8.366122,2 0 -8.366122,2 0 -8.366122,2 0 -8.366122,2 0 -8.366122,2 0 -8.366122,2 0 -8.366122,2 0 -8.366122,3.510,
2 0 -8.519892,2 0 -8.519892,2 0 -8.519892,2 0 -8.519892,2 0 -8.519892,2 0 -8.519892,2 0 -8.519892,2 0 -8.519892,2 0 -8.519892,2 0 -8.519892,2 0 -8.519892,2 0 -8.519892,2 0 -8.519892,2 0 -8.519892,2 0 -8.519892,2 0 -8.519892,2 0 -8.519892,2 0 -8.519892,2 0 -8.519892,2 0 -8.519892,2 0 -8.519892,2 0 -8.366122,2 0 -8.366122,2 0 -8.366122,2 0 -8.366122,2 0 -8.366122,2 0 -8.366122,2 0 -8.366122,2 0 -8.366122,2 0 -8.366122,2 0 -8.366122,2 0 -8.366122,2 0 -8.366122,2 0 -8.366122,2 0 -8.366122,2 0 -8.366122,2 0 -8.366122,2 0 -8.366122,2 0 -8.366122,2 0 -8.366122,2 0 -8.366122,2 0 -8.366122,3.610,
2 0 -8.519892,2 0 -8.519892,2 0 -8.519892,2 0 -8.519892,2 0 -8.519892,2 0 -8.519892,2 0 -8.519892,2 0 -8.519892,2 0 -8.519892,2 0 -8.519892,2 0 -8.519892,2 0 -8.519892,2 0 -8.519892,2 0 -8.519892,2 0 -8.519892,2 0 -8.519892,2 0 -8.519892,2 0 -8.519892,2 0 -8.519892,2 0 -8.519892,2 0 -8.519892,2 0 -8.366122,2 0 -8.366122,2 0 -8.366122,2 0 -8.366122,2 0 -8.366122,2 0 -8.366122,2 0 -8.366122,2 0 -8.366122,2 0 -8.366122,2 0 -8.366122,2 0 -8.366122,2 0 -8.366122,2 0 -8.366122,2 0 -8.366122,2 0 -8.366122,2 0 -8.366122,2 0 -8.366122,2 0 -8.366122,2 0 -8.366122,2 0 -8.366122,2 0 -8.366122,3.710,
2 0 -8.519892,2 0 -8.519892,2 0 -8.519892,2 0 -8.519892,2 0 -8.519892,2 0 -8.519892,2 0 -8.519892,2 0 -8.519892,2 0 -8.519892,2 0 -8.519892,2 0 -8.519892,2 0 -8.519892,2 0 -8.519892,2 0 -8.519892,2 0 -8.519892,2 0 -8.519892,2 0 -8.519892,2 0 -8.519892,2 0 -8.519892,2 0 -8.519892,2 0 -8.519892,2 0 -8.366122,2 0 -8.366122,2 0 -8.366122,2 0 -8.366122,2 0 -8.366122,2 0 -8.366122,2 0 -8.366122,2 0 -8.366122,2 0 -8.366122,2 0 -8.366122,2 0 -8.366122,2 0 -8.366122,2 0 -8.366122,2 0 -8.366122,2 0 -8.366122,2 0 -8.366122,2 0 -8.366122,2 0 -8.366122,2 0 -8.366122,2 0 -8.366122,2 0 -8.366122,3.810,
2 0 -8.519892,2 0 -8.519892,2 0 -8.519892,2 0 -8.519892,2 0 -8.519892,2 0 -8.519892,2 0 -8.519892,2 0 -8.519892,2 0 -8.519892,2 0 -8.519892,2 0 -8.519892,2 0 -8.519892,2 0 -8.519892,2 0 -8.519892,2 0 -8.519892,2 0 -8.519892,2 0 -8.519892,2 0 -8.519892,2 0 -8.519892,2 0 -8.519892,2 0 -8.519892,2 0 -8.366122,2 0 -8.366122,2 0 -8.366122,2 0 -8.366122,2 0 -8.366122,2 0 -8.366122,2 0 -8.366122,2 0 -8.366122,2 0 -8.366122,2 0 -8.366122,2 0 -8.366122,2 0 -8.366122,2 0 -8.366122,2 0 -8.366122,2 0 -8.366122,2 0 -8.366122,2 0 -8.366122,2 0 -8.366122,2 0 -8.366122,2 0 -8.366122,2 0 -8.366122,3.910,
2 0 -8.519892,2 0 -8.519892,2 0 -8.519892,2 0 -8.519892,2 0 -8.519892,2 0 -8.519892,2 0 -8.519892,2 0 -8.519892,2 0 -8.519892,2 0 -8.519892,2 0 -8.519892,2 0 -8.519892,2 0 -8.519892,2 0 -8.519892,2 0 -8.519892,2 0 -8.519892,2 0 -8.519892,2 0 -8.519892,2 0 -8.519892,2 0 -8.519892,2 0 -8.519892,2 0 -8.366122,2 0 -8.366122,2 0 -8.366122,2 0 -8.366122,2 0 -8.366122,2 0 -8.366122,2 0 -8.366122,2 0 -8.366122,2 0 -8.366122,2 0 -8.366122,2 0 -8.366122,2 0 -8.366122,2 0 -8.366122,2 0 -8.366122,2 0 -8.366122,2 0 -8.366122,2 0 -8.366122,2 0 -8.366122,2 0 -8.366122,2 0 -8.366122,2 0 -8.366122,4.010,
2 0 -8.519892,2 0 -8.519892,2 0 -8.519892,2 0 -8.519892,2 0 -8.519892,2 0 -8.519892,2 0 -8.519892,2 0 -8.519892,2 0 -8.519892,2 0 -8.519892,2 0 -8.519892,2 0 -8.519892,2 0 -8.519892,2 0 -8.519892,2 0 -8.519892,2 0 -8.519892,2 0 -8.519892,2 0 -8.519892,2 0 -8.519892,2 0 -8.519892,2 0 -8.519892,2 0 -8.366122,2 0 -8.366122,2 0 -8.366122,2 0 -8.366122,2 0 -8.366122,2 0 -8.366122,2 0 -8.366122,2 0 -8.366122,2 0 -8.366122,2 0 -8.366122,2 0 -8.366122,2 0 -8.366122,2 0 -8.366122,2 0 -8.366122,2 0 -8.366122,2 0 -8.366122,2 0 -8.366122,2 0 -8.366122,2 0 -8.366122,2 0 -8.366122,2 0 -8.366122,4.110,
2 0 -8.519892,2 0 -8.519892,2 0 -8.519892,2 0 -8.519892,2 0 -8.519892,2 0 -8.519892,2 0 -8.519892,2 0 -8.519892,2 0 -8.519892,2 0 -8.519892,2 0 -8.519892,2 0 -8.519892,2 0 -8.519892,2 0 -8.519892,2 0 -8.519892,2 0 -8.519892,2 0 -8.519892,2 0 -8.519892,2 0 -8.519892,2 0 -8.519892,2 0 -8.519892,2 0 -8.366122,2 0 -8.366122,2 0 -8.366122,2 0 -8.366122,2 0 -8.366122,2 0 -8.366122,2 0 -8.366122,2 0 -8.366122,2 0 -8.366122,2 0 -8.366122,2 0 -8.366122,2 0 -8.366122,2 0 -8.366122,2 0 -8.366122,2 0 -8.366122,2 0 -8.366122,2 0 -8.366122,2 0 -8.366122,2 0 -8.366122,2 0 -8.366122,2 0 -8.366122,4.210,
2 0 -8.519892,2 0 -8.519892,2 0 -8.519892,2 0 -8.519892,2 0 -8.519892,2 0 -8.519892,2 0 -8.519892,2 0 -8.519892,2 0 -8.519892,2 0 -8.519892,2 0 -8.519892,2 0 -8.519892,2 0 -8.519892,2 0 -8.519892,2 0 -8.519892,2 0 -8.519892,2 0 -8.519892,2 0 -8.519892,2 0 -8.519892,2 0 -8.519892,2 0 -8.519892,2 0 -8.366122,2 0 -8.366122,2 0 -8.366122,2 0 -8.366122,2 0 -8.366122,2 0 -8.366122,2 0 -8.366122,2 0 -8.366122,2 0 -8.366122,2 0 -8.366122,2 0 -8.366122,2 0 -8.366122,2 0 -8.366122,2 0 -8.366122,2 0 -8.366122,2 0 -8.366122,2 0 -8.366122,2 0 -8.366122,2 0 -8.366122,2 0 -8.366122,2 0 -8.366122,4.310,
2 0 -8.519892,2 0 -8.519892,2 0 -8.519892,2 0 -8.519892,2 0 -8.519892,2 0 -8.519892,2 0 -8.519892,2 0 -8.519892,2 0 -8.519892,2 0 -8.519892,2 0 -8.519892,2 0 -8.519892,2 0 -8.519892,2 0 -8.519892,2 0 -8.519892,2 0 -8.519892,2 0 -8.519892,2 0 -8.519892,2 0 -8.519892,2 0 -8.519892,2 0 -8.519892,2 0 -8.366122,2 0 -8.366122,2 0 -8.366122,2 0 -8.366122,2 0 -8.366122,2 0 -8.366122,2 0 -8.366122,2 0 -8.366122,2 0 -8.366122,2 0 -8.366122,2 0 -8.366122,2 0 -8.366122,2 0 -8.366122,2 0 -8.366122,2 0 -8.366122,2 0 -8.366122,2 0 -8.366122,2 0 -8.366122,2 0 -8.366122,2 0 -8.366122,2 0 -8.366122,4.410,
2 0 -8.519892,2 0 -8.519892,2 0 -8.519892,2 0 -8.519892,2 0 -8.519892,2 0 -8.519892,2 0 -8.519892,2 0 -8.519892,2 0 -8.519892,2 0 -8.519892,2 0 -8.519892,2 0 -8.519892,2 0 -8.519892,2 0 -8.519892,2 0 -8.519892,2 0 -8.519892,2 0 -8.519892,2 0 -8.519892,2 0 -8.519892,2 0 -8.519892,2 0 -8.519892,2 0 -8.366122,2 0 -8.366122,2 0 -8.366122,2 0 -8.366122,2 0 -8.366122,2 0 -8.366122,2 0 -8.366122,2 0 -8.366122,2 0 -8.366122,2 0 -8.366122,2 0 -8.366122,2 0 -8.366122,2 0 -8.366122,2 0 -8.366122,2 0 -8.366122,2 0 -8.366122,2 0 -8.366122,2 0 -8.366122,2 0 -8.366122,2 0 -8.366122,2 0 -8.366122,4.510,
2 0 -8.519892,2 0 -8.519892,2 0 -8.519892,2 0 -8.519892,2 0 -8.519892,2 0 -8.519892,2 0 -8.519892,2 0 -8.519892,2 0 -8.519892,2 0 -8.519892,2 0 -8.519892,2 0 -8.519892,2 0 -8.519892,2 0 -8.519892,2 0 -8.519892,2 0 -8.519892,2 0 -8.519892,2 0 -8.519892,2 0 -8.519892,2 0 -8.519892,2 0 -8.519892,2 0 -8.366122,2 0 -8.366122,2 0 -8.366122,2 0 -8.366122,2 0 -8.366122,2 0 -8.366122,2 0 -8.366122,2 0 -8.366122,2 0 -8.366122,2 0 -8.366122,2 0 -8.366122,2 0 -8.366122,2 0 -8.366122,2 0 -8.366122,2 0 -8.366122,2 0 -8.366122,2 0 -8.366122,2 0 -8.366122,2 0 -8.366122,2 0 -8.366122,2 0 -8.366122,4.610,
2 0 -8.519892,2 0 -8.519892,2 0 -8.519892,2 0 -8.519892,2 0 -8.519892,2 0 -8.519892,2 0 -8.519892,2 0 -8.519892,2 0 -8.519892,2 0 -8.519892,2 0 -8.519892,2 0 -8.519892,2 0 -8.519892,2 0 -8.519892,2 0 -8.519892,2 0 -8.519892,2 0 -8.519892,2 0 -8.519892,2 0 -8.519892,2 0 -8.519892,2 0 -8.519892,2 0 -8.366122,2 0 -8.366122,2 0 -8.366122,2 0 -8.366122,2 0 -8.366122,2 0 -8.366122,2 0 -8.366122,2 0 -8.366122,2 0 -8.366122,2 0 -8.366122,2 0 -8.366122,2 0 -8.366122,2 0 -8.366122,2 0 -8.366122,2 0 -8.366122,2 0 -8.366122,2 0 -8.366122,2 0 -8.366122,2 0 -8.366122,2 0 -8.366122,2 0 -8.366122,4.710,
2 0 -8.519892,2 0 -8.519892,2 0 -8.519892,2 0 -8.519892,2 0 -8.519892,2 0 -8.519892,2 0 -8.519892,2 0 -8.519892,2 0 -8.519892,2 0 -8.519892,2 0 -8.519892,2 0 -8.519892,2 0 -8.519892,2 0 -8.519892,2 0 -8.519892,2 0 -8.519892,2 0 -8.519892,2 0 -8.519892,2 0 -8.519892,2 0 -8.519892,2 0 -8.519892,2 0 -8.366122,2 0 -8.366122,2 0 -8.366122,2 0 -8.366122,2 0 -8.366122,2 0 -8.366122,2 0 -8.366122,2 0 -8.366122,2 0 -8.366122,2 0 -8.366122,2 0 -8.366122,2 0 -8.366122,2 0 -8.366122,2 0 -8.366122,2 0 -8.366122,2 0 -8.366122,2 0 -8.366122,2 0 -8.366122,2 0 -8.366122,2 0 -8.366122,2 0 -8.366122,4.810,
2 0 -8.519892,2 0 -8.519892,2 0 -8.519892,2 0 -8.519892,2 0 -8.519892,2 0 -8.519892,2 0 -8.519892,2 0 -8.519892,2 0 -8.519892,2 0 -8.519892,2 0 -8.519892,2 0 -8.519892,2 0 -8.519892,2 0 -8.519892,2 0 -8.519892,2 0 -8.519892,2 0 -8.519892,2 0 -8.519892,2 0 -8.519892,2 0 -8.519892,2 0 -8.519892,2 0 -8.366122,2 0 -8.366122,2 0 -8.366122,2 0 -8.366122,2 0 -8.366122,2 0 -8.366122,2 0 -8.366122,2 0 -8.366122,2 0 -8.366122,2 0 -8.366122,2 0 -8.366122,2 0 -8.366122,2 0 -8.366122,2 0 -8.366122,2 0 -8.366122,2 0 -8.366122,2 0 -8.366122,2 0 -8.366122,2 0 -8.366122,2 0 -8.366122,2 0 -8.366122,4.910,
2 0 -8.519892,2 0 -8.519892,2 0 -8.519892,2 0 -8.519892,2 0 -8.519892,2 0 -8.519892,2 0 -8.519892,2 0 -8.519892,2 0 -8.519892,2 0 -8.519892,2 0 -8.519892,2 0 -8.519892,2 0 -8.519892,2 0 -8.519892,2 0 -8.519892,2 0 -8.519892,2 0 -8.519892,2 0 -8.519892,2 0 -8.519892,2 0 -8.519892,2 0 -8.519892,2 0 -8.366122,2 0 -8.366122,2 0 -8.366122,2 0 -8.366122,2 0 -8.366122,2 0 -8.366122,2 0 -8.366122,2 0 -8.366122,2 0 -8.366122,2 0 -8.366122,2 0 -8.366122,2 0 -8.366122,2 0 -8.366122,2 0 -8.366122,2 0 -8.366122,2 0 -8.366122,2 0 -8.366122,2 0 -8.366122,2 0 -8.366122,2 0 -8.366122,2 0 -8.366122,5.010,
2 0 -8.519892,2 0 -8.519892,2 0 -8.519892,2 0 -8.519892,2 0 -8.519892,2 0 -8.519892,2 0 -8.519892,2 0 -8.519892,2 0 -8.519892,2 0 -8.519892,2 0 -8.519892,2 0 -8.519892,2 0 -8.519892,2 0 -8.519892,2 0 -8.519892,2 0 -8.519892,2 0 -8.519892,2 0 -8.519892,2 0 -8.519892,2 0 -8.519892,2 0 -8.519892,2 0 -8.366122,2 0 -8.366122,2 0 -8.366122,2 0 -8.366122,2 0 -8.366122,2 0 -8.366122,2 0 -8.366122,2 0 -8.366122,2 0 -8.366122,2 0 -8.366122,2 0 -8.366122,2 0 -8.366122,2 0 -8.366122,2 0 -8.366122,2 0 -8.366122,2 0 -8.366122,2 0 -8.366122,2 0 -8.366122,2 0 -8.366122,2 0 -8.366122,2 0 -8.366122,5.110,
2 0 -8.519892,2 0 -8.519892,2 0 -8.519892,2 0 -8.519892,2 0 -8.519892,2 0 -8.519892,2 0 -8.519892,2 0 -8.519892,2 0 -8.519892,2 0 -8.519892,2 0 -8.519892,2 0 -8.519892,2 0 -8.519892,2 0 -8.519892,2 0 -8.519892,2 0 -8.519892,2 0 -8.519892,2 0 -8.519892,2 0 -8.519892,2 0 -8.519892,2 0 -8.519892,2 0 -8.366122,2 0 -8.366122,2 0 -8.366122,2 0 -8.366122,2 0 -8.366122,2 0 -8.366122,2 0 -8.366122,2 0 -8.366122,2 0 -8.366122,2 0 -8.366122,2 0 -8.366122,2 0 -8.366122,2 0 -8.366122,2 0 -8.366122,2 0 -8.366122,2 0 -8.366122,2 0 -8.366122,2 0 -8.366122,2 0 -8.366122,2 0 -8.366122,2 0 -8.366122,5.210,
2 0 -8.519892,2 0 -8.519892,2 0 -8.519892,2 0 -8.519892,2 0 -8.519892,2 0 -8.519892,2 0 -8.519892,2 0 -8.519892,2 0 -8.519892,2 0 -8.519892,2 0 -8.519892,2 0 -8.519892,2 0 -8.519892,2 0 -8.519892,2 0 -8.519892,2 0 -8.519892,2 0 -8.519892,2 0 -8.519892,2 0 -8.519892,2 0 -8.519892,2 0 -8.519892,2 0 -8.366122,2 0 -8.366122,2 0 -8.366122,2 0 -8.366122,2 0 -8.366122,2 0 -8.366122,2 0 -8.366122,2 0 -8.366122,2 0 -8.366122,2 0 -8.366122,2 0 -8.366122,2 0 -8.366122,2 0 -8.366122,2 0 -8.366122,2 0 -8.366122,2 0 -8.366122,2 0 -8.366122,2 0 -8.366122,2 0 -8.366122,2 0 -8.366122,2 0 -8.366122,5.310,
2 0 -8.519892,2 0 -8.519892,2 0 -8.519892,2 0 -8.519892,2 0 -8.519892,2 0 -8.519892,2 0 -8.519892,2 0 -8.519892,2 0 -8.519892,2 0 -8.519892,2 0 -8.519892,2 0 -8.519892,2 0 -8.519892,2 0 -8.519892,2 0 -8.519892,2 0 -8.519892,2 0 -8.519892,2 0 -8.519892,2 0 -8.519892,2 0 -8.519892,2 0 -8.519892,2 0 -8.366122,2 0 -8.366122,2 0 -8.366122,2 0 -8.366122,2 0 -8.366122,2 0 -8.366122,2 0 -8.366122,2 0 -8.366122,2 0 -8.366122,2 0 -8.366122,2 0 -8.366122,2 0 -8.366122,2 0 -8.366122,2 0 -8.366122,2 0 -8.366122,2 0 -8.366122,2 0 -8.366122,2 0 -8.366122,2 0 -8.366122,2 0 -8.366122,2 0 -8.366122,5.410,
2 0 -8.519892,2 0 -8.519892,2 0 -8.519892,2 0 -8.519892,2 0 -8.519892,2 0 -8.519892,2 0 -8.519892,2 0 -8.519892,2 0 -8.519892,2 0 -8.519892,2 0 -8.519892,2 0 -8.519892,2 0 -8.519892,2 0 -8.519892,2 0 -8.519892,2 0 -8.519892,2 0 -8.519892,2 0 -8.519892,2 0 -8.519892,2 0 -8.519892,2 0 -8.519892,2 0 -8.366122,2 0 -8.366122,2 0 -8.366122,2 0 -8.366122,2 0 -8.366122,2 0 -8.366122,2 0 -8.366122,2 0 -8.366122,2 0 -8.366122,2 0 -8.366122,2 0 -8.366122,2 0 -8.366122,2 0 -8.366122,2 0 -8.366122,2 0 -8.366122,2 0 -8.366122,2 0 -8.366122,2 0 -8.366122,2 0 -8.366122,2 0 -8.366122,2 0 -8.366122,5.510,
2 0 -8.519892,2 0 -8.519892,2 0 -8.519892,2 0 -8.519892,2 0 -8.519892,2 0 -8.519892,2 0 -8.519892,2 0 -8.519892,2 0 -8.519892,2 0 -8.519892,2 0 -8.519892,2 0 -8.519892,2 0 -8.519892,2 0 -8.519892,2 0 -8.519892,2 0 -8.519892,2 0 -8.519892,2 0 -8.519892,2 0 -8.519892,2 0 -8.519892,2 0 -8.519892,2 0 -8.366122,2 0 -8.366122,2 0 -8.366122,2 0 -8.366122,2 0 -8.366122,2 0 -8.366122,2 0 -8.366122,2 0 -8.366122,2 0 -8.366122,2 0 -8.366122,2 0 -8.366122,2 0 -8.366122,2 0 -8.366122,2 0 -8.366122,2 0 -8.366122,2 0 -8.366122,2 0 -8.366122,2 0 -8.366122,2 0 -8.366122,2 0 -8.366122,2 0 -8.366122,5.610,
-4.069134 -13.92304 7.136156,-4.683195 -11.8584 6.903193,-4.523491 -10.11003 6.836668,-4.113303 -8.877754 6.812682,-3.676582 -8.246166 6.833666,-3.094559 -9.395113 7.130093,-3.297411 -7.793737 6.791469,-3.628265 -7.648766 6.659811,-3.745056 -7.653848 6.68565,-2.648065 -9.682091 7.131817,-3.203285 -8.27416 6.647327,-3.67063 -8.696112 6.590573,-3.713669 -9.408945 6.751377,-2.461631 -10.11561 7.060351,-3.095713 -8.677294 6.480149,-3.53167 -9.04896 6.526335,-3.573824 -9.789063 6.737686,-2.463278 -10.53846 6.973207,-2.924841 -9.12887 6.51017,-3.28038 -9.324347 6.491136,-3.334572 -9.850313 6.590553,2 0 -8.366122,2 0 -8.366122,2 0 -8.366122,2 0 -8.366122,2 0 -8.366122,2 0 -8.366122,2 0 -8.366122,2 0 -8.366122,2 0 -8.366122,2 0 -8.366122,2 0 -8.366122,2 0 -8.366122,2 0 -8.366122,2 0 -8.366122,2 0 -8.366122,2 0 -8.366122,2 0 -8.366122,2 0 -8.366122,2 0 -8.366122,2 0 -8.366122,2 0 -8.366122,5.710,
-4.069134 -13.92304 7.136156,-4.683195 -11.8584 6.903193,-4.523491 -10.11003 6.836668,-4.113303 -8.877754 6.812682,-3.676582 -8.246166 6.833666,-3.094559 -9.395113 7.130093,-3.297411 -7.793737 6.791469,-3.628265 -7.648766 6.659811,-3.745056 -7.653848 6.68565,-2.648065 -9.682091 7.131817,-3.203285 -8.27416 6.647327,-3.67063 -8.696112 6.590573,-3.713669 -9.408945 6.751377,-2.461631 -10.11561 7.060351,-3.095713 -8.677294 6.480149,-3.53167 -9.04896 6.526335,-3.573824 -9.789063 6.737686,-2.463278 -10.53846 6.973207,-2.924841 -9.12887 6.51017,-3.28038 -9.324347 6.491136,-3.334572 -9.850313 6.590553,2 0 -8.366122,2 0 -8.366122,2 0 -8.366122,2 0 -8.366122,2 0 -8.366122,2 0 -8.366122,2 0 -8.366122,2 0 -8.366122,2 0 -8.366122,2 0 -8.366122,2 0 -8.366122,2 0 -8.366122,2 0 -8.366122,2 0 -8.366122,2 0 -8.366122,2 0 -8.366122,2 0 -8.366122,2 0 -8.366122,2 0 -8.366122,2 0 -8.366122,2 0 -8.366122,5.810,
-4.069134 -13.92304 7.136156,-4.683195 -11.8584 6.903193,-4.523491 -10.11003 6.836668,-4.113303 -8.877754 6.812682,-3.676582 -8.246166 6.833666,-3.094559 -9.395113 7.130093,-3.297411 -7.793737 6.791469,-3.628265 -7.648766 6.659811,-3.745056 -7.653848 6.68565,-2.648065 -9.682091 7.131817,-3.203285 -8.27416 6.647327,-3.67063 -8.696112 6.590573,-3.713669 -9.408945 6.751377,-2.461631 -10.11561 7.060351,-3.095713 -8.677294 6.480149,-3.53167 -9.04896 6.526335,-3.573824 -9.789063 6.737686,-2.463278 -10.53846 6.973207,-2.924841 -9.12887 6.51017,-3.28038 -9.324347 6.491136,-3.334572 -9.850313 6.590553,2 0 -8.366122,2 0 -8.366122,2 0 -8.366122,2 0 -8.366122,2 0 -8.366122,2 0 -8.366122,2 0 -8.366122,2 0 -8.366122,2 0 -8.366122,2 0 -8.366122,2 0 -8.366122,2 0 -8.366122,2 0 -8.366122,2 0 -8.366122,2 0 -8.366122,2 0 -8.366122,2 0 -8.366122,2 0 -8.366122,2 0 -8.366122,2 0 -8.366122,2 0 -8.366122,5.910,
-4.069134 -13.92304 7.136156,-4.683195 -11.8584 6.903193,-4.523491 -10.11003 6.836668,-4.113303 -8.877754 6.812682,-3.676582 -8.246166 6.833666,-3.094559 -9.395113 7.130093,-3.297411 -7.793737 6.791469,-3.628265 -7.648766 6.659811,-3.745056 -7.653848 6.68565,-2.648065 -9.682091 7.131817,-3.203285 -8.27416 6.647327,-3.67063 -8.696112 6.590573,-3.713669 -9.408945 6.751377,-2.461631 -10.11561 7.060351,-3.095713 -8.677294 6.480149,-3.53167 -9.04896 6.526335,-3.573824 -9.789063 6.737686,-2.463278 -10.53846 6.973207,-2.924841 -9.12887 6.51017,-3.28038 -9.324347 6.491136,-3.334572 -9.850313 6.590553,2 0 -8.366122,2 0 -8.366122,2 0 -8.366122,2 0 -8.366122,2 0 -8.366122,2 0 -8.366122,2 0 -8.366122,2 0 -8.366122,2 0 -8.366122,2 0 -8.366122,2 0 -8.366122,2 0 -8.366122,2 0 -8.366122,2 0 -8.366122,2 0 -8.366122,2 0 -8.366122,2 0 -8.366122,2 0 -8.366122,2 0 -8.366122,2 0 -8.366122,2 0 -8.366122,6.010,
-4.069134 -13.92304 7.136156,-4.683195 -11.8584 6.903193,-4.523491 -10.11003 6.836668,-4.113303 -8.877754 6.812682,-3.676582 -8.246166 6.833666,-3.094559 -9.395113 7.130093,-3.297411 -7.793737 6.791469,-3.628265 -7.648766 6.659811,-3.745056 -7.653848 6.68565,-2.648065 -9.682091 7.131817,-3.203285 -8.27416 6.647327,-3.67063 -8.696112 6.590573,-3.713669 -9.408945 6.751377,-2.461631 -10.11561 7.060351,-3.095713 -8.677294 6.480149,-3.53167 -9.04896 6.526335,-3.573824 -9.789063 6.737686,-2.463278 -10.53846 6.973207,-2.924841 -9.12887 6.51017,-3.28038 -9.324347 6.491136,-3.334572 -9.850313 6.590553,-8.339465 -13.70743 -1.168251,-7.881741 -13.52727 -1.000781,-7.514575 -12.9871 -0.8455501,-7.278627 -12.64615 -0.6870883,-7.108408 -12.43467 -0.4937739,-7.662405 -11.73613 -1.04945,-7.582388 -10.88501 -0.8932179,-7.516603 -10.69641 -0.6981716,-7.499418 -10.77364 -0.531976,-7.896469 -11.70686 -0.9944991,-7.86974 -10.82011 -0.8835887,-7.828741 -10.61958 -0.7851224,-7.816004 -10.64421 -0.724432,-8.135776 -11.82655 -0.9169687,-8.124956 -11.06222 -0.8172083,-8.109262 -10.88944 -0.6687086,-8.119375 -10.92999 -0.566112,-8.357594 -12.11232 -0.8062383,-8.379562 -11.55979 -0.7097046,-8.382851 -11.34635 -0.6127157,-8.380684 -11.2596 -0.5499886,6.110,
-2.695386 -10.71091 1.658455,-3.280627 -10.36496 1.889296,-3.696922 -9.586742 2.159354,-3.866616 -8.972677 2.468614,-4.020206 -8.42313 2.805743,-3.59082 -8.034332 1.896863,-3.760105 -7.156626 2.268148,-3.8694 -6.93382 2.511061,-3.953323 -6.798203 2.671911,-3.260286 -7.893026 2.101712,-3.195715 -6.463739 2.546099,-3.203286 -5.662025 2.876722,-3.193949 -5.01642 3.133407,-2.974198 -8.149611 2.349291,-3.050733 -7.242143 2.922359,-3.252975 -7.719141 3.202756,-3.36018 -8.182875 3.322013,-2.729928 -8.635609 2.623615,-2.831634 -8.044001 3.125073,-3.046806 -8.339256 3.34193,-3.198413 -8.710201 3.471707,-8.306765 -12.59826 0.3730086,-7.790936 -12.2395 0.330574,-7.394532 -11.5714 0.4243862,-7.15027 -11.10475 0.5872668,-6.906406 -10.69295 0.7968657,-7.586095 -10.18272 0.2924812,-7.499335 -9.216925 0.4060226,-7.378528 -8.824263 0.5710142,-7.288912 -8.666527 0.7195176,-7.824618 -10.15192 0.5026236,-7.763182 -9.039555 0.6219897,-7.638975 -8.518415 0.718599,-7.514128 -8.234541 0.767252,-8.07315 -10.30294 0.7311985,-8.047866 -9.283686 0.8578706,-7.917185 -8.85154 0.9582609,-7.778092 -8.653252 0.9887794,-8.337969 -10.65409 0.9602449,-8.341682 -9.894464 1.138118,-8.231815 -9.675491 1.204257,-8.105006 -9.665855 1.188834,6.210,
-2.543928 -9.197231 0.5963125,-3.187265 -8.763712 0.6857884,-3.641283 -8.031433 0.8197697,-3.953532 -7.483013 0.9930677,-4.303389 -7.078989 1.18541,-3.384798 -6.788197 0.7619854,-3.573504 -5.777759 1.030381,-3.727205 -5.299305 1.229381,-3.906322 -4.913391 1.368237,-3.109621 -6.678491 0.9422323,-3.228795 -5.514304 1.289243,-3.393071 -4.998081 1.553666,-3.593744 -4.603925 1.726788,-2.839109 -6.78366 1.166344,-2.912512 -5.735058 1.466107,-3.092093 -5.231802 1.75613,-3.304689 -4.869108 1.960747,-2.560706 -7.096979 1.388809,-2.57472 -6.292567 1.707899,-2.700153 -5.912208 1.937666,-2.854897 -5.673213 2.121474,-8.131131 -9.308624 1.37922,-7.580759 -8.798321 1.473498,-7.161242 -7.991584 1.624131,-6.914281 -7.310432 1.8131,-6.641239 -6.820714 1.97567,-7.445539 -6.63233 1.624462,-7.279305 -5.480295 1.81434,-7.2145 -4.919933 1.929369,-7.156862 -4.455928 2.036251,-7.729354 -6.583807 1.787249,-7.563745 -5.342046 2.015686,-7.493389 -4.704229 2.192163,-7.409359 -4.221221 2.300246,-8.003134 -6.750251 1.96571,-7.906871 -5.618107 2.170789,-7.849178 -5.041469 2.356767,-7.739002 -4.610118 2.485358,-8.290218 -7.115001 2.166878,-8.277369 -6.268793 2.385007,-8.2241 -5.795351 2.545322,-8.107875 -5.395704 2.642646,6.310,
-2.477436 -8.618464 1.060997,-3.167448 -7.970561 0.9501448,-3.661646 -7.214489 1.048061,-4.003155 -6.606172 1.231701,-4.289498 -6.110457 1.476649,-3.339525 -6.07109 1.178032,-3.488314 -5.157884 1.454948,-3.627909 -4.546785 1.66688,-3.760268 -3.914796 1.774577,-3.060333 -5.975061 1.468369,-3.205742 -5.036497 1.742215,-3.361299 -4.353323 1.950828,-3.487596 -3.692335 2.091718,-2.791443 -6.034494 1.744147,-2.864985 -5.053199 1.997485,-2.995299 -4.364238 2.184459,-3.118177 -3.753288 2.337898,-2.543684 -6.228383 2.007194,-2.56724 -5.419025 2.209467,-2.639251 -4.861255 2.307492,-2.727364 -4.321708 2.392613,-8.096682 -7.810512 0.05693853,-7.552531 -7.746448 0.03253427,-7.140833 -7.051614 0.06249697,-6.899843 -6.388223 0.1370924,-6.671573 -5.934907 0.1409879,-7.417673 -5.592154 0.03903418,-7.266304 -4.395584 0.07352902,-7.18871 -3.836236 0.02270141,-7.13516 -3.467359 0.01220793,-7.702333 -5.440042 0.1853667,-7.52654 -4.068128 0.3060091,-7.454715 -3.428977 0.3624614,-7.396571 -2.999155 0.3770844,-7.988222 -5.502927 0.3297261,-7.869433 -4.238491 0.4594802,-7.764286 -3.651021 0.5507628,-7.629964 -3.229585 0.6210309,-8.289874 -5.757274 0.4637832,-8.289549 -4.830797 0.5985405,-8.246595 -4.311824 0.704482,-8.15736 -3.858403 0.7552972,6.410,
-2.273762 -7.63576 1.364831,-2.894209 -7.212528 1.321029,-3.399139 -6.492239 1.338034,-3.725807 -5.861181 1.431078,-4.012092 -5.40656 1.582709,-3.074414 -5.066723 1.140471,-3.266946 -4.136783 1.177623,-3.389145 -3.603769 1.264374,-3.500395 -3.089709 1.331923,-2.803191 -4.861879 1.340994,-2.950901 -3.839206 1.434722,-3.072923 -3.191246 1.579577,-3.165117 -2.602843 1.686492,-2.524255 -4.879791 1.590501,-2.628685 -3.860673 1.721814,-2.753325 -3.237008 1.874552,-2.876467 -2.66957 1.986132,-2.226686 -5.101968 1.844927,-2.241287 -4.310352 2.00046,-2.307974 -3.777292 2.129435,-2.388768 -3.257638 2.239948,-8.312201 -7.225296 0.8389629,-7.770818 -6.986473 0.9383729,-7.327863 -6.30361 1.109731,-7.059615 -5.655532 1.34751,-6.803515 -5.175128 1.58714,-7.583858 -4.817977 0.8932646,-7.447058 -3.857631 1.033782,-7.373362 -3.283556 1.180979,-7.317008 -2.774951 1.280793,-7.864797 -4.642497 1.051434,-7.733994 -3.503721 1.163929,-7.636683 -2.819561 1.327176,-7.55898 -2.203375 1.451153,-8.159895 -4.664937 1.242929,-8.083966 -3.581268 1.359608,-7.975313 -2.937255 1.526762,-7.857635 -2.378911 1.652424,-8.475798 -4.86394 1.441297,-8.483834 -4.00457 1.595828,-8.447317 -3.479353 1.723948,-8.379478 -2.967387 1.809468,6.510,
-2.259743 -7.501102 1.110508,-2.869466 -7.167463 1.132983,-3.36964 -6.471501 1.162822,-3.715652 -5.820198 1.271647,-4.006142 -5.373962 1.425174,-3.065342 -5.015226 0.8917943,-3.290661 -4.096004 0.9486838,-3.411051 -3.589685 0.9911072,-3.511202 -3.120828 1.019623,-2.784129 -4.800917 1.051784,-2.952058 -3.720048 1.137912,-3.076805 -3.099973 1.234217,-3.178407 -2.555259 1.310709,-2.498158 -4.804943 1.272705,-2.601673 -3.756128 1.404567,-2.723023 -3.152618 1.526064,-2.839497 -2.634925 1.615527,-2.185663 -5.00155 1.515792,-2.221558 -4.157581 1.647679,-2.298319 -3.652561 1.776016,-2.402171 -3.201403 1.873443,-8.32058 -7.145642 0.7400949,-7.785996 -6.854988 0.836142,-7.368819 -6.221865 1.001552,-7.109106 -5.6047 1.231797,-6.841597 -5.149643 1.461987,-7.637689 -4.753656 0.7535796,-7.503957 -3.800905 0.883616,-7.410404 -3.224164 1.029546,-7.333339 -2.71015 1.136501,-7.909656 -4.581729 0.9003174,-7.786901 -3.457036 1.018361,-7.682561 -2.76041 1.195956,-7.598549 -2.158744 1.322792,-8.194654 -4.61611 1.080118,-8.11309 -3.544122 1.195563,-7.99989 -2.891272 1.360152,-7.887159 -2.350252 1.471637,-8.504025 -4.8238 1.267552,-8.513516 -3.960869 1.426936,-8.473664 -3.426448 1.556513,-8.406374 -2.940022 1.633251,6.610,
-2.170134 -7.293082 0.8821543,-2.772814 -6.945516 0.9220922,-3.278784 -6.301657 0.9771763,-3.630385 -5.677603 1.104037,-3.925083 -5.232543 1.274986,-3.004866 -4.882635 0.7220138,-3.245982 -3.967422 0.7873865,-3.368217 -3.456678 0.8264195,-3.469151 -2.979207 0.8521104,-2.726595 -4.66538 0.8642265,-2.911338 -3.581516 0.9508495,-3.035788 -2.961799 1.046943,-3.137 -2.417028 1.128483,-2.44505 -4.65343 1.065148,-2.56151 -3.604032 1.187515,-2.683145 -2.998362 1.313305,-2.801056 -2.477777 1.412685,-2.134764 -4.828744 1.285242,-2.170796 -3.996061 1.406603,-2.240097 -3.503033 1.529552,-2.330493 -3.056292 1.620015,-8.372108 -6.814606 0.4778062,-7.829355 -6.56544 0.5655923,-7.410254 -5.959701 0.7074187,-7.145717 -5.361832 0.9101474,-6.88312 -4.936232 1.114616,-7.690612 -4.490995 0.4584322,-7.56407 -3.551728 0.5584705,-7.485703 -3.00798 0.7076849,-7.423718 -2.535273 0.8160912,-7.967215 -4.323306 0.5946141,-7.857834 -3.218054 0.6761803,-7.758467 -2.556491 0.8363368,-7.680596 -1.998494 0.9574111,-8.253384 -4.349081 0.7660267,-8.178592 -3.279005 0.8497634,-8.071152 -2.653503 0.9967067,-7.96257 -2.143329 1.097911,-8.564131 -4.537451 0.9507152,-8.576885 -3.68845 1.074986,-8.544653 -3.159365 1.177326,-8.486788 -2.668515 1.235924,6.710,
-2.140316 -7.023908 0.824858,-2.737699 -6.673397 0.8263257,-3.254138 -6.006304 0.859432,-3.609246 -5.378021 0.9673914,-3.912275 -4.993833 1.134406,-3.017194 -4.650456 0.6373841,-3.257469 -3.748205 0.7021121,-3.381233 -3.251956 0.7508749,-3.484358 -2.796365 0.7921373,-2.752615 -4.425513 0.7964089,-2.939363 -3.379753 0.8731467,-3.056889 -2.779513 0.9772158,-3.156614 -2.237356 1.069569,-2.482882 -4.402164 1.008661,-2.608574 -3.384492 1.116597,-2.728151 -2.811426 1.234045,-2.849014 -2.31731 1.328526,-2.181997 -4.561768 1.241267,-2.223068 -3.748691 1.360663,-2.293571 -3.265125 1.482093,-2.381965 -2.814855 1.570388,-8.363264 -6.624246 0.207739,-7.826287 -6.401653 0.3332453,-7.411229 -5.833915 0.4818985,-7.144995 -5.251847 0.685257,-6.88085 -4.836115 0.8941403,-7.673396 -4.394412 0.2142149,-7.539313 -3.482977 0.3329279,-7.458378 -2.951643 0.4932094,-7.393774 -2.476856 0.611629,-7.942843 -4.214265 0.3329077,-7.826798 -3.131204 0.4302996,-7.722315 -2.475022 0.608478,-7.639308 -1.905262 0.7424114,-8.225522 -4.225741 0.4921075,-8.138835 -3.173433 0.6006418,-8.03277 -2.546119 0.7616233,-7.929489 -2.02304 0.8737931,-8.540334 -4.401015 0.6660645,-8.541589 -3.56302 0.8072585,-8.509382 -3.034557 0.9198783,-8.45836 -2.539067 0.9850456,6.810,
-2.139226 -6.862316 0.7239533,-2.720996 -6.53269 0.7273104,-3.230497 -5.877517 0.7612413,-3.591771 -5.262062 0.8714992,-3.895601 -4.865804 1.042634,-3.010376 -4.521956 0.5379973,-3.266823 -3.62945 0.6108546,-3.396811 -3.130713 0.6610703,-3.501876 -2.666583 0.700762,-2.75884 -4.295282 0.700519,-2.959364 -3.253045 0.7961415,-3.088275 -2.654539 0.9082052,-3.189651 -2.110744 1.001543,-2.49733 -4.26546 0.9164267,-2.630438 -3.234606 1.036162,-2.755411 -2.646678 1.164674,-2.877588 -2.133965 1.266778,-2.198891 -4.420492 1.150055,-2.246893 -3.602808 1.277001,-2.323396 -3.118669 1.40427,-2.414928 -2.666665 1.501213,-8.352968 -6.567752 0.158159,-7.822233 -6.365011 0.285029,-7.413049 -5.797628 0.4310495,-7.149934 -5.205483 0.6350881,-6.885339 -4.780517 0.8524042,-7.680037 -4.345125 0.1391027,-7.55122 -3.422466 0.2477791,-7.474265 -2.872671 0.3995285,-7.414131 -2.386353 0.5147071,-7.945885 -4.168712 0.2587182,-7.829436 -3.083974 0.3504518,-7.724705 -2.411962 0.5220971,-7.643826 -1.837222 0.6575264,-8.22986 -4.188596 0.4164404,-8.13684 -3.141097 0.5220044,-8.029613 -2.508678 0.6783012,-7.929544 -1.978501 0.7901658,-8.546669 -4.379596 0.5918856,-8.541778 -3.533584 0.7388898,-8.503596 -2.999323 0.8564853,-8.448442 -2.501366 0.9259472,6.910,
-2.116336 -6.766246 0.5507426,-2.714248 -6.452602 0.589239,-3.218499 -5.833402 0.6330099,-3.573757 -5.209693 0.7446705,-3.870962 -4.797515 0.9012199,-3.006725 -4.491027 0.3640868,-3.259118 -3.618396 0.4425342,-3.380022 -3.110731 0.497382,-3.474396 -2.65203 0.5390391,-2.750219 -4.254271 0.4951742,-2.955606 -3.235819 0.5573703,-3.079872 -2.640222 0.6533014,-3.17302 -2.108405 0.7442302,-2.485106 -4.215434 0.6820246,-2.626189 -3.218544 0.7749568,-2.74919 -2.6417 0.8903079,-2.864927 -2.146085 0.9823845,-2.186341 -4.358285 0.8916693,-2.247433 -3.557538 0.9999307,-2.328307 -3.086233 1.112857,-2.422122 -2.667386 1.198982,-8.33278 -6.612482 0.08076429,-7.818351 -6.399114 0.2258971,-7.408027 -5.838016 0.3811601,-7.136254 -5.25319 0.5904982,-6.857255 -4.850476 0.8115979,-7.670593 -4.415367 0.1306556,-7.527253 -3.474588 0.2676977,-7.43856 -2.91425 0.4229502,-7.369723 -2.415619 0.5379021,-7.938946 -4.237457 0.2481291,-7.807425 -3.156978 0.3867142,-7.697884 -2.4656 0.5804009,-7.612859 -1.882114 0.7132266,-8.221109 -4.264059 0.4022866,-8.123759 -3.216243 0.5483902,-8.013321 -2.567718 0.7305403,-7.905706 -2.037976 0.8537067,-8.531662 -4.457975 0.570295,-8.527113 -3.611011 0.7549474,-8.481198 -3.075651 0.8983018,-8.412594 -2.589715 0.9764171,7.010,
-2.130738 -6.786222 0.4892577,-2.720428 -6.485507 0.5269345,-3.216038 -5.868785 0.5689741,-3.559387 -5.253843 0.6853576,-3.85168 -4.822024 0.8508669,-3.019623 -4.521249 0.2801349,-3.263966 -3.664148 0.362736,-3.381512 -3.163806 0.4224026,-3.473057 -2.707231 0.4688061,-2.763128 -4.292363 0.4174689,-2.959095 -3.288949 0.4826069,-3.079212 -2.70087 0.5862844,-3.167372 -2.166286 0.6846816,-2.493893 -4.258743 0.6116366,-2.632339 -3.277704 0.7105403,-2.755301 -2.709955 0.8392189,-2.86714 -2.217216 0.9375298,-2.190736 -4.405571 0.8294972,-2.259456 -3.614837 0.9497285,-2.346616 -3.148495 1.07306,-2.442426 -2.732167 1.164353,-8.332924 -6.638607 0.03633643,-7.817682 -6.421823 0.1600187,-7.411742 -5.862744 0.3049474,-7.145668 -5.287914 0.5087456,-6.872177 -4.891164 0.7211523,-7.668286 -4.45104 0.05298352,-7.529778 -3.522277 0.1830583,-7.442621 -2.961652 0.3366244,-7.374768 -2.46232 0.4519941,-7.931491 -4.276367 0.1824811,-7.803756 -3.202916 0.3107749,-7.691605 -2.511146 0.5060543,-7.606006 -1.92722 0.6470878,-8.210532 -4.302779 0.3484181,-8.11634 -3.26665 0.4864838,-8.003281 -2.620058 0.6672598,-7.895701 -2.095407 0.7922784,-8.519318 -4.495679 0.5272962,-8.516741 -3.641321 0.709464,-8.469537 -3.103424 0.849839,-8.4016 -2.615871 0.9263619,7.110,
-2.135858 -6.865898 0.4231754,-2.722329 -6.563158 0.4879833,-3.207201 -5.968099 0.5394651,-3.544003 -5.354186 0.6587819,-3.82471 -4.899267 0.828353,-3.016807 -4.622814 0.237072,-3.255552 -3.76605 0.3282622,-3.370389 -3.264238 0.3933403,-3.461132 -2.810717 0.443258,-2.756805 -4.388429 0.3588986,-2.951063 -3.390548 0.421889,-3.071211 -2.799573 0.5184854,-3.160512 -2.272848 0.607897,-2.48507 -4.352842 0.5397981,-2.62514 -3.38029 0.6348394,-2.74856 -2.809444 0.7594632,-2.858287 -2.321993 0.8530679,-2.179821 -4.499635 0.7465823,-2.255224 -3.708978 0.8622403,-2.34747 -3.237337 0.9840534,-2.447087 -2.824783 1.072764,-8.335377 -6.662592 -0.07617141,-7.826795 -6.457107 0.05867115,-7.423038 -5.917699 0.211808,-7.151527 -5.349468 0.4200015,-6.876582 -4.951519 0.6422124,-7.681526 -4.508177 -0.0479313,-7.535385 -3.577564 0.08414295,-7.444629 -3.020922 0.2383702,-7.378601 -2.532487 0.3490314,-7.942499 -4.331769 0.07378198,-7.808907 -3.250941 0.2014075,-7.696223 -2.5629 0.3878094,-7.61232 -1.985782 0.5148875,-8.218724 -4.353706 0.2321962,-8.120544 -3.311479 0.3681805,-8.003097 -2.667525 0.5445069,-7.893253 -2.145754 0.6639466,-8.525295 -4.542284 0.4056356,-8.520714 -3.696942 0.5841324,-8.4746 -3.165629 0.722093,-8.408546 -2.684083 0.7979376,7.210,
-2.162301 -6.928213 0.3066374,-2.743437 -6.664503 0.3455879,-3.234524 -6.082275 0.3890733,-3.580576 -5.509855 0.503796,-3.870156 -5.121154 0.6595562,-3.035915 -4.718322 0.1454237,-3.28009 -3.871347 0.2357599,-3.402199 -3.378039 0.2882491,-3.501106 -2.928312 0.3256055,-2.780256 -4.483646 0.2804424,-2.980443 -3.491985 0.3647548,-3.109699 -2.903924 0.4653076,-3.211946 -2.379364 0.5519106,-2.509283 -4.451475 0.4705998,-2.652048 -3.477964 0.5872155,-2.778196 -2.906614 0.705099,-2.89868 -2.417705 0.7907498,-2.202527 -4.606539 0.6823693,-2.272962 -3.823207 0.8117884,-2.36068 -3.353675 0.936823,-2.46189 -2.941061 1.022929,-8.339285 -6.688228 -0.1036026,-7.829269 -6.481876 0.05241296,-7.429065 -5.960271 0.2179574,-7.158363 -5.399885 0.4328748,-6.886849 -5.000787 0.6566502,-7.679406 -4.549608 -0.05497931,-7.530844 -3.641916 0.0844655,-7.441586 -3.087487 0.2451982,-7.37808 -2.593938 0.3646568,-7.941131 -4.366817 0.05463959,-7.802061 -3.307012 0.1868968,-7.687801 -2.629018 0.3801717,-7.602759 -2.050708 0.5187221,-8.21884 -4.385658 0.2016456,-8.115624 -3.351167 0.3378048,-7.9954 -2.725015 0.5155896,-7.885834 -2.211963 0.6375728,-8.528127 -4.567361 0.3660223,-8.515254 -3.730646 0.5411195,-8.46279 -3.205482 0.6786798,-8.393639 -2.722499 0.7557532,7.310,
-2.162196 -6.943668 0.2341283,-2.751034 -6.660185 0.2618592,-3.238452 -6.082002 0.3131856,-3.592787 -5.514288 0.4363265,-3.897598 -5.138801 0.6110433,-3.03269 -4.746101 0.0838595,-3.284018 -3.880889 0.1737645,-3.416729 -3.390229 0.2258493,-3.526792 -2.944182 0.2659915,-2.780108 -4.520315 0.234231,-2.981633 -3.50689 0.3247836,-3.11591 -2.915979 0.4287305,-3.221727 -2.394796 0.5155417,-2.51065 -4.493147 0.4383067,-2.652621 -3.499638 0.5642562,-2.784797 -2.924451 0.6950686,-2.90965 -2.436626 0.7881573,-2.203658 -4.652549 0.6605797,-2.273069 -3.864655 0.8019047,-2.367853 -3.392365 0.9380729,-2.476487 -2.979443 1.029155,-8.342148 -6.683225 -0.1076059,-7.834484 -6.487049 0.03592929,-7.433874 -5.956409 0.1934631,-7.166172 -5.395042 0.4014139,-6.902776 -5.008924 0.6202876,-7.685457 -4.549322 -0.07218847,-7.538943 -3.660451 0.05189379,-7.448191 -3.11457 0.2019026,-7.380776 -2.625383 0.3158247,-7.945533 -4.362112 0.04143713,-7.810181 -3.312685 0.1536294,-7.697687 -2.641252 0.3353493,-7.613019 -2.069823 0.4729091,-8.222482 -4.374313 0.1918669,-8.115419 -3.347979 0.3118072,-7.995852 -2.721525 0.4805382,-7.886933 -2.206892 0.6003348,-8.53313 -4.55286 0.3592292,-8.52284 -3.720491 0.5186844,-8.474809 -3.191169 0.652628,-8.409831 -2.703941 0.7343209,7.410,
-2.132028 -6.976743 0.2157262,-2.710207 -6.750019 0.3156743,-3.218878 -6.237655 0.4057395,-3.603542 -5.702988 0.5548185,-3.918109 -5.314718 0.7510009,-3.021061 -4.801902 0.1116347,-3.283449 -3.931972 0.199192,-3.41416 -3.42419 0.26816,-3.511993 -2.948596 0.3282065,-2.767789 -4.563417 0.2226477,-2.982203 -3.546276 0.3037255,-3.109023 -2.939793 0.407903,-3.199124 -2.41739 0.4968969,-2.496501 -4.527016 0.393589,-2.644603 -3.537964 0.5026313,-2.778997 -2.961023 0.6238748,-2.896469 -2.476018 0.7180084,-2.188427 -4.67811 0.5911096,-2.244361 -3.898391 0.7164515,-2.334369 -3.426946 0.844934,-2.431017 -3.018786 0.9350971,-8.35857 -6.660903 -0.1551331,-7.851072 -6.489462 0.01182771,-7.447246 -5.970234 0.1788304,-7.172309 -5.41908 0.3898796,-6.896645 -5.04832 0.6214101,-7.699973 -4.546272 -0.08798855,-7.549807 -3.64924 0.04970358,-7.457401 -3.099949 0.2078828,-7.39017 -2.609485 0.3265887,-7.964084 -4.354702 0.01502593,-7.824625 -3.303833 0.1412475,-7.711406 -2.623109 0.3315818,-7.625261 -2.045671 0.4750136,-8.242542 -4.371233 0.1554506,-8.136324 -3.348165 0.2915352,-8.015245 -2.715911 0.465142,-7.905123 -2.199605 0.5908086,-8.554643 -4.552288 0.3156505,-8.545226 -3.724411 0.4889961,-8.495183 -3.188724 0.6316586,-8.430601 -2.695136 0.719903,7.510,
-2.126939 -7.003662 0.2250916,-2.701967 -6.776108 0.3141119,-3.207573 -6.265583 0.4023349,-3.595587 -5.743503 0.5543805,-3.914343 -5.36021 0.7549025,-3.005471 -4.827154 0.1122613,-3.277361 -3.967864 0.19145,-3.423459 -3.479347 0.2482226,-3.542301 -3.027713 0.2950714,-2.756819 -4.586015 0.2299348,-2.974728 -3.566382 0.3094806,-3.113744 -2.964368 0.4140753,-3.219553 -2.451415 0.4978485,-2.489667 -4.54961 0.4035843,-2.638993 -3.554002 0.5115455,-2.780605 -2.974564 0.6341207,-2.90698 -2.495115 0.7297432,-2.186316 -4.700609 0.6024046,-2.243357 -3.914751 0.7236001,-2.334553 -3.437945 0.8512855,-2.433909 -3.031195 0.9398924,-8.363791 -6.65763 -0.1698123,-7.852719 -6.494436 -0.01422328,-7.447855 -5.978558 0.1450802,-7.166507 -5.425111 0.3502039,-6.880651 -5.066466 0.57175,-7.700089 -4.548328 -0.1115871,-7.542961 -3.640302 0.02258351,-7.448832 -3.087659 0.1809686,-7.382033 -2.590646 0.2984675,-7.965055 -4.356075 -0.003851056,-7.815723 -3.294885 0.1260868,-7.698998 -2.616236 0.3193593,-7.611562 -2.044354 0.4596208,-8.245615 -4.367496 0.1386426,-8.135053 -3.333318 0.2770583,-8.012703 -2.698748 0.4500257,-7.901717 -2.18349 0.5700683,-8.559381 -4.546331 0.3003454,-8.547826 -3.707706 0.4779705,-8.500136 -3.166141 0.6188397,-8.438672 -2.66319 0.7006081,7.610,
-2.108279 -7.036115 0.256377,-2.678695 -6.813106 0.3648455,-3.18745 -6.305349 0.4659377,-3.578221 -5.776765 0.628892,-3.905285 -5.389328 0.8441493,-2.997245 -4.852719 0.1502206,-3.264809 -3.989207 0.2337931,-3.407564 -3.492299 0.2953503,-3.522074 -3.033193 0.3435164,-2.745667 -4.611185 0.2577111,-2.963286 -3.588259 0.3352408,-3.098671 -2.983089 0.4382222,-3.201694 -2.466316 0.521008,-2.47742 -4.57191 0.4257277,-2.622666 -3.578037 0.5310767,-2.763241 -2.996188 0.6534466,-2.888667 -2.515104 0.7492665,-2.173232 -4.718368 0.6207185,-2.231042 -3.929331 0.7382655,-2.322751 -3.454834 0.8649027,-2.423424 -3.050233 0.9552538,-8.361998 -6.677792 -0.1254141,-7.851398 -6.501289 0.0271367,-7.440101 -5.987798 0.1838712,-7.152043 -5.446476 0.3867204,-6.869027 -5.094254 0.604714,-7.699154 -4.550953 -0.07054606,-7.545242 -3.641613 0.0638283,-7.451121 -3.089554 0.2146226,-7.38307 -2.593911 0.3277345,-7.962348 -4.363482 0.04034024,-7.817905 -3.300368 0.1665467,-7.702415 -2.61737 0.3552351,-7.616587 -2.036757 0.4967636,-8.241729 -4.383316 0.1854176,-8.13325 -3.355456 0.3215553,-8.011237 -2.720335 0.4944189,-7.902991 -2.198684 0.6171433,-8.551979 -4.571176 0.3496503,-8.547951 -3.735137 0.5220158,-8.500038 -3.193379 0.6642613,-8.440647 -2.691763 0.7504495,7.710,
-2.088396 -7.064893 0.3116574,-2.651897 -6.848442 0.417174,-3.157459 -6.333099 0.5178328,-3.541553 -5.794452 0.6856761,-3.875561 -5.408182 0.9082686,-2.985562 -4.869337 0.1845924,-3.252014 -4.012947 0.2680108,-3.395338 -3.519525 0.3331494,-3.510658 -3.05883 0.3849,-2.735726 -4.62627 0.2993288,-2.952374 -3.610537 0.3665214,-3.087528 -3.013956 0.4697033,-3.189899 -2.494937 0.5553729,-2.46777 -4.592996 0.4746603,-2.612306 -3.607904 0.5766335,-2.752477 -3.0375 0.7063397,-2.87592 -2.560275 0.805577,-2.163211 -4.748987 0.6803884,-2.226891 -3.971231 0.8029273,-2.32396 -3.502933 0.9380359,-2.428636 -3.101978 1.034377,-8.359559 -6.691123 -0.1035811,-7.84348 -6.524909 0.02370757,-7.430769 -6.009612 0.1642722,-7.142299 -5.471387 0.3576353,-6.854992 -5.125356 0.5674256,-7.691439 -4.567352 -0.08658015,-7.538175 -3.648839 0.06313062,-7.443825 -3.094601 0.2107845,-7.374408 -2.598818 0.3230868,-7.955926 -4.370452 0.05184262,-7.812562 -3.304043 0.1716361,-7.698538 -2.619155 0.3584633,-7.613549 -2.0461 0.496582,-8.236382 -4.383451 0.1992486,-8.128669 -3.350667 0.3289953,-8.009602 -2.717069 0.4968029,-7.901431 -2.203579 0.6149461,-8.54864 -4.560829 0.3641398,-8.539701 -3.721694 0.5345975,-8.490646 -3.181139 0.6701548,-8.428076 -2.685558 0.7474596,7.810,
-2.081237 -7.065738 0.3562084,-2.639081 -6.8581 0.4753934,-3.143682 -6.337614 0.5822793,-3.524805 -5.795663 0.7553133,-3.86314 -5.411226 0.9846563,-2.986788 -4.858898 0.2315836,-3.252268 -4.010886 0.3189919,-3.393341 -3.519575 0.3865179,-3.505871 -3.062905 0.4399176,-2.733179 -4.615201 0.3392709,-2.953542 -3.613306 0.4063016,-3.085241 -3.023667 0.5039638,-3.181677 -2.502479 0.5787637,-2.464172 -4.584148 0.5101769,-2.609508 -3.611063 0.6097146,-2.747708 -3.047489 0.7306919,-2.867397 -2.572637 0.8184835,-2.158323 -4.744303 0.7161894,-2.225011 -3.976463 0.827571,-2.321257 -3.519926 0.9521239,-2.420306 -3.126262 1.03856,-8.356742 -6.686827 -0.1145451,-7.846797 -6.514663 0.03808378,-7.433771 -6.006143 0.1990942,-7.142999 -5.470819 0.4061179,-6.854201 -5.130884 0.6279864,-7.686898 -4.563063 -0.04334589,-7.534243 -3.655752 0.08333276,-7.439728 -3.106506 0.2319536,-7.368135 -2.611765 0.3442477,-7.950896 -4.371593 0.06640179,-7.810192 -3.312039 0.1897776,-7.69523 -2.63583 0.37546,-7.608089 -2.064126 0.5149223,-8.230726 -4.384428 0.2101029,-8.121652 -3.358821 0.3449538,-7.998577 -2.729551 0.5158722,-7.886307 -2.215151 0.6345688,-8.544044 -4.563432 0.3710711,-8.533537 -3.73122 0.5462191,-8.483657 -3.190698 0.6865141,-8.420234 -2.688419 0.7702908,7.910,
-2.057682 -7.116344 0.3762103,-2.608203 -6.844511 0.4307403,-3.079207 -6.256311 0.4863694,-3.416296 -5.667425 0.6220284,-3.737022 -5.247079 0.8075818,-2.950747 -4.878114 0.1523456,-3.205395 -4.054702 0.2492065,-3.344928 -3.559255 0.3310482,-3.459206 -3.087055 0.3947608,-2.70233 -4.659051 0.3008097,-2.904698 -3.710378 0.3823304,-3.034289 -3.160297 0.5031211,-3.132478 -2.655394 0.6007872,-2.433266 -4.640157 0.5106022,-2.575103 -3.718005 0.6281321,-2.707222 -3.192038 0.7857343,-2.824904 -2.735571 0.8971615,-2.126987 -4.804981 0.7477993,-2.201434 -4.075986 0.892154,-2.301939 -3.629224 1.037224,-2.406928 -3.231326 1.136868,-8.367886 -6.682708 -0.09477886,-7.863002 -6.500946 0.0536411,-7.449024 -5.99209 0.2133133,-7.156866 -5.463695 0.4220877,-6.870856 -5.115549 0.6493999,-7.693769 -4.545562 -0.04148812,-7.543759 -3.644678 0.07999474,-7.452655 -3.093071 0.2309603,-7.38272 -2.600705 0.3479549,-7.959008 -4.361022 0.06967841,-7.81743 -3.307542 0.1796499,-7.704005 -2.629863 0.3635192,-7.617653 -2.057439 0.5087541,-8.242125 -4.38183 0.2157088,-8.134814 -3.360679 0.3433473,-8.015373 -2.724807 0.5151107,-7.907228 -2.198501 0.6386904,-8.556827 -4.572183 0.3783563,-8.555096 -3.747742 0.5418466,-8.510458 -3.213003 0.679287,-8.450083 -2.711462 0.7653542,8.010,
-2.05564 -7.131715 0.4568949,-2.598642 -6.825525 0.5335319,-3.065985 -6.195531 0.5891677,-3.391464 -5.585531 0.7271099,-3.692816 -5.149328 0.9129423,-2.952577 -4.858112 0.2012887,-3.187879 -4.069793 0.2979472,-3.320213 -3.594946 0.377686,-3.445978 -3.135098 0.4393738,-2.691206 -4.650043 0.3353245,-2.881738 -3.793767 0.4013194,-3.036249 -3.311137 0.5244656,-3.176653 -2.913093 0.6120163,-2.416511 -4.635535 0.5295318,-2.530567 -3.792782 0.6291981,-2.661747 -3.327722 0.7882828,-2.800628 -2.971103 0.8882015,-2.115177 -4.801658 0.760758,-2.195179 -4.122859 0.8847638,-2.300093 -3.704248 1.024395,-2.4268 -3.33739 1.117144,-8.378739 -6.696389 -0.0915356,-7.864289 -6.521799 0.0378378,-7.45257 -6.003464 0.1846748,-7.167077 -5.467741 0.3844092,-6.885882 -5.122743 0.6008123,-7.706291 -4.56215 -0.07274943,-7.557511 -3.669894 0.04199715,-7.462932 -3.121035 0.1892008,-7.387822 -2.628375 0.3026442,-7.972185 -4.371559 0.04511875,-7.834035 -3.315733 0.1446834,-7.717861 -2.639081 0.3243042,-7.627506 -2.070796 0.4627702,-8.25422 -4.385099 0.1978088,-8.150301 -3.360399 0.3166018,-8.028976 -2.727755 0.478762,-7.917517 -2.210403 0.593125,-8.566308 -4.56904 0.3669103,-8.563199 -3.735561 0.5294801,-8.51708 -3.197202 0.6621183,-8.454557 -2.699182 0.73836,8.110,
-2.042547 -7.092659 0.3167699,-2.581455 -6.818958 0.4010555,-3.035181 -6.119924 0.4236251,-3.33333 -5.439679 0.5446863,-3.613581 -4.875784 0.6812007,-2.922311 -4.872398 -0.1240741,-3.146665 -4.07558 -0.1285062,-3.273365 -3.604332 -0.07577276,-3.400196 -3.160181 0.007994831,-2.652764 -4.662116 0.0103803,-2.777359 -3.8143 0.06854999,-2.876068 -3.44936 0.2722592,-2.96932 -3.363828 0.4189412,-2.381466 -4.649963 0.2047355,-2.466805 -3.857641 0.3123323,-2.568213 -3.521074 0.594623,-2.681434 -3.487319 0.7777711,-2.086742 -4.786718 0.4365648,-2.174221 -4.153498 0.5578216,-2.285422 -3.813135 0.7356338,-2.419868 -3.642098 0.8631671,-8.387059 -6.688346 -0.1191057,-7.871127 -6.517635 0.0248217,-7.456964 -6.011964 0.18029,-7.166903 -5.477806 0.3824285,-6.883826 -5.130723 0.6021876,-7.712772 -4.562904 -0.07189068,-7.562916 -3.667142 0.05264126,-7.469445 -3.117523 0.2025632,-7.39746 -2.622106 0.3185071,-7.978876 -4.373348 0.04173774,-7.839021 -3.316791 0.1583353,-7.724378 -2.639555 0.3486964,-7.636429 -2.064919 0.4962248,-8.261509 -4.391083 0.1893512,-8.153752 -3.368295 0.3206653,-8.033215 -2.740202 0.4908171,-7.923943 -2.2219 0.6117036,-8.575433 -4.578765 0.3544136,-8.573564 -3.75269 0.5286467,-8.530067 -3.213232 0.6684616,-8.472189 -2.705711 0.753908,8.210,
-2.043587 -7.012424 -0.5535935,-2.569308 -6.658853 -0.4738218,-2.951231 -5.934574 -0.4338947,-3.208649 -5.237359 -0.3263721,-3.410954 -4.621396 -0.2282373,-2.892982 -4.936971 -0.8220463,-3.106793 -4.101421 -0.7847008,-3.25272 -3.571173 -0.6712772,-3.372385 -3.018472 -0.5430928,-2.632344 -4.817289 -0.6751821,-2.769758 -3.791129 -0.3440538,-2.809886 -4.4185 -0.1326325,-2.793689 -5.004713 -0.09896493,-2.361076 -4.82522 -0.4949943,-2.466214 -3.884445 -0.1678582,-2.548209 -4.591909 -0.01557773,-2.536226 -5.221488 -0.05982313,-2.051419 -4.93617 -0.2928788,-2.159823 -4.187983 -0.04389143,-2.288851 -4.55747 0.04479754,-2.311882 -5.046913 0.01950884,-8.391564 -6.701108 -0.07531662,-7.875102 -6.531568 0.06935005,-7.461637 -6.011733 0.2233897,-7.17338 -5.470688 0.4268715,-6.891904 -5.124002 0.6492364,-7.719632 -4.56285 -0.02644413,-7.568777 -3.666088 0.1014041,-7.473294 -3.1226 0.2506636,-7.397039 -2.632644 0.3651909,-7.985549 -4.373182 0.08816507,-7.845609 -3.316368 0.2062517,-7.730512 -2.637935 0.3942944,-7.641347 -2.062559 0.5383698,-8.267409 -4.393646 0.2365252,-8.16095 -3.371058 0.372098,-8.041077 -2.737046 0.5449551,-7.930551 -2.214306 0.6669241,-8.58072 -4.585548 0.4021033,-8.580525 -3.760774 0.5798487,-8.538021 -3.221765 0.7223462,-8.479969 -2.713914 0.8093432,8.310,
-2.019289 -6.939626 -0.9279485,-2.550577 -6.563022 -0.844668,-2.91767 -5.871997 -0.8299013,-3.15381 -5.195685 -0.7515607,-3.331947 -4.586984 -0.6963099,-2.888012 -4.972816 -1.158434,-3.083638 -4.113939 -1.058094,-3.221433 -3.562767 -0.9262654,-3.335985 -2.999277 -0.7761431,-2.628881 -4.860179 -1.020743,-2.76786 -3.933768 -0.6329333,-2.766131 -4.650331 -0.4593005,-2.728078 -5.229515 -0.4619075,-2.354629 -4.859985 -0.8400136,-2.464742 -4.035633 -0.4560864,-2.511933 -4.802094 -0.359469,-2.482289 -5.396116 -0.433051,-2.039958 -4.963479 -0.6368637,-2.1482 -4.285638 -0.3509152,-2.240985 -4.729005 -0.2802718,-2.245971 -5.194585 -0.3286456,-8.397104 -6.706574 -0.1103691,-7.874069 -6.544364 0.03940044,-7.458094 -6.024061 0.1945798,-7.172702 -5.48304 0.3974467,-6.890745 -5.134861 0.6203658,-7.716649 -4.58015 -0.04877268,-7.564245 -3.670995 0.09006059,-7.46925 -3.120821 0.2454658,-7.397723 -2.62304 0.3638386,-7.984497 -4.390851 0.06461403,-7.839294 -3.328391 0.1935555,-7.724426 -2.648108 0.3861891,-7.636837 -2.066942 0.5311604,-8.267398 -4.405843 0.2122528,-8.158262 -3.380928 0.3522999,-8.037029 -2.749853 0.5261685,-7.926689 -2.230734 0.6488815,-8.581651 -4.588089 0.3782625,-8.578052 -3.756598 0.5595042,-8.534439 -3.212436 0.7017958,-8.476714 -2.701463 0.7882884,8.410,
-2.037745 -6.831462 -1.480011,-2.545683 -6.495512 -1.370223,-2.895579 -5.76306 -1.363716,-3.088302 -5.064745 -1.28448,-3.268553 -4.45222 -1.232955,-2.841805 -4.99225 -1.669827,-3.046562 -4.130619 -1.460781,-3.16853 -3.585122 -1.286247,-3.260531 -3.073398 -1.104734,-2.582402 -4.896771 -1.551412,-2.747517 -4.17313 -1.091467,-2.705934 -4.929616 -0.9287301,-2.63438 -5.471353 -0.9439956,-2.300423 -4.897217 -1.3843,-2.442651 -4.293932 -0.9664682,-2.434158 -5.064979 -0.9342796,-2.373466 -5.572177 -1.025223,-1.99023 -4.990137 -1.19032,-2.116712 -4.447509 -0.8923774,-2.170374 -4.955389 -0.867888,-2.154559 -5.374692 -0.9402487,-8.399607 -6.728929 -0.08533836,-7.88243 -6.558 0.06312099,-7.465958 -6.038415 0.2184862,-7.176698 -5.499879 0.4232844,-6.895232 -5.156837 0.6430476,-7.723289 -4.592166 -0.0245062,-7.572265 -3.687991 0.106346,-7.475098 -3.141337 0.2586183,-7.40082 -2.645399 0.3763829,-7.991218 -4.405119 0.08867095,-7.851709 -3.344819 0.2085993,-7.735368 -2.664914 0.3991153,-7.646247 -2.088851 0.5447499,-8.274485 -4.422811 0.2360163,-8.170973 -3.399223 0.369679,-8.049555 -2.765001 0.5418167,-7.939487 -2.244453 0.6641266,-8.588883 -4.607879 0.400506,-8.587637 -3.780954 0.5773817,-8.544176 -3.239019 0.7167953,-8.486724 -2.732015 0.8029352,8.510,
-2.044375 -6.795265 -1.468817,-2.520401 -6.537488 -1.304739,-2.89276 -5.803463 -1.251773,-3.087111 -5.110467 -1.139877,-3.254622 -4.487254 -1.043834,-2.836776 -4.95471 -1.580901,-3.042864 -4.133485 -1.32726,-3.175902 -3.585 -1.110067,-3.274227 -3.071355 -0.8994605,-2.573026 -4.851591 -1.482239,-2.730482 -4.200086 -0.9927077,-2.688381 -4.977327 -0.8354794,-2.611005 -5.512387 -0.865704,-2.284109 -4.862922 -1.323729,-2.416583 -4.320835 -0.8728828,-2.410851 -5.109613 -0.8575107,-2.348015 -5.604045 -0.9629809,-1.973577 -4.974692 -1.137344,-2.099175 -4.484681 -0.8093482,-2.156072 -5.008984 -0.7974541,-2.139194 -5.418449 -0.8792213,-8.395438 -6.73327 -0.05311038,-7.87845 -6.566195 0.1098819,-7.463043 -6.044445 0.273864,-7.174671 -5.504604 0.4852848,-6.891183 -5.154981 0.7165084,-7.72296 -4.587602 0.007453147,-7.571042 -3.68996 0.1356766,-7.477603 -3.140535 0.2889243,-7.405015 -2.642494 0.4080601,-7.990846 -4.399078 0.1163559,-7.852185 -3.345919 0.2308465,-7.739305 -2.666677 0.4219961,-7.654113 -2.090504 0.5706594,-8.275595 -4.418119 0.2629874,-8.168572 -3.398456 0.3917325,-8.047028 -2.765665 0.5658718,-7.937841 -2.242814 0.6913964,-8.59476 -4.608134 0.4300322,-8.591529 -3.783948 0.6041282,-8.547984 -3.246071 0.746743,-8.491436 -2.739995 0.8378082,8.610,
-2.04431 -6.77359 -1.421982,-2.504324 -6.535264 -1.187028,-2.879261 -5.75777 -1.095988,-3.041388 -5.012907 -0.9691856,-3.145457 -4.366018 -0.8476399,-2.805011 -4.89816 -1.409611,-2.985923 -4.150327 -1.118584,-3.090363 -3.634747 -0.8796664,-3.172007 -3.172973 -0.6667758,-2.516015 -4.803173 -1.342289,-2.648174 -4.216197 -0.8468506,-2.600385 -5.000657 -0.6910948,-2.532963 -5.566639 -0.707615,-2.212289 -4.841779 -1.214775,-2.329237 -4.42673 -0.7321576,-2.321815 -5.20898 -0.7305735,-2.272298 -5.690435 -0.8381694,-1.900605 -4.99061 -1.056299,-2.01251 -4.591451 -0.7019929,-2.06177 -5.140975 -0.7013994,-2.051453 -5.537746 -0.7828856,-8.423051 -6.738941 -0.05383225,-7.897068 -6.570318 0.09065986,-7.482763 -6.050298 0.2468233,-7.194141 -5.510595 0.4514428,-6.913737 -5.1576 0.6735708,-7.740584 -4.593004 -0.01115663,-7.590503 -3.698737 0.117797,-7.496199 -3.144464 0.2718598,-7.421013 -2.642106 0.389044,-8.009848 -4.405542 0.1022477,-7.872593 -3.347047 0.2149684,-7.75714 -2.665118 0.4039971,-7.666436 -2.090382 0.5504704,-8.295836 -4.429235 0.2516379,-8.194515 -3.400632 0.3811516,-8.0758 -2.759538 0.5503129,-7.966043 -2.229155 0.6722608,-8.610794 -4.624559 0.4178613,-8.614912 -3.792424 0.5877505,-8.571828 -3.250627 0.7293211,-8.513351 -2.744855 0.8138012,8.710,
-2.005017 -6.747062 -1.472352,-2.446756 -6.554607 -1.191144,-2.82471 -5.807746 -1.054096,-2.974472 -5.060481 -0.8947477,-3.062403 -4.374307 -0.7457622,-2.751582 -4.885827 -1.373669,-2.922492 -4.172307 -1.061478,-3.009594 -3.680479 -0.8075554,-3.080465 -3.237601 -0.5943362,-2.447442 -4.789104 -1.317816,-2.585329 -4.250839 -0.7915019,-2.537096 -5.049447 -0.6290004,-2.476712 -5.604919 -0.6404845,-2.127393 -4.840457 -1.202689,-2.260387 -4.4971 -0.6713296,-2.255637 -5.303713 -0.6701684,-2.212599 -5.774112 -0.7736728,-1.80733 -4.999961 -1.058182,-1.946707 -4.673175 -0.6667906,-2.006022 -5.25416 -0.6657398,-1.998449 -5.639793 -0.7429509,-8.440289 -6.780109 0.01556766,-7.916987 -6.611076 0.1762381,-7.498948 -6.07978 0.3410217,-7.206481 -5.537303 0.5510968,-6.923218 -5.188945 0.7850156,-7.756557 -4.616235 0.08580966,-7.609394 -3.708446 0.2189581,-7.5207 -3.148183 0.3721866,-7.450955 -2.64565 0.4900082,-8.024357 -4.428911 0.1977706,-7.883024 -3.362772 0.3194823,-7.771126 -2.683155 0.510343,-7.685416 -2.103987 0.6593449,-8.310076 -4.453982 0.3453297,-8.204968 -3.423222 0.4867452,-8.086864 -2.782309 0.6644129,-7.978175 -2.243551 0.7944177,-8.62818 -4.655508 0.511848,-8.636593 -3.821828 0.6882295,-8.599239 -3.287817 0.8295316,-8.545384 -2.784009 0.9208565,8.810,
-1.981368 -6.740236 -1.447209,-2.426291 -6.543142 -1.179437,-2.800258 -5.768791 -1.052177,-2.928903 -5.005406 -0.9017968,-2.992132 -4.331464 -0.7595249,-2.707789 -4.873771 -1.335522,-2.872977 -4.187411 -1.010969,-2.959012 -3.713239 -0.7636341,-3.035815 -3.284535 -0.5636337,-2.39901 -4.770754 -1.277051,-2.53892 -4.283994 -0.7546599,-2.497137 -5.073928 -0.6033887,-2.440634 -5.62499 -0.6193098,-2.078267 -4.820211 -1.162003,-2.220517 -4.534221 -0.635872,-2.215714 -5.328662 -0.6482531,-2.169123 -5.790607 -0.7549465,-1.760471 -4.979203 -1.018352,-1.907632 -4.684886 -0.6343623,-1.967237 -5.262306 -0.6428261,-1.954595 -5.640165 -0.7209277,-8.454663 -6.804027 -0.0159672,-7.929585 -6.636032 0.1336957,-7.510191 -6.102552 0.2896356,-7.216523 -5.555427 0.4900315,-6.934817 -5.211723 0.7109339,-7.767609 -4.653245 0.06437471,-7.619222 -3.740053 0.1978221,-7.528046 -3.178095 0.3492294,-7.456306 -2.668464 0.4682183,-8.03599 -4.463239 0.1755143,-7.894647 -3.390258 0.3008585,-7.781965 -2.704162 0.495302,-7.694654 -2.113257 0.6448944,-8.321058 -4.48319 0.3197934,-8.217675 -3.449529 0.4614769,-8.09973 -2.806676 0.638279,-7.992385 -2.27198 0.7683576,-8.636223 -4.673568 0.4791862,-8.64184 -3.837132 0.6594954,-8.604402 -3.292667 0.8050453,-8.552084 -2.778078 0.8954486,8.910,
-1.962035 -6.688674 -1.358983,-2.399586 -6.505489 -1.058252,-2.768441 -5.72916 -0.9054475,-2.885135 -4.991096 -0.7365416,-2.927847 -4.341522 -0.5619285,-2.642558 -4.791486 -1.195904,-2.794386 -4.189908 -0.8577178,-2.87169 -3.723476 -0.5939461,-2.940522 -3.308484 -0.3753632,-2.326268 -4.686594 -1.149424,-2.459963 -4.343174 -0.6150476,-2.430509 -5.146209 -0.4464969,-2.382528 -5.702043 -0.4456992,-2.001762 -4.753507 -1.04332,-2.152214 -4.566053 -0.5087247,-2.159781 -5.360636 -0.4962055,-2.119864 -5.832953 -0.586015,-1.683626 -4.931636 -0.9099669,-1.833682 -4.709051 -0.5186259,-1.909248 -5.294493 -0.5122502,-1.904883 -5.679687 -0.5702147,-8.466489 -6.814653 0.03421943,-7.942048 -6.640905 0.1960074,-7.521056 -6.111814 0.3655478,-7.227181 -5.564937 0.5794734,-6.942312 -5.208902 0.8141415,-7.781461 -4.64853 0.1190994,-7.634388 -3.736491 0.2496925,-7.543516 -3.174182 0.4081502,-7.469788 -2.665205 0.5308963,-8.052306 -4.458763 0.2295147,-7.917179 -3.39298 0.3528047,-7.806022 -2.709886 0.5471929,-7.719708 -2.13265 0.7001479,-8.339354 -4.479631 0.3764912,-8.234428 -3.445816 0.5138367,-8.113411 -2.80376 0.6924042,-8.001685 -2.272496 0.8216262,-8.659914 -4.673158 0.5401624,-8.659521 -3.83925 0.7187307,-8.619226 -3.29735 0.8632012,-8.56356 -2.785599 0.9575917,9.010,
-1.946731 -6.666161 -1.342024,-2.366091 -6.496064 -1.017714,-2.741909 -5.744242 -0.8327183,-2.873027 -5.035635 -0.6447091,-2.90359 -4.404741 -0.4523789,-2.631062 -4.789382 -1.109983,-2.794862 -4.197059 -0.7533585,-2.865792 -3.742204 -0.4699235,-2.931808 -3.349409 -0.2443178,-2.311406 -4.667095 -1.067521,-2.444002 -4.379449 -0.5341701,-2.409552 -5.194051 -0.3826073,-2.360874 -5.736928 -0.3840151,-1.982081 -4.733385 -0.9701245,-2.132238 -4.580683 -0.4355921,-2.1342 -5.377212 -0.4359997,-2.096209 -5.822341 -0.5262611,-1.660146 -4.914438 -0.8448025,-1.808981 -4.726234 -0.4564645,-1.882526 -5.320938 -0.4644061,-1.880243 -5.684463 -0.5179871,-8.470386 -6.810682 0.05513213,-7.940966 -6.650001 0.2212277,-7.519588 -6.114484 0.3873664,-7.229354 -5.564933 0.5963536,-6.944914 -5.212989 0.8241704,-7.777047 -4.641593 0.1466626,-7.627979 -3.733969 0.2792969,-7.537015 -3.176691 0.4370311,-7.465978 -2.670038 0.556202,-8.052716 -4.449509 0.2528188,-7.915959 -3.381357 0.3738264,-7.805052 -2.700718 0.5672556,-7.721515 -2.124889 0.7162719,-8.342092 -4.475289 0.39449,-8.241522 -3.436012 0.5311571,-8.124547 -2.792614 0.7094788,-8.019016 -2.257648 0.8367256,-8.661261 -4.674522 0.5531764,-8.667242 -3.842977 0.7285106,-8.629129 -3.302807 0.8736409,-8.576651 -2.792521 0.9655912,9.110,
-1.880884 -6.669628 -1.328559,-2.28781 -6.545224 -0.9778862,-2.64569 -5.775534 -0.8066807,-2.749575 -5.041206 -0.6434247,-2.793151 -4.407951 -0.4678786,-2.546562 -4.810566 -0.986108,-2.709058 -4.20432 -0.6238905,-2.758447 -3.757864 -0.3453633,-2.793561 -3.388212 -0.1174008,-2.220239 -4.677609 -0.9579793,-2.326857 -4.420753 -0.4179867,-2.298753 -5.210641 -0.2516317,-2.272839 -5.725874 -0.2316289,-1.888264 -4.747711 -0.8858105,-2.023987 -4.657901 -0.3428051,-2.030038 -5.439317 -0.3411739,-2.012932 -5.860292 -0.4209858,-1.569206 -4.937385 -0.7838119,-1.692 -4.813162 -0.3671747,-1.777818 -5.398242 -0.356696,-1.803993 -5.729318 -0.3965406,-8.482938 -6.84021 0.09527469,-7.948137 -6.664618 0.2616748,-7.522958 -6.130716 0.4257672,-7.227509 -5.57124 0.6332727,-6.937274 -5.216943 0.8602634,-7.785899 -4.662942 0.1682306,-7.634461 -3.749586 0.2960225,-7.542831 -3.184399 0.4517857,-7.470646 -2.671042 0.5714163,-8.061317 -4.466264 0.2702352,-7.920942 -3.398238 0.3831145,-7.811337 -2.710216 0.5740995,-7.726583 -2.128634 0.720344,-8.349777 -4.483739 0.408087,-8.244558 -3.448905 0.5323148,-8.127412 -2.808349 0.6993053,-8.019579 -2.281841 0.8165632,-8.667383 -4.67406 0.5648694,-8.670917 -3.843568 0.7314054,-8.634535 -3.301854 0.8671731,-8.582098 -2.791854 0.9485067,9.210,
-1.854716 -6.693641 -1.231793,-2.247299 -6.572293 -0.8725635,-2.601431 -5.802724 -0.6984373,-2.705447 -5.067131 -0.5280722,-2.716525 -4.443465 -0.3370858,-2.507763 -4.802419 -0.8710994,-2.654604 -4.217073 -0.4841499,-2.688144 -3.777858 -0.177663,-2.7112 -3.421073 0.06892395,-2.178452 -4.67299 -0.8480935,-2.243922 -4.437549 -0.3173246,-2.220128 -5.254022 -0.1609896,-2.213345 -5.805599 -0.1433808,-1.841965 -4.752856 -0.7782533,-1.93869 -4.684859 -0.2283354,-1.955732 -5.480857 -0.243627,-1.963225 -5.924138 -0.3345448,-1.525657 -4.956254 -0.6765047,-1.612297 -4.855828 -0.2545132,-1.702302 -5.454923 -0.2454044,-1.753485 -5.797414 -0.2883872,-8.483173 -6.839398 0.1226851,-7.957859 -6.661476 0.3056139,-7.533502 -6.125125 0.4844817,-7.2378 -5.571823 0.7018867,-6.947485 -5.222447 0.9426019,-7.785001 -4.650843 0.249093,-7.64085 -3.72962 0.3894272,-7.556681 -3.169248 0.5495248,-7.492153 -2.66124 0.6736869,-8.061692 -4.461918 0.3501863,-7.92548 -3.389521 0.4821848,-7.81739 -2.705654 0.6757568,-7.733998 -2.126667 0.8262203,-8.353271 -4.493019 0.4870359,-8.25576 -3.45628 0.6316874,-8.141117 -2.809186 0.8110338,-8.035575 -2.27206 0.9393187,-8.674642 -4.698226 0.6413069,-8.681231 -3.868397 0.8215503,-8.642919 -3.326716 0.9666473,-8.588323 -2.815577 1.060153,9.310,
-1.785882 -6.728435 -0.9808559,-2.179236 -6.601762 -0.6203808,-2.536663 -5.820429 -0.427433,-2.62862 -5.087516 -0.2300185,-2.621276 -4.468203 0.009631276,-2.440985 -4.797855 -0.5633482,-2.587965 -4.208043 -0.1477674,-2.594728 -3.791492 0.1559347,-2.583326 -3.468902 0.3850589,-2.102897 -4.643575 -0.5428119,-2.143556 -4.511345 -0.009183526,-2.110958 -5.343976 0.1425132,-2.116694 -5.901002 0.1509258,-1.756663 -4.719297 -0.4763827,-1.830088 -4.759913 0.05192578,-1.843441 -5.567694 0.01878071,-1.871025 -6.01327 -0.07615149,-1.434502 -4.928323 -0.3791638,-1.501763 -4.933694 0.03361928,-1.592428 -5.554208 0.04030466,-1.669185 -5.888511 -0.003580272,-8.487861 -6.860895 0.1477058,-7.957954 -6.683595 0.3234779,-7.528416 -6.149377 0.4974573,-7.234291 -5.596534 0.7125162,-6.950142 -5.239817 0.949785,-7.7872 -4.669471 0.2468211,-7.640076 -3.755401 0.3767915,-7.55272 -3.195091 0.5298802,-7.485227 -2.692194 0.6479003,-8.064114 -4.474111 0.3483697,-7.9226 -3.406768 0.4663012,-7.814049 -2.729004 0.6528813,-7.730448 -2.152385 0.7983751,-8.355424 -4.494764 0.4860645,-8.247011 -3.460495 0.6172689,-8.129424 -2.82143 0.7892871,-8.022285 -2.289693 0.9121683,-8.678498 -4.689992 0.6424798,-8.682179 -3.862543 0.8115513,-8.643729 -3.326469 0.948858,-8.588251 -2.819819 1.041585,9.410,
-1.730046 -6.730682 -0.944363,-2.129908 -6.599633 -0.5811647,-2.490153 -5.812301 -0.3822904,-2.584078 -5.059598 -0.1801183,-2.561135 -4.440146 0.05921459,-2.392819 -4.787247 -0.5313635,-2.529284 -4.195368 -0.1165931,-2.537719 -3.7803 0.1815854,-2.533053 -3.445116 0.4094059,-2.051323 -4.634241 -0.5132731,-2.073546 -4.489254 0.02406889,-2.056839 -5.337419 0.1635106,-2.073021 -5.875912 0.1611876,-1.703003 -4.713542 -0.4457701,-1.751401 -4.726214 0.0828855,-1.783114 -5.540681 0.03333056,-1.81994 -5.9726 -0.07155365,-1.385274 -4.92667 -0.346163,-1.426485 -4.921173 0.05590725,-1.521762 -5.54507 0.05011159,-1.600517 -5.867391 -0.001632154,-8.487593 -6.846503 0.1473899,-7.96482 -6.661548 0.3321238,-7.541993 -6.132211 0.5171342,-7.246778 -5.576469 0.7418239,-6.955998 -5.215949 0.9881222,-7.790864 -4.653456 0.2688823,-7.644836 -3.730644 0.4076313,-7.562244 -3.167139 0.5653738,-7.49934 -2.658202 0.6853461,-8.066514 -4.461252 0.369652,-7.926692 -3.388992 0.5000487,-7.820867 -2.710969 0.6867759,-7.74024 -2.136686 0.8296119,-8.358326 -4.489164 0.5080689,-8.257563 -3.451259 0.649767,-8.14532 -2.807537 0.8271567,-8.041881 -2.271052 0.9514484,-8.680503 -4.691854 0.6639357,-8.683292 -3.864568 0.8405558,-8.646224 -3.325708 0.9818339,-8.589948 -2.816837 1.075073,9.510,
-1.657406 -6.748255 -0.7046287,-2.067301 -6.600976 -0.3488495,-2.425971 -5.819228 -0.1444542,-2.511215 -5.059711 0.07447308,-2.496598 -4.435449 0.3435048,-2.330849 -4.746896 -0.2826847,-2.469281 -4.158409 0.1584589,-2.45948 -3.772455 0.4717126,-2.422787 -3.467303 0.6892741,-1.986276 -4.583513 -0.2675271,-1.975543 -4.502838 0.2715704,-1.959985 -5.365528 0.4168963,-1.992136 -5.855184 0.417498,-1.632532 -4.671018 -0.2038751,-1.642684 -4.755187 0.311556,-1.685164 -5.581608 0.2585331,-1.746826 -5.981885 0.1509123,-1.316257 -4.892936 -0.1109068,-1.324033 -4.996503 0.2786762,-1.427107 -5.638515 0.2761533,-1.528421 -5.929277 0.2221807,-8.507701 -6.867795 0.1885879,-7.98432 -6.674247 0.3476831,-7.555086 -6.128953 0.516197,-7.258584 -5.579119 0.732864,-6.97706 -5.213944 0.9662945,-7.805537 -4.653209 0.2672056,-7.664574 -3.730953 0.3983679,-7.580493 -3.162208 0.5521467,-7.515523 -2.656031 0.6682644,-8.079396 -4.469167 0.3799908,-7.944965 -3.389253 0.502799,-7.837351 -2.695421 0.6915493,-7.75415 -2.110582 0.8442385,-8.369227 -4.500099 0.5297277,-8.270246 -3.462465 0.6610519,-8.156404 -2.81 0.8314878,-8.051579 -2.26823 0.9533606,-8.687632 -4.70978 0.6966015,-8.69478 -3.875692 0.8606782,-8.659777 -3.337418 0.9927968,-8.606677 -2.832529 1.08108,9.610,
-1.599269 -6.771041 -0.5682504,-2.024843 -6.622303 -0.216845,-2.386582 -5.836287 -0.002405643,-2.470752 -5.068342 0.2276666,-2.463988 -4.430089 0.5095539,-2.291862 -4.743305 -0.131483,-2.41949 -4.158632 0.3226129,-2.406987 -3.780895 0.6547576,-2.371143 -3.489931 0.8815287,-1.945701 -4.572389 -0.1135453,-1.937332 -4.510561 0.4308524,-1.923499 -5.372711 0.59126,-1.958842 -5.852508 0.6012067,-1.589773 -4.659265 -0.05231774,-1.604442 -4.805425 0.4588002,-1.646442 -5.630343 0.4087527,-1.710424 -6.009939 0.3047318,-1.272655 -4.880588 0.04012728,-1.280463 -5.054273 0.4203751,-1.382178 -5.698741 0.4120604,-1.485368 -5.965152 0.3577714,-8.507436 -6.865367 0.1911592,-7.978312 -6.673373 0.3457726,-7.555403 -6.129798 0.5089568,-7.264424 -5.57435 0.7190049,-6.981534 -5.216705 0.9469407,-7.81496 -4.650598 0.2659854,-7.671044 -3.730945 0.3915378,-7.582273 -3.169838 0.5440193,-7.512771 -2.668195 0.6641982,-8.088595 -4.463831 0.3762417,-7.952734 -3.377799 0.4908703,-7.841418 -2.692554 0.6774346,-7.754061 -2.114398 0.8261486,-8.376437 -4.492696 0.5204676,-8.279897 -3.446817 0.6479939,-8.166814 -2.796216 0.8200477,-8.062181 -2.255672 0.9409993,-8.691801 -4.696762 0.6797009,-8.700834 -3.863548 0.8441836,-8.66525 -3.324393 0.9792269,-8.610185 -2.818207 1.067261,9.710,
-1.555229 -6.794893 -0.3976758,-1.990766 -6.627201 -0.03892162,-2.350723 -5.844146 0.1970964,-2.4364 -5.07846 0.4471087,-2.423082 -4.437973 0.7498831,-2.256211 -4.733625 0.07048196,-2.381037 -4.150783 0.5309872,-2.373105 -3.771468 0.8711443,-2.344794 -3.46854 1.102718,-1.908873 -4.553907 0.08957636,-1.889844 -4.53842 0.6302382,-1.873017 -5.399366 0.7915815,-1.913763 -5.870901 0.8019828,-1.550296 -4.647279 0.1521596,-1.551224 -4.837527 0.6635047,-1.592234 -5.658563 0.6184351,-1.665785 -6.034107 0.5215172,-1.236108 -4.878978 0.2463712,-1.234276 -5.111267 0.6180511,-1.334366 -5.752855 0.6094867,-1.445103 -6.004983 0.5573791,-8.526426 -6.853179 0.1728445,-7.992315 -6.656971 0.3236968,-7.565489 -6.115163 0.4827647,-7.272274 -5.558177 0.6867148,-6.990317 -5.190702 0.9048018,-7.826235 -4.644987 0.2649391,-7.68018 -3.715994 0.396217,-7.594227 -3.141794 0.5486411,-7.530758 -2.627626 0.6666541,-8.09983 -4.459622 0.3737326,-7.963398 -3.375424 0.4976667,-7.856941 -2.678736 0.6858416,-7.776454 -2.099845 0.833697,-8.38721 -4.494152 0.5163841,-8.294729 -3.453445 0.6510481,-8.186153 -2.799345 0.8242548,-8.086528 -2.264589 0.9457197,-8.700656 -4.704767 0.6701454,-8.707122 -3.877594 0.8435898,-8.668983 -3.339797 0.9822134,-8.611238 -2.843477 1.06914,9.810,
-1.496991 -6.827882 -0.3069093,-1.944576 -6.635772 0.0453884,-2.29058 -5.806312 0.2816181,-2.359851 -5.014852 0.533264,-2.351398 -4.369075 0.8317963,-2.195494 -4.729747 0.1745517,-2.316989 -4.122693 0.6376861,-2.29556 -3.769689 0.9422506,-2.252192 -3.502827 1.140026,-1.836285 -4.561367 0.1964347,-1.799476 -4.539112 0.7733564,-1.80231 -5.404561 0.9392713,-1.860204 -5.856444 0.9364293,-1.467893 -4.682376 0.2614059,-1.46167 -4.869676 0.7815648,-1.526403 -5.700513 0.7368302,-1.61262 -6.066437 0.633669,-1.155891 -4.950615 0.3569317,-1.154065 -5.230735 0.7136004,-1.267581 -5.872753 0.7001616,-1.388284 -6.104797 0.6381128,-8.529376 -6.837578 0.17295,-7.997853 -6.64676 0.3190569,-7.569563 -6.110992 0.478014,-7.276964 -5.557834 0.6868585,-6.998471 -5.188272 0.9139595,-7.828556 -4.634424 0.2387286,-7.687384 -3.710564 0.3650999,-7.603648 -3.142209 0.5131443,-7.537953 -2.637023 0.6286483,-8.101794 -4.442358 0.350896,-7.961494 -3.363403 0.4692647,-7.853542 -2.674953 0.6595783,-7.770559 -2.094855 0.8146365,-8.390553 -4.468973 0.4973687,-8.28661 -3.429285 0.6279703,-8.174569 -2.776796 0.8035352,-8.069508 -2.235944 0.9301482,-8.707994 -4.67363 0.6559858,-8.709681 -3.842533 0.8254863,-8.668108 -3.309255 0.9644409,-8.603638 -2.81026 1.059083,9.910,
-1.437177 -6.874356 0.09032507,-1.883633 -6.695627 0.4811859,-2.232226 -5.923023 0.7807006,-2.302162 -5.161057 1.092575,-2.24988 -4.525962 1.451667,-2.150768 -4.719835 0.7034228,-2.260462 -4.149175 1.243725,-2.22905 -3.818926 1.615037,-2.164743 -3.561791 1.847629,-1.779197 -4.519499 0.7138038,-1.721349 -4.620916 1.317749,-1.741132 -5.499479 1.475313,-1.810964 -5.915632 1.476374,-1.405531 -4.633325 0.7669919,-1.37228 -4.95553 1.317346,-1.458678 -5.780675 1.237324,-1.566217 -6.102829 1.106634,-1.093533 -4.899199 0.8515917,-1.05497 -5.298248 1.220455,-1.181395 -5.94333 1.188356,-1.324104 -6.13084 1.109422,-8.537498 -6.836915 0.1885425,-8.002893 -6.642642 0.3424181,-7.579055 -6.112453 0.5066032,-7.282343 -5.555448 0.7110333,-6.996466 -5.200092 0.9347634,-7.838308 -4.632417 0.2924657,-7.693125 -3.706047 0.415109,-7.609209 -3.133476 0.5568589,-7.545815 -2.6256 0.6683378,-8.113447 -4.438606 0.3925369,-7.973204 -3.35559 0.5075943,-7.866282 -2.664638 0.6921514,-7.784743 -2.084732 0.8404934,-8.403304 -4.468393 0.5212838,-8.3071 -3.43192 0.6478918,-8.196794 -2.782342 0.8137181,-8.096103 -2.246834 0.9324099,-8.717136 -4.677753 0.6638995,-8.728132 -3.858995 0.8281831,-8.693251 -3.328145 0.9631222,-8.636984 -2.832185 1.047174,10.010,
-1.439007 -6.912709 0.3361133,-1.874235 -6.718141 0.7398728,-2.217949 -5.946085 1.072114,-2.282265 -5.183914 1.42135,-2.2271 -4.513546 1.818675,-2.138523 -4.702339 0.9900446,-2.231112 -4.1926 1.556702,-2.191046 -3.890593 1.946772,-2.128002 -3.644005 2.182103,-1.759189 -4.493162 1.003002,-1.70863 -4.644987 1.609971,-1.727792 -5.539691 1.749793,-1.797643 -5.921478 1.751461,-1.376214 -4.608306 1.064015,-1.3509 -4.97807 1.611273,-1.439145 -5.819755 1.51377,-1.545837 -6.105651 1.383164,-1.053074 -4.879533 1.159633,-1.015238 -5.285134 1.514373,-1.151204 -5.94025 1.452119,-1.300337 -6.112516 1.368391,-8.547606 -6.861063 0.20636,-8.012444 -6.665361 0.3597541,-7.584765 -6.13348 0.519402,-7.287527 -5.57331 0.7248959,-7.004668 -5.218099 0.9446955,-7.840574 -4.643465 0.2824479,-7.696527 -3.714647 0.396138,-7.612958 -3.139936 0.5374308,-7.549519 -2.629041 0.6491762,-8.115282 -4.456798 0.382138,-7.975916 -3.37683 0.4849846,-7.869572 -2.683068 0.6694641,-7.788132 -2.10669 0.819017,-8.405652 -4.490425 0.5128531,-8.309216 -3.458613 0.6255308,-8.200232 -2.808602 0.7931997,-8.101643 -2.278007 0.9151723,-8.721233 -4.697269 0.6596555,-8.732848 -3.87438 0.8157172,-8.698942 -3.336562 0.9518006,-8.644732 -2.835321 1.036727,10.110,
-1.332626 -6.971042 0.1081746,-1.773015 -6.828676 0.5027766,-2.137835 -6.074264 0.8282195,-2.211906 -5.302244 1.160257,-2.128408 -4.671295 1.540746,-2.051078 -4.844216 0.7626348,-2.136883 -4.317682 1.319667,-2.078338 -4.042261 1.693733,-1.996854 -3.849101 1.915988,-1.675366 -4.622501 0.7740099,-1.600904 -4.823252 1.362644,-1.618653 -5.68105 1.478413,-1.697149 -6.023635 1.468232,-1.295776 -4.715172 0.8324354,-1.256871 -5.124135 1.341681,-1.332576 -5.924224 1.218776,-1.434554 -6.179967 1.085252,-0.9755983 -4.940027 0.9288291,-0.9152098 -5.38747 1.244441,-1.034316 -6.028972 1.169093,-1.172873 -6.18979 1.082604,-8.541218 -6.876367 0.2109286,-8.007421 -6.677721 0.3697916,-7.581926 -6.140768 0.5347016,-7.28607 -5.580145 0.7406157,-6.99971 -5.222435 0.9627874,-7.836026 -4.662767 0.3180977,-7.690029 -3.735193 0.4481504,-7.602066 -3.166494 0.594799,-7.535854 -2.658543 0.7097822,-8.111907 -4.472993 0.4208655,-7.970701 -3.38631 0.5433918,-7.86221 -2.689639 0.7328728,-7.779548 -2.105447 0.8849816,-8.403165 -4.509387 0.5536024,-8.30675 -3.471986 0.6827457,-8.196312 -2.817083 0.8542181,-8.096408 -2.278538 0.9796562,-8.718643 -4.722789 0.7009016,-8.730365 -3.900044 0.8666956,-8.692848 -3.364105 1.00824,-8.634439 -2.864438 1.101049,10.210,
-1.369245 -7.007279 0.4188172,-1.799313 -6.824638 0.8563181,-2.138182 -6.082904 1.230735,-2.194603 -5.34651 1.608024,-2.101101 -4.676833 2.018255,-2.035275 -4.750198 1.131805,-2.10864 -4.298455 1.729717,-2.059523 -4.033912 2.112971,-1.986229 -3.822455 2.34731,-1.648234 -4.569326 1.125987,-1.581799 -4.839103 1.769731,-1.611415 -5.700961 1.875209,-1.688713 -5.992387 1.839643,-1.262255 -4.709762 1.184449,-1.221787 -5.164128 1.737884,-1.334212 -5.977375 1.594422,-1.449981 -6.1874 1.4266,-0.9485803 -4.992235 1.280656,-0.8838844 -5.471973 1.619232,-1.040552 -6.111778 1.529863,-1.201521 -6.228556 1.424738,-8.547754 -6.88215 0.222918,-8.013995 -6.686771 0.3926477,-7.587399 -6.145338 0.5623993,-7.29386 -5.582162 0.7746481,-7.006393 -5.215892 1.001987,-7.839145 -4.665588 0.3356599,-7.695203 -3.730831 0.4726727,-7.60783 -3.158643 0.6257901,-7.540833 -2.647045 0.7443697,-8.113557 -4.476879 0.4408852,-7.973069 -3.388147 0.5680391,-7.865269 -2.688372 0.7592245,-7.781909 -2.103731 0.9116729,-8.402878 -4.513652 0.5793934,-8.304958 -3.467206 0.7157316,-8.195743 -2.803425 0.8946041,-8.095712 -2.259237 1.021758,-8.718714 -4.729999 0.733267,-8.725272 -3.896355 0.9039484,-8.68797 -3.354853 1.046255,-8.630968 -2.851745 1.138172,10.310,
-1.281092 -7.054115 0.5888941,-1.709418 -6.866093 1.014195,-2.073141 -6.132259 1.390061,-2.120818 -5.372697 1.755832,-1.991933 -4.729597 2.159283,-1.951999 -4.807577 1.345034,-2.014242 -4.416656 1.938383,-1.950968 -4.204477 2.305474,-1.875295 -4.005137 2.525519,-1.561462 -4.576898 1.335417,-1.496512 -4.965979 1.944469,-1.519133 -5.810589 2.035218,-1.590827 -6.052272 2.03204,-1.168799 -4.68094 1.388276,-1.139273 -5.243379 1.900509,-1.240859 -6.030195 1.734953,-1.349468 -6.200817 1.576651,-0.841506 -4.936856 1.485057,-0.7878995 -5.486021 1.768059,-0.9439583 -6.1203 1.64277,-1.097262 -6.219494 1.533858,-8.540114 -6.868742 0.2307461,-8.009566 -6.676822 0.3928211,-7.583998 -6.131477 0.5606598,-7.290334 -5.571063 0.7713378,-7.00626 -5.206251 0.9987342,-7.842082 -4.644107 0.3350914,-7.696764 -3.710088 0.4683232,-7.609127 -3.144743 0.6213983,-7.54189 -2.640776 0.7397062,-8.117539 -4.458602 0.4430208,-7.977185 -3.360417 0.5684601,-7.868915 -2.665939 0.7558911,-7.786423 -2.082922 0.9053503,-8.406369 -4.496696 0.5835667,-8.308787 -3.440826 0.7227837,-8.197604 -2.778596 0.903106,-8.095198 -2.230433 1.033122,-8.72096 -4.714325 0.7382963,-8.730134 -3.880768 0.9114611,-8.691805 -3.339553 1.058812,-8.632303 -2.835001 1.158442,10.410,
-1.266344 -7.060449 0.7496518,-1.694373 -6.858161 1.197348,-2.046988 -6.145994 1.59291,-2.087225 -5.421064 1.970461,-1.956882 -4.743583 2.383854,-1.931516 -4.758718 1.506005,-1.994398 -4.429618 2.093298,-1.926184 -4.194028 2.468488,-1.842845 -3.949539 2.706536,-1.533526 -4.533158 1.494793,-1.505377 -4.937758 2.107143,-1.529769 -5.787439 2.20701,-1.586262 -6.022439 2.224165,-1.129916 -4.650628 1.553362,-1.140143 -5.240619 2.071234,-1.250938 -6.047592 1.912318,-1.350018 -6.204536 1.757942,-0.7890787 -4.932922 1.655777,-0.771101 -5.48053 1.952973,-0.9438324 -6.130834 1.820229,-1.092012 -6.210142 1.71322,-8.540073 -6.889554 0.2294185,-8.005758 -6.678947 0.3982698,-7.579859 -6.142324 0.5734056,-7.282507 -5.578648 0.7895705,-6.989364 -5.208311 1.021646,-7.840476 -4.670139 0.3593093,-7.68979 -3.730875 0.4974083,-7.601295 -3.158117 0.6511582,-7.534299 -2.643171 0.7711156,-8.117056 -4.481815 0.4625836,-7.974277 -3.390228 0.5945663,-7.863987 -2.688636 0.7866391,-7.780729 -2.107741 0.9369982,-8.406973 -4.51232 0.5977789,-8.305116 -3.462628 0.7358164,-8.190883 -2.796781 0.9136993,-8.086428 -2.258541 1.039516,-8.723588 -4.717098 0.7486268,-8.726613 -3.875221 0.9256246,-8.685135 -3.32979 1.069517,-8.623135 -2.829674 1.160981,10.510,
-1.184192 -7.037459 0.6800537,-1.605378 -6.811342 1.188126,-1.95836 -6.158826 1.609538,-1.993626 -5.449135 2.002876,-1.845161 -4.761415 2.424603,-1.833899 -4.739608 1.484377,-1.877551 -4.403034 2.07593,-1.803884 -4.185317 2.432736,-1.720676 -3.943413 2.654577,-1.436107 -4.53407 1.440624,-1.387438 -4.915794 2.04627,-1.421387 -5.79329 2.114905,-1.48917 -6.010459 2.11759,-1.038476 -4.662008 1.478197,-1.027776 -5.162678 2.021154,-1.150683 -6.005356 1.841865,-1.26103 -6.182539 1.665988,-0.7047691 -4.958051 1.563543,-0.6650171 -5.30696 1.908937,-0.8417053 -5.957403 1.767748,-1.002429 -6.092611 1.632808,-8.558826 -6.872139 0.2714485,-8.028723 -6.676553 0.4313154,-7.597914 -6.12198 0.6005036,-7.298318 -5.568138 0.8163651,-7.012308 -5.199411 1.053549,-7.85041 -4.639385 0.3747791,-7.705173 -3.716115 0.5076738,-7.618558 -3.138153 0.6574726,-7.553669 -2.630123 0.7744206,-8.125209 -4.45244 0.4875229,-7.982085 -3.367898 0.6135567,-7.872397 -2.664203 0.8005546,-7.790499 -2.078638 0.9561421,-8.416981 -4.487529 0.6332381,-8.315014 -3.447948 0.7726678,-8.20023 -2.779954 0.9476104,-8.096706 -2.229585 1.077413,-8.736728 -4.704264 0.7953122,-8.74861 -3.874631 0.9661698,-8.7139 -3.335406 1.103541,-8.658293 -2.831794 1.200778,10.610,
-1.151208 -7.043575 0.68902,-1.57027 -6.789678 1.225975,-1.899055 -6.129965 1.660105,-1.906611 -5.430042 2.058137,-1.739202 -4.747324 2.474719,-1.755841 -4.704032 1.539362,-1.793637 -4.391761 2.171125,-1.715813 -4.192335 2.545534,-1.625565 -3.969178 2.770195,-1.340674 -4.54483 1.490691,-1.310645 -4.888778 2.143376,-1.364999 -5.793358 2.201205,-1.426477 -6.020113 2.187257,-0.9401598 -4.722051 1.526864,-0.9455061 -5.154462 2.126691,-1.095303 -6.019951 1.916692,-1.204881 -6.208238 1.708634,-0.6087656 -5.071609 1.617134,-0.5751767 -5.287452 2.004018,-0.7728329 -5.906258 1.85758,-0.9348817 -6.05209 1.712716,-8.576272 -6.875786 0.2487873,-8.042491 -6.683506 0.4153295,-7.612953 -6.139987 0.5840527,-7.309802 -5.580694 0.7956379,-7.021578 -5.219518 1.023011,-7.864552 -4.655221 0.3636411,-7.714981 -3.71923 0.4987411,-7.630482 -3.139426 0.650013,-7.566623 -2.620998 0.7679144,-8.141368 -4.463307 0.4692749,-7.995735 -3.368359 0.5978911,-7.88837 -2.663897 0.7864088,-7.807553 -2.070821 0.9411182,-8.43352 -4.496512 0.6071039,-8.330312 -3.443287 0.7486951,-8.217907 -2.775316 0.928468,-8.116514 -2.223042 1.059053,-8.751451 -4.711012 0.7605789,-8.75961 -3.877063 0.9360785,-8.723249 -3.333369 1.08157,-8.665371 -2.824358 1.180702,10.710,
-1.122392 -7.066909 0.7601054,-1.543463 -6.809964 1.325359,-1.863524 -6.14631 1.761086,-1.86296 -5.448644 2.150956,-1.697561 -4.753799 2.546344,-1.70378 -4.709415 1.640346,-1.736937 -4.431413 2.278999,-1.653984 -4.250494 2.661418,-1.554723 -4.046115 2.894151,-1.279576 -4.546657 1.568319,-1.266216 -4.953302 2.212568,-1.33005 -5.861301 2.233072,-1.388853 -6.09921 2.192604,-0.8814611 -4.733408 1.587265,-0.8966932 -5.208826 2.17884,-1.046298 -6.060837 1.949164,-1.154796 -6.247992 1.731067,-0.5529056 -5.084196 1.665693,-0.5237217 -5.293661 2.037346,-0.7161517 -5.894629 1.882096,-0.8673334 -6.049509 1.733655,-8.57408 -6.897587 0.3116318,-8.045804 -6.685299 0.4785914,-7.622916 -6.133015 0.6510426,-7.328603 -5.570629 0.8675436,-7.039485 -5.205369 1.102898,-7.868763 -4.654534 0.4371315,-7.724111 -3.719671 0.5707049,-7.639812 -3.134223 0.7197796,-7.576161 -2.617174 0.8363974,-8.144129 -4.466899 0.5425487,-8.000906 -3.380891 0.669052,-7.894271 -2.674243 0.857685,-7.814819 -2.085413 1.011527,-8.436349 -4.501168 0.6801717,-8.33837 -3.464948 0.8170202,-8.228691 -2.799394 0.9949257,-8.129509 -2.254369 1.125995,-8.754511 -4.712539 0.8330444,-8.771198 -3.886671 1.002497,-8.737924 -3.348281 1.143852,-8.682751 -2.847397 1.23912,10.810,
-1.101742 -7.072677 0.7400813,-1.512471 -6.79334 1.351886,-1.813334 -6.137184 1.776907,-1.79874 -5.489163 2.136819,-1.612568 -4.837146 2.511258,-1.616469 -4.682233 1.642642,-1.650693 -4.442105 2.270993,-1.575984 -4.258722 2.622922,-1.49424 -4.026588 2.82271,-1.176423 -4.553958 1.546208,-1.187661 -4.970611 2.198891,-1.288681 -5.864288 2.236934,-1.361617 -6.172348 2.204651,-0.7805905 -4.781679 1.546934,-0.8252478 -5.261358 2.174553,-1.009164 -6.087736 1.991767,-1.135702 -6.325199 1.790683,-0.4665842 -5.189844 1.606623,-0.4554214 -5.301349 2.031769,-0.6664872 -5.794136 1.93848,-0.8363066 -5.952368 1.820899,-8.590357 -6.880852 0.2358146,-8.057021 -6.68077 0.3931786,-7.627332 -6.134275 0.5585878,-7.327629 -5.576181 0.7711826,-7.039223 -5.209746 1.005493,-7.885019 -4.657518 0.3269526,-7.737463 -3.718116 0.4589897,-7.650381 -3.13843 0.6095212,-7.585243 -2.625502 0.7232721,-8.160578 -4.469522 0.4368233,-8.014541 -3.366945 0.5551669,-7.906107 -2.664186 0.7391763,-7.824824 -2.075905 0.8861073,-8.450516 -4.498613 0.5781091,-8.34276 -3.440322 0.7141005,-8.230548 -2.771982 0.892653,-8.129876 -2.22181 1.020158,-8.768469 -4.702318 0.7364727,-8.772675 -3.862582 0.9052585,-8.736959 -3.319886 1.043843,-8.680146 -2.813575 1.137721,10.910,
