TiagoOliveira98/HandTracking/DataLogging/JointData/Logs(1637027693)_topai.csv
WRIST,THUMB_CMC,THUMB_MCP,THUMB_IP,THUMB_TIP,INDEX_FINGER_MCP,INDEX_FINGER_PIP,INDEX_FINGER_DIP,INDEX_FINGER_TIP,MIDDLE_FINGER_MCP,MIDDLE_FINGER_PIP,MIDDLE_FINGER_DIP,MIDDLE_FINGER_TIP,RING_FINGER_MCP,RING_FINGER_PIP,RING_FINGER_DIP,RING_FINGER_TIP,PINKY_MCP,PINKY_PIP,PINKY_DIP,PINKY_TIP,WRIST2,THUMB_CMC2,THUMB_MCP2,THUMB_IP2,THUMB_TIP2,INDEX_FINGER_MCP2,INDEX_FINGER_PIP2,INDEX_FINGER_DIP2,INDEX_FINGER_TIP2,MIDDLE_FINGER_MCP2,MIDDLE_FINGER_PIP2,MIDDLE_FINGER_DIP2,MIDDLE_FINGER_TIP2,RING_FINGER_MCP2,RING_FINGER_PIP2,RING_FINGER_DIP2,RING_FINGER_TIP2,PINKY_MCP2,PINKY_PIP2,PINKY_DIP2,PINKY_TIP2,Timestamp,Event
10 0 0,10 7.47 0,10 7.47 0,10 7.47 0,10 7.47 0,10 7.47 0,10 7.47 0,10 7.47 0,10 7.47 0,10 7.47 0,10 7.47 0,10 7.47 0,10 7.47 0,10 7.47 0,10 7.47 0,10 7.47 0,10 7.47 0,10 7.47 0,10 7.47 0,10 7.47 0,10 7.47 0,10 0 0,10 7.47 0,10 7.47 0,10 7.47 0,10 7.47 0,10 7.47 0,10 7.47 0,10 7.47 0,10 7.47 0,10 7.47 0,10 7.47 0,10 7.47 0,10 7.47 0,10 7.47 0,10 7.47 0,10 7.47 0,10 7.47 0,10 7.47 0,10 7.47 0,10 7.47 0,10 7.47 0,0.020,Dnf
-3.513762 -6.989923 -0.8738078,-4.171762 -7.261564 -0.1229787,-4.676851 -7.007338 0.3643593,-5.072868 -6.594117 0.7259884,-5.373138 -6.336677 1.008079,-4.420622 -5.078357 0.1167378,-4.639156 -4.021966 0.5283402,-4.629194 -3.719862 0.935392,-4.546127 -3.77953 1.224771,-3.987116 -4.826398 -0.08659196,-4.032473 -3.720813 0.2512052,-3.881689 -3.329317 0.6169667,-3.726765 -3.294562 0.9401064,-3.59997 -4.955826 -0.2577475,-3.550153 -3.958883 -0.001767635,-3.376416 -3.680809 0.3944839,-3.248632 -3.692241 0.6960759,-3.287619 -5.324132 -0.3651756,-3.091199 -4.760217 -0.05763495,-2.8908 -4.600009 0.2618657,-2.783624 -4.629466 0.5292499,-10.44993 -8.589046 0.2446678,-9.864239 -8.331469 0.6425595,-9.404372 -7.726301 0.9251585,-9.142519 -7.046915 1.220469,-8.923836 -6.552562 1.498343,-9.800553 -6.066411 0.6138002,-9.677137 -5.003818 0.8451737,-9.630304 -4.344289 1.056247,-9.604041 -3.783208 1.186013,-10.14044 -5.863515 0.6272986,-10.05291 -4.582576 0.8044412,-10.00453 -3.785765 1.038626,-9.97636 -3.094991 1.212151,-10.47389 -5.913967 0.6752436,-10.42521 -4.723581 0.8524402,-10.39079 -3.968023 1.058888,-10.34814 -3.322961 1.214149,-10.81703 -6.171983 0.7698641,-10.8946 -5.249717 0.9456791,-10.92524 -4.652078 1.104696,-10.92397 -4.087286 1.220014,0.040,DnF
-3.513762 -6.989923 -0.8738078,-4.171762 -7.261564 -0.1229787,-4.676851 -7.007338 0.3643593,-5.072868 -6.594117 0.7259884,-5.373138 -6.336677 1.008079,-4.420622 -5.078357 0.1167378,-4.639156 -4.021966 0.5283402,-4.629194 -3.719862 0.935392,-4.546127 -3.77953 1.224771,-3.987116 -4.826398 -0.08659196,-4.032473 -3.720813 0.2512052,-3.881689 -3.329317 0.6169667,-3.726765 -3.294562 0.9401064,-3.59997 -4.955826 -0.2577475,-3.550153 -3.958883 -0.001767635,-3.376416 -3.680809 0.3944839,-3.248632 -3.692241 0.6960759,-3.287619 -5.324132 -0.3651756,-3.091199 -4.760217 -0.05763495,-2.8908 -4.600009 0.2618657,-2.783624 -4.629466 0.5292499,-10.44993 -8.589046 0.2446678,-9.864239 -8.331469 0.6425595,-9.404372 -7.726301 0.9251585,-9.142519 -7.046915 1.220469,-8.923836 -6.552562 1.498343,-9.800553 -6.066411 0.6138002,-9.677137 -5.003818 0.8451737,-9.630304 -4.344289 1.056247,-9.604041 -3.783208 1.186013,-10.14044 -5.863515 0.6272986,-10.05291 -4.582576 0.8044412,-10.00453 -3.785765 1.038626,-9.97636 -3.094991 1.212151,-10.47389 -5.913967 0.6752436,-10.42521 -4.723581 0.8524402,-10.39079 -3.968023 1.058888,-10.34814 -3.322961 1.214149,-10.81703 -6.171983 0.7698641,-10.8946 -5.249717 0.9456791,-10.92524 -4.652078 1.104696,-10.92397 -4.087286 1.220014,0.060,DnF
-3.479238 -7.004161 -1.127708,-4.02763 -7.387153 -0.02619754,-4.778367 -7.119453 0.4376324,-5.233331 -6.527194 0.8387308,-5.588434 -6.089244 1.242155,-4.478516 -5.249353 0.2130083,-4.867463 -4.187651 0.4589538,-4.957881 -3.69853 0.9683779,-4.824241 -3.747218 1.442098,-3.973365 -4.847812 -0.1648367,-4.15911 -3.645682 0.1126721,-3.985017 -3.107727 0.6164041,-3.826287 -3.164596 1.164714,-3.407541 -4.872836 -0.4359571,-3.550218 -3.936718 -0.2250663,-3.322788 -3.556494 0.3117371,-3.255655 -3.756189 0.8589978,-3.02561 -5.446796 -0.5609208,-2.662614 -4.695236 -0.2383256,-2.519704 -4.400623 0.2994602,-2.841368 -4.591899 0.9258078,-10.44993 -8.589046 0.2446678,-9.744388 -8.198088 0.7585201,-9.403475 -7.471416 1.078041,-9.219069 -6.588079 1.428934,-8.23908 -6.21587 1.654736,-9.623803 -6.39709 0.5399196,-9.540847 -5.204332 0.7964873,-9.333671 -4.3469 1.069649,-9.261961 -3.622588 1.241251,-10.03994 -5.989362 0.4781378,-9.951088 -4.551055 0.6944268,-9.827977 -3.639634 1.010519,-9.678221 -2.759426 1.25029,-10.50418 -6.075021 0.5687475,-10.48295 -4.742855 0.797599,-10.42082 -3.826953 1.068799,-10.26889 -3.005479 1.288846,-10.98873 -6.449676 0.7617661,-11.0765 -5.415458 0.9731184,-11.10429 -4.616405 1.234177,-11.14772 -3.876634 1.358712,0.080,DnF
-3.529495 -7.010843 -1.348856,-3.995434 -7.441907 0.1404498,-4.858698 -7.240863 0.5104055,-5.252699 -6.541226 0.873914,-5.523257 -5.922994 1.369587,-4.500259 -5.4065 0.2971102,-4.926441 -4.330879 0.3691999,-5.27231 -3.693567 0.970563,-5.11587 -3.700447 1.646125,-3.952835 -4.818356 -0.2141525,-4.35356 -3.552377 0.02043298,-4.065006 -2.861145 0.6241242,-3.931917 -3.043008 1.368499,-3.218044 -4.759225 -0.6067238,-3.543888 -3.822278 -0.4121882,-3.316364 -3.393428 0.3066615,-3.359877 -3.752097 1.027832,-2.821491 -5.472558 -0.7184421,-2.272666 -4.666208 -0.4191914,-2.145254 -4.263498 0.3055891,-2.963427 -4.647287 1.221939,-10.44993 -8.589046 0.2446678,-9.605555 -8.103828 0.8684233,-9.362069 -7.126724 1.277542,-9.349104 -6.188726 1.648425,-7.539234 -5.954056 1.76758,-9.433439 -6.713916 0.4554835,-9.411107 -5.302161 0.7719098,-9.018996 -4.38136 1.09774,-8.949671 -3.462524 1.286124,-9.855781 -6.070031 0.3025686,-9.841337 -4.460739 0.6012189,-9.689969 -3.530712 0.9669158,-9.356495 -2.547765 1.278331,-10.46582 -6.166852 0.4492849,-10.55338 -4.72969 0.7350405,-10.49563 -3.698798 1.065151,-10.17276 -2.777893 1.338393,-11.07721 -6.656738 0.7656102,-11.21198 -5.464791 0.9924093,-11.24237 -4.570907 1.372546,-11.3494 -3.654715 1.504493,0.100,DnF
-2.932006 -7.282203 -0.1521535,-3.57394 -7.577489 0.5960834,-4.079733 -7.350126 1.061569,-4.494404 -7.059949 1.431511,-4.829584 -6.837095 1.842786,-3.82848 -5.148426 0.7271744,-4.109486 -4.130181 1.133832,-4.171165 -3.748182 1.555001,-4.136679 -3.716426 1.882221,-3.45116 -4.882284 0.5597176,-3.593468 -3.787656 0.9959048,-3.535686 -3.387984 1.321008,-3.434996 -3.353094 1.596856,-3.121023 -4.985409 0.4315119,-3.150089 -3.991418 0.8537074,-3.054743 -3.657465 1.232374,-2.979658 -3.593514 1.491488,-2.853556 -5.340747 0.3645768,-2.770883 -4.790776 0.8609885,-2.636877 -4.572601 1.20597,-2.566589 -4.530061 1.469074,-10.3588 -8.580835 0.3124231,-9.771037 -8.322084 0.7340922,-9.291916 -7.69683 1.02607,-9.016279 -7.016694 1.326982,-8.762985 -6.507917 1.618167,-9.677629 -6.043445 0.7024286,-9.525758 -4.989761 0.9603669,-9.466687 -4.342168 1.181004,-9.436112 -3.77168 1.312588,-10.02237 -5.842562 0.7214341,-9.916997 -4.582098 0.932113,-9.872282 -3.790555 1.18595,-9.849574 -3.118751 1.359217,-10.36186 -5.904274 0.772482,-10.29524 -4.723146 0.998197,-10.26175 -3.955112 1.24467,-10.22035 -3.311808 1.422021,-10.7193 -6.169544 0.8821272,-10.77626 -5.261673 1.110814,-10.80435 -4.662727 1.307908,-10.80031 -4.111007 1.436106,0.120,DnF
-2.932006 -7.282203 -0.1521535,-3.57394 -7.577489 0.5960834,-4.079733 -7.350126 1.061569,-4.494404 -7.059949 1.431511,-4.829584 -6.837095 1.842786,-3.82848 -5.148426 0.7271744,-4.109486 -4.130181 1.133832,-4.171165 -3.748182 1.555001,-4.136679 -3.716426 1.882221,-3.45116 -4.882284 0.5597176,-3.593468 -3.787656 0.9959048,-3.535686 -3.387984 1.321008,-3.434996 -3.353094 1.596856,-3.121023 -4.985409 0.4315119,-3.150089 -3.991418 0.8537074,-3.054743 -3.657465 1.232374,-2.979658 -3.593514 1.491488,-2.853556 -5.340747 0.3645768,-2.770883 -4.790776 0.8609885,-2.636877 -4.572601 1.20597,-2.566589 -4.530061 1.469074,-10.3588 -8.580835 0.3124231,-9.771037 -8.322084 0.7340922,-9.291916 -7.69683 1.02607,-9.016279 -7.016694 1.326982,-8.762985 -6.507917 1.618167,-9.677629 -6.043445 0.7024286,-9.525758 -4.989761 0.9603669,-9.466687 -4.342168 1.181004,-9.436112 -3.77168 1.312588,-10.02237 -5.842562 0.7214341,-9.916997 -4.582098 0.932113,-9.872282 -3.790555 1.18595,-9.849574 -3.118751 1.359217,-10.36186 -5.904274 0.772482,-10.29524 -4.723146 0.998197,-10.26175 -3.955112 1.24467,-10.22035 -3.311808 1.422021,-10.7193 -6.169544 0.8821272,-10.77626 -5.261673 1.110814,-10.80435 -4.662727 1.307908,-10.80031 -4.111007 1.436106,0.140,DnF
-2.932006 -7.282203 -0.1521535,-3.57394 -7.577489 0.5960834,-4.079733 -7.350126 1.061569,-4.494404 -7.059949 1.431511,-4.829584 -6.837095 1.842786,-3.82848 -5.148426 0.7271744,-4.109486 -4.130181 1.133832,-4.171165 -3.748182 1.555001,-4.136679 -3.716426 1.882221,-3.45116 -4.882284 0.5597176,-3.593468 -3.787656 0.9959048,-3.535686 -3.387984 1.321008,-3.434996 -3.353094 1.596856,-3.121023 -4.985409 0.4315119,-3.150089 -3.991418 0.8537074,-3.054743 -3.657465 1.232374,-2.979658 -3.593514 1.491488,-2.853556 -5.340747 0.3645768,-2.770883 -4.790776 0.8609885,-2.636877 -4.572601 1.20597,-2.566589 -4.530061 1.469074,-10.3588 -8.580835 0.3124231,-9.771037 -8.322084 0.7340922,-9.291916 -7.69683 1.02607,-9.016279 -7.016694 1.326982,-8.762985 -6.507917 1.618167,-9.677629 -6.043445 0.7024286,-9.525758 -4.989761 0.9603669,-9.466687 -4.342168 1.181004,-9.436112 -3.77168 1.312588,-10.02237 -5.842562 0.7214341,-9.916997 -4.582098 0.932113,-9.872282 -3.790555 1.18595,-9.849574 -3.118751 1.359217,-10.36186 -5.904274 0.772482,-10.29524 -4.723146 0.998197,-10.26175 -3.955112 1.24467,-10.22035 -3.311808 1.422021,-10.7193 -6.169544 0.8821272,-10.77626 -5.261673 1.110814,-10.80435 -4.662727 1.307908,-10.80031 -4.111007 1.436106,0.160,DnF
-2.648916 -7.447683 0.08936715,-3.257652 -7.796342 0.9121414,-3.784311 -7.54935 1.349152,-4.170404 -7.259675 1.668257,-4.510562 -6.994756 2.01221,-3.587419 -5.274972 1.113899,-3.860223 -4.305904 1.418503,-3.993252 -3.746082 1.7191,-4.07316 -3.243899 1.990052,-3.173079 -5.014856 0.9265698,-3.334263 -3.961141 1.286099,-3.340944 -3.282335 1.644985,-3.34656 -2.792401 1.954121,-2.800175 -5.143304 0.7906883,-2.842076 -4.193115 1.165879,-2.777221 -3.557563 1.565801,-2.747964 -3.126957 1.923859,-2.48381 -5.538929 0.720971,-2.351354 -4.968456 1.193832,-2.222938 -4.580894 1.609701,-2.178982 -4.338245 1.960938,-10.30389 -8.571486 0.3300518,-9.714097 -8.33045 0.7490345,-9.231443 -7.724605 1.046854,-8.955393 -7.044663 1.352168,-8.734555 -6.525272 1.638277,-9.617026 -6.050441 0.7652881,-9.471414 -5.001152 1.044056,-9.415897 -4.346464 1.269142,-9.387983 -3.778924 1.393483,-9.963208 -5.835737 0.7842885,-9.862342 -4.574536 1.013691,-9.813778 -3.773727 1.273751,-9.789759 -3.087488 1.455866,-10.30791 -5.890934 0.8358152,-10.25349 -4.708513 1.063061,-10.21743 -3.954516 1.304604,-10.17246 -3.312044 1.480397,-10.66903 -6.153871 0.9350812,-10.73977 -5.253057 1.152754,-10.76468 -4.652851 1.340705,-10.7542 -4.089324 1.477231,0.180,DnF
-2.648916 -7.447683 0.08936715,-3.257652 -7.796342 0.9121414,-3.784311 -7.54935 1.349152,-4.170404 -7.259675 1.668257,-4.510562 -6.994756 2.01221,-3.587419 -5.274972 1.113899,-3.860223 -4.305904 1.418503,-3.993252 -3.746082 1.7191,-4.07316 -3.243899 1.990052,-3.173079 -5.014856 0.9265698,-3.334263 -3.961141 1.286099,-3.340944 -3.282335 1.644985,-3.34656 -2.792401 1.954121,-2.800175 -5.143304 0.7906883,-2.842076 -4.193115 1.165879,-2.777221 -3.557563 1.565801,-2.747964 -3.126957 1.923859,-2.48381 -5.538929 0.720971,-2.351354 -4.968456 1.193832,-2.222938 -4.580894 1.609701,-2.178982 -4.338245 1.960938,-10.30389 -8.571486 0.3300518,-9.714097 -8.33045 0.7490345,-9.231443 -7.724605 1.046854,-8.955393 -7.044663 1.352168,-8.734555 -6.525272 1.638277,-9.617026 -6.050441 0.7652881,-9.471414 -5.001152 1.044056,-9.415897 -4.346464 1.269142,-9.387983 -3.778924 1.393483,-9.963208 -5.835737 0.7842885,-9.862342 -4.574536 1.013691,-9.813778 -3.773727 1.273751,-9.789759 -3.087488 1.455866,-10.30791 -5.890934 0.8358152,-10.25349 -4.708513 1.063061,-10.21743 -3.954516 1.304604,-10.17246 -3.312044 1.480397,-10.66903 -6.153871 0.9350812,-10.73977 -5.253057 1.152754,-10.76468 -4.652851 1.340705,-10.7542 -4.089324 1.477231,0.200,DnF
-2.648916 -7.447683 0.08936715,-3.257652 -7.796342 0.9121414,-3.784311 -7.54935 1.349152,-4.170404 -7.259675 1.668257,-4.510562 -6.994756 2.01221,-3.587419 -5.274972 1.113899,-3.860223 -4.305904 1.418503,-3.993252 -3.746082 1.7191,-4.07316 -3.243899 1.990052,-3.173079 -5.014856 0.9265698,-3.334263 -3.961141 1.286099,-3.340944 -3.282335 1.644985,-3.34656 -2.792401 1.954121,-2.800175 -5.143304 0.7906883,-2.842076 -4.193115 1.165879,-2.777221 -3.557563 1.565801,-2.747964 -3.126957 1.923859,-2.48381 -5.538929 0.720971,-2.351354 -4.968456 1.193832,-2.222938 -4.580894 1.609701,-2.178982 -4.338245 1.960938,-10.30389 -8.571486 0.3300518,-9.714097 -8.33045 0.7490345,-9.231443 -7.724605 1.046854,-8.955393 -7.044663 1.352168,-8.734555 -6.525272 1.638277,-9.617026 -6.050441 0.7652881,-9.471414 -5.001152 1.044056,-9.415897 -4.346464 1.269142,-9.387983 -3.778924 1.393483,-9.963208 -5.835737 0.7842885,-9.862342 -4.574536 1.013691,-9.813778 -3.773727 1.273751,-9.789759 -3.087488 1.455866,-10.30791 -5.890934 0.8358152,-10.25349 -4.708513 1.063061,-10.21743 -3.954516 1.304604,-10.17246 -3.312044 1.480397,-10.66903 -6.153871 0.9350812,-10.73977 -5.253057 1.152754,-10.76468 -4.652851 1.340705,-10.7542 -4.089324 1.477231,0.220,DnF
-2.648916 -7.447683 0.08936715,-3.257652 -7.796342 0.9121414,-3.784311 -7.54935 1.349152,-4.170404 -7.259675 1.668257,-4.510562 -6.994756 2.01221,-3.587419 -5.274972 1.113899,-3.860223 -4.305904 1.418503,-3.993252 -3.746082 1.7191,-4.07316 -3.243899 1.990052,-3.173079 -5.014856 0.9265698,-3.334263 -3.961141 1.286099,-3.340944 -3.282335 1.644985,-3.34656 -2.792401 1.954121,-2.800175 -5.143304 0.7906883,-2.842076 -4.193115 1.165879,-2.777221 -3.557563 1.565801,-2.747964 -3.126957 1.923859,-2.48381 -5.538929 0.720971,-2.351354 -4.968456 1.193832,-2.222938 -4.580894 1.609701,-2.178982 -4.338245 1.960938,-10.30389 -8.571486 0.3300518,-9.714097 -8.33045 0.7490345,-9.231443 -7.724605 1.046854,-8.955393 -7.044663 1.352168,-8.734555 -6.525272 1.638277,-9.617026 -6.050441 0.7652881,-9.471414 -5.001152 1.044056,-9.415897 -4.346464 1.269142,-9.387983 -3.778924 1.393483,-9.963208 -5.835737 0.7842885,-9.862342 -4.574536 1.013691,-9.813778 -3.773727 1.273751,-9.789759 -3.087488 1.455866,-10.30791 -5.890934 0.8358152,-10.25349 -4.708513 1.063061,-10.21743 -3.954516 1.304604,-10.17246 -3.312044 1.480397,-10.66903 -6.153871 0.9350812,-10.73977 -5.253057 1.152754,-10.76468 -4.652851 1.340705,-10.7542 -4.089324 1.477231,0.240,DnF
-2.648916 -7.447683 0.08936715,-3.257652 -7.796342 0.9121414,-3.784311 -7.54935 1.349152,-4.170404 -7.259675 1.668257,-4.510562 -6.994756 2.01221,-3.587419 -5.274972 1.113899,-3.860223 -4.305904 1.418503,-3.993252 -3.746082 1.7191,-4.07316 -3.243899 1.990052,-3.173079 -5.014856 0.9265698,-3.334263 -3.961141 1.286099,-3.340944 -3.282335 1.644985,-3.34656 -2.792401 1.954121,-2.800175 -5.143304 0.7906883,-2.842076 -4.193115 1.165879,-2.777221 -3.557563 1.565801,-2.747964 -3.126957 1.923859,-2.48381 -5.538929 0.720971,-2.351354 -4.968456 1.193832,-2.222938 -4.580894 1.609701,-2.178982 -4.338245 1.960938,-10.30389 -8.571486 0.3300518,-9.714097 -8.33045 0.7490345,-9.231443 -7.724605 1.046854,-8.955393 -7.044663 1.352168,-8.734555 -6.525272 1.638277,-9.617026 -6.050441 0.7652881,-9.471414 -5.001152 1.044056,-9.415897 -4.346464 1.269142,-9.387983 -3.778924 1.393483,-9.963208 -5.835737 0.7842885,-9.862342 -4.574536 1.013691,-9.813778 -3.773727 1.273751,-9.789759 -3.087488 1.455866,-10.30791 -5.890934 0.8358152,-10.25349 -4.708513 1.063061,-10.21743 -3.954516 1.304604,-10.17246 -3.312044 1.480397,-10.66903 -6.153871 0.9350812,-10.73977 -5.253057 1.152754,-10.76468 -4.652851 1.340705,-10.7542 -4.089324 1.477231,0.260,DnF
-2.648916 -7.447683 0.08936715,-3.257652 -7.796342 0.9121414,-3.784311 -7.54935 1.349152,-4.170404 -7.259675 1.668257,-4.510562 -6.994756 2.01221,-3.587419 -5.274972 1.113899,-3.860223 -4.305904 1.418503,-3.993252 -3.746082 1.7191,-4.07316 -3.243899 1.990052,-3.173079 -5.014856 0.9265698,-3.334263 -3.961141 1.286099,-3.340944 -3.282335 1.644985,-3.34656 -2.792401 1.954121,-2.800175 -5.143304 0.7906883,-2.842076 -4.193115 1.165879,-2.777221 -3.557563 1.565801,-2.747964 -3.126957 1.923859,-2.48381 -5.538929 0.720971,-2.351354 -4.968456 1.193832,-2.222938 -4.580894 1.609701,-2.178982 -4.338245 1.960938,-10.30389 -8.571486 0.3300518,-9.714097 -8.33045 0.7490345,-9.231443 -7.724605 1.046854,-8.955393 -7.044663 1.352168,-8.734555 -6.525272 1.638277,-9.617026 -6.050441 0.7652881,-9.471414 -5.001152 1.044056,-9.415897 -4.346464 1.269142,-9.387983 -3.778924 1.393483,-9.963208 -5.835737 0.7842885,-9.862342 -4.574536 1.013691,-9.813778 -3.773727 1.273751,-9.789759 -3.087488 1.455866,-10.30791 -5.890934 0.8358152,-10.25349 -4.708513 1.063061,-10.21743 -3.954516 1.304604,-10.17246 -3.312044 1.480397,-10.66903 -6.153871 0.9350812,-10.73977 -5.253057 1.152754,-10.76468 -4.652851 1.340705,-10.7542 -4.089324 1.477231,0.280,DnF
-2.498722 -7.812388 2.248071,-2.965518 -7.697038 3.155437,-3.32067 -7.218003 3.807791,-3.489006 -6.810317 4.404532,-3.828068 -6.736701 5.075239,-3.443677 -5.041927 3.256126,-3.670667 -3.911108 3.867447,-3.744572 -3.288873 4.414075,-3.731167 -2.939426 4.833355,-3.000651 -4.738534 3.14932,-3.187882 -3.505132 3.666219,-3.182201 -2.841268 4.217396,-3.065577 -2.584712 4.647488,-2.543672 -4.819683 3.143474,-2.553679 -3.652593 3.654243,-2.546596 -3.130887 4.191011,-2.517648 -2.915943 4.527804,-2.056217 -5.146341 3.203743,-1.880461 -4.228563 3.677083,-1.892614 -3.860677 4.085025,-1.913492 -3.753246 4.405672,-10.28359 -8.561775 0.3565647,-9.689708 -8.333755 0.7667066,-9.199189 -7.733537 1.070604,-8.915682 -7.060979 1.382952,-8.689293 -6.563562 1.678365,-9.577102 -6.045482 0.7966371,-9.431512 -4.995771 1.069829,-9.375386 -4.341081 1.29794,-9.343545 -3.778692 1.429495,-9.923469 -5.822536 0.8213215,-9.812079 -4.560798 1.043852,-9.760078 -3.762293 1.299317,-9.730651 -3.071521 1.486179,-10.27129 -5.877002 0.8752201,-10.20414 -4.689271 1.093996,-10.16015 -3.934444 1.327723,-10.1081 -3.286142 1.504958,-10.63491 -6.145576 0.9767329,-10.70166 -5.238183 1.185408,-10.72616 -4.638262 1.371646,-10.71612 -4.067581 1.513613,0.300,DnF
-2.498722 -7.812388 2.248071,-2.965518 -7.697038 3.155437,-3.32067 -7.218003 3.807791,-3.489006 -6.810317 4.404532,-3.828068 -6.736701 5.075239,-3.443677 -5.041927 3.256126,-3.670667 -3.911108 3.867447,-3.744572 -3.288873 4.414075,-3.731167 -2.939426 4.833355,-3.000651 -4.738534 3.14932,-3.187882 -3.505132 3.666219,-3.182201 -2.841268 4.217396,-3.065577 -2.584712 4.647488,-2.543672 -4.819683 3.143474,-2.553679 -3.652593 3.654243,-2.546596 -3.130887 4.191011,-2.517648 -2.915943 4.527804,-2.056217 -5.146341 3.203743,-1.880461 -4.228563 3.677083,-1.892614 -3.860677 4.085025,-1.913492 -3.753246 4.405672,-10.28359 -8.561775 0.3565647,-9.689708 -8.333755 0.7667066,-9.199189 -7.733537 1.070604,-8.915682 -7.060979 1.382952,-8.689293 -6.563562 1.678365,-9.577102 -6.045482 0.7966371,-9.431512 -4.995771 1.069829,-9.375386 -4.341081 1.29794,-9.343545 -3.778692 1.429495,-9.923469 -5.822536 0.8213215,-9.812079 -4.560798 1.043852,-9.760078 -3.762293 1.299317,-9.730651 -3.071521 1.486179,-10.27129 -5.877002 0.8752201,-10.20414 -4.689271 1.093996,-10.16015 -3.934444 1.327723,-10.1081 -3.286142 1.504958,-10.63491 -6.145576 0.9767329,-10.70166 -5.238183 1.185408,-10.72616 -4.638262 1.371646,-10.71612 -4.067581 1.513613,0.320,DnF
-2.498722 -7.812388 2.248071,-2.965518 -7.697038 3.155437,-3.32067 -7.218003 3.807791,-3.489006 -6.810317 4.404532,-3.828068 -6.736701 5.075239,-3.443677 -5.041927 3.256126,-3.670667 -3.911108 3.867447,-3.744572 -3.288873 4.414075,-3.731167 -2.939426 4.833355,-3.000651 -4.738534 3.14932,-3.187882 -3.505132 3.666219,-3.182201 -2.841268 4.217396,-3.065577 -2.584712 4.647488,-2.543672 -4.819683 3.143474,-2.553679 -3.652593 3.654243,-2.546596 -3.130887 4.191011,-2.517648 -2.915943 4.527804,-2.056217 -5.146341 3.203743,-1.880461 -4.228563 3.677083,-1.892614 -3.860677 4.085025,-1.913492 -3.753246 4.405672,-10.28359 -8.561775 0.3565647,-9.689708 -8.333755 0.7667066,-9.199189 -7.733537 1.070604,-8.915682 -7.060979 1.382952,-8.689293 -6.563562 1.678365,-9.577102 -6.045482 0.7966371,-9.431512 -4.995771 1.069829,-9.375386 -4.341081 1.29794,-9.343545 -3.778692 1.429495,-9.923469 -5.822536 0.8213215,-9.812079 -4.560798 1.043852,-9.760078 -3.762293 1.299317,-9.730651 -3.071521 1.486179,-10.27129 -5.877002 0.8752201,-10.20414 -4.689271 1.093996,-10.16015 -3.934444 1.327723,-10.1081 -3.286142 1.504958,-10.63491 -6.145576 0.9767329,-10.70166 -5.238183 1.185408,-10.72616 -4.638262 1.371646,-10.71612 -4.067581 1.513613,0.340,DnF
-2.288323 -7.925358 2.076656,-2.911535 -7.933673 2.987524,-3.429996 -7.631534 3.549525,-3.761116 -7.259145 4.01272,-4.124681 -7.011985 4.510871,-3.183052 -5.180292 3.183068,-3.448525 -4.126396 3.709136,-3.521337 -3.520992 4.113719,-3.542353 -2.926708 4.377541,-2.717459 -4.916261 3.056947,-2.857874 -3.691969 3.526839,-2.870689 -2.981447 3.964529,-2.854964 -2.398644 4.315542,-2.282278 -5.043716 3.011031,-2.29423 -3.897747 3.447794,-2.278698 -3.252885 3.943123,-2.272917 -2.703241 4.310363,-1.840562 -5.455675 3.045392,-1.680852 -4.584025 3.505108,-1.605725 -4.111804 3.912832,-1.577924 -3.716219 4.232564,-10.24971 -8.570217 0.3767086,-9.652452 -8.333117 0.7924266,-9.163424 -7.716892 1.095055,-8.878413 -7.03689 1.403814,-8.657022 -6.538033 1.695265,-9.547759 -6.045059 0.8252782,-9.407338 -4.994184 1.100537,-9.353183 -4.336494 1.330703,-9.31936 -3.7743 1.468527,-9.895248 -5.82491 0.8445758,-9.78804 -4.552459 1.077313,-9.734131 -3.750426 1.341686,-9.703487 -3.05299 1.537407,-10.24278 -5.878002 0.8954393,-10.17935 -4.680327 1.118584,-10.13007 -3.929019 1.354953,-10.07175 -3.285518 1.53064,-10.60743 -6.142307 0.9902661,-10.67713 -5.230089 1.203531,-10.69702 -4.627784 1.386587,-10.68405 -4.051024 1.525274,0.360,DnF
-2.288323 -7.925358 2.076656,-2.911535 -7.933673 2.987524,-3.429996 -7.631534 3.549525,-3.761116 -7.259145 4.01272,-4.124681 -7.011985 4.510871,-3.183052 -5.180292 3.183068,-3.448525 -4.126396 3.709136,-3.521337 -3.520992 4.113719,-3.542353 -2.926708 4.377541,-2.717459 -4.916261 3.056947,-2.857874 -3.691969 3.526839,-2.870689 -2.981447 3.964529,-2.854964 -2.398644 4.315542,-2.282278 -5.043716 3.011031,-2.29423 -3.897747 3.447794,-2.278698 -3.252885 3.943123,-2.272917 -2.703241 4.310363,-1.840562 -5.455675 3.045392,-1.680852 -4.584025 3.505108,-1.605725 -4.111804 3.912832,-1.577924 -3.716219 4.232564,-10.24971 -8.570217 0.3767086,-9.652452 -8.333117 0.7924266,-9.163424 -7.716892 1.095055,-8.878413 -7.03689 1.403814,-8.657022 -6.538033 1.695265,-9.547759 -6.045059 0.8252782,-9.407338 -4.994184 1.100537,-9.353183 -4.336494 1.330703,-9.31936 -3.7743 1.468527,-9.895248 -5.82491 0.8445758,-9.78804 -4.552459 1.077313,-9.734131 -3.750426 1.341686,-9.703487 -3.05299 1.537407,-10.24278 -5.878002 0.8954393,-10.17935 -4.680327 1.118584,-10.13007 -3.929019 1.354953,-10.07175 -3.285518 1.53064,-10.60743 -6.142307 0.9902661,-10.67713 -5.230089 1.203531,-10.69702 -4.627784 1.386587,-10.68405 -4.051024 1.525274,0.380,DnF
-2.288323 -7.925358 2.076656,-2.911535 -7.933673 2.987524,-3.429996 -7.631534 3.549525,-3.761116 -7.259145 4.01272,-4.124681 -7.011985 4.510871,-3.183052 -5.180292 3.183068,-3.448525 -4.126396 3.709136,-3.521337 -3.520992 4.113719,-3.542353 -2.926708 4.377541,-2.717459 -4.916261 3.056947,-2.857874 -3.691969 3.526839,-2.870689 -2.981447 3.964529,-2.854964 -2.398644 4.315542,-2.282278 -5.043716 3.011031,-2.29423 -3.897747 3.447794,-2.278698 -3.252885 3.943123,-2.272917 -2.703241 4.310363,-1.840562 -5.455675 3.045392,-1.680852 -4.584025 3.505108,-1.605725 -4.111804 3.912832,-1.577924 -3.716219 4.232564,-10.24971 -8.570217 0.3767086,-9.652452 -8.333117 0.7924266,-9.163424 -7.716892 1.095055,-8.878413 -7.03689 1.403814,-8.657022 -6.538033 1.695265,-9.547759 -6.045059 0.8252782,-9.407338 -4.994184 1.100537,-9.353183 -4.336494 1.330703,-9.31936 -3.7743 1.468527,-9.895248 -5.82491 0.8445758,-9.78804 -4.552459 1.077313,-9.734131 -3.750426 1.341686,-9.703487 -3.05299 1.537407,-10.24278 -5.878002 0.8954393,-10.17935 -4.680327 1.118584,-10.13007 -3.929019 1.354953,-10.07175 -3.285518 1.53064,-10.60743 -6.142307 0.9902661,-10.67713 -5.230089 1.203531,-10.69702 -4.627784 1.386587,-10.68405 -4.051024 1.525274,0.400,DnF
-2.288323 -7.925358 2.076656,-2.911535 -7.933673 2.987524,-3.429996 -7.631534 3.549525,-3.761116 -7.259145 4.01272,-4.124681 -7.011985 4.510871,-3.183052 -5.180292 3.183068,-3.448525 -4.126396 3.709136,-3.521337 -3.520992 4.113719,-3.542353 -2.926708 4.377541,-2.717459 -4.916261 3.056947,-2.857874 -3.691969 3.526839,-2.870689 -2.981447 3.964529,-2.854964 -2.398644 4.315542,-2.282278 -5.043716 3.011031,-2.29423 -3.897747 3.447794,-2.278698 -3.252885 3.943123,-2.272917 -2.703241 4.310363,-1.840562 -5.455675 3.045392,-1.680852 -4.584025 3.505108,-1.605725 -4.111804 3.912832,-1.577924 -3.716219 4.232564,-10.24971 -8.570217 0.3767086,-9.652452 -8.333117 0.7924266,-9.163424 -7.716892 1.095055,-8.878413 -7.03689 1.403814,-8.657022 -6.538033 1.695265,-9.547759 -6.045059 0.8252782,-9.407338 -4.994184 1.100537,-9.353183 -4.336494 1.330703,-9.31936 -3.7743 1.468527,-9.895248 -5.82491 0.8445758,-9.78804 -4.552459 1.077313,-9.734131 -3.750426 1.341686,-9.703487 -3.05299 1.537407,-10.24278 -5.878002 0.8954393,-10.17935 -4.680327 1.118584,-10.13007 -3.929019 1.354953,-10.07175 -3.285518 1.53064,-10.60743 -6.142307 0.9902661,-10.67713 -5.230089 1.203531,-10.69702 -4.627784 1.386587,-10.68405 -4.051024 1.525274,0.420,DnF
-2.221859 -7.964865 1.914716,-2.83529 -7.946611 2.7239,-3.37394 -7.677843 3.16509,-3.721091 -7.320888 3.518954,-4.061931 -7.058646 3.894802,-3.10446 -5.230604 2.784919,-3.356309 -4.212011 3.224846,-3.431799 -3.616689 3.59581,-3.451893 -3.057498 3.862152,-2.639129 -4.940023 2.678039,-2.752549 -3.771046 3.012086,-2.758314 -3.056245 3.375154,-2.742945 -2.431012 3.684105,-2.195895 -5.06603 2.647699,-2.172541 -3.948305 2.998047,-2.13958 -3.313873 3.453876,-2.117713 -2.784381 3.790935,-1.739758 -5.481586 2.696745,-1.587063 -4.668899 3.091971,-1.483129 -4.198925 3.448141,-1.422153 -3.780914 3.71922,-10.24482 -8.572172 0.3965552,-9.640978 -8.328272 0.7778613,-9.146967 -7.715041 1.063038,-8.857578 -7.031106 1.360454,-8.632142 -6.541585 1.6465,-9.534299 -6.024582 0.7713231,-9.395521 -4.973066 1.020674,-9.344837 -4.321193 1.244529,-9.310231 -3.766436 1.383185,-9.87776 -5.813099 0.8037879,-9.772365 -4.548603 1.005469,-9.716482 -3.759685 1.258448,-9.680956 -3.069499 1.448221,-10.22422 -5.869827 0.8705018,-10.16119 -4.685157 1.070088,-10.11031 -3.944391 1.294239,-10.05094 -3.309744 1.461368,-10.58907 -6.13671 0.9779188,-10.66074 -5.228248 1.181151,-10.68185 -4.623252 1.356013,-10.67085 -4.040621 1.482028,0.440,DnF
-2.221859 -7.964865 1.914716,-2.83529 -7.946611 2.7239,-3.37394 -7.677843 3.16509,-3.721091 -7.320888 3.518954,-4.061931 -7.058646 3.894802,-3.10446 -5.230604 2.784919,-3.356309 -4.212011 3.224846,-3.431799 -3.616689 3.59581,-3.451893 -3.057498 3.862152,-2.639129 -4.940023 2.678039,-2.752549 -3.771046 3.012086,-2.758314 -3.056245 3.375154,-2.742945 -2.431012 3.684105,-2.195895 -5.06603 2.647699,-2.172541 -3.948305 2.998047,-2.13958 -3.313873 3.453876,-2.117713 -2.784381 3.790935,-1.739758 -5.481586 2.696745,-1.587063 -4.668899 3.091971,-1.483129 -4.198925 3.448141,-1.422153 -3.780914 3.71922,-10.24482 -8.572172 0.3965552,-9.640978 -8.328272 0.7778613,-9.146967 -7.715041 1.063038,-8.857578 -7.031106 1.360454,-8.632142 -6.541585 1.6465,-9.534299 -6.024582 0.7713231,-9.395521 -4.973066 1.020674,-9.344837 -4.321193 1.244529,-9.310231 -3.766436 1.383185,-9.87776 -5.813099 0.8037879,-9.772365 -4.548603 1.005469,-9.716482 -3.759685 1.258448,-9.680956 -3.069499 1.448221,-10.22422 -5.869827 0.8705018,-10.16119 -4.685157 1.070088,-10.11031 -3.944391 1.294239,-10.05094 -3.309744 1.461368,-10.58907 -6.13671 0.9779188,-10.66074 -5.228248 1.181151,-10.68185 -4.623252 1.356013,-10.67085 -4.040621 1.482028,0.460,DnF
-2.221859 -7.964865 1.914716,-2.83529 -7.946611 2.7239,-3.37394 -7.677843 3.16509,-3.721091 -7.320888 3.518954,-4.061931 -7.058646 3.894802,-3.10446 -5.230604 2.784919,-3.356309 -4.212011 3.224846,-3.431799 -3.616689 3.59581,-3.451893 -3.057498 3.862152,-2.639129 -4.940023 2.678039,-2.752549 -3.771046 3.012086,-2.758314 -3.056245 3.375154,-2.742945 -2.431012 3.684105,-2.195895 -5.06603 2.647699,-2.172541 -3.948305 2.998047,-2.13958 -3.313873 3.453876,-2.117713 -2.784381 3.790935,-1.739758 -5.481586 2.696745,-1.587063 -4.668899 3.091971,-1.483129 -4.198925 3.448141,-1.422153 -3.780914 3.71922,-10.24482 -8.572172 0.3965552,-9.640978 -8.328272 0.7778613,-9.146967 -7.715041 1.063038,-8.857578 -7.031106 1.360454,-8.632142 -6.541585 1.6465,-9.534299 -6.024582 0.7713231,-9.395521 -4.973066 1.020674,-9.344837 -4.321193 1.244529,-9.310231 -3.766436 1.383185,-9.87776 -5.813099 0.8037879,-9.772365 -4.548603 1.005469,-9.716482 -3.759685 1.258448,-9.680956 -3.069499 1.448221,-10.22422 -5.869827 0.8705018,-10.16119 -4.685157 1.070088,-10.11031 -3.944391 1.294239,-10.05094 -3.309744 1.461368,-10.58907 -6.13671 0.9779188,-10.66074 -5.228248 1.181151,-10.68185 -4.623252 1.356013,-10.67085 -4.040621 1.482028,0.480,DnF
-2.300638 -7.837633 1.801014,-2.819456 -8.009842 2.691652,-3.533749 -7.638139 3.087552,-3.913774 -7.066656 3.359446,-4.258158 -6.802711 4.233644,-3.245569 -5.400964 2.834848,-3.523949 -4.398168 3.163468,-3.715466 -3.661499 3.647594,-3.787194 -2.926207 4.00566,-2.739623 -4.849731 2.588781,-2.894965 -3.692186 2.908704,-2.932091 -2.864864 3.383647,-2.917988 -2.090486 3.863866,-2.059501 -4.847243 2.441318,-2.13054 -3.930648 2.883473,-2.123185 -3.183529 3.482387,-2.132072 -2.545096 4.009323,-1.506821 -5.421833 2.638851,-1.293108 -4.53283 2.963984,-1.181797 -4.018123 3.541635,-1.331621 -3.498886 4.074356,-10.24482 -8.572172 0.3965552,-9.519004 -8.158682 0.8720503,-8.957515 -7.482902 1.245069,-8.74764 -6.591913 1.574115,-8.525671 -5.901693 1.935443,-9.139148 -6.321742 0.6380518,-9.082337 -5.079521 0.9362031,-9.001197 -4.263956 1.292975,-8.944116 -3.520208 1.460091,-9.586356 -5.892822 0.6205755,-9.60614 -4.500757 0.9283319,-9.52864 -3.534057 1.235502,-9.394794 -2.662399 1.502174,-10.1287 -5.945798 0.7444873,-10.19674 -4.65607 0.9890977,-10.10906 -3.75367 1.29189,-9.968432 -2.958926 1.549192,-10.65485 -6.302284 0.9279367,-10.78443 -5.360733 1.190204,-10.83494 -4.575399 1.462276,-10.85194 -3.802357 1.614838,0.500,DnF
-2.132969 -8.153681 1.917875,-2.72882 -8.128542 2.783174,-3.259069 -7.810771 3.251846,-3.588469 -7.404492 3.611854,-3.912847 -7.091703 3.99054,-2.99035 -5.433364 2.892586,-3.220861 -4.426076 3.334873,-3.286156 -3.861883 3.734481,-3.296148 -3.317814 4.03273,-2.524833 -5.139828 2.739882,-2.607739 -3.974405 3.092088,-2.587761 -3.277259 3.458535,-2.546465 -2.654018 3.766215,-2.08877 -5.252771 2.653528,-2.039033 -4.138755 2.999835,-1.985044 -3.555864 3.421937,-1.931442 -3.081496 3.736762,-1.650045 -5.649572 2.650479,-1.461387 -4.824115 3.034422,-1.325482 -4.355335 3.362169,-1.218023 -3.94279 3.618071,-10.21321 -8.564655 0.4159737,-9.612702 -8.322176 0.815932,-9.117846 -7.711755 1.112967,-8.82891 -7.03123 1.419211,-8.605753 -6.530008 1.709717,-9.503429 -6.025354 0.8352441,-9.360028 -4.982059 1.099782,-9.306438 -4.333763 1.329378,-9.272064 -3.777871 1.469883,-9.847481 -5.805252 0.8589439,-9.735125 -4.54091 1.073874,-9.678871 -3.755258 1.3327,-9.643624 -3.063985 1.52648,-10.19392 -5.855619 0.9145417,-10.1285 -4.667411 1.124605,-10.07902 -3.929225 1.353234,-10.0195 -3.292161 1.52442,-10.55749 -6.118855 1.011927,-10.63047 -5.21266 1.21159,-10.65587 -4.614837 1.386073,-10.64661 -4.037271 1.516379,0.520,DnF
-2.132969 -8.153681 1.917875,-2.72882 -8.128542 2.783174,-3.259069 -7.810771 3.251846,-3.588469 -7.404492 3.611854,-3.912847 -7.091703 3.99054,-2.99035 -5.433364 2.892586,-3.220861 -4.426076 3.334873,-3.286156 -3.861883 3.734481,-3.296148 -3.317814 4.03273,-2.524833 -5.139828 2.739882,-2.607739 -3.974405 3.092088,-2.587761 -3.277259 3.458535,-2.546465 -2.654018 3.766215,-2.08877 -5.252771 2.653528,-2.039033 -4.138755 2.999835,-1.985044 -3.555864 3.421937,-1.931442 -3.081496 3.736762,-1.650045 -5.649572 2.650479,-1.461387 -4.824115 3.034422,-1.325482 -4.355335 3.362169,-1.218023 -3.94279 3.618071,-10.21321 -8.564655 0.4159737,-9.612702 -8.322176 0.815932,-9.117846 -7.711755 1.112967,-8.82891 -7.03123 1.419211,-8.605753 -6.530008 1.709717,-9.503429 -6.025354 0.8352441,-9.360028 -4.982059 1.099782,-9.306438 -4.333763 1.329378,-9.272064 -3.777871 1.469883,-9.847481 -5.805252 0.8589439,-9.735125 -4.54091 1.073874,-9.678871 -3.755258 1.3327,-9.643624 -3.063985 1.52648,-10.19392 -5.855619 0.9145417,-10.1285 -4.667411 1.124605,-10.07902 -3.929225 1.353234,-10.0195 -3.292161 1.52442,-10.55749 -6.118855 1.011927,-10.63047 -5.21266 1.21159,-10.65587 -4.614837 1.386073,-10.64661 -4.037271 1.516379,0.540,DnF
-2.132969 -8.153681 1.917875,-2.72882 -8.128542 2.783174,-3.259069 -7.810771 3.251846,-3.588469 -7.404492 3.611854,-3.912847 -7.091703 3.99054,-2.99035 -5.433364 2.892586,-3.220861 -4.426076 3.334873,-3.286156 -3.861883 3.734481,-3.296148 -3.317814 4.03273,-2.524833 -5.139828 2.739882,-2.607739 -3.974405 3.092088,-2.587761 -3.277259 3.458535,-2.546465 -2.654018 3.766215,-2.08877 -5.252771 2.653528,-2.039033 -4.138755 2.999835,-1.985044 -3.555864 3.421937,-1.931442 -3.081496 3.736762,-1.650045 -5.649572 2.650479,-1.461387 -4.824115 3.034422,-1.325482 -4.355335 3.362169,-1.218023 -3.94279 3.618071,-10.21321 -8.564655 0.4159737,-9.612702 -8.322176 0.815932,-9.117846 -7.711755 1.112967,-8.82891 -7.03123 1.419211,-8.605753 -6.530008 1.709717,-9.503429 -6.025354 0.8352441,-9.360028 -4.982059 1.099782,-9.306438 -4.333763 1.329378,-9.272064 -3.777871 1.469883,-9.847481 -5.805252 0.8589439,-9.735125 -4.54091 1.073874,-9.678871 -3.755258 1.3327,-9.643624 -3.063985 1.52648,-10.19392 -5.855619 0.9145417,-10.1285 -4.667411 1.124605,-10.07902 -3.929225 1.353234,-10.0195 -3.292161 1.52442,-10.55749 -6.118855 1.011927,-10.63047 -5.21266 1.21159,-10.65587 -4.614837 1.386073,-10.64661 -4.037271 1.516379,0.560,DnF
-2.072292 -8.147602 1.908278,-2.661845 -8.187027 2.787133,-3.203514 -7.879634 3.257868,-3.544668 -7.504402 3.626126,-3.873512 -7.209171 4.016274,-2.916096 -5.431961 2.864307,-3.140598 -4.456083 3.321471,-3.195486 -3.90835 3.729668,-3.187117 -3.418423 4.019029,-2.450264 -5.129701 2.711151,-2.531629 -4.022829 3.045964,-2.50862 -3.351057 3.442796,-2.546465 -2.654018 3.756559,-2.08877 -5.252771 2.643873,-2.039033 -4.138755 2.990179,-1.985044 -3.555864 3.412282,-1.931442 -3.081496 3.727106,-1.650045 -5.649572 2.640823,-1.461387 -4.824115 3.024766,-1.325482 -4.355335 3.352514,-1.218023 -3.94279 3.608415,-10.21321 -8.564655 0.4159737,-9.612702 -8.322176 0.815932,-9.117846 -7.711755 1.112967,-8.82891 -7.03123 1.419211,-8.605753 -6.530008 1.709717,-9.503429 -6.025354 0.8352441,-9.360028 -4.982059 1.099782,-9.306438 -4.333763 1.329378,-9.272064 -3.777871 1.469883,-9.847481 -5.805252 0.8589439,-9.735125 -4.54091 1.073874,-9.678871 -3.755258 1.3327,-9.643624 -3.063985 1.52648,-10.19392 -5.855619 0.9145417,-10.1285 -4.667411 1.124605,-10.07902 -3.929225 1.353234,-10.0195 -3.292161 1.52442,-10.55749 -6.118855 1.011927,-10.63047 -5.21266 1.21159,-10.65587 -4.614837 1.386073,-10.64661 -4.037271 1.516379,0.580,DnF
-2.072292 -8.147602 1.908278,-2.661845 -8.187027 2.787133,-3.203514 -7.879634 3.257868,-3.544668 -7.504402 3.626126,-3.873512 -7.209171 4.016274,-2.916096 -5.431961 2.864307,-3.140598 -4.456083 3.321471,-3.195486 -3.90835 3.729668,-3.187117 -3.418423 4.019029,-2.450264 -5.129701 2.711151,-2.531629 -4.022829 3.045964,-2.50862 -3.351057 3.442796,-2.454389 -2.796201 3.781742,-2.018591 -5.244255 2.638791,-1.977962 -4.167896 2.980396,-1.919098 -3.5912 3.435593,-1.857738 -3.149798 3.785939,-1.579634 -5.646919 2.647846,-1.400508 -4.846405 3.028933,-1.263932 -4.414182 3.383094,-1.157673 -4.054471 3.656776,-10.21394 -8.580214 0.4345891,-9.611136 -8.330488 0.7918169,-9.117848 -7.70228 1.060179,-8.825959 -7.019506 1.344341,-8.589322 -6.550003 1.61866,-9.505366 -6.007936 0.7781469,-9.37056 -4.95689 1.015265,-9.316817 -4.309233 1.236909,-9.277398 -3.754161 1.377102,-9.84915 -5.806118 0.8160604,-9.746812 -4.542642 1.00554,-9.685879 -3.760595 1.251369,-9.646914 -3.073304 1.437609,-10.1936 -5.870039 0.8909143,-10.13203 -4.685585 1.076669,-10.0752 -3.959734 1.285921,-10.01392 -3.334228 1.441145,-10.55505 -6.143684 1.001052,-10.63102 -5.237476 1.191851,-10.65179 -4.643623 1.353652,-10.64385 -4.066183 1.469239,0.600,DnF
-2.072292 -8.147602 1.908278,-2.661845 -8.187027 2.787133,-3.203514 -7.879634 3.257868,-3.544668 -7.504402 3.626126,-3.873512 -7.209171 4.016274,-2.916096 -5.431961 2.864307,-3.140598 -4.456083 3.321471,-3.195486 -3.90835 3.729668,-3.187117 -3.418423 4.019029,-2.450264 -5.129701 2.711151,-2.531629 -4.022829 3.045964,-2.50862 -3.351057 3.442796,-2.454389 -2.796201 3.781742,-2.018591 -5.244255 2.638791,-1.977962 -4.167896 2.980396,-1.919098 -3.5912 3.435593,-1.857738 -3.149798 3.785939,-1.579634 -5.646919 2.647846,-1.400508 -4.846405 3.028933,-1.263932 -4.414182 3.383094,-1.157673 -4.054471 3.656776,-10.21394 -8.580214 0.4345891,-9.611136 -8.330488 0.7918169,-9.117848 -7.70228 1.060179,-8.825959 -7.019506 1.344341,-8.589322 -6.550003 1.61866,-9.505366 -6.007936 0.7781469,-9.37056 -4.95689 1.015265,-9.316817 -4.309233 1.236909,-9.277398 -3.754161 1.377102,-9.84915 -5.806118 0.8160604,-9.746812 -4.542642 1.00554,-9.685879 -3.760595 1.251369,-9.646914 -3.073304 1.437609,-10.1936 -5.870039 0.8909143,-10.13203 -4.685585 1.076669,-10.0752 -3.959734 1.285921,-10.01392 -3.334228 1.441145,-10.55505 -6.143684 1.001052,-10.63102 -5.237476 1.191851,-10.65179 -4.643623 1.353652,-10.64385 -4.066183 1.469239,0.620,DnF
-2.072292 -8.147602 1.908278,-2.661845 -8.187027 2.787133,-3.203514 -7.879634 3.257868,-3.544668 -7.504402 3.626126,-3.873512 -7.209171 4.016274,-2.916096 -5.431961 2.864307,-3.140598 -4.456083 3.321471,-3.195486 -3.90835 3.729668,-3.187117 -3.418423 4.019029,-2.450264 -5.129701 2.711151,-2.531629 -4.022829 3.045964,-2.50862 -3.351057 3.442796,-2.454389 -2.796201 3.781742,-2.018591 -5.244255 2.638791,-1.977962 -4.167896 2.980396,-1.919098 -3.5912 3.435593,-1.857738 -3.149798 3.785939,-1.579634 -5.646919 2.647846,-1.400508 -4.846405 3.028933,-1.263932 -4.414182 3.383094,-1.157673 -4.054471 3.656776,-10.21394 -8.580214 0.4345891,-9.611136 -8.330488 0.7918169,-9.117848 -7.70228 1.060179,-8.825959 -7.019506 1.344341,-8.589322 -6.550003 1.61866,-9.505366 -6.007936 0.7781469,-9.37056 -4.95689 1.015265,-9.316817 -4.309233 1.236909,-9.277398 -3.754161 1.377102,-9.84915 -5.806118 0.8160604,-9.746812 -4.542642 1.00554,-9.685879 -3.760595 1.251369,-9.646914 -3.073304 1.437609,-10.1936 -5.870039 0.8909143,-10.13203 -4.685585 1.076669,-10.0752 -3.959734 1.285921,-10.01392 -3.334228 1.441145,-10.55505 -6.143684 1.001052,-10.63102 -5.237476 1.191851,-10.65179 -4.643623 1.353652,-10.64385 -4.066183 1.469239,0.640,DnF
-2.031192 -8.254969 1.991111,-2.619873 -8.263548 2.863361,-3.166724 -7.9311 3.318717,-3.504784 -7.535269 3.671322,-3.818669 -7.229991 4.040719,-2.870773 -5.483985 2.881086,-3.09588 -4.497773 3.31887,-3.136372 -3.967908 3.730535,-3.110735 -3.52367 4.023623,-2.399451 -5.19126 2.713958,-2.471478 -4.081361 3.044814,-2.428588 -3.429916 3.451506,-2.357896 -2.951763 3.803089,-1.971068 -5.304971 2.629975,-1.914862 -4.233611 2.957751,-1.836143 -3.676704 3.420924,-1.756553 -3.293823 3.77878,-1.54018 -5.696052 2.627519,-1.357627 -4.884582 2.99087,-1.218805 -4.44102 3.350156,-1.111483 -4.090209 3.634061,-10.2059 -8.588848 0.4857691,-9.60874 -8.318296 0.8331818,-9.118238 -7.686449 1.098448,-8.827497 -7.006334 1.381984,-8.592182 -6.537481 1.657157,-9.501678 -5.9952 0.8177489,-9.365113 -4.960357 1.05046,-9.311632 -4.323096 1.270799,-9.276119 -3.775991 1.407879,-9.847589 -5.798067 0.8600469,-9.746727 -4.543794 1.037935,-9.688774 -3.760845 1.285501,-9.655959 -3.071578 1.478126,-10.19332 -5.867232 0.9397379,-10.13619 -4.700958 1.111218,-10.07926 -3.978428 1.3158,-10.02023 -3.354171 1.475055,-10.55426 -6.147661 1.054585,-10.63449 -5.250124 1.230957,-10.65441 -4.660548 1.387403,-10.64538 -4.084049 1.502085,0.660,DnF
-2.031192 -8.254969 1.991111,-2.619873 -8.263548 2.863361,-3.166724 -7.9311 3.318717,-3.504784 -7.535269 3.671322,-3.818669 -7.229991 4.040719,-2.870773 -5.483985 2.881086,-3.09588 -4.497773 3.31887,-3.136372 -3.967908 3.730535,-3.110735 -3.52367 4.023623,-2.399451 -5.19126 2.713958,-2.471478 -4.081361 3.044814,-2.428588 -3.429916 3.451506,-2.357896 -2.951763 3.803089,-1.971068 -5.304971 2.629975,-1.914862 -4.233611 2.957751,-1.836143 -3.676704 3.420924,-1.756553 -3.293823 3.77878,-1.54018 -5.696052 2.627519,-1.357627 -4.884582 2.99087,-1.218805 -4.44102 3.350156,-1.111483 -4.090209 3.634061,-10.2059 -8.588848 0.4857691,-9.60874 -8.318296 0.8331818,-9.118238 -7.686449 1.098448,-8.827497 -7.006334 1.381984,-8.592182 -6.537481 1.657157,-9.501678 -5.9952 0.8177489,-9.365113 -4.960357 1.05046,-9.311632 -4.323096 1.270799,-9.276119 -3.775991 1.407879,-9.847589 -5.798067 0.8600469,-9.746727 -4.543794 1.037935,-9.688774 -3.760845 1.285501,-9.655959 -3.071578 1.478126,-10.19332 -5.867232 0.9397379,-10.13619 -4.700958 1.111218,-10.07926 -3.978428 1.3158,-10.02023 -3.354171 1.475055,-10.55426 -6.147661 1.054585,-10.63449 -5.250124 1.230957,-10.65441 -4.660548 1.387403,-10.64538 -4.084049 1.502085,0.680,DnF
-2.031192 -8.254969 1.991111,-2.619873 -8.263548 2.863361,-3.166724 -7.9311 3.318717,-3.504784 -7.535269 3.671322,-3.818669 -7.229991 4.040719,-2.870773 -5.483985 2.881086,-3.09588 -4.497773 3.31887,-3.136372 -3.967908 3.730535,-3.110735 -3.52367 4.023623,-2.399451 -5.19126 2.713958,-2.471478 -4.081361 3.044814,-2.428588 -3.429916 3.451506,-2.357896 -2.951763 3.803089,-1.971068 -5.304971 2.629975,-1.914862 -4.233611 2.957751,-1.836143 -3.676704 3.420924,-1.756553 -3.293823 3.77878,-1.54018 -5.696052 2.627519,-1.357627 -4.884582 2.99087,-1.218805 -4.44102 3.350156,-1.111483 -4.090209 3.634061,-10.2059 -8.588848 0.4857691,-9.60874 -8.318296 0.8331818,-9.118238 -7.686449 1.098448,-8.827497 -7.006334 1.381984,-8.592182 -6.537481 1.657157,-9.501678 -5.9952 0.8177489,-9.365113 -4.960357 1.05046,-9.311632 -4.323096 1.270799,-9.276119 -3.775991 1.407879,-9.847589 -5.798067 0.8600469,-9.746727 -4.543794 1.037935,-9.688774 -3.760845 1.285501,-9.655959 -3.071578 1.478126,-10.19332 -5.867232 0.9397379,-10.13619 -4.700958 1.111218,-10.07926 -3.978428 1.3158,-10.02023 -3.354171 1.475055,-10.55426 -6.147661 1.054585,-10.63449 -5.250124 1.230957,-10.65441 -4.660548 1.387403,-10.64538 -4.084049 1.502085,0.700,DnF
-2.031192 -8.254969 1.991111,-2.619873 -8.263548 2.863361,-3.166724 -7.9311 3.318717,-3.504784 -7.535269 3.671322,-3.818669 -7.229991 4.040719,-2.870773 -5.483985 2.881086,-3.09588 -4.497773 3.31887,-3.136372 -3.967908 3.730535,-3.110735 -3.52367 4.023623,-2.399451 -5.19126 2.713958,-2.471478 -4.081361 3.044814,-2.428588 -3.429916 3.451506,-2.357896 -2.951763 3.803089,-1.971068 -5.304971 2.629975,-1.914862 -4.233611 2.957751,-1.836143 -3.676704 3.420924,-1.756553 -3.293823 3.77878,-1.54018 -5.696052 2.627519,-1.357627 -4.884582 2.99087,-1.218805 -4.44102 3.350156,-1.111483 -4.090209 3.634061,-10.2059 -8.588848 0.4857691,-9.60874 -8.318296 0.8331818,-9.118238 -7.686449 1.098448,-8.827497 -7.006334 1.381984,-8.592182 -6.537481 1.657157,-9.501678 -5.9952 0.8177489,-9.365113 -4.960357 1.05046,-9.311632 -4.323096 1.270799,-9.276119 -3.775991 1.407879,-9.847589 -5.798067 0.8600469,-9.746727 -4.543794 1.037935,-9.688774 -3.760845 1.285501,-9.655959 -3.071578 1.478126,-10.19332 -5.867232 0.9397379,-10.13619 -4.700958 1.111218,-10.07926 -3.978428 1.3158,-10.02023 -3.354171 1.475055,-10.55426 -6.147661 1.054585,-10.63449 -5.250124 1.230957,-10.65441 -4.660548 1.387403,-10.64538 -4.084049 1.502085,0.720,DnF
-1.98765 -8.273287 2.070045,-2.580686 -8.301807 2.971704,-3.125249 -7.952096 3.44136,-3.453921 -7.546755 3.804627,-3.757315 -7.229879 4.175953,-2.826687 -5.492538 2.980311,-3.042423 -4.539289 3.425454,-3.079058 -4.014495 3.846208,-3.049863 -3.560537 4.144217,-2.35529 -5.189018 2.804742,-2.421428 -4.090164 3.145315,-2.371699 -3.454114 3.559033,-2.29171 -2.968425 3.912523,-1.930085 -5.301598 2.719934,-1.875513 -4.247681 3.055684,-1.787954 -3.71777 3.530165,-1.696207 -3.34515 3.899798,-1.496568 -5.698888 2.715964,-1.320827 -4.908771 3.075092,-1.186955 -4.498066 3.440234,-1.080951 -4.171487 3.732624,-10.21058 -8.608646 0.5403453,-9.613624 -8.342083 0.8923173,-9.118674 -7.702014 1.157462,-8.829557 -7.015958 1.439146,-8.595439 -6.544601 1.70797,-9.509262 -6.001691 0.8800788,-9.376437 -4.961504 1.110307,-9.322572 -4.3215 1.326601,-9.284141 -3.773748 1.463998,-9.854733 -5.802369 0.9196892,-9.754281 -4.555479 1.097046,-9.696291 -3.775239 1.344901,-9.660927 -3.086997 1.538148,-10.20047 -5.870279 0.9960322,-10.14125 -4.70917 1.166686,-10.08743 -3.989252 1.375293,-10.03012 -3.368352 1.538997,-10.56268 -6.150108 1.107295,-10.64286 -5.253524 1.28505,-10.66467 -4.664386 1.444193,-10.65809 -4.089741 1.563606,0.740,DnF
-1.98765 -8.273287 2.070045,-2.580686 -8.301807 2.971704,-3.125249 -7.952096 3.44136,-3.453921 -7.546755 3.804627,-3.757315 -7.229879 4.175953,-2.826687 -5.492538 2.980311,-3.042423 -4.539289 3.425454,-3.079058 -4.014495 3.846208,-3.049863 -3.560537 4.144217,-2.35529 -5.189018 2.804742,-2.421428 -4.090164 3.145315,-2.371699 -3.454114 3.559033,-2.29171 -2.968425 3.912523,-1.930085 -5.301598 2.719934,-1.875513 -4.247681 3.055684,-1.787954 -3.71777 3.530165,-1.696207 -3.34515 3.899798,-1.496568 -5.698888 2.715964,-1.320827 -4.908771 3.075092,-1.186955 -4.498066 3.440234,-1.080951 -4.171487 3.732624,-10.21058 -8.608646 0.5403453,-9.613624 -8.342083 0.8923173,-9.118674 -7.702014 1.157462,-8.829557 -7.015958 1.439146,-8.595439 -6.544601 1.70797,-9.509262 -6.001691 0.8800788,-9.376437 -4.961504 1.110307,-9.322572 -4.3215 1.326601,-9.284141 -3.773748 1.463998,-9.854733 -5.802369 0.9196892,-9.754281 -4.555479 1.097046,-9.696291 -3.775239 1.344901,-9.660927 -3.086997 1.538148,-10.20047 -5.870279 0.9960322,-10.14125 -4.70917 1.166686,-10.08743 -3.989252 1.375293,-10.03012 -3.368352 1.538997,-10.56268 -6.150108 1.107295,-10.64286 -5.253524 1.28505,-10.66467 -4.664386 1.444193,-10.65809 -4.089741 1.563606,0.760,DnF
-1.98765 -8.273287 2.070045,-2.580686 -8.301807 2.971704,-3.125249 -7.952096 3.44136,-3.453921 -7.546755 3.804627,-3.757315 -7.229879 4.175953,-2.826687 -5.492538 2.980311,-3.042423 -4.539289 3.425454,-3.079058 -4.014495 3.846208,-3.049863 -3.560537 4.144217,-2.35529 -5.189018 2.804742,-2.421428 -4.090164 3.145315,-2.371699 -3.454114 3.559033,-2.29171 -2.968425 3.912523,-1.930085 -5.301598 2.719934,-1.875513 -4.247681 3.055684,-1.787954 -3.71777 3.530165,-1.696207 -3.34515 3.899798,-1.496568 -5.698888 2.715964,-1.320827 -4.908771 3.075092,-1.186955 -4.498066 3.440234,-1.080951 -4.171487 3.732624,-10.21058 -8.608646 0.5403453,-9.613624 -8.342083 0.8923173,-9.118674 -7.702014 1.157462,-8.829557 -7.015958 1.439146,-8.595439 -6.544601 1.70797,-9.509262 -6.001691 0.8800788,-9.376437 -4.961504 1.110307,-9.322572 -4.3215 1.326601,-9.284141 -3.773748 1.463998,-9.854733 -5.802369 0.9196892,-9.754281 -4.555479 1.097046,-9.696291 -3.775239 1.344901,-9.660927 -3.086997 1.538148,-10.20047 -5.870279 0.9960322,-10.14125 -4.70917 1.166686,-10.08743 -3.989252 1.375293,-10.03012 -3.368352 1.538997,-10.56268 -6.150108 1.107295,-10.64286 -5.253524 1.28505,-10.66467 -4.664386 1.444193,-10.65809 -4.089741 1.563606,0.780,DnF
-1.955832 -8.271729 1.974534,-2.542154 -8.286648 2.880314,-3.086137 -7.94221 3.363416,-3.4153 -7.528884 3.741254,-3.736274 -7.197803 4.132772,-2.786238 -5.523333 2.935842,-3.005257 -4.552225 3.392984,-3.043036 -4.003194 3.806746,-3.014503 -3.506207 4.098972,-2.323918 -5.228658 2.760947,-2.396677 -4.129405 3.13258,-2.353136 -3.479686 3.551831,-2.275509 -2.956293 3.903933,-1.90452 -5.338438 2.672149,-1.85708 -4.293277 3.028795,-1.772208 -3.753233 3.51148,-1.679451 -3.355201 3.879633,-1.477497 -5.727039 2.660732,-1.306329 -4.944101 3.04151,-1.176975 -4.531354 3.416828,-1.073203 -4.195678 3.718087,-10.21269 -8.630592 0.5403121,-9.613624 -8.342083 0.8923173,-9.118674 -7.702014 1.157462,-8.829557 -7.015958 1.439146,-8.595439 -6.544601 1.70797,-9.509262 -6.001691 0.8800788,-9.376437 -4.961504 1.110307,-9.322572 -4.3215 1.326601,-9.284141 -3.773748 1.463998,-9.854733 -5.802369 0.9196892,-9.754281 -4.555479 1.097046,-9.696291 -3.775239 1.344901,-9.660927 -3.086997 1.538148,-10.20047 -5.870279 0.9960322,-10.14125 -4.70917 1.166686,-10.08743 -3.989252 1.375293,-10.03012 -3.368352 1.538997,-10.56268 -6.150108 1.107295,-10.64286 -5.253524 1.28505,-10.66467 -4.664386 1.444193,-10.65809 -4.089741 1.563606,0.800,DnF
-1.955832 -8.271729 1.974534,-2.542154 -8.286648 2.880314,-3.086137 -7.94221 3.363416,-3.4153 -7.528884 3.741254,-3.736274 -7.197803 4.132772,-2.786238 -5.523333 2.935842,-3.005257 -4.552225 3.392984,-3.043036 -4.003194 3.806746,-3.014503 -3.506207 4.098972,-2.323918 -5.228658 2.760947,-2.396677 -4.129405 3.13258,-2.353136 -3.479686 3.551831,-2.275509 -2.956293 3.903933,-1.90452 -5.338438 2.672149,-1.85708 -4.293277 3.028795,-1.772208 -3.753233 3.51148,-1.679451 -3.355201 3.879633,-1.477497 -5.727039 2.660732,-1.306329 -4.944101 3.04151,-1.176975 -4.531354 3.416828,-1.073203 -4.195678 3.718087,-10.21269 -8.630592 0.514185,-9.60949 -8.359486 0.8601959,-9.115453 -7.71207 1.125267,-8.825203 -7.021997 1.410351,-8.59025 -6.548224 1.686248,-9.507169 -6.029511 0.8448127,-9.377176 -4.977325 1.083782,-9.323955 -4.326391 1.312572,-9.28518 -3.764436 1.459816,-9.854777 -5.832113 0.8930948,-9.75686 -4.568193 1.079818,-9.697616 -3.780339 1.332019,-9.660849 -3.085691 1.52474,-10.20336 -5.896344 0.9787843,-10.14636 -4.71067 1.160127,-10.09248 -3.977939 1.370226,-10.03369 -3.34515 1.529576,-10.56954 -6.170143 1.099922,-10.65268 -5.2543 1.28754,-10.67555 -4.64985 1.448421,-10.66955 -4.05968 1.56367,0.820,DnF
-1.955832 -8.271729 1.974534,-2.542154 -8.286648 2.880314,-3.086137 -7.94221 3.363416,-3.4153 -7.528884 3.741254,-3.736274 -7.197803 4.132772,-2.786238 -5.523333 2.935842,-3.005257 -4.552225 3.392984,-3.043036 -4.003194 3.806746,-3.014503 -3.506207 4.098972,-2.323918 -5.228658 2.760947,-2.396677 -4.129405 3.13258,-2.353136 -3.479686 3.551831,-2.275509 -2.956293 3.903933,-1.90452 -5.338438 2.672149,-1.85708 -4.293277 3.028795,-1.772208 -3.753233 3.51148,-1.679451 -3.355201 3.879633,-1.477497 -5.727039 2.660732,-1.306329 -4.944101 3.04151,-1.176975 -4.531354 3.416828,-1.073203 -4.195678 3.718087,-10.21269 -8.630592 0.514185,-9.60949 -8.359486 0.8601959,-9.115453 -7.71207 1.125267,-8.825203 -7.021997 1.410351,-8.59025 -6.548224 1.686248,-9.507169 -6.029511 0.8448127,-9.377176 -4.977325 1.083782,-9.323955 -4.326391 1.312572,-9.28518 -3.764436 1.459816,-9.854777 -5.832113 0.8930948,-9.75686 -4.568193 1.079818,-9.697616 -3.780339 1.332019,-9.660849 -3.085691 1.52474,-10.20336 -5.896344 0.9787843,-10.14636 -4.71067 1.160127,-10.09248 -3.977939 1.370226,-10.03369 -3.34515 1.529576,-10.56954 -6.170143 1.099922,-10.65268 -5.2543 1.28754,-10.67555 -4.64985 1.448421,-10.66955 -4.05968 1.56367,0.840,DnF
-1.955832 -8.271729 1.974534,-2.542154 -8.286648 2.880314,-3.086137 -7.94221 3.363416,-3.4153 -7.528884 3.741254,-3.736274 -7.197803 4.132772,-2.786238 -5.523333 2.935842,-3.005257 -4.552225 3.392984,-3.043036 -4.003194 3.806746,-3.014503 -3.506207 4.098972,-2.323918 -5.228658 2.760947,-2.396677 -4.129405 3.13258,-2.353136 -3.479686 3.551831,-2.275509 -2.956293 3.903933,-1.90452 -5.338438 2.672149,-1.85708 -4.293277 3.028795,-1.772208 -3.753233 3.51148,-1.679451 -3.355201 3.879633,-1.477497 -5.727039 2.660732,-1.306329 -4.944101 3.04151,-1.176975 -4.531354 3.416828,-1.073203 -4.195678 3.718087,-10.21269 -8.630592 0.514185,-9.60949 -8.359486 0.8601959,-9.115453 -7.71207 1.125267,-8.825203 -7.021997 1.410351,-8.59025 -6.548224 1.686248,-9.507169 -6.029511 0.8448127,-9.377176 -4.977325 1.083782,-9.323955 -4.326391 1.312572,-9.28518 -3.764436 1.459816,-9.854777 -5.832113 0.8930948,-9.75686 -4.568193 1.079818,-9.697616 -3.780339 1.332019,-9.660849 -3.085691 1.52474,-10.20336 -5.896344 0.9787843,-10.14636 -4.71067 1.160127,-10.09248 -3.977939 1.370226,-10.03369 -3.34515 1.529576,-10.56954 -6.170143 1.099922,-10.65268 -5.2543 1.28754,-10.67555 -4.64985 1.448421,-10.66955 -4.05968 1.56367,0.860,DnF
-1.973829 -8.210453 1.736096,-2.597324 -8.094172 2.491116,-3.147874 -7.688169 2.944854,-3.496367 -7.209349 3.341208,-3.786894 -6.792943 3.753345,-2.813591 -5.444013 2.450527,-3.025103 -4.449172 2.812833,-3.115578 -3.811204 3.124758,-3.165857 -3.190864 3.368031,-2.376474 -5.200868 2.342406,-2.478885 -4.062698 2.633294,-2.498553 -3.350543 2.958495,-2.499377 -2.69471 3.219528,-1.969406 -5.31303 2.341117,-1.977027 -4.278545 2.612388,-1.964093 -3.665606 2.981908,-1.956247 -3.132962 3.2761,-1.546821 -5.691207 2.4082,-1.393831 -4.922797 2.705079,-1.300555 -4.47018 3.022595,-1.241114 -4.054026 3.27341,-10.20735 -8.630148 0.5464317,-9.59925 -8.363306 0.9278833,-9.102327 -7.70647 1.209314,-8.809469 -7.005077 1.506739,-8.573557 -6.495443 1.798613,-9.50976 -6.01501 0.8866085,-9.380402 -4.934904 1.127065,-9.320868 -4.262372 1.350194,-9.272383 -3.690581 1.489619,-9.856952 -5.821155 0.9239427,-9.755158 -4.540279 1.112353,-9.692122 -3.743575 1.360981,-9.646861 -3.048063 1.547805,-10.20588 -5.892475 1.000836,-10.14237 -4.684726 1.193891,-10.0841 -3.936738 1.416497,-10.01405 -3.294148 1.578289,-10.57323 -6.170709 1.116877,-10.65423 -5.253336 1.316404,-10.67584 -4.650505 1.489675,-10.6621 -4.066103 1.612057,0.880,DnF
-1.973829 -8.210453 1.736096,-2.597324 -8.094172 2.491116,-3.147874 -7.688169 2.944854,-3.496367 -7.209349 3.341208,-3.786894 -6.792943 3.753345,-2.813591 -5.444013 2.450527,-3.025103 -4.449172 2.812833,-3.115578 -3.811204 3.124758,-3.165857 -3.190864 3.368031,-2.376474 -5.200868 2.342406,-2.478885 -4.062698 2.633294,-2.498553 -3.350543 2.958495,-2.499377 -2.69471 3.219528,-1.969406 -5.31303 2.341117,-1.977027 -4.278545 2.612388,-1.964093 -3.665606 2.981908,-1.956247 -3.132962 3.2761,-1.546821 -5.691207 2.4082,-1.393831 -4.922797 2.705079,-1.300555 -4.47018 3.022595,-1.241114 -4.054026 3.27341,-10.20735 -8.630148 0.5464317,-9.59925 -8.363306 0.9278833,-9.102327 -7.70647 1.209314,-8.809469 -7.005077 1.506739,-8.573557 -6.495443 1.798613,-9.50976 -6.01501 0.8866085,-9.380402 -4.934904 1.127065,-9.320868 -4.262372 1.350194,-9.272383 -3.690581 1.489619,-9.856952 -5.821155 0.9239427,-9.755158 -4.540279 1.112353,-9.692122 -3.743575 1.360981,-9.646861 -3.048063 1.547805,-10.20588 -5.892475 1.000836,-10.14237 -4.684726 1.193891,-10.0841 -3.936738 1.416497,-10.01405 -3.294148 1.578289,-10.57323 -6.170709 1.116877,-10.65423 -5.253336 1.316404,-10.67584 -4.650505 1.489675,-10.6621 -4.066103 1.612057,0.900,DnF
-1.973829 -8.210453 1.736096,-2.597324 -8.094172 2.491116,-3.147874 -7.688169 2.944854,-3.496367 -7.209349 3.341208,-3.786894 -6.792943 3.753345,-2.813591 -5.444013 2.450527,-3.025103 -4.449172 2.812833,-3.115578 -3.811204 3.124758,-3.165857 -3.190864 3.368031,-2.376474 -5.200868 2.342406,-2.478885 -4.062698 2.633294,-2.498553 -3.350543 2.958495,-2.499377 -2.69471 3.219528,-1.969406 -5.31303 2.341117,-1.977027 -4.278545 2.612388,-1.964093 -3.665606 2.981908,-1.956247 -3.132962 3.2761,-1.546821 -5.691207 2.4082,-1.393831 -4.922797 2.705079,-1.300555 -4.47018 3.022595,-1.241114 -4.054026 3.27341,-10.20735 -8.630148 0.5464317,-9.59925 -8.363306 0.9278833,-9.102327 -7.70647 1.209314,-8.809469 -7.005077 1.506739,-8.573557 -6.495443 1.798613,-9.50976 -6.01501 0.8866085,-9.380402 -4.934904 1.127065,-9.320868 -4.262372 1.350194,-9.272383 -3.690581 1.489619,-9.856952 -5.821155 0.9239427,-9.755158 -4.540279 1.112353,-9.692122 -3.743575 1.360981,-9.646861 -3.048063 1.547805,-10.20588 -5.892475 1.000836,-10.14237 -4.684726 1.193891,-10.0841 -3.936738 1.416497,-10.01405 -3.294148 1.578289,-10.57323 -6.170709 1.116877,-10.65423 -5.253336 1.316404,-10.67584 -4.650505 1.489675,-10.6621 -4.066103 1.612057,0.920,DnF
-1.973829 -8.210453 1.736096,-2.597324 -8.094172 2.491116,-3.147874 -7.688169 2.944854,-3.496367 -7.209349 3.341208,-3.786894 -6.792943 3.753345,-2.813591 -5.444013 2.450527,-3.025103 -4.449172 2.812833,-3.115578 -3.811204 3.124758,-3.165857 -3.190864 3.368031,-2.376474 -5.200868 2.342406,-2.478885 -4.062698 2.633294,-2.498553 -3.350543 2.958495,-2.499377 -2.69471 3.219528,-1.969406 -5.31303 2.341117,-1.977027 -4.278545 2.612388,-1.964093 -3.665606 2.981908,-1.956247 -3.132962 3.2761,-1.546821 -5.691207 2.4082,-1.393831 -4.922797 2.705079,-1.300555 -4.47018 3.022595,-1.241114 -4.054026 3.27341,-10.20735 -8.630148 0.5464317,-9.59925 -8.363306 0.9278833,-9.102327 -7.70647 1.209314,-8.809469 -7.005077 1.506739,-8.573557 -6.495443 1.798613,-9.50976 -6.01501 0.8866085,-9.380402 -4.934904 1.127065,-9.320868 -4.262372 1.350194,-9.272383 -3.690581 1.489619,-9.856952 -5.821155 0.9239427,-9.755158 -4.540279 1.112353,-9.692122 -3.743575 1.360981,-9.646861 -3.048063 1.547805,-10.20588 -5.892475 1.000836,-10.14237 -4.684726 1.193891,-10.0841 -3.936738 1.416497,-10.01405 -3.294148 1.578289,-10.57323 -6.170709 1.116877,-10.65423 -5.253336 1.316404,-10.67584 -4.650505 1.489675,-10.6621 -4.066103 1.612057,0.940,DnF
-1.959571 -8.198717 1.74891,-2.600521 -8.028427 2.457222,-3.168351 -7.588473 2.854419,-3.526785 -7.049013 3.189851,-3.831238 -6.557092 3.539258,-2.805891 -5.421447 2.442488,-3.04187 -4.398439 2.772834,-3.14356 -3.753123 3.06951,-3.201958 -3.129831 3.317302,-2.36552 -5.183257 2.342372,-2.475657 -4.030828 2.636635,-2.500843 -3.296543 2.960338,-2.50623 -2.65007 3.232077,-1.957987 -5.298337 2.331654,-1.97328 -4.239997 2.613263,-1.975245 -3.60272 2.987532,-1.987934 -3.073177 3.289596,-1.543554 -5.67522 2.384173,-1.424915 -4.861438 2.676428,-1.357017 -4.376407 2.978979,-1.326591 -3.944206 3.231706,-10.18911 -8.6224 0.559646,-9.573267 -8.34506 0.9195928,-9.073556 -7.680651 1.184395,-8.778684 -6.967231 1.476679,-8.536793 -6.445369 1.76478,-9.482516 -5.999577 0.832956,-9.350315 -4.901973 1.061912,-9.283431 -4.220751 1.279011,-9.231411 -3.642045 1.413247,-9.829858 -5.804188 0.8853694,-9.726254 -4.522057 1.055258,-9.660107 -3.720444 1.295784,-9.609707 -3.025688 1.471158,-10.17759 -5.869007 0.978723,-10.11206 -4.663188 1.163132,-10.05464 -3.908998 1.385157,-9.983196 -3.26054 1.546533,-10.54256 -6.135074 1.115414,-10.62379 -5.210582 1.309717,-10.64847 -4.598505 1.486941,-10.63547 -4.008291 1.611514,0.960,DnF
-1.959571 -8.198717 1.74891,-2.600521 -8.028427 2.457222,-3.168351 -7.588473 2.854419,-3.526785 -7.049013 3.189851,-3.831238 -6.557092 3.539258,-2.805891 -5.421447 2.442488,-3.04187 -4.398439 2.772834,-3.14356 -3.753123 3.06951,-3.201958 -3.129831 3.317302,-2.36552 -5.183257 2.342372,-2.475657 -4.030828 2.636635,-2.500843 -3.296543 2.960338,-2.50623 -2.65007 3.232077,-1.957987 -5.298337 2.331654,-1.97328 -4.239997 2.613263,-1.975245 -3.60272 2.987532,-1.987934 -3.073177 3.289596,-1.543554 -5.67522 2.384173,-1.424915 -4.861438 2.676428,-1.357017 -4.376407 2.978979,-1.326591 -3.944206 3.231706,-10.18911 -8.6224 0.559646,-9.573267 -8.34506 0.9195928,-9.073556 -7.680651 1.184395,-8.778684 -6.967231 1.476679,-8.536793 -6.445369 1.76478,-9.482516 -5.999577 0.832956,-9.350315 -4.901973 1.061912,-9.283431 -4.220751 1.279011,-9.231411 -3.642045 1.413247,-9.829858 -5.804188 0.8853694,-9.726254 -4.522057 1.055258,-9.660107 -3.720444 1.295784,-9.609707 -3.025688 1.471158,-10.17759 -5.869007 0.978723,-10.11206 -4.663188 1.163132,-10.05464 -3.908998 1.385157,-9.983196 -3.26054 1.546533,-10.54256 -6.135074 1.115414,-10.62379 -5.210582 1.309717,-10.64847 -4.598505 1.486941,-10.63547 -4.008291 1.611514,0.980,DnF
-1.959571 -8.198717 1.74891,-2.600521 -8.028427 2.457222,-3.168351 -7.588473 2.854419,-3.526785 -7.049013 3.189851,-3.831238 -6.557092 3.539258,-2.805891 -5.421447 2.442488,-3.04187 -4.398439 2.772834,-3.14356 -3.753123 3.06951,-3.201958 -3.129831 3.317302,-2.36552 -5.183257 2.342372,-2.475657 -4.030828 2.636635,-2.500843 -3.296543 2.960338,-2.50623 -2.65007 3.232077,-1.957987 -5.298337 2.331654,-1.97328 -4.239997 2.613263,-1.975245 -3.60272 2.987532,-1.987934 -3.073177 3.289596,-1.543554 -5.67522 2.384173,-1.424915 -4.861438 2.676428,-1.357017 -4.376407 2.978979,-1.326591 -3.944206 3.231706,-10.18911 -8.6224 0.559646,-9.573267 -8.34506 0.9195928,-9.073556 -7.680651 1.184395,-8.778684 -6.967231 1.476679,-8.536793 -6.445369 1.76478,-9.482516 -5.999577 0.832956,-9.350315 -4.901973 1.061912,-9.283431 -4.220751 1.279011,-9.231411 -3.642045 1.413247,-9.829858 -5.804188 0.8853694,-9.726254 -4.522057 1.055258,-9.660107 -3.720444 1.295784,-9.609707 -3.025688 1.471158,-10.17759 -5.869007 0.978723,-10.11206 -4.663188 1.163132,-10.05464 -3.908998 1.385157,-9.983196 -3.26054 1.546533,-10.54256 -6.135074 1.115414,-10.62379 -5.210582 1.309717,-10.64847 -4.598505 1.486941,-10.63547 -4.008291 1.611514,1.000,DnF
-1.930519 -8.161831 1.573047,-2.569541 -7.938758 2.16282,-3.137369 -7.448006 2.485762,-3.504602 -6.865944 2.763714,-3.815297 -6.400522 3.042855,-2.772281 -5.414085 2.142909,-3.018914 -4.358173 2.432264,-3.126909 -3.714723 2.688124,-3.203539 -3.076255 2.91274,-2.347629 -5.185211 2.089217,-2.464322 -4.000341 2.379834,-2.49583 -3.250864 2.666143,-2.512908 -2.595078 2.907419,-1.946545 -5.284124 2.11211,-1.970121 -4.190843 2.385052,-1.986666 -3.515892 2.701005,-2.017575 -2.941515 2.96176,-1.536862 -5.633193 2.192156,-1.419739 -4.803167 2.443759,-1.363275 -4.269268 2.701923,-1.345238 -3.752757 2.919238,-10.18452 -8.600744 0.5534464,-9.55548 -8.347471 0.9298177,-9.039164 -7.682885 1.196119,-8.734485 -6.961557 1.484863,-8.489662 -6.426797 1.770069,-9.44068 -6.002586 0.8471655,-9.293462 -4.906036 1.093134,-9.219406 -4.219228 1.315348,-9.167599 -3.63088 1.454424,-9.792955 -5.790222 0.8927281,-9.675709 -4.511462 1.07873,-9.600739 -3.690261 1.332671,-9.547116 -2.981218 1.520436,-10.1459 -5.839281 0.9804612,-10.06774 -4.634606 1.175997,-9.999243 -3.880097 1.404442,-9.917082 -3.239578 1.572183,-10.5204 -6.0858 1.115197,-10.58598 -5.153399 1.31946,-10.60147 -4.533774 1.50329,-10.57505 -3.941703 1.633318,1.020,DnF
-1.930519 -8.161831 1.573047,-2.569541 -7.938758 2.16282,-3.137369 -7.448006 2.485762,-3.504602 -6.865944 2.763714,-3.815297 -6.400522 3.042855,-2.772281 -5.414085 2.142909,-3.018914 -4.358173 2.432264,-3.126909 -3.714723 2.688124,-3.203539 -3.076255 2.91274,-2.347629 -5.185211 2.089217,-2.464322 -4.000341 2.379834,-2.49583 -3.250864 2.666143,-2.512908 -2.595078 2.907419,-1.946545 -5.284124 2.11211,-1.970121 -4.190843 2.385052,-1.986666 -3.515892 2.701005,-2.017575 -2.941515 2.96176,-1.536862 -5.633193 2.192156,-1.419739 -4.803167 2.443759,-1.363275 -4.269268 2.701923,-1.345238 -3.752757 2.919238,-10.18452 -8.600744 0.5534464,-9.55548 -8.347471 0.9298177,-9.039164 -7.682885 1.196119,-8.734485 -6.961557 1.484863,-8.489662 -6.426797 1.770069,-9.44068 -6.002586 0.8471655,-9.293462 -4.906036 1.093134,-9.219406 -4.219228 1.315348,-9.167599 -3.63088 1.454424,-9.792955 -5.790222 0.8927281,-9.675709 -4.511462 1.07873,-9.600739 -3.690261 1.332671,-9.547116 -2.981218 1.520436,-10.1459 -5.839281 0.9804612,-10.06774 -4.634606 1.175997,-9.999243 -3.880097 1.404442,-9.917082 -3.239578 1.572183,-10.5204 -6.0858 1.115197,-10.58598 -5.153399 1.31946,-10.60147 -4.533774 1.50329,-10.57505 -3.941703 1.633318,1.040,DnF
-1.930519 -8.161831 1.573047,-2.569541 -7.938758 2.16282,-3.137369 -7.448006 2.485762,-3.504602 -6.865944 2.763714,-3.815297 -6.400522 3.042855,-2.772281 -5.414085 2.142909,-3.018914 -4.358173 2.432264,-3.126909 -3.714723 2.688124,-3.203539 -3.076255 2.91274,-2.347629 -5.185211 2.089217,-2.464322 -4.000341 2.379834,-2.49583 -3.250864 2.666143,-2.512908 -2.595078 2.907419,-1.946545 -5.284124 2.11211,-1.970121 -4.190843 2.385052,-1.986666 -3.515892 2.701005,-2.017575 -2.941515 2.96176,-1.536862 -5.633193 2.192156,-1.419739 -4.803167 2.443759,-1.363275 -4.269268 2.701923,-1.345238 -3.752757 2.919238,-10.18452 -8.600744 0.5534464,-9.55548 -8.347471 0.9298177,-9.039164 -7.682885 1.196119,-8.734485 -6.961557 1.484863,-8.489662 -6.426797 1.770069,-9.44068 -6.002586 0.8471655,-9.293462 -4.906036 1.093134,-9.219406 -4.219228 1.315348,-9.167599 -3.63088 1.454424,-9.792955 -5.790222 0.8927281,-9.675709 -4.511462 1.07873,-9.600739 -3.690261 1.332671,-9.547116 -2.981218 1.520436,-10.1459 -5.839281 0.9804612,-10.06774 -4.634606 1.175997,-9.999243 -3.880097 1.404442,-9.917082 -3.239578 1.572183,-10.5204 -6.0858 1.115197,-10.58598 -5.153399 1.31946,-10.60147 -4.533774 1.50329,-10.57505 -3.941703 1.633318,1.060,DnF
-1.930519 -8.161831 1.573047,-2.569541 -7.938758 2.16282,-3.137369 -7.448006 2.485762,-3.504602 -6.865944 2.763714,-3.815297 -6.400522 3.042855,-2.772281 -5.414085 2.142909,-3.018914 -4.358173 2.432264,-3.126909 -3.714723 2.688124,-3.203539 -3.076255 2.91274,-2.347629 -5.185211 2.089217,-2.464322 -4.000341 2.379834,-2.49583 -3.250864 2.666143,-2.512908 -2.595078 2.907419,-1.946545 -5.284124 2.11211,-1.970121 -4.190843 2.385052,-1.986666 -3.515892 2.701005,-2.017575 -2.941515 2.96176,-1.536862 -5.633193 2.192156,-1.419739 -4.803167 2.443759,-1.363275 -4.269268 2.701923,-1.345238 -3.752757 2.919238,-10.18452 -8.600744 0.5534464,-9.55548 -8.347471 0.9298177,-9.039164 -7.682885 1.196119,-8.734485 -6.961557 1.484863,-8.489662 -6.426797 1.770069,-9.44068 -6.002586 0.8471655,-9.293462 -4.906036 1.093134,-9.219406 -4.219228 1.315348,-9.167599 -3.63088 1.454424,-9.792955 -5.790222 0.8927281,-9.675709 -4.511462 1.07873,-9.600739 -3.690261 1.332671,-9.547116 -2.981218 1.520436,-10.1459 -5.839281 0.9804612,-10.06774 -4.634606 1.175997,-9.999243 -3.880097 1.404442,-9.917082 -3.239578 1.572183,-10.5204 -6.0858 1.115197,-10.58598 -5.153399 1.31946,-10.60147 -4.533774 1.50329,-10.57505 -3.941703 1.633318,1.080,DnF
-1.908744 -8.137806 1.484649,-2.529634 -7.918092 2.058093,-3.087337 -7.430832 2.366807,-3.434973 -6.842531 2.635491,-3.7295 -6.3702 2.898755,-2.730668 -5.402221 2.006955,-2.98431 -4.326961 2.269261,-3.088163 -3.671035 2.512661,-3.149036 -3.037692 2.724086,-2.314515 -5.176488 1.946401,-2.438062 -3.975225 2.200546,-2.46713 -3.225391 2.469454,-2.472889 -2.581597 2.698311,-1.919226 -5.268644 1.958122,-1.944661 -4.166435 2.202396,-1.952061 -3.488061 2.502296,-1.972333 -2.925605 2.753216,-1.514074 -5.609544 2.029961,-1.393754 -4.779249 2.26966,-1.332937 -4.258501 2.517721,-1.313659 -3.770597 2.727242,-10.1384 -8.584085 0.5513151,-9.506912 -8.348139 0.9068553,-8.991341 -7.677988 1.168896,-8.684912 -6.953164 1.45941,-8.442331 -6.408562 1.751632,-9.401727 -5.977928 0.8061811,-9.237568 -4.866249 1.045784,-9.155886 -4.182359 1.267161,-9.09704 -3.591642 1.404436,-9.751193 -5.771141 0.8697191,-9.620378 -4.466932 1.047379,-9.53774 -3.647312 1.292346,-9.477909 -2.946601 1.469557,-10.10517 -5.829038 0.9751577,-10.01231 -4.585775 1.168689,-9.937955 -3.813213 1.400607,-9.854087 -3.160985 1.573534,-10.48153 -6.086647 1.127291,-10.54057 -5.131444 1.328155,-10.55034 -4.504959 1.514045,-10.52306 -3.908551 1.646595,1.100,DnF
-1.908744 -8.137806 1.484649,-2.529634 -7.918092 2.058093,-3.087337 -7.430832 2.366807,-3.434973 -6.842531 2.635491,-3.7295 -6.3702 2.898755,-2.730668 -5.402221 2.006955,-2.98431 -4.326961 2.269261,-3.088163 -3.671035 2.512661,-3.149036 -3.037692 2.724086,-2.314515 -5.176488 1.946401,-2.438062 -3.975225 2.200546,-2.46713 -3.225391 2.469454,-2.472889 -2.581597 2.698311,-1.919226 -5.268644 1.958122,-1.944661 -4.166435 2.202396,-1.952061 -3.488061 2.502296,-1.972333 -2.925605 2.753216,-1.514074 -5.609544 2.029961,-1.393754 -4.779249 2.26966,-1.332937 -4.258501 2.517721,-1.313659 -3.770597 2.727242,-10.1384 -8.584085 0.5513151,-9.506912 -8.348139 0.9068553,-8.991341 -7.677988 1.168896,-8.684912 -6.953164 1.45941,-8.442331 -6.408562 1.751632,-9.401727 -5.977928 0.8061811,-9.237568 -4.866249 1.045784,-9.155886 -4.182359 1.267161,-9.09704 -3.591642 1.404436,-9.751193 -5.771141 0.8697191,-9.620378 -4.466932 1.047379,-9.53774 -3.647312 1.292346,-9.477909 -2.946601 1.469557,-10.10517 -5.829038 0.9751577,-10.01231 -4.585775 1.168689,-9.937955 -3.813213 1.400607,-9.854087 -3.160985 1.573534,-10.48153 -6.086647 1.127291,-10.54057 -5.131444 1.328155,-10.55034 -4.504959 1.514045,-10.52306 -3.908551 1.646595,1.120,DnF
-1.908744 -8.137806 1.484649,-2.529634 -7.918092 2.058093,-3.087337 -7.430832 2.366807,-3.434973 -6.842531 2.635491,-3.7295 -6.3702 2.898755,-2.730668 -5.402221 2.006955,-2.98431 -4.326961 2.269261,-3.088163 -3.671035 2.512661,-3.149036 -3.037692 2.724086,-2.314515 -5.176488 1.946401,-2.438062 -3.975225 2.200546,-2.46713 -3.225391 2.469454,-2.472889 -2.581597 2.698311,-1.919226 -5.268644 1.958122,-1.944661 -4.166435 2.202396,-1.952061 -3.488061 2.502296,-1.972333 -2.925605 2.753216,-1.514074 -5.609544 2.029961,-1.393754 -4.779249 2.26966,-1.332937 -4.258501 2.517721,-1.313659 -3.770597 2.727242,-10.1384 -8.584085 0.5513151,-9.506912 -8.348139 0.9068553,-8.991341 -7.677988 1.168896,-8.684912 -6.953164 1.45941,-8.442331 -6.408562 1.751632,-9.401727 -5.977928 0.8061811,-9.237568 -4.866249 1.045784,-9.155886 -4.182359 1.267161,-9.09704 -3.591642 1.404436,-9.751193 -5.771141 0.8697191,-9.620378 -4.466932 1.047379,-9.53774 -3.647312 1.292346,-9.477909 -2.946601 1.469557,-10.10517 -5.829038 0.9751577,-10.01231 -4.585775 1.168689,-9.937955 -3.813213 1.400607,-9.854087 -3.160985 1.573534,-10.48153 -6.086647 1.127291,-10.54057 -5.131444 1.328155,-10.55034 -4.504959 1.514045,-10.52306 -3.908551 1.646595,1.140,DnF
-1.908744 -8.137806 1.484649,-2.529634 -7.918092 2.058093,-3.087337 -7.430832 2.366807,-3.434973 -6.842531 2.635491,-3.7295 -6.3702 2.898755,-2.730668 -5.402221 2.006955,-2.98431 -4.326961 2.269261,-3.088163 -3.671035 2.512661,-3.149036 -3.037692 2.724086,-2.314515 -5.176488 1.946401,-2.438062 -3.975225 2.200546,-2.46713 -3.225391 2.469454,-2.472889 -2.581597 2.698311,-1.919226 -5.268644 1.958122,-1.944661 -4.166435 2.202396,-1.952061 -3.488061 2.502296,-1.972333 -2.925605 2.753216,-1.514074 -5.609544 2.029961,-1.393754 -4.779249 2.26966,-1.332937 -4.258501 2.517721,-1.313659 -3.770597 2.727242,-10.1384 -8.584085 0.5513151,-9.506912 -8.348139 0.9068553,-8.991341 -7.677988 1.168896,-8.684912 -6.953164 1.45941,-8.442331 -6.408562 1.751632,-9.401727 -5.977928 0.8061811,-9.237568 -4.866249 1.045784,-9.155886 -4.182359 1.267161,-9.09704 -3.591642 1.404436,-9.751193 -5.771141 0.8697191,-9.620378 -4.466932 1.047379,-9.53774 -3.647312 1.292346,-9.477909 -2.946601 1.469557,-10.10517 -5.829038 0.9751577,-10.01231 -4.585775 1.168689,-9.937955 -3.813213 1.400607,-9.854087 -3.160985 1.573534,-10.48153 -6.086647 1.127291,-10.54057 -5.131444 1.328155,-10.55034 -4.504959 1.514045,-10.52306 -3.908551 1.646595,1.160,DnF
-1.86437 -8.154552 1.488769,-2.466136 -7.943577 2.082817,-3.011812 -7.44479 2.396396,-3.347427 -6.848767 2.669819,-3.637107 -6.394472 2.94082,-2.666424 -5.432385 2.028009,-2.913864 -4.356148 2.314384,-3.005815 -3.700551 2.573605,-3.052521 -3.066183 2.790416,-2.261787 -5.193128 1.964877,-2.372133 -3.9885 2.225956,-2.394989 -3.246915 2.499856,-2.395557 -2.592405 2.742898,-1.873609 -5.278528 1.974241,-1.882018 -4.168693 2.228479,-1.875652 -3.496364 2.5359,-1.880662 -2.932603 2.79828,-1.472246 -5.612302 2.044805,-1.328565 -4.783151 2.306125,-1.246949 -4.2837 2.565675,-1.206723 -3.823295 2.7904,-10.1384 -8.584085 0.5513151,-9.506912 -8.348139 0.9068553,-8.991341 -7.677988 1.168896,-8.684912 -6.953164 1.45941,-8.442331 -6.408562 1.751632,-9.401727 -5.977928 0.8061811,-9.237568 -4.866249 1.045784,-9.155886 -4.182359 1.267161,-9.09704 -3.591642 1.404436,-9.751193 -5.771141 0.8697191,-9.620378 -4.466932 1.047379,-9.53774 -3.647312 1.292346,-9.477909 -2.946601 1.469557,-10.10517 -5.829038 0.9751577,-10.01231 -4.585775 1.168689,-9.937955 -3.813213 1.400607,-9.854087 -3.160985 1.573534,-10.48153 -6.086647 1.127291,-10.54057 -5.131444 1.328155,-10.55034 -4.504959 1.514045,-10.52306 -3.908551 1.646595,1.180,DnF
-1.86437 -8.154552 1.488769,-2.466136 -7.943577 2.082817,-3.011812 -7.44479 2.396396,-3.347427 -6.848767 2.669819,-3.637107 -6.394472 2.94082,-2.666424 -5.432385 2.028009,-2.913864 -4.356148 2.314384,-3.005815 -3.700551 2.573605,-3.052521 -3.066183 2.790416,-2.261787 -5.193128 1.964877,-2.372133 -3.9885 2.225956,-2.394989 -3.246915 2.499856,-2.395557 -2.592405 2.742898,-1.873609 -5.278528 1.974241,-1.882018 -4.168693 2.228479,-1.875652 -3.496364 2.5359,-1.880662 -2.932603 2.79828,-1.472246 -5.612302 2.044805,-1.328565 -4.783151 2.306125,-1.246949 -4.2837 2.565675,-1.206723 -3.823295 2.7904,-10.098 -8.57827 0.6112168,-9.458401 -8.33433 0.9749115,-8.937241 -7.666559 1.244987,-8.628755 -6.940767 1.548094,-8.383234 -6.392435 1.85278,-9.35411 -5.951017 0.8731797,-9.195059 -4.831535 1.110788,-9.115312 -4.139874 1.333837,-9.055474 -3.544718 1.473953,-9.709625 -5.748121 0.9298255,-9.580675 -4.432945 1.104719,-9.500293 -3.612909 1.350662,-9.440866 -2.908817 1.533009,-10.06615 -5.805295 1.030543,-9.97008 -4.55615 1.218742,-9.896645 -3.779151 1.455544,-9.813392 -3.124238 1.632404,-10.44556 -6.062788 1.177602,-10.49818 -5.099325 1.3743,-10.50815 -4.467184 1.560313,-10.48159 -3.869035 1.697916,1.200,DnF
-1.86437 -8.154552 1.488769,-2.466136 -7.943577 2.082817,-3.011812 -7.44479 2.396396,-3.347427 -6.848767 2.669819,-3.637107 -6.394472 2.94082,-2.666424 -5.432385 2.028009,-2.913864 -4.356148 2.314384,-3.005815 -3.700551 2.573605,-3.052521 -3.066183 2.790416,-2.261787 -5.193128 1.964877,-2.372133 -3.9885 2.225956,-2.394989 -3.246915 2.499856,-2.395557 -2.592405 2.742898,-1.873609 -5.278528 1.974241,-1.882018 -4.168693 2.228479,-1.875652 -3.496364 2.5359,-1.880662 -2.932603 2.79828,-1.472246 -5.612302 2.044805,-1.328565 -4.783151 2.306125,-1.246949 -4.2837 2.565675,-1.206723 -3.823295 2.7904,-10.098 -8.57827 0.6112168,-9.458401 -8.33433 0.9749115,-8.937241 -7.666559 1.244987,-8.628755 -6.940767 1.548094,-8.383234 -6.392435 1.85278,-9.35411 -5.951017 0.8731797,-9.195059 -4.831535 1.110788,-9.115312 -4.139874 1.333837,-9.055474 -3.544718 1.473953,-9.709625 -5.748121 0.9298255,-9.580675 -4.432945 1.104719,-9.500293 -3.612909 1.350662,-9.440866 -2.908817 1.533009,-10.06615 -5.805295 1.030543,-9.97008 -4.55615 1.218742,-9.896645 -3.779151 1.455544,-9.813392 -3.124238 1.632404,-10.44556 -6.062788 1.177602,-10.49818 -5.099325 1.3743,-10.50815 -4.467184 1.560313,-10.48159 -3.869035 1.697916,1.220,DnF
-1.86437 -8.154552 1.488769,-2.466136 -7.943577 2.082817,-3.011812 -7.44479 2.396396,-3.347427 -6.848767 2.669819,-3.637107 -6.394472 2.94082,-2.666424 -5.432385 2.028009,-2.913864 -4.356148 2.314384,-3.005815 -3.700551 2.573605,-3.052521 -3.066183 2.790416,-2.261787 -5.193128 1.964877,-2.372133 -3.9885 2.225956,-2.394989 -3.246915 2.499856,-2.395557 -2.592405 2.742898,-1.873609 -5.278528 1.974241,-1.882018 -4.168693 2.228479,-1.875652 -3.496364 2.5359,-1.880662 -2.932603 2.79828,-1.472246 -5.612302 2.044805,-1.328565 -4.783151 2.306125,-1.246949 -4.2837 2.565675,-1.206723 -3.823295 2.7904,-10.098 -8.57827 0.6112168,-9.458401 -8.33433 0.9749115,-8.937241 -7.666559 1.244987,-8.628755 -6.940767 1.548094,-8.383234 -6.392435 1.85278,-9.35411 -5.951017 0.8731797,-9.195059 -4.831535 1.110788,-9.115312 -4.139874 1.333837,-9.055474 -3.544718 1.473953,-9.709625 -5.748121 0.9298255,-9.580675 -4.432945 1.104719,-9.500293 -3.612909 1.350662,-9.440866 -2.908817 1.533009,-10.06615 -5.805295 1.030543,-9.97008 -4.55615 1.218742,-9.896645 -3.779151 1.455544,-9.813392 -3.124238 1.632404,-10.44556 -6.062788 1.177602,-10.49818 -5.099325 1.3743,-10.50815 -4.467184 1.560313,-10.48159 -3.869035 1.697916,1.240,DnF
-1.86437 -8.154552 1.488769,-2.466136 -7.943577 2.082817,-3.011812 -7.44479 2.396396,-3.347427 -6.848767 2.669819,-3.637107 -6.394472 2.94082,-2.666424 -5.432385 2.028009,-2.913864 -4.356148 2.314384,-3.005815 -3.700551 2.573605,-3.052521 -3.066183 2.790416,-2.261787 -5.193128 1.964877,-2.372133 -3.9885 2.225956,-2.394989 -3.246915 2.499856,-2.395557 -2.592405 2.742898,-1.873609 -5.278528 1.974241,-1.882018 -4.168693 2.228479,-1.875652 -3.496364 2.5359,-1.880662 -2.932603 2.79828,-1.472246 -5.612302 2.044805,-1.328565 -4.783151 2.306125,-1.246949 -4.2837 2.565675,-1.206723 -3.823295 2.7904,-10.098 -8.57827 0.6112168,-9.458401 -8.33433 0.9749115,-8.937241 -7.666559 1.244987,-8.628755 -6.940767 1.548094,-8.383234 -6.392435 1.85278,-9.35411 -5.951017 0.8731797,-9.195059 -4.831535 1.110788,-9.115312 -4.139874 1.333837,-9.055474 -3.544718 1.473953,-9.709625 -5.748121 0.9298255,-9.580675 -4.432945 1.104719,-9.500293 -3.612909 1.350662,-9.440866 -2.908817 1.533009,-10.06615 -5.805295 1.030543,-9.97008 -4.55615 1.218742,-9.896645 -3.779151 1.455544,-9.813392 -3.124238 1.632404,-10.44556 -6.062788 1.177602,-10.49818 -5.099325 1.3743,-10.50815 -4.467184 1.560313,-10.48159 -3.869035 1.697916,1.260,DnF
-1.86437 -8.154552 1.488769,-2.466136 -7.943577 2.082817,-3.011812 -7.44479 2.396396,-3.347427 -6.848767 2.669819,-3.637107 -6.394472 2.94082,-2.666424 -5.432385 2.028009,-2.913864 -4.356148 2.314384,-3.005815 -3.700551 2.573605,-3.052521 -3.066183 2.790416,-2.261787 -5.193128 1.964877,-2.372133 -3.9885 2.225956,-2.394989 -3.246915 2.499856,-2.395557 -2.592405 2.742898,-1.873609 -5.278528 1.974241,-1.882018 -4.168693 2.228479,-1.875652 -3.496364 2.5359,-1.880662 -2.932603 2.79828,-1.472246 -5.612302 2.044805,-1.328565 -4.783151 2.306125,-1.246949 -4.2837 2.565675,-1.206723 -3.823295 2.7904,-10.098 -8.57827 0.6112168,-9.458401 -8.33433 0.9749115,-8.937241 -7.666559 1.244987,-8.628755 -6.940767 1.548094,-8.383234 -6.392435 1.85278,-9.35411 -5.951017 0.8731797,-9.195059 -4.831535 1.110788,-9.115312 -4.139874 1.333837,-9.055474 -3.544718 1.473953,-9.709625 -5.748121 0.9298255,-9.580675 -4.432945 1.104719,-9.500293 -3.612909 1.350662,-9.440866 -2.908817 1.533009,-10.06615 -5.805295 1.030543,-9.97008 -4.55615 1.218742,-9.896645 -3.779151 1.455544,-9.813392 -3.124238 1.632404,-10.44556 -6.062788 1.177602,-10.49818 -5.099325 1.3743,-10.50815 -4.467184 1.560313,-10.48159 -3.869035 1.697916,1.280,DnF
-1.717956 -8.371862 1.490997,-2.307247 -8.279345 2.174245,-2.824604 -7.760472 2.517069,-3.117552 -7.211568 2.783038,-3.359606 -6.838823 3.03017,-2.491328 -5.679317 2.26745,-2.689692 -4.609278 2.59575,-2.733366 -4.013032 2.890894,-2.746238 -3.458435 3.136271,-2.072155 -5.440832 2.156191,-2.161982 -4.252027 2.492044,-2.163191 -3.580881 2.77112,-2.159909 -2.993487 2.99268,-1.685683 -5.534782 2.103917,-1.668745 -4.422298 2.429704,-1.635422 -3.80619 2.75288,-1.617674 -3.264726 3.000226,-1.302123 -5.871742 2.114312,-1.150452 -5.023568 2.423637,-1.061272 -4.554103 2.675145,-1.012015 -4.097209 2.891019,-10.01784 -8.578304 0.6526251,-9.378468 -8.350574 1.015581,-8.858267 -7.684446 1.288692,-8.549965 -6.954912 1.593638,-8.298454 -6.424683 1.899892,-9.271545 -5.95685 0.9372275,-9.099857 -4.842763 1.197342,-9.010427 -4.152065 1.43162,-8.946424 -3.546028 1.57566,-9.631104 -5.739835 1.004683,-9.497418 -4.416326 1.206039,-9.407675 -3.565015 1.477642,-9.341822 -2.834421 1.673736,-9.992716 -5.796209 1.11179,-9.904482 -4.544126 1.325277,-9.825643 -3.75708 1.578461,-9.7342 -3.090354 1.763767,-10.37425 -6.058254 1.269755,-10.43771 -5.084867 1.487821,-10.44815 -4.44721 1.688345,-10.41972 -3.834156 1.828795,1.300,DnF
-1.717956 -8.371862 1.490997,-2.307247 -8.279345 2.174245,-2.824604 -7.760472 2.517069,-3.117552 -7.211568 2.783038,-3.359606 -6.838823 3.03017,-2.491328 -5.679317 2.26745,-2.689692 -4.609278 2.59575,-2.733366 -4.013032 2.890894,-2.746238 -3.458435 3.136271,-2.072155 -5.440832 2.156191,-2.161982 -4.252027 2.492044,-2.163191 -3.580881 2.77112,-2.159909 -2.993487 2.99268,-1.685683 -5.534782 2.103917,-1.668745 -4.422298 2.429704,-1.635422 -3.80619 2.75288,-1.617674 -3.264726 3.000226,-1.302123 -5.871742 2.114312,-1.150452 -5.023568 2.423637,-1.061272 -4.554103 2.675145,-1.012015 -4.097209 2.891019,-10.01784 -8.578304 0.6526251,-9.378468 -8.350574 1.015581,-8.858267 -7.684446 1.288692,-8.549965 -6.954912 1.593638,-8.298454 -6.424683 1.899892,-9.271545 -5.95685 0.9372275,-9.099857 -4.842763 1.197342,-9.010427 -4.152065 1.43162,-8.946424 -3.546028 1.57566,-9.631104 -5.739835 1.004683,-9.497418 -4.416326 1.206039,-9.407675 -3.565015 1.477642,-9.341822 -2.834421 1.673736,-9.992716 -5.796209 1.11179,-9.904482 -4.544126 1.325277,-9.825643 -3.75708 1.578461,-9.7342 -3.090354 1.763767,-10.37425 -6.058254 1.269755,-10.43771 -5.084867 1.487821,-10.44815 -4.44721 1.688345,-10.41972 -3.834156 1.828795,1.320,DnF
-1.717956 -8.371862 1.490997,-2.307247 -8.279345 2.174245,-2.824604 -7.760472 2.517069,-3.117552 -7.211568 2.783038,-3.359606 -6.838823 3.03017,-2.491328 -5.679317 2.26745,-2.689692 -4.609278 2.59575,-2.733366 -4.013032 2.890894,-2.746238 -3.458435 3.136271,-2.072155 -5.440832 2.156191,-2.161982 -4.252027 2.492044,-2.163191 -3.580881 2.77112,-2.159909 -2.993487 2.99268,-1.685683 -5.534782 2.103917,-1.668745 -4.422298 2.429704,-1.635422 -3.80619 2.75288,-1.617674 -3.264726 3.000226,-1.302123 -5.871742 2.114312,-1.150452 -5.023568 2.423637,-1.061272 -4.554103 2.675145,-1.012015 -4.097209 2.891019,-10.01784 -8.578304 0.6526251,-9.378468 -8.350574 1.015581,-8.858267 -7.684446 1.288692,-8.549965 -6.954912 1.593638,-8.298454 -6.424683 1.899892,-9.271545 -5.95685 0.9372275,-9.099857 -4.842763 1.197342,-9.010427 -4.152065 1.43162,-8.946424 -3.546028 1.57566,-9.631104 -5.739835 1.004683,-9.497418 -4.416326 1.206039,-9.407675 -3.565015 1.477642,-9.341822 -2.834421 1.673736,-9.992716 -5.796209 1.11179,-9.904482 -4.544126 1.325277,-9.825643 -3.75708 1.578461,-9.7342 -3.090354 1.763767,-10.37425 -6.058254 1.269755,-10.43771 -5.084867 1.487821,-10.44815 -4.44721 1.688345,-10.41972 -3.834156 1.828795,1.340,DnF
-1.717956 -8.371862 1.490997,-2.307247 -8.279345 2.174245,-2.824604 -7.760472 2.517069,-3.117552 -7.211568 2.783038,-3.359606 -6.838823 3.03017,-2.491328 -5.679317 2.26745,-2.689692 -4.609278 2.59575,-2.733366 -4.013032 2.890894,-2.746238 -3.458435 3.136271,-2.072155 -5.440832 2.156191,-2.161982 -4.252027 2.492044,-2.163191 -3.580881 2.77112,-2.159909 -2.993487 2.99268,-1.685683 -5.534782 2.103917,-1.668745 -4.422298 2.429704,-1.635422 -3.80619 2.75288,-1.617674 -3.264726 3.000226,-1.302123 -5.871742 2.114312,-1.150452 -5.023568 2.423637,-1.061272 -4.554103 2.675145,-1.012015 -4.097209 2.891019,-10.01784 -8.578304 0.6526251,-9.378468 -8.350574 1.015581,-8.858267 -7.684446 1.288692,-8.549965 -6.954912 1.593638,-8.298454 -6.424683 1.899892,-9.271545 -5.95685 0.9372275,-9.099857 -4.842763 1.197342,-9.010427 -4.152065 1.43162,-8.946424 -3.546028 1.57566,-9.631104 -5.739835 1.004683,-9.497418 -4.416326 1.206039,-9.407675 -3.565015 1.477642,-9.341822 -2.834421 1.673736,-9.992716 -5.796209 1.11179,-9.904482 -4.544126 1.325277,-9.825643 -3.75708 1.578461,-9.7342 -3.090354 1.763767,-10.37425 -6.058254 1.269755,-10.43771 -5.084867 1.487821,-10.44815 -4.44721 1.688345,-10.41972 -3.834156 1.828795,1.360,DnF
-1.717956 -8.371862 1.490997,-2.307247 -8.279345 2.174245,-2.824604 -7.760472 2.517069,-3.117552 -7.211568 2.783038,-3.359606 -6.838823 3.03017,-2.491328 -5.679317 2.26745,-2.689692 -4.609278 2.59575,-2.733366 -4.013032 2.890894,-2.746238 -3.458435 3.136271,-2.072155 -5.440832 2.156191,-2.161982 -4.252027 2.492044,-2.163191 -3.580881 2.77112,-2.159909 -2.993487 2.99268,-1.685683 -5.534782 2.103917,-1.668745 -4.422298 2.429704,-1.635422 -3.80619 2.75288,-1.617674 -3.264726 3.000226,-1.302123 -5.871742 2.114312,-1.150452 -5.023568 2.423637,-1.061272 -4.554103 2.675145,-1.012015 -4.097209 2.891019,-10.01784 -8.578304 0.6526251,-9.378468 -8.350574 1.015581,-8.858267 -7.684446 1.288692,-8.549965 -6.954912 1.593638,-8.298454 -6.424683 1.899892,-9.271545 -5.95685 0.9372275,-9.099857 -4.842763 1.197342,-9.010427 -4.152065 1.43162,-8.946424 -3.546028 1.57566,-9.631104 -5.739835 1.004683,-9.497418 -4.416326 1.206039,-9.407675 -3.565015 1.477642,-9.341822 -2.834421 1.673736,-9.992716 -5.796209 1.11179,-9.904482 -4.544126 1.325277,-9.825643 -3.75708 1.578461,-9.7342 -3.090354 1.763767,-10.37425 -6.058254 1.269755,-10.43771 -5.084867 1.487821,-10.44815 -4.44721 1.688345,-10.41972 -3.834156 1.828795,1.380,DnF
-1.717956 -8.371862 1.490997,-2.307247 -8.279345 2.174245,-2.824604 -7.760472 2.517069,-3.117552 -7.211568 2.783038,-3.359606 -6.838823 3.03017,-2.491328 -5.679317 2.26745,-2.689692 -4.609278 2.59575,-2.733366 -4.013032 2.890894,-2.746238 -3.458435 3.136271,-2.072155 -5.440832 2.156191,-2.161982 -4.252027 2.492044,-2.163191 -3.580881 2.77112,-2.159909 -2.993487 2.99268,-1.685683 -5.534782 2.103917,-1.668745 -4.422298 2.429704,-1.635422 -3.80619 2.75288,-1.617674 -3.264726 3.000226,-1.302123 -5.871742 2.114312,-1.150452 -5.023568 2.423637,-1.061272 -4.554103 2.675145,-1.012015 -4.097209 2.891019,-10.01784 -8.578304 0.6526251,-9.378468 -8.350574 1.015581,-8.858267 -7.684446 1.288692,-8.549965 -6.954912 1.593638,-8.298454 -6.424683 1.899892,-9.271545 -5.95685 0.9372275,-9.099857 -4.842763 1.197342,-9.010427 -4.152065 1.43162,-8.946424 -3.546028 1.57566,-9.631104 -5.739835 1.004683,-9.497418 -4.416326 1.206039,-9.407675 -3.565015 1.477642,-9.341822 -2.834421 1.673736,-9.992716 -5.796209 1.11179,-9.904482 -4.544126 1.325277,-9.825643 -3.75708 1.578461,-9.7342 -3.090354 1.763767,-10.37425 -6.058254 1.269755,-10.43771 -5.084867 1.487821,-10.44815 -4.44721 1.688345,-10.41972 -3.834156 1.828795,1.400,DnF
-1.531901 -8.709061 1.448609,-2.038552 -8.6222 2.159064,-2.469847 -8.070667 2.54197,-2.734082 -7.55796 2.842106,-2.955765 -7.25064 3.124436,-2.151763 -6.018155 2.334106,-2.301513 -4.896619 2.663609,-2.292987 -4.336395 2.966481,-2.256158 -3.852274 3.214861,-1.74085 -5.792665 2.181439,-1.765287 -4.585937 2.494219,-1.7098 -3.965345 2.730571,-1.653377 -3.414361 2.923989,-1.368524 -5.899817 2.070675,-1.311718 -4.768896 2.372427,-1.23588 -4.194232 2.593359,-1.155809 -3.705942 2.774896,-1.010272 -6.265874 2.024863,-0.8182645 -5.466094 2.323946,-0.6606526 -5.012607 2.548801,-0.5125756 -4.597164 2.753721,-9.986825 -8.596561 0.6735533,-9.333459 -8.378365 1.023005,-8.810824 -7.725477 1.29556,-8.499018 -6.995927 1.59798,-8.249499 -6.459177 1.893757,-9.224023 -5.974836 0.9779792,-9.061645 -4.828931 1.235029,-8.976939 -4.114439 1.462423,-8.909958 -3.491865 1.602175,-9.582905 -5.756361 1.040965,-9.437285 -4.413539 1.241124,-9.343829 -3.563449 1.498269,-9.271643 -2.827264 1.690045,-9.948987 -5.812629 1.143628,-9.848797 -4.540193 1.3462,-9.769554 -3.742628 1.586732,-9.685185 -3.069404 1.767742,-10.33716 -6.075418 1.289096,-10.38841 -5.087718 1.503752,-10.39926 -4.437738 1.706936,-10.37933 -3.814529 1.849445,1.420,DnF
-1.531901 -8.709061 1.448609,-2.038552 -8.6222 2.159064,-2.469847 -8.070667 2.54197,-2.734082 -7.55796 2.842106,-2.955765 -7.25064 3.124436,-2.151763 -6.018155 2.334106,-2.301513 -4.896619 2.663609,-2.292987 -4.336395 2.966481,-2.256158 -3.852274 3.214861,-1.74085 -5.792665 2.181439,-1.765287 -4.585937 2.494219,-1.7098 -3.965345 2.730571,-1.653377 -3.414361 2.923989,-1.368524 -5.899817 2.070675,-1.311718 -4.768896 2.372427,-1.23588 -4.194232 2.593359,-1.155809 -3.705942 2.774896,-1.010272 -6.265874 2.024863,-0.8182645 -5.466094 2.323946,-0.6606526 -5.012607 2.548801,-0.5125756 -4.597164 2.753721,-9.986825 -8.596561 0.6735533,-9.333459 -8.378365 1.023005,-8.810824 -7.725477 1.29556,-8.499018 -6.995927 1.59798,-8.249499 -6.459177 1.893757,-9.224023 -5.974836 0.9779792,-9.061645 -4.828931 1.235029,-8.976939 -4.114439 1.462423,-8.909958 -3.491865 1.602175,-9.582905 -5.756361 1.040965,-9.437285 -4.413539 1.241124,-9.343829 -3.563449 1.498269,-9.271643 -2.827264 1.690045,-9.948987 -5.812629 1.143628,-9.848797 -4.540193 1.3462,-9.769554 -3.742628 1.586732,-9.685185 -3.069404 1.767742,-10.33716 -6.075418 1.289096,-10.38841 -5.087718 1.503752,-10.39926 -4.437738 1.706936,-10.37933 -3.814529 1.849445,1.440,DnF
-1.531901 -8.709061 1.448609,-2.038552 -8.6222 2.159064,-2.469847 -8.070667 2.54197,-2.734082 -7.55796 2.842106,-2.955765 -7.25064 3.124436,-2.151763 -6.018155 2.334106,-2.301513 -4.896619 2.663609,-2.292987 -4.336395 2.966481,-2.256158 -3.852274 3.214861,-1.74085 -5.792665 2.181439,-1.765287 -4.585937 2.494219,-1.7098 -3.965345 2.730571,-1.653377 -3.414361 2.923989,-1.368524 -5.899817 2.070675,-1.311718 -4.768896 2.372427,-1.23588 -4.194232 2.593359,-1.155809 -3.705942 2.774896,-1.010272 -6.265874 2.024863,-0.8182645 -5.466094 2.323946,-0.6606526 -5.012607 2.548801,-0.5125756 -4.597164 2.753721,-9.986825 -8.596561 0.6735533,-9.333459 -8.378365 1.023005,-8.810824 -7.725477 1.29556,-8.499018 -6.995927 1.59798,-8.249499 -6.459177 1.893757,-9.224023 -5.974836 0.9779792,-9.061645 -4.828931 1.235029,-8.976939 -4.114439 1.462423,-8.909958 -3.491865 1.602175,-9.582905 -5.756361 1.040965,-9.437285 -4.413539 1.241124,-9.343829 -3.563449 1.498269,-9.271643 -2.827264 1.690045,-9.948987 -5.812629 1.143628,-9.848797 -4.540193 1.3462,-9.769554 -3.742628 1.586732,-9.685185 -3.069404 1.767742,-10.33716 -6.075418 1.289096,-10.38841 -5.087718 1.503752,-10.39926 -4.437738 1.706936,-10.37933 -3.814529 1.849445,1.460,DnF
-1.531901 -8.709061 1.448609,-2.038552 -8.6222 2.159064,-2.469847 -8.070667 2.54197,-2.734082 -7.55796 2.842106,-2.955765 -7.25064 3.124436,-2.151763 -6.018155 2.334106,-2.301513 -4.896619 2.663609,-2.292987 -4.336395 2.966481,-2.256158 -3.852274 3.214861,-1.74085 -5.792665 2.181439,-1.765287 -4.585937 2.494219,-1.7098 -3.965345 2.730571,-1.653377 -3.414361 2.923989,-1.368524 -5.899817 2.070675,-1.311718 -4.768896 2.372427,-1.23588 -4.194232 2.593359,-1.155809 -3.705942 2.774896,-1.010272 -6.265874 2.024863,-0.8182645 -5.466094 2.323946,-0.6606526 -5.012607 2.548801,-0.5125756 -4.597164 2.753721,-9.986825 -8.596561 0.6735533,-9.333459 -8.378365 1.023005,-8.810824 -7.725477 1.29556,-8.499018 -6.995927 1.59798,-8.249499 -6.459177 1.893757,-9.224023 -5.974836 0.9779792,-9.061645 -4.828931 1.235029,-8.976939 -4.114439 1.462423,-8.909958 -3.491865 1.602175,-9.582905 -5.756361 1.040965,-9.437285 -4.413539 1.241124,-9.343829 -3.563449 1.498269,-9.271643 -2.827264 1.690045,-9.948987 -5.812629 1.143628,-9.848797 -4.540193 1.3462,-9.769554 -3.742628 1.586732,-9.685185 -3.069404 1.767742,-10.33716 -6.075418 1.289096,-10.38841 -5.087718 1.503752,-10.39926 -4.437738 1.706936,-10.37933 -3.814529 1.849445,1.480,DnF
-1.288084 -8.91902 1.411961,-1.733101 -8.837925 2.254912,-2.134034 -8.340254 2.756125,-2.346154 -7.877029 3.166295,-2.488877 -7.549863 3.574602,-1.813681 -6.26733 2.482238,-1.909214 -5.170682 2.887077,-1.857122 -4.655809 3.257418,-1.762298 -4.258773 3.532976,-1.407289 -6.048724 2.289432,-1.381276 -4.879881 2.61786,-1.270396 -4.29483 2.903481,-1.137205 -3.797368 3.141546,-1.046613 -6.182731 2.155673,-0.9353218 -5.112762 2.463922,-0.8064661 -4.605181 2.709374,-0.6665258 -4.214597 2.906535,-0.7058115 -6.592493 2.093501,-0.4754601 -5.861928 2.408171,-0.2756281 -5.456045 2.652174,-0.07860661 -5.105165 2.863193,-9.929283 -8.62586 0.7696837,-9.283092 -8.403433 1.148735,-8.761945 -7.756038 1.445793,-8.451383 -7.029754 1.768766,-8.199538 -6.479917 2.085527,-9.172721 -5.983382 1.143868,-9.013101 -4.825281 1.429491,-8.924802 -4.10733 1.667761,-8.852864 -3.480133 1.819375,-9.529186 -5.766439 1.203553,-9.376459 -4.406965 1.437275,-9.27229 -3.555802 1.7171,-9.192015 -2.810824 1.924779,-9.894719 -5.826085 1.302923,-9.793806 -4.542419 1.530106,-9.714809 -3.741552 1.790389,-9.631507 -3.062368 1.989307,-10.28419 -6.095516 1.447612,-10.33821 -5.106849 1.678676,-10.35136 -4.451208 1.890518,-10.33468 -3.818602 2.04437,1.500,DnF
-1.288084 -8.91902 1.411961,-1.733101 -8.837925 2.254912,-2.134034 -8.340254 2.756125,-2.346154 -7.877029 3.166295,-2.488877 -7.549863 3.574602,-1.813681 -6.26733 2.482238,-1.909214 -5.170682 2.887077,-1.857122 -4.655809 3.257418,-1.762298 -4.258773 3.532976,-1.407289 -6.048724 2.289432,-1.381276 -4.879881 2.61786,-1.270396 -4.29483 2.903481,-1.137205 -3.797368 3.141546,-1.046613 -6.182731 2.155673,-0.9353218 -5.112762 2.463922,-0.8064661 -4.605181 2.709374,-0.6665258 -4.214597 2.906535,-0.7058115 -6.592493 2.093501,-0.4754601 -5.861928 2.408171,-0.2756281 -5.456045 2.652174,-0.07860661 -5.105165 2.863193,-9.929283 -8.62586 0.7696837,-9.283092 -8.403433 1.148735,-8.761945 -7.756038 1.445793,-8.451383 -7.029754 1.768766,-8.199538 -6.479917 2.085527,-9.172721 -5.983382 1.143868,-9.013101 -4.825281 1.429491,-8.924802 -4.10733 1.667761,-8.852864 -3.480133 1.819375,-9.529186 -5.766439 1.203553,-9.376459 -4.406965 1.437275,-9.27229 -3.555802 1.7171,-9.192015 -2.810824 1.924779,-9.894719 -5.826085 1.302923,-9.793806 -4.542419 1.530106,-9.714809 -3.741552 1.790389,-9.631507 -3.062368 1.989307,-10.28419 -6.095516 1.447612,-10.33821 -5.106849 1.678676,-10.35136 -4.451208 1.890518,-10.33468 -3.818602 2.04437,1.520,DnF
-1.288084 -8.91902 1.411961,-1.733101 -8.837925 2.254912,-2.134034 -8.340254 2.756125,-2.346154 -7.877029 3.166295,-2.488877 -7.549863 3.574602,-1.813681 -6.26733 2.482238,-1.909214 -5.170682 2.887077,-1.857122 -4.655809 3.257418,-1.762298 -4.258773 3.532976,-1.407289 -6.048724 2.289432,-1.381276 -4.879881 2.61786,-1.270396 -4.29483 2.903481,-1.137205 -3.797368 3.141546,-1.046613 -6.182731 2.155673,-0.9353218 -5.112762 2.463922,-0.8064661 -4.605181 2.709374,-0.6665258 -4.214597 2.906535,-0.7058115 -6.592493 2.093501,-0.4754601 -5.861928 2.408171,-0.2756281 -5.456045 2.652174,-0.07860661 -5.105165 2.863193,-9.929283 -8.62586 0.7696837,-9.283092 -8.403433 1.148735,-8.761945 -7.756038 1.445793,-8.451383 -7.029754 1.768766,-8.199538 -6.479917 2.085527,-9.172721 -5.983382 1.143868,-9.013101 -4.825281 1.429491,-8.924802 -4.10733 1.667761,-8.852864 -3.480133 1.819375,-9.529186 -5.766439 1.203553,-9.376459 -4.406965 1.437275,-9.27229 -3.555802 1.7171,-9.192015 -2.810824 1.924779,-9.894719 -5.826085 1.302923,-9.793806 -4.542419 1.530106,-9.714809 -3.741552 1.790389,-9.631507 -3.062368 1.989307,-10.28419 -6.095516 1.447612,-10.33821 -5.106849 1.678676,-10.35136 -4.451208 1.890518,-10.33468 -3.818602 2.04437,1.540,DnF
-1.288084 -8.91902 1.411961,-1.733101 -8.837925 2.254912,-2.134034 -8.340254 2.756125,-2.346154 -7.877029 3.166295,-2.488877 -7.549863 3.574602,-1.813681 -6.26733 2.482238,-1.909214 -5.170682 2.887077,-1.857122 -4.655809 3.257418,-1.762298 -4.258773 3.532976,-1.407289 -6.048724 2.289432,-1.381276 -4.879881 2.61786,-1.270396 -4.29483 2.903481,-1.137205 -3.797368 3.141546,-1.046613 -6.182731 2.155673,-0.9353218 -5.112762 2.463922,-0.8064661 -4.605181 2.709374,-0.6665258 -4.214597 2.906535,-0.7058115 -6.592493 2.093501,-0.4754601 -5.861928 2.408171,-0.2756281 -5.456045 2.652174,-0.07860661 -5.105165 2.863193,-9.929283 -8.62586 0.7696837,-9.283092 -8.403433 1.148735,-8.761945 -7.756038 1.445793,-8.451383 -7.029754 1.768766,-8.199538 -6.479917 2.085527,-9.172721 -5.983382 1.143868,-9.013101 -4.825281 1.429491,-8.924802 -4.10733 1.667761,-8.852864 -3.480133 1.819375,-9.529186 -5.766439 1.203553,-9.376459 -4.406965 1.437275,-9.27229 -3.555802 1.7171,-9.192015 -2.810824 1.924779,-9.894719 -5.826085 1.302923,-9.793806 -4.542419 1.530106,-9.714809 -3.741552 1.790389,-9.631507 -3.062368 1.989307,-10.28419 -6.095516 1.447612,-10.33821 -5.106849 1.678676,-10.35136 -4.451208 1.890518,-10.33468 -3.818602 2.04437,1.560,DnF
-1.109184 -8.960297 1.284464,-1.552287 -8.918699 2.275573,-1.946248 -8.50075 2.81676,-2.124019 -8.024014 3.242393,-2.312454 -7.67277 3.660015,-1.621472 -6.353927 2.319044,-1.724838 -5.326932 2.720375,-1.651192 -4.793333 3.094382,-1.522597 -4.370247 3.361215,-1.20796 -6.099069 2.064908,-1.186345 -5.002988 2.382481,-1.045816 -4.422113 2.713665,-0.8666201 -4.002713 2.993738,-0.8593092 -6.212574 1.881542,-0.7161102 -5.176836 2.173041,-0.550828 -4.672395 2.531337,-0.3707275 -4.31179 2.808349,-0.5283689 -6.594367 1.790817,-0.2832403 -5.908569 2.073039,-0.05950928 -5.567872 2.352278,0.1463056 -5.296356 2.582808,-9.897701 -8.658091 0.8517225,-9.250813 -8.415447 1.192475,-8.73325 -7.759361 1.467953,-8.425817 -7.023427 1.775382,-8.169109 -6.488786 2.077244,-9.142878 -5.982215 1.178424,-8.986351 -4.814096 1.436514,-8.896079 -4.087085 1.667277,-8.81896 -3.458794 1.826668,-9.501631 -5.768512 1.246038,-9.352364 -4.403048 1.451026,-9.24407 -3.537002 1.724818,-9.157339 -2.784267 1.93402,-9.869076 -5.826986 1.352391,-9.768205 -4.555051 1.5444,-9.684355 -3.757342 1.785301,-9.597363 -3.084913 1.972385,-10.25985 -6.095863 1.49896,-10.32356 -5.108511 1.707814,-10.34007 -4.44898 1.905296,-10.32793 -3.820495 2.049155,1.580,DnF
-1.109184 -8.960297 1.284464,-1.552287 -8.918699 2.275573,-1.946248 -8.50075 2.81676,-2.124019 -8.024014 3.242393,-2.312454 -7.67277 3.660015,-1.621472 -6.353927 2.319044,-1.724838 -5.326932 2.720375,-1.651192 -4.793333 3.094382,-1.522597 -4.370247 3.361215,-1.20796 -6.099069 2.064908,-1.186345 -5.002988 2.382481,-1.045816 -4.422113 2.713665,-0.8666201 -4.002713 2.993738,-0.8593092 -6.212574 1.881542,-0.7161102 -5.176836 2.173041,-0.550828 -4.672395 2.531337,-0.3707275 -4.31179 2.808349,-0.5283689 -6.594367 1.790817,-0.2832403 -5.908569 2.073039,-0.05950928 -5.567872 2.352278,0.1463056 -5.296356 2.582808,-9.897701 -8.658091 0.8517225,-9.250813 -8.415447 1.192475,-8.73325 -7.759361 1.467953,-8.425817 -7.023427 1.775382,-8.169109 -6.488786 2.077244,-9.142878 -5.982215 1.178424,-8.986351 -4.814096 1.436514,-8.896079 -4.087085 1.667277,-8.81896 -3.458794 1.826668,-9.501631 -5.768512 1.246038,-9.352364 -4.403048 1.451026,-9.24407 -3.537002 1.724818,-9.157339 -2.784267 1.93402,-9.869076 -5.826986 1.352391,-9.768205 -4.555051 1.5444,-9.684355 -3.757342 1.785301,-9.597363 -3.084913 1.972385,-10.25985 -6.095863 1.49896,-10.32356 -5.108511 1.707814,-10.34007 -4.44898 1.905296,-10.32793 -3.820495 2.049155,1.600,DnF
-1.109184 -8.960297 1.284464,-1.552287 -8.918699 2.275573,-1.946248 -8.50075 2.81676,-2.124019 -8.024014 3.242393,-2.312454 -7.67277 3.660015,-1.621472 -6.353927 2.319044,-1.724838 -5.326932 2.720375,-1.651192 -4.793333 3.094382,-1.522597 -4.370247 3.361215,-1.20796 -6.099069 2.064908,-1.186345 -5.002988 2.382481,-1.045816 -4.422113 2.713665,-0.8666201 -4.002713 2.993738,-0.8593092 -6.212574 1.881542,-0.7161102 -5.176836 2.173041,-0.550828 -4.672395 2.531337,-0.3707275 -4.31179 2.808349,-0.5283689 -6.594367 1.790817,-0.2832403 -5.908569 2.073039,-0.05950928 -5.567872 2.352278,0.1463056 -5.296356 2.582808,-9.897701 -8.658091 0.8517225,-9.250813 -8.415447 1.192475,-8.73325 -7.759361 1.467953,-8.425817 -7.023427 1.775382,-8.169109 -6.488786 2.077244,-9.142878 -5.982215 1.178424,-8.986351 -4.814096 1.436514,-8.896079 -4.087085 1.667277,-8.81896 -3.458794 1.826668,-9.501631 -5.768512 1.246038,-9.352364 -4.403048 1.451026,-9.24407 -3.537002 1.724818,-9.157339 -2.784267 1.93402,-9.869076 -5.826986 1.352391,-9.768205 -4.555051 1.5444,-9.684355 -3.757342 1.785301,-9.597363 -3.084913 1.972385,-10.25985 -6.095863 1.49896,-10.32356 -5.108511 1.707814,-10.34007 -4.44898 1.905296,-10.32793 -3.820495 2.049155,1.620,DnF
