TiagoOliveira98/HandTracking/DataLogging/JointData/Logs(1642645337)_Hamilton_Calculator.csv
WRIST,THUMB_CMC,THUMB_MCP,THUMB_IP,THUMB_TIP,INDEX_FINGER_MCP,INDEX_FINGER_PIP,INDEX_FINGER_DIP,INDEX_FINGER_TIP,MIDDLE_FINGER_MCP,MIDDLE_FINGER_PIP,MIDDLE_FINGER_DIP,MIDDLE_FINGER_TIP,RING_FINGER_MCP,RING_FINGER_PIP,RING_FINGER_DIP,RING_FINGER_TIP,PINKY_MCP,PINKY_PIP,PINKY_DIP,PINKY_TIP,WRIST2,THUMB_CMC2,THUMB_MCP2,THUMB_IP2,THUMB_TIP2,INDEX_FINGER_MCP2,INDEX_FINGER_PIP2,INDEX_FINGER_DIP2,INDEX_FINGER_TIP2,MIDDLE_FINGER_MCP2,MIDDLE_FINGER_PIP2,MIDDLE_FINGER_DIP2,MIDDLE_FINGER_TIP2,RING_FINGER_MCP2,RING_FINGER_PIP2,RING_FINGER_DIP2,RING_FINGER_TIP2,PINKY_MCP2,PINKY_PIP2,PINKY_DIP2,PINKY_TIP2,Timestamp,Event
10 0 0,10 7.47 0,10 7.47 0,10 7.47 0,10 7.47 0,10 7.47 0,10 7.47 0,10 7.47 0,10 7.47 0,10 7.47 0,10 7.47 0,10 7.47 0,10 7.47 0,10 7.47 0,10 7.47 0,10 7.47 0,10 7.47 0,10 7.47 0,10 7.47 0,10 7.47 0,10 7.47 0,10 0 0,10 7.47 0,10 7.47 0,10 7.47 0,10 7.47 0,10 7.47 0,10 7.47 0,10 7.47 0,10 7.47 0,10 7.47 0,10 7.47 0,10 7.47 0,10 7.47 0,10 7.47 0,10 7.47 0,10 7.47 0,10 7.47 0,10 7.47 0,10 7.47 0,10 7.47 0,10 7.47 0,0.010,
2 0 -10.34614,2 0 -10.34614,2 0 -10.34614,2 0 -10.34614,2 0 -10.34614,2 0 -10.34614,2 0 -10.34614,2 0 -10.34614,2 0 -10.34614,2 0 -10.34614,2 0 -10.34614,2 0 -10.34614,2 0 -10.34614,2 0 -10.34614,2 0 -10.34614,2 0 -10.34614,2 0 -10.34614,2 0 -10.34614,2 0 -10.34614,2 0 -10.34614,2 0 -10.34614,2 0 -11.39653,2 0 -11.39653,2 0 -11.39653,2 0 -11.39653,2 0 -11.39653,2 0 -11.39653,2 0 -11.39653,2 0 -11.39653,2 0 -11.39653,2 0 -11.39653,2 0 -11.39653,2 0 -11.39653,2 0 -11.39653,2 0 -11.39653,2 0 -11.39653,2 0 -11.39653,2 0 -11.39653,2 0 -11.39653,2 0 -11.39653,2 0 -11.39653,2 0 -11.39653,0.110,
2 0 -10.34614,2 0 -10.34614,2 0 -10.34614,2 0 -10.34614,2 0 -10.34614,2 0 -10.34614,2 0 -10.34614,2 0 -10.34614,2 0 -10.34614,2 0 -10.34614,2 0 -10.34614,2 0 -10.34614,2 0 -10.34614,2 0 -10.34614,2 0 -10.34614,2 0 -10.34614,2 0 -10.34614,2 0 -10.34614,2 0 -10.34614,2 0 -10.34614,2 0 -10.34614,2 0 -11.39653,2 0 -11.39653,2 0 -11.39653,2 0 -11.39653,2 0 -11.39653,2 0 -11.39653,2 0 -11.39653,2 0 -11.39653,2 0 -11.39653,2 0 -11.39653,2 0 -11.39653,2 0 -11.39653,2 0 -11.39653,2 0 -11.39653,2 0 -11.39653,2 0 -11.39653,2 0 -11.39653,2 0 -11.39653,2 0 -11.39653,2 0 -11.39653,2 0 -11.39653,0.210,
2 0 -10.34614,2 0 -10.34614,2 0 -10.34614,2 0 -10.34614,2 0 -10.34614,2 0 -10.34614,2 0 -10.34614,2 0 -10.34614,2 0 -10.34614,2 0 -10.34614,2 0 -10.34614,2 0 -10.34614,2 0 -10.34614,2 0 -10.34614,2 0 -10.34614,2 0 -10.34614,2 0 -10.34614,2 0 -10.34614,2 0 -10.34614,2 0 -10.34614,2 0 -10.34614,2 0 -11.39653,2 0 -11.39653,2 0 -11.39653,2 0 -11.39653,2 0 -11.39653,2 0 -11.39653,2 0 -11.39653,2 0 -11.39653,2 0 -11.39653,2 0 -11.39653,2 0 -11.39653,2 0 -11.39653,2 0 -11.39653,2 0 -11.39653,2 0 -11.39653,2 0 -11.39653,2 0 -11.39653,2 0 -11.39653,2 0 -11.39653,2 0 -11.39653,2 0 -11.39653,0.310,
2 0 -10.34614,2 0 -10.34614,2 0 -10.34614,2 0 -10.34614,2 0 -10.34614,2 0 -10.34614,2 0 -10.34614,2 0 -10.34614,2 0 -10.34614,2 0 -10.34614,2 0 -10.34614,2 0 -10.34614,2 0 -10.34614,2 0 -10.34614,2 0 -10.34614,2 0 -10.34614,2 0 -10.34614,2 0 -10.34614,2 0 -10.34614,2 0 -10.34614,2 0 -10.34614,2 0 -11.39653,2 0 -11.39653,2 0 -11.39653,2 0 -11.39653,2 0 -11.39653,2 0 -11.39653,2 0 -11.39653,2 0 -11.39653,2 0 -11.39653,2 0 -11.39653,2 0 -11.39653,2 0 -11.39653,2 0 -11.39653,2 0 -11.39653,2 0 -11.39653,2 0 -11.39653,2 0 -11.39653,2 0 -11.39653,2 0 -11.39653,2 0 -11.39653,2 0 -11.39653,0.410,
2 0 -10.34614,2 0 -10.34614,2 0 -10.34614,2 0 -10.34614,2 0 -10.34614,2 0 -10.34614,2 0 -10.34614,2 0 -10.34614,2 0 -10.34614,2 0 -10.34614,2 0 -10.34614,2 0 -10.34614,2 0 -10.34614,2 0 -10.34614,2 0 -10.34614,2 0 -10.34614,2 0 -10.34614,2 0 -10.34614,2 0 -10.34614,2 0 -10.34614,2 0 -10.34614,2 0 -11.39653,2 0 -11.39653,2 0 -11.39653,2 0 -11.39653,2 0 -11.39653,2 0 -11.39653,2 0 -11.39653,2 0 -11.39653,2 0 -11.39653,2 0 -11.39653,2 0 -11.39653,2 0 -11.39653,2 0 -11.39653,2 0 -11.39653,2 0 -11.39653,2 0 -11.39653,2 0 -11.39653,2 0 -11.39653,2 0 -11.39653,2 0 -11.39653,2 0 -11.39653,0.510,
2 0 -10.34614,2 0 -10.34614,2 0 -10.34614,2 0 -10.34614,2 0 -10.34614,2 0 -10.34614,2 0 -10.34614,2 0 -10.34614,2 0 -10.34614,2 0 -10.34614,2 0 -10.34614,2 0 -10.34614,2 0 -10.34614,2 0 -10.34614,2 0 -10.34614,2 0 -10.34614,2 0 -10.34614,2 0 -10.34614,2 0 -10.34614,2 0 -10.34614,2 0 -10.34614,2 0 -11.39653,2 0 -11.39653,2 0 -11.39653,2 0 -11.39653,2 0 -11.39653,2 0 -11.39653,2 0 -11.39653,2 0 -11.39653,2 0 -11.39653,2 0 -11.39653,2 0 -11.39653,2 0 -11.39653,2 0 -11.39653,2 0 -11.39653,2 0 -11.39653,2 0 -11.39653,2 0 -11.39653,2 0 -11.39653,2 0 -11.39653,2 0 -11.39653,2 0 -11.39653,0.610,
2 0 -10.34614,2 0 -10.34614,2 0 -10.34614,2 0 -10.34614,2 0 -10.34614,2 0 -10.34614,2 0 -10.34614,2 0 -10.34614,2 0 -10.34614,2 0 -10.34614,2 0 -10.34614,2 0 -10.34614,2 0 -10.34614,2 0 -10.34614,2 0 -10.34614,2 0 -10.34614,2 0 -10.34614,2 0 -10.34614,2 0 -10.34614,2 0 -10.34614,2 0 -10.34614,2 0 -11.39653,2 0 -11.39653,2 0 -11.39653,2 0 -11.39653,2 0 -11.39653,2 0 -11.39653,2 0 -11.39653,2 0 -11.39653,2 0 -11.39653,2 0 -11.39653,2 0 -11.39653,2 0 -11.39653,2 0 -11.39653,2 0 -11.39653,2 0 -11.39653,2 0 -11.39653,2 0 -11.39653,2 0 -11.39653,2 0 -11.39653,2 0 -11.39653,2 0 -11.39653,0.710,
2 0 -10.34614,2 0 -10.34614,2 0 -10.34614,2 0 -10.34614,2 0 -10.34614,2 0 -10.34614,2 0 -10.34614,2 0 -10.34614,2 0 -10.34614,2 0 -10.34614,2 0 -10.34614,2 0 -10.34614,2 0 -10.34614,2 0 -10.34614,2 0 -10.34614,2 0 -10.34614,2 0 -10.34614,2 0 -10.34614,2 0 -10.34614,2 0 -10.34614,2 0 -10.34614,2 0 -11.39653,2 0 -11.39653,2 0 -11.39653,2 0 -11.39653,2 0 -11.39653,2 0 -11.39653,2 0 -11.39653,2 0 -11.39653,2 0 -11.39653,2 0 -11.39653,2 0 -11.39653,2 0 -11.39653,2 0 -11.39653,2 0 -11.39653,2 0 -11.39653,2 0 -11.39653,2 0 -11.39653,2 0 -11.39653,2 0 -11.39653,2 0 -11.39653,2 0 -11.39653,0.810,
2 0 -10.34614,2 0 -10.34614,2 0 -10.34614,2 0 -10.34614,2 0 -10.34614,2 0 -10.34614,2 0 -10.34614,2 0 -10.34614,2 0 -10.34614,2 0 -10.34614,2 0 -10.34614,2 0 -10.34614,2 0 -10.34614,2 0 -10.34614,2 0 -10.34614,2 0 -10.34614,2 0 -10.34614,2 0 -10.34614,2 0 -10.34614,2 0 -10.34614,2 0 -10.34614,2 0 -11.39653,2 0 -11.39653,2 0 -11.39653,2 0 -11.39653,2 0 -11.39653,2 0 -11.39653,2 0 -11.39653,2 0 -11.39653,2 0 -11.39653,2 0 -11.39653,2 0 -11.39653,2 0 -11.39653,2 0 -11.39653,2 0 -11.39653,2 0 -11.39653,2 0 -11.39653,2 0 -11.39653,2 0 -11.39653,2 0 -11.39653,2 0 -11.39653,2 0 -11.39653,0.910,
2 0 -10.34614,2 0 -10.34614,2 0 -10.34614,2 0 -10.34614,2 0 -10.34614,2 0 -10.34614,2 0 -10.34614,2 0 -10.34614,2 0 -10.34614,2 0 -10.34614,2 0 -10.34614,2 0 -10.34614,2 0 -10.34614,2 0 -10.34614,2 0 -10.34614,2 0 -10.34614,2 0 -10.34614,2 0 -10.34614,2 0 -10.34614,2 0 -10.34614,2 0 -10.34614,2 0 -11.39653,2 0 -11.39653,2 0 -11.39653,2 0 -11.39653,2 0 -11.39653,2 0 -11.39653,2 0 -11.39653,2 0 -11.39653,2 0 -11.39653,2 0 -11.39653,2 0 -11.39653,2 0 -11.39653,2 0 -11.39653,2 0 -11.39653,2 0 -11.39653,2 0 -11.39653,2 0 -11.39653,2 0 -11.39653,2 0 -11.39653,2 0 -11.39653,2 0 -11.39653,1.010,
2 0 -10.34614,2 0 -10.34614,2 0 -10.34614,2 0 -10.34614,2 0 -10.34614,2 0 -10.34614,2 0 -10.34614,2 0 -10.34614,2 0 -10.34614,2 0 -10.34614,2 0 -10.34614,2 0 -10.34614,2 0 -10.34614,2 0 -10.34614,2 0 -10.34614,2 0 -10.34614,2 0 -10.34614,2 0 -10.34614,2 0 -10.34614,2 0 -10.34614,2 0 -10.34614,2 0 -11.39653,2 0 -11.39653,2 0 -11.39653,2 0 -11.39653,2 0 -11.39653,2 0 -11.39653,2 0 -11.39653,2 0 -11.39653,2 0 -11.39653,2 0 -11.39653,2 0 -11.39653,2 0 -11.39653,2 0 -11.39653,2 0 -11.39653,2 0 -11.39653,2 0 -11.39653,2 0 -11.39653,2 0 -11.39653,2 0 -11.39653,2 0 -11.39653,2 0 -11.39653,1.110,
2 0 -10.34614,2 0 -10.34614,2 0 -10.34614,2 0 -10.34614,2 0 -10.34614,2 0 -10.34614,2 0 -10.34614,2 0 -10.34614,2 0 -10.34614,2 0 -10.34614,2 0 -10.34614,2 0 -10.34614,2 0 -10.34614,2 0 -10.34614,2 0 -10.34614,2 0 -10.34614,2 0 -10.34614,2 0 -10.34614,2 0 -10.34614,2 0 -10.34614,2 0 -10.34614,2 0 -11.39653,2 0 -11.39653,2 0 -11.39653,2 0 -11.39653,2 0 -11.39653,2 0 -11.39653,2 0 -11.39653,2 0 -11.39653,2 0 -11.39653,2 0 -11.39653,2 0 -11.39653,2 0 -11.39653,2 0 -11.39653,2 0 -11.39653,2 0 -11.39653,2 0 -11.39653,2 0 -11.39653,2 0 -11.39653,2 0 -11.39653,2 0 -11.39653,2 0 -11.39653,1.210,
2 0 -10.34614,2 0 -10.34614,2 0 -10.34614,2 0 -10.34614,2 0 -10.34614,2 0 -10.34614,2 0 -10.34614,2 0 -10.34614,2 0 -10.34614,2 0 -10.34614,2 0 -10.34614,2 0 -10.34614,2 0 -10.34614,2 0 -10.34614,2 0 -10.34614,2 0 -10.34614,2 0 -10.34614,2 0 -10.34614,2 0 -10.34614,2 0 -10.34614,2 0 -10.34614,2 0 -11.39653,2 0 -11.39653,2 0 -11.39653,2 0 -11.39653,2 0 -11.39653,2 0 -11.39653,2 0 -11.39653,2 0 -11.39653,2 0 -11.39653,2 0 -11.39653,2 0 -11.39653,2 0 -11.39653,2 0 -11.39653,2 0 -11.39653,2 0 -11.39653,2 0 -11.39653,2 0 -11.39653,2 0 -11.39653,2 0 -11.39653,2 0 -11.39653,2 0 -11.39653,1.310,
2 0 -10.34614,2 0 -10.34614,2 0 -10.34614,2 0 -10.34614,2 0 -10.34614,2 0 -10.34614,2 0 -10.34614,2 0 -10.34614,2 0 -10.34614,2 0 -10.34614,2 0 -10.34614,2 0 -10.34614,2 0 -10.34614,2 0 -10.34614,2 0 -10.34614,2 0 -10.34614,2 0 -10.34614,2 0 -10.34614,2 0 -10.34614,2 0 -10.34614,2 0 -10.34614,2 0 -11.39653,2 0 -11.39653,2 0 -11.39653,2 0 -11.39653,2 0 -11.39653,2 0 -11.39653,2 0 -11.39653,2 0 -11.39653,2 0 -11.39653,2 0 -11.39653,2 0 -11.39653,2 0 -11.39653,2 0 -11.39653,2 0 -11.39653,2 0 -11.39653,2 0 -11.39653,2 0 -11.39653,2 0 -11.39653,2 0 -11.39653,2 0 -11.39653,2 0 -11.39653,1.410,
2 0 -10.34614,2 0 -10.34614,2 0 -10.34614,2 0 -10.34614,2 0 -10.34614,2 0 -10.34614,2 0 -10.34614,2 0 -10.34614,2 0 -10.34614,2 0 -10.34614,2 0 -10.34614,2 0 -10.34614,2 0 -10.34614,2 0 -10.34614,2 0 -10.34614,2 0 -10.34614,2 0 -10.34614,2 0 -10.34614,2 0 -10.34614,2 0 -10.34614,2 0 -10.34614,2 0 -11.39653,2 0 -11.39653,2 0 -11.39653,2 0 -11.39653,2 0 -11.39653,2 0 -11.39653,2 0 -11.39653,2 0 -11.39653,2 0 -11.39653,2 0 -11.39653,2 0 -11.39653,2 0 -11.39653,2 0 -11.39653,2 0 -11.39653,2 0 -11.39653,2 0 -11.39653,2 0 -11.39653,2 0 -11.39653,2 0 -11.39653,2 0 -11.39653,2 0 -11.39653,1.510,
2 0 -10.34614,2 0 -10.34614,2 0 -10.34614,2 0 -10.34614,2 0 -10.34614,2 0 -10.34614,2 0 -10.34614,2 0 -10.34614,2 0 -10.34614,2 0 -10.34614,2 0 -10.34614,2 0 -10.34614,2 0 -10.34614,2 0 -10.34614,2 0 -10.34614,2 0 -10.34614,2 0 -10.34614,2 0 -10.34614,2 0 -10.34614,2 0 -10.34614,2 0 -10.34614,2 0 -11.39653,2 0 -11.39653,2 0 -11.39653,2 0 -11.39653,2 0 -11.39653,2 0 -11.39653,2 0 -11.39653,2 0 -11.39653,2 0 -11.39653,2 0 -11.39653,2 0 -11.39653,2 0 -11.39653,2 0 -11.39653,2 0 -11.39653,2 0 -11.39653,2 0 -11.39653,2 0 -11.39653,2 0 -11.39653,2 0 -11.39653,2 0 -11.39653,2 0 -11.39653,1.610,
2 0 -10.34614,2 0 -10.34614,2 0 -10.34614,2 0 -10.34614,2 0 -10.34614,2 0 -10.34614,2 0 -10.34614,2 0 -10.34614,2 0 -10.34614,2 0 -10.34614,2 0 -10.34614,2 0 -10.34614,2 0 -10.34614,2 0 -10.34614,2 0 -10.34614,2 0 -10.34614,2 0 -10.34614,2 0 -10.34614,2 0 -10.34614,2 0 -10.34614,2 0 -10.34614,2 0 -11.39653,2 0 -11.39653,2 0 -11.39653,2 0 -11.39653,2 0 -11.39653,2 0 -11.39653,2 0 -11.39653,2 0 -11.39653,2 0 -11.39653,2 0 -11.39653,2 0 -11.39653,2 0 -11.39653,2 0 -11.39653,2 0 -11.39653,2 0 -11.39653,2 0 -11.39653,2 0 -11.39653,2 0 -11.39653,2 0 -11.39653,2 0 -11.39653,2 0 -11.39653,1.710,
2 0 -10.34614,2 0 -10.34614,2 0 -10.34614,2 0 -10.34614,2 0 -10.34614,2 0 -10.34614,2 0 -10.34614,2 0 -10.34614,2 0 -10.34614,2 0 -10.34614,2 0 -10.34614,2 0 -10.34614,2 0 -10.34614,2 0 -10.34614,2 0 -10.34614,2 0 -10.34614,2 0 -10.34614,2 0 -10.34614,2 0 -10.34614,2 0 -10.34614,2 0 -10.34614,2 0 -11.39653,2 0 -11.39653,2 0 -11.39653,2 0 -11.39653,2 0 -11.39653,2 0 -11.39653,2 0 -11.39653,2 0 -11.39653,2 0 -11.39653,2 0 -11.39653,2 0 -11.39653,2 0 -11.39653,2 0 -11.39653,2 0 -11.39653,2 0 -11.39653,2 0 -11.39653,2 0 -11.39653,2 0 -11.39653,2 0 -11.39653,2 0 -11.39653,2 0 -11.39653,1.810,
2 0 -10.34614,2 0 -10.34614,2 0 -10.34614,2 0 -10.34614,2 0 -10.34614,2 0 -10.34614,2 0 -10.34614,2 0 -10.34614,2 0 -10.34614,2 0 -10.34614,2 0 -10.34614,2 0 -10.34614,2 0 -10.34614,2 0 -10.34614,2 0 -10.34614,2 0 -10.34614,2 0 -10.34614,2 0 -10.34614,2 0 -10.34614,2 0 -10.34614,2 0 -10.34614,2 0 -11.39653,2 0 -11.39653,2 0 -11.39653,2 0 -11.39653,2 0 -11.39653,2 0 -11.39653,2 0 -11.39653,2 0 -11.39653,2 0 -11.39653,2 0 -11.39653,2 0 -11.39653,2 0 -11.39653,2 0 -11.39653,2 0 -11.39653,2 0 -11.39653,2 0 -11.39653,2 0 -11.39653,2 0 -11.39653,2 0 -11.39653,2 0 -11.39653,2 0 -11.39653,1.910,
2 0 -10.34614,2 0 -10.34614,2 0 -10.34614,2 0 -10.34614,2 0 -10.34614,2 0 -10.34614,2 0 -10.34614,2 0 -10.34614,2 0 -10.34614,2 0 -10.34614,2 0 -10.34614,2 0 -10.34614,2 0 -10.34614,2 0 -10.34614,2 0 -10.34614,2 0 -10.34614,2 0 -10.34614,2 0 -10.34614,2 0 -10.34614,2 0 -10.34614,2 0 -10.34614,2 0 -11.39653,2 0 -11.39653,2 0 -11.39653,2 0 -11.39653,2 0 -11.39653,2 0 -11.39653,2 0 -11.39653,2 0 -11.39653,2 0 -11.39653,2 0 -11.39653,2 0 -11.39653,2 0 -11.39653,2 0 -11.39653,2 0 -11.39653,2 0 -11.39653,2 0 -11.39653,2 0 -11.39653,2 0 -11.39653,2 0 -11.39653,2 0 -11.39653,2 0 -11.39653,2.010,
2 0 -10.34614,2 0 -10.34614,2 0 -10.34614,2 0 -10.34614,2 0 -10.34614,2 0 -10.34614,2 0 -10.34614,2 0 -10.34614,2 0 -10.34614,2 0 -10.34614,2 0 -10.34614,2 0 -10.34614,2 0 -10.34614,2 0 -10.34614,2 0 -10.34614,2 0 -10.34614,2 0 -10.34614,2 0 -10.34614,2 0 -10.34614,2 0 -10.34614,2 0 -10.34614,2 0 -11.39653,2 0 -11.39653,2 0 -11.39653,2 0 -11.39653,2 0 -11.39653,2 0 -11.39653,2 0 -11.39653,2 0 -11.39653,2 0 -11.39653,2 0 -11.39653,2 0 -11.39653,2 0 -11.39653,2 0 -11.39653,2 0 -11.39653,2 0 -11.39653,2 0 -11.39653,2 0 -11.39653,2 0 -11.39653,2 0 -11.39653,2 0 -11.39653,2 0 -11.39653,2.110,
2 0 -10.34614,2 0 -10.34614,2 0 -10.34614,2 0 -10.34614,2 0 -10.34614,2 0 -10.34614,2 0 -10.34614,2 0 -10.34614,2 0 -10.34614,2 0 -10.34614,2 0 -10.34614,2 0 -10.34614,2 0 -10.34614,2 0 -10.34614,2 0 -10.34614,2 0 -10.34614,2 0 -10.34614,2 0 -10.34614,2 0 -10.34614,2 0 -10.34614,2 0 -10.34614,2 0 -11.39653,2 0 -11.39653,2 0 -11.39653,2 0 -11.39653,2 0 -11.39653,2 0 -11.39653,2 0 -11.39653,2 0 -11.39653,2 0 -11.39653,2 0 -11.39653,2 0 -11.39653,2 0 -11.39653,2 0 -11.39653,2 0 -11.39653,2 0 -11.39653,2 0 -11.39653,2 0 -11.39653,2 0 -11.39653,2 0 -11.39653,2 0 -11.39653,2 0 -11.39653,2.210,
2 0 -10.34614,2 0 -10.34614,2 0 -10.34614,2 0 -10.34614,2 0 -10.34614,2 0 -10.34614,2 0 -10.34614,2 0 -10.34614,2 0 -10.34614,2 0 -10.34614,2 0 -10.34614,2 0 -10.34614,2 0 -10.34614,2 0 -10.34614,2 0 -10.34614,2 0 -10.34614,2 0 -10.34614,2 0 -10.34614,2 0 -10.34614,2 0 -10.34614,2 0 -10.34614,2 0 -11.39653,2 0 -11.39653,2 0 -11.39653,2 0 -11.39653,2 0 -11.39653,2 0 -11.39653,2 0 -11.39653,2 0 -11.39653,2 0 -11.39653,2 0 -11.39653,2 0 -11.39653,2 0 -11.39653,2 0 -11.39653,2 0 -11.39653,2 0 -11.39653,2 0 -11.39653,2 0 -11.39653,2 0 -11.39653,2 0 -11.39653,2 0 -11.39653,2 0 -11.39653,2.310,
2 0 -10.34614,2 0 -10.34614,2 0 -10.34614,2 0 -10.34614,2 0 -10.34614,2 0 -10.34614,2 0 -10.34614,2 0 -10.34614,2 0 -10.34614,2 0 -10.34614,2 0 -10.34614,2 0 -10.34614,2 0 -10.34614,2 0 -10.34614,2 0 -10.34614,2 0 -10.34614,2 0 -10.34614,2 0 -10.34614,2 0 -10.34614,2 0 -10.34614,2 0 -10.34614,2 0 -11.39653,2 0 -11.39653,2 0 -11.39653,2 0 -11.39653,2 0 -11.39653,2 0 -11.39653,2 0 -11.39653,2 0 -11.39653,2 0 -11.39653,2 0 -11.39653,2 0 -11.39653,2 0 -11.39653,2 0 -11.39653,2 0 -11.39653,2 0 -11.39653,2 0 -11.39653,2 0 -11.39653,2 0 -11.39653,2 0 -11.39653,2 0 -11.39653,2 0 -11.39653,2.410,
2 0 -10.34614,2 0 -10.34614,2 0 -10.34614,2 0 -10.34614,2 0 -10.34614,2 0 -10.34614,2 0 -10.34614,2 0 -10.34614,2 0 -10.34614,2 0 -10.34614,2 0 -10.34614,2 0 -10.34614,2 0 -10.34614,2 0 -10.34614,2 0 -10.34614,2 0 -10.34614,2 0 -10.34614,2 0 -10.34614,2 0 -10.34614,2 0 -10.34614,2 0 -10.34614,2 0 -11.39653,2 0 -11.39653,2 0 -11.39653,2 0 -11.39653,2 0 -11.39653,2 0 -11.39653,2 0 -11.39653,2 0 -11.39653,2 0 -11.39653,2 0 -11.39653,2 0 -11.39653,2 0 -11.39653,2 0 -11.39653,2 0 -11.39653,2 0 -11.39653,2 0 -11.39653,2 0 -11.39653,2 0 -11.39653,2 0 -11.39653,2 0 -11.39653,2 0 -11.39653,2.510,
2 0 -10.34614,2 0 -10.34614,2 0 -10.34614,2 0 -10.34614,2 0 -10.34614,2 0 -10.34614,2 0 -10.34614,2 0 -10.34614,2 0 -10.34614,2 0 -10.34614,2 0 -10.34614,2 0 -10.34614,2 0 -10.34614,2 0 -10.34614,2 0 -10.34614,2 0 -10.34614,2 0 -10.34614,2 0 -10.34614,2 0 -10.34614,2 0 -10.34614,2 0 -10.34614,2 0 -11.39653,2 0 -11.39653,2 0 -11.39653,2 0 -11.39653,2 0 -11.39653,2 0 -11.39653,2 0 -11.39653,2 0 -11.39653,2 0 -11.39653,2 0 -11.39653,2 0 -11.39653,2 0 -11.39653,2 0 -11.39653,2 0 -11.39653,2 0 -11.39653,2 0 -11.39653,2 0 -11.39653,2 0 -11.39653,2 0 -11.39653,2 0 -11.39653,2 0 -11.39653,2.610,
2 0 -10.34614,2 0 -10.34614,2 0 -10.34614,2 0 -10.34614,2 0 -10.34614,2 0 -10.34614,2 0 -10.34614,2 0 -10.34614,2 0 -10.34614,2 0 -10.34614,2 0 -10.34614,2 0 -10.34614,2 0 -10.34614,2 0 -10.34614,2 0 -10.34614,2 0 -10.34614,2 0 -10.34614,2 0 -10.34614,2 0 -10.34614,2 0 -10.34614,2 0 -10.34614,2 0 -11.39653,2 0 -11.39653,2 0 -11.39653,2 0 -11.39653,2 0 -11.39653,2 0 -11.39653,2 0 -11.39653,2 0 -11.39653,2 0 -11.39653,2 0 -11.39653,2 0 -11.39653,2 0 -11.39653,2 0 -11.39653,2 0 -11.39653,2 0 -11.39653,2 0 -11.39653,2 0 -11.39653,2 0 -11.39653,2 0 -11.39653,2 0 -11.39653,2 0 -11.39653,2.710,
2 0 -10.34614,2 0 -10.34614,2 0 -10.34614,2 0 -10.34614,2 0 -10.34614,2 0 -10.34614,2 0 -10.34614,2 0 -10.34614,2 0 -10.34614,2 0 -10.34614,2 0 -10.34614,2 0 -10.34614,2 0 -10.34614,2 0 -10.34614,2 0 -10.34614,2 0 -10.34614,2 0 -10.34614,2 0 -10.34614,2 0 -10.34614,2 0 -10.34614,2 0 -10.34614,2 0 -11.39653,2 0 -11.39653,2 0 -11.39653,2 0 -11.39653,2 0 -11.39653,2 0 -11.39653,2 0 -11.39653,2 0 -11.39653,2 0 -11.39653,2 0 -11.39653,2 0 -11.39653,2 0 -11.39653,2 0 -11.39653,2 0 -11.39653,2 0 -11.39653,2 0 -11.39653,2 0 -11.39653,2 0 -11.39653,2 0 -11.39653,2 0 -11.39653,2 0 -11.39653,2.810,
2 0 -10.34614,2 0 -10.34614,2 0 -10.34614,2 0 -10.34614,2 0 -10.34614,2 0 -10.34614,2 0 -10.34614,2 0 -10.34614,2 0 -10.34614,2 0 -10.34614,2 0 -10.34614,2 0 -10.34614,2 0 -10.34614,2 0 -10.34614,2 0 -10.34614,2 0 -10.34614,2 0 -10.34614,2 0 -10.34614,2 0 -10.34614,2 0 -10.34614,2 0 -10.34614,2 0 -11.39653,2 0 -11.39653,2 0 -11.39653,2 0 -11.39653,2 0 -11.39653,2 0 -11.39653,2 0 -11.39653,2 0 -11.39653,2 0 -11.39653,2 0 -11.39653,2 0 -11.39653,2 0 -11.39653,2 0 -11.39653,2 0 -11.39653,2 0 -11.39653,2 0 -11.39653,2 0 -11.39653,2 0 -11.39653,2 0 -11.39653,2 0 -11.39653,2 0 -11.39653,2.910,
2 0 -10.34614,2 0 -10.34614,2 0 -10.34614,2 0 -10.34614,2 0 -10.34614,2 0 -10.34614,2 0 -10.34614,2 0 -10.34614,2 0 -10.34614,2 0 -10.34614,2 0 -10.34614,2 0 -10.34614,2 0 -10.34614,2 0 -10.34614,2 0 -10.34614,2 0 -10.34614,2 0 -10.34614,2 0 -10.34614,2 0 -10.34614,2 0 -10.34614,2 0 -10.34614,2 0 -11.39653,2 0 -11.39653,2 0 -11.39653,2 0 -11.39653,2 0 -11.39653,2 0 -11.39653,2 0 -11.39653,2 0 -11.39653,2 0 -11.39653,2 0 -11.39653,2 0 -11.39653,2 0 -11.39653,2 0 -11.39653,2 0 -11.39653,2 0 -11.39653,2 0 -11.39653,2 0 -11.39653,2 0 -11.39653,2 0 -11.39653,2 0 -11.39653,2 0 -11.39653,3.010,
2 0 -10.34614,2 0 -10.34614,2 0 -10.34614,2 0 -10.34614,2 0 -10.34614,2 0 -10.34614,2 0 -10.34614,2 0 -10.34614,2 0 -10.34614,2 0 -10.34614,2 0 -10.34614,2 0 -10.34614,2 0 -10.34614,2 0 -10.34614,2 0 -10.34614,2 0 -10.34614,2 0 -10.34614,2 0 -10.34614,2 0 -10.34614,2 0 -10.34614,2 0 -10.34614,2 0 -11.39653,2 0 -11.39653,2 0 -11.39653,2 0 -11.39653,2 0 -11.39653,2 0 -11.39653,2 0 -11.39653,2 0 -11.39653,2 0 -11.39653,2 0 -11.39653,2 0 -11.39653,2 0 -11.39653,2 0 -11.39653,2 0 -11.39653,2 0 -11.39653,2 0 -11.39653,2 0 -11.39653,2 0 -11.39653,2 0 -11.39653,2 0 -11.39653,2 0 -11.39653,3.110,
2 0 -10.34614,2 0 -10.34614,2 0 -10.34614,2 0 -10.34614,2 0 -10.34614,2 0 -10.34614,2 0 -10.34614,2 0 -10.34614,2 0 -10.34614,2 0 -10.34614,2 0 -10.34614,2 0 -10.34614,2 0 -10.34614,2 0 -10.34614,2 0 -10.34614,2 0 -10.34614,2 0 -10.34614,2 0 -10.34614,2 0 -10.34614,2 0 -10.34614,2 0 -10.34614,2 0 -11.39653,2 0 -11.39653,2 0 -11.39653,2 0 -11.39653,2 0 -11.39653,2 0 -11.39653,2 0 -11.39653,2 0 -11.39653,2 0 -11.39653,2 0 -11.39653,2 0 -11.39653,2 0 -11.39653,2 0 -11.39653,2 0 -11.39653,2 0 -11.39653,2 0 -11.39653,2 0 -11.39653,2 0 -11.39653,2 0 -11.39653,2 0 -11.39653,2 0 -11.39653,3.210,
2 0 -10.34614,2 0 -10.34614,2 0 -10.34614,2 0 -10.34614,2 0 -10.34614,2 0 -10.34614,2 0 -10.34614,2 0 -10.34614,2 0 -10.34614,2 0 -10.34614,2 0 -10.34614,2 0 -10.34614,2 0 -10.34614,2 0 -10.34614,2 0 -10.34614,2 0 -10.34614,2 0 -10.34614,2 0 -10.34614,2 0 -10.34614,2 0 -10.34614,2 0 -10.34614,2 0 -11.39653,2 0 -11.39653,2 0 -11.39653,2 0 -11.39653,2 0 -11.39653,2 0 -11.39653,2 0 -11.39653,2 0 -11.39653,2 0 -11.39653,2 0 -11.39653,2 0 -11.39653,2 0 -11.39653,2 0 -11.39653,2 0 -11.39653,2 0 -11.39653,2 0 -11.39653,2 0 -11.39653,2 0 -11.39653,2 0 -11.39653,2 0 -11.39653,2 0 -11.39653,3.310,
2 0 -10.34614,2 0 -10.34614,2 0 -10.34614,2 0 -10.34614,2 0 -10.34614,2 0 -10.34614,2 0 -10.34614,2 0 -10.34614,2 0 -10.34614,2 0 -10.34614,2 0 -10.34614,2 0 -10.34614,2 0 -10.34614,2 0 -10.34614,2 0 -10.34614,2 0 -10.34614,2 0 -10.34614,2 0 -10.34614,2 0 -10.34614,2 0 -10.34614,2 0 -10.34614,2 0 -11.39653,2 0 -11.39653,2 0 -11.39653,2 0 -11.39653,2 0 -11.39653,2 0 -11.39653,2 0 -11.39653,2 0 -11.39653,2 0 -11.39653,2 0 -11.39653,2 0 -11.39653,2 0 -11.39653,2 0 -11.39653,2 0 -11.39653,2 0 -11.39653,2 0 -11.39653,2 0 -11.39653,2 0 -11.39653,2 0 -11.39653,2 0 -11.39653,2 0 -11.39653,3.410,
2 0 -10.34614,2 0 -10.34614,2 0 -10.34614,2 0 -10.34614,2 0 -10.34614,2 0 -10.34614,2 0 -10.34614,2 0 -10.34614,2 0 -10.34614,2 0 -10.34614,2 0 -10.34614,2 0 -10.34614,2 0 -10.34614,2 0 -10.34614,2 0 -10.34614,2 0 -10.34614,2 0 -10.34614,2 0 -10.34614,2 0 -10.34614,2 0 -10.34614,2 0 -10.34614,2 0 -11.39653,2 0 -11.39653,2 0 -11.39653,2 0 -11.39653,2 0 -11.39653,2 0 -11.39653,2 0 -11.39653,2 0 -11.39653,2 0 -11.39653,2 0 -11.39653,2 0 -11.39653,2 0 -11.39653,2 0 -11.39653,2 0 -11.39653,2 0 -11.39653,2 0 -11.39653,2 0 -11.39653,2 0 -11.39653,2 0 -11.39653,2 0 -11.39653,2 0 -11.39653,3.510,
2 0 -10.34614,2 0 -10.34614,2 0 -10.34614,2 0 -10.34614,2 0 -10.34614,2 0 -10.34614,2 0 -10.34614,2 0 -10.34614,2 0 -10.34614,2 0 -10.34614,2 0 -10.34614,2 0 -10.34614,2 0 -10.34614,2 0 -10.34614,2 0 -10.34614,2 0 -10.34614,2 0 -10.34614,2 0 -10.34614,2 0 -10.34614,2 0 -10.34614,2 0 -10.34614,2 0 -11.39653,2 0 -11.39653,2 0 -11.39653,2 0 -11.39653,2 0 -11.39653,2 0 -11.39653,2 0 -11.39653,2 0 -11.39653,2 0 -11.39653,2 0 -11.39653,2 0 -11.39653,2 0 -11.39653,2 0 -11.39653,2 0 -11.39653,2 0 -11.39653,2 0 -11.39653,2 0 -11.39653,2 0 -11.39653,2 0 -11.39653,2 0 -11.39653,2 0 -11.39653,3.610,
2 0 -10.34614,2 0 -10.34614,2 0 -10.34614,2 0 -10.34614,2 0 -10.34614,2 0 -10.34614,2 0 -10.34614,2 0 -10.34614,2 0 -10.34614,2 0 -10.34614,2 0 -10.34614,2 0 -10.34614,2 0 -10.34614,2 0 -10.34614,2 0 -10.34614,2 0 -10.34614,2 0 -10.34614,2 0 -10.34614,2 0 -10.34614,2 0 -10.34614,2 0 -10.34614,2 0 -11.39653,2 0 -11.39653,2 0 -11.39653,2 0 -11.39653,2 0 -11.39653,2 0 -11.39653,2 0 -11.39653,2 0 -11.39653,2 0 -11.39653,2 0 -11.39653,2 0 -11.39653,2 0 -11.39653,2 0 -11.39653,2 0 -11.39653,2 0 -11.39653,2 0 -11.39653,2 0 -11.39653,2 0 -11.39653,2 0 -11.39653,2 0 -11.39653,2 0 -11.39653,3.710,
2 0 -10.34614,2 0 -10.34614,2 0 -10.34614,2 0 -10.34614,2 0 -10.34614,2 0 -10.34614,2 0 -10.34614,2 0 -10.34614,2 0 -10.34614,2 0 -10.34614,2 0 -10.34614,2 0 -10.34614,2 0 -10.34614,2 0 -10.34614,2 0 -10.34614,2 0 -10.34614,2 0 -10.34614,2 0 -10.34614,2 0 -10.34614,2 0 -10.34614,2 0 -10.34614,2 0 -11.39653,2 0 -11.39653,2 0 -11.39653,2 0 -11.39653,2 0 -11.39653,2 0 -11.39653,2 0 -11.39653,2 0 -11.39653,2 0 -11.39653,2 0 -11.39653,2 0 -11.39653,2 0 -11.39653,2 0 -11.39653,2 0 -11.39653,2 0 -11.39653,2 0 -11.39653,2 0 -11.39653,2 0 -11.39653,2 0 -11.39653,2 0 -11.39653,2 0 -11.39653,3.810,
2 0 -10.34614,2 0 -10.34614,2 0 -10.34614,2 0 -10.34614,2 0 -10.34614,2 0 -10.34614,2 0 -10.34614,2 0 -10.34614,2 0 -10.34614,2 0 -10.34614,2 0 -10.34614,2 0 -10.34614,2 0 -10.34614,2 0 -10.34614,2 0 -10.34614,2 0 -10.34614,2 0 -10.34614,2 0 -10.34614,2 0 -10.34614,2 0 -10.34614,2 0 -10.34614,2 0 -11.39653,2 0 -11.39653,2 0 -11.39653,2 0 -11.39653,2 0 -11.39653,2 0 -11.39653,2 0 -11.39653,2 0 -11.39653,2 0 -11.39653,2 0 -11.39653,2 0 -11.39653,2 0 -11.39653,2 0 -11.39653,2 0 -11.39653,2 0 -11.39653,2 0 -11.39653,2 0 -11.39653,2 0 -11.39653,2 0 -11.39653,2 0 -11.39653,2 0 -11.39653,3.910,
2 0 -10.34614,2 0 -10.34614,2 0 -10.34614,2 0 -10.34614,2 0 -10.34614,2 0 -10.34614,2 0 -10.34614,2 0 -10.34614,2 0 -10.34614,2 0 -10.34614,2 0 -10.34614,2 0 -10.34614,2 0 -10.34614,2 0 -10.34614,2 0 -10.34614,2 0 -10.34614,2 0 -10.34614,2 0 -10.34614,2 0 -10.34614,2 0 -10.34614,2 0 -10.34614,2 0 -11.39653,2 0 -11.39653,2 0 -11.39653,2 0 -11.39653,2 0 -11.39653,2 0 -11.39653,2 0 -11.39653,2 0 -11.39653,2 0 -11.39653,2 0 -11.39653,2 0 -11.39653,2 0 -11.39653,2 0 -11.39653,2 0 -11.39653,2 0 -11.39653,2 0 -11.39653,2 0 -11.39653,2 0 -11.39653,2 0 -11.39653,2 0 -11.39653,2 0 -11.39653,4.010,
2 0 -10.34614,2 0 -10.34614,2 0 -10.34614,2 0 -10.34614,2 0 -10.34614,2 0 -10.34614,2 0 -10.34614,2 0 -10.34614,2 0 -10.34614,2 0 -10.34614,2 0 -10.34614,2 0 -10.34614,2 0 -10.34614,2 0 -10.34614,2 0 -10.34614,2 0 -10.34614,2 0 -10.34614,2 0 -10.34614,2 0 -10.34614,2 0 -10.34614,2 0 -10.34614,2 0 -11.39653,2 0 -11.39653,2 0 -11.39653,2 0 -11.39653,2 0 -11.39653,2 0 -11.39653,2 0 -11.39653,2 0 -11.39653,2 0 -11.39653,2 0 -11.39653,2 0 -11.39653,2 0 -11.39653,2 0 -11.39653,2 0 -11.39653,2 0 -11.39653,2 0 -11.39653,2 0 -11.39653,2 0 -11.39653,2 0 -11.39653,2 0 -11.39653,2 0 -11.39653,4.110,
2 0 -10.34614,2 0 -10.34614,2 0 -10.34614,2 0 -10.34614,2 0 -10.34614,2 0 -10.34614,2 0 -10.34614,2 0 -10.34614,2 0 -10.34614,2 0 -10.34614,2 0 -10.34614,2 0 -10.34614,2 0 -10.34614,2 0 -10.34614,2 0 -10.34614,2 0 -10.34614,2 0 -10.34614,2 0 -10.34614,2 0 -10.34614,2 0 -10.34614,2 0 -10.34614,2 0 -11.39653,2 0 -11.39653,2 0 -11.39653,2 0 -11.39653,2 0 -11.39653,2 0 -11.39653,2 0 -11.39653,2 0 -11.39653,2 0 -11.39653,2 0 -11.39653,2 0 -11.39653,2 0 -11.39653,2 0 -11.39653,2 0 -11.39653,2 0 -11.39653,2 0 -11.39653,2 0 -11.39653,2 0 -11.39653,2 0 -11.39653,2 0 -11.39653,2 0 -11.39653,4.210,
2 0 -10.34614,2 0 -10.34614,2 0 -10.34614,2 0 -10.34614,2 0 -10.34614,2 0 -10.34614,2 0 -10.34614,2 0 -10.34614,2 0 -10.34614,2 0 -10.34614,2 0 -10.34614,2 0 -10.34614,2 0 -10.34614,2 0 -10.34614,2 0 -10.34614,2 0 -10.34614,2 0 -10.34614,2 0 -10.34614,2 0 -10.34614,2 0 -10.34614,2 0 -10.34614,2 0 -11.39653,2 0 -11.39653,2 0 -11.39653,2 0 -11.39653,2 0 -11.39653,2 0 -11.39653,2 0 -11.39653,2 0 -11.39653,2 0 -11.39653,2 0 -11.39653,2 0 -11.39653,2 0 -11.39653,2 0 -11.39653,2 0 -11.39653,2 0 -11.39653,2 0 -11.39653,2 0 -11.39653,2 0 -11.39653,2 0 -11.39653,2 0 -11.39653,2 0 -11.39653,4.310,
2 0 -10.34614,2 0 -10.34614,2 0 -10.34614,2 0 -10.34614,2 0 -10.34614,2 0 -10.34614,2 0 -10.34614,2 0 -10.34614,2 0 -10.34614,2 0 -10.34614,2 0 -10.34614,2 0 -10.34614,2 0 -10.34614,2 0 -10.34614,2 0 -10.34614,2 0 -10.34614,2 0 -10.34614,2 0 -10.34614,2 0 -10.34614,2 0 -10.34614,2 0 -10.34614,2 0 -11.39653,2 0 -11.39653,2 0 -11.39653,2 0 -11.39653,2 0 -11.39653,2 0 -11.39653,2 0 -11.39653,2 0 -11.39653,2 0 -11.39653,2 0 -11.39653,2 0 -11.39653,2 0 -11.39653,2 0 -11.39653,2 0 -11.39653,2 0 -11.39653,2 0 -11.39653,2 0 -11.39653,2 0 -11.39653,2 0 -11.39653,2 0 -11.39653,2 0 -11.39653,4.410,
2 0 -10.34614,2 0 -10.34614,2 0 -10.34614,2 0 -10.34614,2 0 -10.34614,2 0 -10.34614,2 0 -10.34614,2 0 -10.34614,2 0 -10.34614,2 0 -10.34614,2 0 -10.34614,2 0 -10.34614,2 0 -10.34614,2 0 -10.34614,2 0 -10.34614,2 0 -10.34614,2 0 -10.34614,2 0 -10.34614,2 0 -10.34614,2 0 -10.34614,2 0 -10.34614,2 0 -11.39653,2 0 -11.39653,2 0 -11.39653,2 0 -11.39653,2 0 -11.39653,2 0 -11.39653,2 0 -11.39653,2 0 -11.39653,2 0 -11.39653,2 0 -11.39653,2 0 -11.39653,2 0 -11.39653,2 0 -11.39653,2 0 -11.39653,2 0 -11.39653,2 0 -11.39653,2 0 -11.39653,2 0 -11.39653,2 0 -11.39653,2 0 -11.39653,2 0 -11.39653,4.510,
2 0 -10.34614,2 0 -10.34614,2 0 -10.34614,2 0 -10.34614,2 0 -10.34614,2 0 -10.34614,2 0 -10.34614,2 0 -10.34614,2 0 -10.34614,2 0 -10.34614,2 0 -10.34614,2 0 -10.34614,2 0 -10.34614,2 0 -10.34614,2 0 -10.34614,2 0 -10.34614,2 0 -10.34614,2 0 -10.34614,2 0 -10.34614,2 0 -10.34614,2 0 -10.34614,2 0 -11.39653,2 0 -11.39653,2 0 -11.39653,2 0 -11.39653,2 0 -11.39653,2 0 -11.39653,2 0 -11.39653,2 0 -11.39653,2 0 -11.39653,2 0 -11.39653,2 0 -11.39653,2 0 -11.39653,2 0 -11.39653,2 0 -11.39653,2 0 -11.39653,2 0 -11.39653,2 0 -11.39653,2 0 -11.39653,2 0 -11.39653,2 0 -11.39653,2 0 -11.39653,4.610,
2 0 -10.34614,2 0 -10.34614,2 0 -10.34614,2 0 -10.34614,2 0 -10.34614,2 0 -10.34614,2 0 -10.34614,2 0 -10.34614,2 0 -10.34614,2 0 -10.34614,2 0 -10.34614,2 0 -10.34614,2 0 -10.34614,2 0 -10.34614,2 0 -10.34614,2 0 -10.34614,2 0 -10.34614,2 0 -10.34614,2 0 -10.34614,2 0 -10.34614,2 0 -10.34614,2 0 -11.39653,2 0 -11.39653,2 0 -11.39653,2 0 -11.39653,2 0 -11.39653,2 0 -11.39653,2 0 -11.39653,2 0 -11.39653,2 0 -11.39653,2 0 -11.39653,2 0 -11.39653,2 0 -11.39653,2 0 -11.39653,2 0 -11.39653,2 0 -11.39653,2 0 -11.39653,2 0 -11.39653,2 0 -11.39653,2 0 -11.39653,2 0 -11.39653,2 0 -11.39653,4.710,
2 0 -10.34614,2 0 -10.34614,2 0 -10.34614,2 0 -10.34614,2 0 -10.34614,2 0 -10.34614,2 0 -10.34614,2 0 -10.34614,2 0 -10.34614,2 0 -10.34614,2 0 -10.34614,2 0 -10.34614,2 0 -10.34614,2 0 -10.34614,2 0 -10.34614,2 0 -10.34614,2 0 -10.34614,2 0 -10.34614,2 0 -10.34614,2 0 -10.34614,2 0 -10.34614,2 0 -11.39653,2 0 -11.39653,2 0 -11.39653,2 0 -11.39653,2 0 -11.39653,2 0 -11.39653,2 0 -11.39653,2 0 -11.39653,2 0 -11.39653,2 0 -11.39653,2 0 -11.39653,2 0 -11.39653,2 0 -11.39653,2 0 -11.39653,2 0 -11.39653,2 0 -11.39653,2 0 -11.39653,2 0 -11.39653,2 0 -11.39653,2 0 -11.39653,2 0 -11.39653,4.810,
2 0 -10.34614,2 0 -10.34614,2 0 -10.34614,2 0 -10.34614,2 0 -10.34614,2 0 -10.34614,2 0 -10.34614,2 0 -10.34614,2 0 -10.34614,2 0 -10.34614,2 0 -10.34614,2 0 -10.34614,2 0 -10.34614,2 0 -10.34614,2 0 -10.34614,2 0 -10.34614,2 0 -10.34614,2 0 -10.34614,2 0 -10.34614,2 0 -10.34614,2 0 -10.34614,2 0 -11.39653,2 0 -11.39653,2 0 -11.39653,2 0 -11.39653,2 0 -11.39653,2 0 -11.39653,2 0 -11.39653,2 0 -11.39653,2 0 -11.39653,2 0 -11.39653,2 0 -11.39653,2 0 -11.39653,2 0 -11.39653,2 0 -11.39653,2 0 -11.39653,2 0 -11.39653,2 0 -11.39653,2 0 -11.39653,2 0 -11.39653,2 0 -11.39653,2 0 -11.39653,4.910,
2 0 -10.34614,2 0 -10.34614,2 0 -10.34614,2 0 -10.34614,2 0 -10.34614,2 0 -10.34614,2 0 -10.34614,2 0 -10.34614,2 0 -10.34614,2 0 -10.34614,2 0 -10.34614,2 0 -10.34614,2 0 -10.34614,2 0 -10.34614,2 0 -10.34614,2 0 -10.34614,2 0 -10.34614,2 0 -10.34614,2 0 -10.34614,2 0 -10.34614,2 0 -10.34614,2 0 -11.39653,2 0 -11.39653,2 0 -11.39653,2 0 -11.39653,2 0 -11.39653,2 0 -11.39653,2 0 -11.39653,2 0 -11.39653,2 0 -11.39653,2 0 -11.39653,2 0 -11.39653,2 0 -11.39653,2 0 -11.39653,2 0 -11.39653,2 0 -11.39653,2 0 -11.39653,2 0 -11.39653,2 0 -11.39653,2 0 -11.39653,2 0 -11.39653,2 0 -11.39653,5.010,
2 0 -10.34614,2 0 -10.34614,2 0 -10.34614,2 0 -10.34614,2 0 -10.34614,2 0 -10.34614,2 0 -10.34614,2 0 -10.34614,2 0 -10.34614,2 0 -10.34614,2 0 -10.34614,2 0 -10.34614,2 0 -10.34614,2 0 -10.34614,2 0 -10.34614,2 0 -10.34614,2 0 -10.34614,2 0 -10.34614,2 0 -10.34614,2 0 -10.34614,2 0 -10.34614,2 0 -11.39653,2 0 -11.39653,2 0 -11.39653,2 0 -11.39653,2 0 -11.39653,2 0 -11.39653,2 0 -11.39653,2 0 -11.39653,2 0 -11.39653,2 0 -11.39653,2 0 -11.39653,2 0 -11.39653,2 0 -11.39653,2 0 -11.39653,2 0 -11.39653,2 0 -11.39653,2 0 -11.39653,2 0 -11.39653,2 0 -11.39653,2 0 -11.39653,2 0 -11.39653,5.110,
2 0 -10.34614,2 0 -10.34614,2 0 -10.34614,2 0 -10.34614,2 0 -10.34614,2 0 -10.34614,2 0 -10.34614,2 0 -10.34614,2 0 -10.34614,2 0 -10.34614,2 0 -10.34614,2 0 -10.34614,2 0 -10.34614,2 0 -10.34614,2 0 -10.34614,2 0 -10.34614,2 0 -10.34614,2 0 -10.34614,2 0 -10.34614,2 0 -10.34614,2 0 -10.34614,2 0 -11.39653,2 0 -11.39653,2 0 -11.39653,2 0 -11.39653,2 0 -11.39653,2 0 -11.39653,2 0 -11.39653,2 0 -11.39653,2 0 -11.39653,2 0 -11.39653,2 0 -11.39653,2 0 -11.39653,2 0 -11.39653,2 0 -11.39653,2 0 -11.39653,2 0 -11.39653,2 0 -11.39653,2 0 -11.39653,2 0 -11.39653,2 0 -11.39653,2 0 -11.39653,5.210,
2 0 -10.34614,2 0 -10.34614,2 0 -10.34614,2 0 -10.34614,2 0 -10.34614,2 0 -10.34614,2 0 -10.34614,2 0 -10.34614,2 0 -10.34614,2 0 -10.34614,2 0 -10.34614,2 0 -10.34614,2 0 -10.34614,2 0 -10.34614,2 0 -10.34614,2 0 -10.34614,2 0 -10.34614,2 0 -10.34614,2 0 -10.34614,2 0 -10.34614,2 0 -10.34614,2 0 -11.39653,2 0 -11.39653,2 0 -11.39653,2 0 -11.39653,2 0 -11.39653,2 0 -11.39653,2 0 -11.39653,2 0 -11.39653,2 0 -11.39653,2 0 -11.39653,2 0 -11.39653,2 0 -11.39653,2 0 -11.39653,2 0 -11.39653,2 0 -11.39653,2 0 -11.39653,2 0 -11.39653,2 0 -11.39653,2 0 -11.39653,2 0 -11.39653,2 0 -11.39653,5.310,
2 0 -10.34614,2 0 -10.34614,2 0 -10.34614,2 0 -10.34614,2 0 -10.34614,2 0 -10.34614,2 0 -10.34614,2 0 -10.34614,2 0 -10.34614,2 0 -10.34614,2 0 -10.34614,2 0 -10.34614,2 0 -10.34614,2 0 -10.34614,2 0 -10.34614,2 0 -10.34614,2 0 -10.34614,2 0 -10.34614,2 0 -10.34614,2 0 -10.34614,2 0 -10.34614,2 0 -11.39653,2 0 -11.39653,2 0 -11.39653,2 0 -11.39653,2 0 -11.39653,2 0 -11.39653,2 0 -11.39653,2 0 -11.39653,2 0 -11.39653,2 0 -11.39653,2 0 -11.39653,2 0 -11.39653,2 0 -11.39653,2 0 -11.39653,2 0 -11.39653,2 0 -11.39653,2 0 -11.39653,2 0 -11.39653,2 0 -11.39653,2 0 -11.39653,2 0 -11.39653,5.410,
2 0 -10.34614,2 0 -10.34614,2 0 -10.34614,2 0 -10.34614,2 0 -10.34614,2 0 -10.34614,2 0 -10.34614,2 0 -10.34614,2 0 -10.34614,2 0 -10.34614,2 0 -10.34614,2 0 -10.34614,2 0 -10.34614,2 0 -10.34614,2 0 -10.34614,2 0 -10.34614,2 0 -10.34614,2 0 -10.34614,2 0 -10.34614,2 0 -10.34614,2 0 -10.34614,2 0 -11.39653,2 0 -11.39653,2 0 -11.39653,2 0 -11.39653,2 0 -11.39653,2 0 -11.39653,2 0 -11.39653,2 0 -11.39653,2 0 -11.39653,2 0 -11.39653,2 0 -11.39653,2 0 -11.39653,2 0 -11.39653,2 0 -11.39653,2 0 -11.39653,2 0 -11.39653,2 0 -11.39653,2 0 -11.39653,2 0 -11.39653,2 0 -11.39653,2 0 -11.39653,5.510,
2 0 -10.34614,2 0 -10.34614,2 0 -10.34614,2 0 -10.34614,2 0 -10.34614,2 0 -10.34614,2 0 -10.34614,2 0 -10.34614,2 0 -10.34614,2 0 -10.34614,2 0 -10.34614,2 0 -10.34614,2 0 -10.34614,2 0 -10.34614,2 0 -10.34614,2 0 -10.34614,2 0 -10.34614,2 0 -10.34614,2 0 -10.34614,2 0 -10.34614,2 0 -10.34614,2 0 -11.39653,2 0 -11.39653,2 0 -11.39653,2 0 -11.39653,2 0 -11.39653,2 0 -11.39653,2 0 -11.39653,2 0 -11.39653,2 0 -11.39653,2 0 -11.39653,2 0 -11.39653,2 0 -11.39653,2 0 -11.39653,2 0 -11.39653,2 0 -11.39653,2 0 -11.39653,2 0 -11.39653,2 0 -11.39653,2 0 -11.39653,2 0 -11.39653,2 0 -11.39653,5.610,
2 0 -10.34614,2 0 -10.34614,2 0 -10.34614,2 0 -10.34614,2 0 -10.34614,2 0 -10.34614,2 0 -10.34614,2 0 -10.34614,2 0 -10.34614,2 0 -10.34614,2 0 -10.34614,2 0 -10.34614,2 0 -10.34614,2 0 -10.34614,2 0 -10.34614,2 0 -10.34614,2 0 -10.34614,2 0 -10.34614,2 0 -10.34614,2 0 -10.34614,2 0 -10.34614,2 0 -11.39653,2 0 -11.39653,2 0 -11.39653,2 0 -11.39653,2 0 -11.39653,2 0 -11.39653,2 0 -11.39653,2 0 -11.39653,2 0 -11.39653,2 0 -11.39653,2 0 -11.39653,2 0 -11.39653,2 0 -11.39653,2 0 -11.39653,2 0 -11.39653,2 0 -11.39653,2 0 -11.39653,2 0 -11.39653,2 0 -11.39653,2 0 -11.39653,2 0 -11.39653,5.710,
2 0 -10.34614,2 0 -10.34614,2 0 -10.34614,2 0 -10.34614,2 0 -10.34614,2 0 -10.34614,2 0 -10.34614,2 0 -10.34614,2 0 -10.34614,2 0 -10.34614,2 0 -10.34614,2 0 -10.34614,2 0 -10.34614,2 0 -10.34614,2 0 -10.34614,2 0 -10.34614,2 0 -10.34614,2 0 -10.34614,2 0 -10.34614,2 0 -10.34614,2 0 -10.34614,2 0 -11.39653,2 0 -11.39653,2 0 -11.39653,2 0 -11.39653,2 0 -11.39653,2 0 -11.39653,2 0 -11.39653,2 0 -11.39653,2 0 -11.39653,2 0 -11.39653,2 0 -11.39653,2 0 -11.39653,2 0 -11.39653,2 0 -11.39653,2 0 -11.39653,2 0 -11.39653,2 0 -11.39653,2 0 -11.39653,2 0 -11.39653,2 0 -11.39653,2 0 -11.39653,5.810,
2 0 -10.34614,2 0 -10.34614,2 0 -10.34614,2 0 -10.34614,2 0 -10.34614,2 0 -10.34614,2 0 -10.34614,2 0 -10.34614,2 0 -10.34614,2 0 -10.34614,2 0 -10.34614,2 0 -10.34614,2 0 -10.34614,2 0 -10.34614,2 0 -10.34614,2 0 -10.34614,2 0 -10.34614,2 0 -10.34614,2 0 -10.34614,2 0 -10.34614,2 0 -10.34614,2 0 -11.39653,2 0 -11.39653,2 0 -11.39653,2 0 -11.39653,2 0 -11.39653,2 0 -11.39653,2 0 -11.39653,2 0 -11.39653,2 0 -11.39653,2 0 -11.39653,2 0 -11.39653,2 0 -11.39653,2 0 -11.39653,2 0 -11.39653,2 0 -11.39653,2 0 -11.39653,2 0 -11.39653,2 0 -11.39653,2 0 -11.39653,2 0 -11.39653,2 0 -11.39653,5.910,
2 0 -10.34614,2 0 -10.34614,2 0 -10.34614,2 0 -10.34614,2 0 -10.34614,2 0 -10.34614,2 0 -10.34614,2 0 -10.34614,2 0 -10.34614,2 0 -10.34614,2 0 -10.34614,2 0 -10.34614,2 0 -10.34614,2 0 -10.34614,2 0 -10.34614,2 0 -10.34614,2 0 -10.34614,2 0 -10.34614,2 0 -10.34614,2 0 -10.34614,2 0 -10.34614,2 0 -11.39653,2 0 -11.39653,2 0 -11.39653,2 0 -11.39653,2 0 -11.39653,2 0 -11.39653,2 0 -11.39653,2 0 -11.39653,2 0 -11.39653,2 0 -11.39653,2 0 -11.39653,2 0 -11.39653,2 0 -11.39653,2 0 -11.39653,2 0 -11.39653,2 0 -11.39653,2 0 -11.39653,2 0 -11.39653,2 0 -11.39653,2 0 -11.39653,2 0 -11.39653,6.010,
2 0 -10.34614,2 0 -10.34614,2 0 -10.34614,2 0 -10.34614,2 0 -10.34614,2 0 -10.34614,2 0 -10.34614,2 0 -10.34614,2 0 -10.34614,2 0 -10.34614,2 0 -10.34614,2 0 -10.34614,2 0 -10.34614,2 0 -10.34614,2 0 -10.34614,2 0 -10.34614,2 0 -10.34614,2 0 -10.34614,2 0 -10.34614,2 0 -10.34614,2 0 -10.34614,2 0 -11.39653,2 0 -11.39653,2 0 -11.39653,2 0 -11.39653,2 0 -11.39653,2 0 -11.39653,2 0 -11.39653,2 0 -11.39653,2 0 -11.39653,2 0 -11.39653,2 0 -11.39653,2 0 -11.39653,2 0 -11.39653,2 0 -11.39653,2 0 -11.39653,2 0 -11.39653,2 0 -11.39653,2 0 -11.39653,2 0 -11.39653,2 0 -11.39653,2 0 -11.39653,6.110,
2 0 -10.34614,2 0 -10.34614,2 0 -10.34614,2 0 -10.34614,2 0 -10.34614,2 0 -10.34614,2 0 -10.34614,2 0 -10.34614,2 0 -10.34614,2 0 -10.34614,2 0 -10.34614,2 0 -10.34614,2 0 -10.34614,2 0 -10.34614,2 0 -10.34614,2 0 -10.34614,2 0 -10.34614,2 0 -10.34614,2 0 -10.34614,2 0 -10.34614,2 0 -10.34614,2 0 -11.39653,2 0 -11.39653,2 0 -11.39653,2 0 -11.39653,2 0 -11.39653,2 0 -11.39653,2 0 -11.39653,2 0 -11.39653,2 0 -11.39653,2 0 -11.39653,2 0 -11.39653,2 0 -11.39653,2 0 -11.39653,2 0 -11.39653,2 0 -11.39653,2 0 -11.39653,2 0 -11.39653,2 0 -11.39653,2 0 -11.39653,2 0 -11.39653,2 0 -11.39653,6.210,
2 0 -10.34614,2 0 -10.34614,2 0 -10.34614,2 0 -10.34614,2 0 -10.34614,2 0 -10.34614,2 0 -10.34614,2 0 -10.34614,2 0 -10.34614,2 0 -10.34614,2 0 -10.34614,2 0 -10.34614,2 0 -10.34614,2 0 -10.34614,2 0 -10.34614,2 0 -10.34614,2 0 -10.34614,2 0 -10.34614,2 0 -10.34614,2 0 -10.34614,2 0 -10.34614,2 0 -11.39653,2 0 -11.39653,2 0 -11.39653,2 0 -11.39653,2 0 -11.39653,2 0 -11.39653,2 0 -11.39653,2 0 -11.39653,2 0 -11.39653,2 0 -11.39653,2 0 -11.39653,2 0 -11.39653,2 0 -11.39653,2 0 -11.39653,2 0 -11.39653,2 0 -11.39653,2 0 -11.39653,2 0 -11.39653,2 0 -11.39653,2 0 -11.39653,2 0 -11.39653,6.310,
2 0 -10.34614,2 0 -10.34614,2 0 -10.34614,2 0 -10.34614,2 0 -10.34614,2 0 -10.34614,2 0 -10.34614,2 0 -10.34614,2 0 -10.34614,2 0 -10.34614,2 0 -10.34614,2 0 -10.34614,2 0 -10.34614,2 0 -10.34614,2 0 -10.34614,2 0 -10.34614,2 0 -10.34614,2 0 -10.34614,2 0 -10.34614,2 0 -10.34614,2 0 -10.34614,2 0 -11.39653,2 0 -11.39653,2 0 -11.39653,2 0 -11.39653,2 0 -11.39653,2 0 -11.39653,2 0 -11.39653,2 0 -11.39653,2 0 -11.39653,2 0 -11.39653,2 0 -11.39653,2 0 -11.39653,2 0 -11.39653,2 0 -11.39653,2 0 -11.39653,2 0 -11.39653,2 0 -11.39653,2 0 -11.39653,2 0 -11.39653,2 0 -11.39653,2 0 -11.39653,6.410,
2 0 -10.34614,2 0 -10.34614,2 0 -10.34614,2 0 -10.34614,2 0 -10.34614,2 0 -10.34614,2 0 -10.34614,2 0 -10.34614,2 0 -10.34614,2 0 -10.34614,2 0 -10.34614,2 0 -10.34614,2 0 -10.34614,2 0 -10.34614,2 0 -10.34614,2 0 -10.34614,2 0 -10.34614,2 0 -10.34614,2 0 -10.34614,2 0 -10.34614,2 0 -10.34614,2 0 -11.39653,2 0 -11.39653,2 0 -11.39653,2 0 -11.39653,2 0 -11.39653,2 0 -11.39653,2 0 -11.39653,2 0 -11.39653,2 0 -11.39653,2 0 -11.39653,2 0 -11.39653,2 0 -11.39653,2 0 -11.39653,2 0 -11.39653,2 0 -11.39653,2 0 -11.39653,2 0 -11.39653,2 0 -11.39653,2 0 -11.39653,2 0 -11.39653,2 0 -11.39653,6.510,
2 0 -10.34614,2 0 -10.34614,2 0 -10.34614,2 0 -10.34614,2 0 -10.34614,2 0 -10.34614,2 0 -10.34614,2 0 -10.34614,2 0 -10.34614,2 0 -10.34614,2 0 -10.34614,2 0 -10.34614,2 0 -10.34614,2 0 -10.34614,2 0 -10.34614,2 0 -10.34614,2 0 -10.34614,2 0 -10.34614,2 0 -10.34614,2 0 -10.34614,2 0 -10.34614,2 0 -11.39653,2 0 -11.39653,2 0 -11.39653,2 0 -11.39653,2 0 -11.39653,2 0 -11.39653,2 0 -11.39653,2 0 -11.39653,2 0 -11.39653,2 0 -11.39653,2 0 -11.39653,2 0 -11.39653,2 0 -11.39653,2 0 -11.39653,2 0 -11.39653,2 0 -11.39653,2 0 -11.39653,2 0 -11.39653,2 0 -11.39653,2 0 -11.39653,2 0 -11.39653,6.610,
2 0 -10.34614,2 0 -10.34614,2 0 -10.34614,2 0 -10.34614,2 0 -10.34614,2 0 -10.34614,2 0 -10.34614,2 0 -10.34614,2 0 -10.34614,2 0 -10.34614,2 0 -10.34614,2 0 -10.34614,2 0 -10.34614,2 0 -10.34614,2 0 -10.34614,2 0 -10.34614,2 0 -10.34614,2 0 -10.34614,2 0 -10.34614,2 0 -10.34614,2 0 -10.34614,2 0 -11.39653,2 0 -11.39653,2 0 -11.39653,2 0 -11.39653,2 0 -11.39653,2 0 -11.39653,2 0 -11.39653,2 0 -11.39653,2 0 -11.39653,2 0 -11.39653,2 0 -11.39653,2 0 -11.39653,2 0 -11.39653,2 0 -11.39653,2 0 -11.39653,2 0 -11.39653,2 0 -11.39653,2 0 -11.39653,2 0 -11.39653,2 0 -11.39653,2 0 -11.39653,6.710,
2 0 -10.34614,2 0 -10.34614,2 0 -10.34614,2 0 -10.34614,2 0 -10.34614,2 0 -10.34614,2 0 -10.34614,2 0 -10.34614,2 0 -10.34614,2 0 -10.34614,2 0 -10.34614,2 0 -10.34614,2 0 -10.34614,2 0 -10.34614,2 0 -10.34614,2 0 -10.34614,2 0 -10.34614,2 0 -10.34614,2 0 -10.34614,2 0 -10.34614,2 0 -10.34614,2 0 -11.39653,2 0 -11.39653,2 0 -11.39653,2 0 -11.39653,2 0 -11.39653,2 0 -11.39653,2 0 -11.39653,2 0 -11.39653,2 0 -11.39653,2 0 -11.39653,2 0 -11.39653,2 0 -11.39653,2 0 -11.39653,2 0 -11.39653,2 0 -11.39653,2 0 -11.39653,2 0 -11.39653,2 0 -11.39653,2 0 -11.39653,2 0 -11.39653,2 0 -11.39653,6.810,
2 0 -10.34614,2 0 -10.34614,2 0 -10.34614,2 0 -10.34614,2 0 -10.34614,2 0 -10.34614,2 0 -10.34614,2 0 -10.34614,2 0 -10.34614,2 0 -10.34614,2 0 -10.34614,2 0 -10.34614,2 0 -10.34614,2 0 -10.34614,2 0 -10.34614,2 0 -10.34614,2 0 -10.34614,2 0 -10.34614,2 0 -10.34614,2 0 -10.34614,2 0 -10.34614,2 0 -11.39653,2 0 -11.39653,2 0 -11.39653,2 0 -11.39653,2 0 -11.39653,2 0 -11.39653,2 0 -11.39653,2 0 -11.39653,2 0 -11.39653,2 0 -11.39653,2 0 -11.39653,2 0 -11.39653,2 0 -11.39653,2 0 -11.39653,2 0 -11.39653,2 0 -11.39653,2 0 -11.39653,2 0 -11.39653,2 0 -11.39653,2 0 -11.39653,2 0 -11.39653,6.910,
2 0 -10.34614,2 0 -10.34614,2 0 -10.34614,2 0 -10.34614,2 0 -10.34614,2 0 -10.34614,2 0 -10.34614,2 0 -10.34614,2 0 -10.34614,2 0 -10.34614,2 0 -10.34614,2 0 -10.34614,2 0 -10.34614,2 0 -10.34614,2 0 -10.34614,2 0 -10.34614,2 0 -10.34614,2 0 -10.34614,2 0 -10.34614,2 0 -10.34614,2 0 -10.34614,2 0 -11.39653,2 0 -11.39653,2 0 -11.39653,2 0 -11.39653,2 0 -11.39653,2 0 -11.39653,2 0 -11.39653,2 0 -11.39653,2 0 -11.39653,2 0 -11.39653,2 0 -11.39653,2 0 -11.39653,2 0 -11.39653,2 0 -11.39653,2 0 -11.39653,2 0 -11.39653,2 0 -11.39653,2 0 -11.39653,2 0 -11.39653,2 0 -11.39653,2 0 -11.39653,7.010,
2 0 -10.34614,2 0 -10.34614,2 0 -10.34614,2 0 -10.34614,2 0 -10.34614,2 0 -10.34614,2 0 -10.34614,2 0 -10.34614,2 0 -10.34614,2 0 -10.34614,2 0 -10.34614,2 0 -10.34614,2 0 -10.34614,2 0 -10.34614,2 0 -10.34614,2 0 -10.34614,2 0 -10.34614,2 0 -10.34614,2 0 -10.34614,2 0 -10.34614,2 0 -10.34614,2 0 -11.39653,2 0 -11.39653,2 0 -11.39653,2 0 -11.39653,2 0 -11.39653,2 0 -11.39653,2 0 -11.39653,2 0 -11.39653,2 0 -11.39653,2 0 -11.39653,2 0 -11.39653,2 0 -11.39653,2 0 -11.39653,2 0 -11.39653,2 0 -11.39653,2 0 -11.39653,2 0 -11.39653,2 0 -11.39653,2 0 -11.39653,2 0 -11.39653,2 0 -11.39653,7.110,
2 0 -10.34614,2 0 -10.34614,2 0 -10.34614,2 0 -10.34614,2 0 -10.34614,2 0 -10.34614,2 0 -10.34614,2 0 -10.34614,2 0 -10.34614,2 0 -10.34614,2 0 -10.34614,2 0 -10.34614,2 0 -10.34614,2 0 -10.34614,2 0 -10.34614,2 0 -10.34614,2 0 -10.34614,2 0 -10.34614,2 0 -10.34614,2 0 -10.34614,2 0 -10.34614,2 0 -11.39653,2 0 -11.39653,2 0 -11.39653,2 0 -11.39653,2 0 -11.39653,2 0 -11.39653,2 0 -11.39653,2 0 -11.39653,2 0 -11.39653,2 0 -11.39653,2 0 -11.39653,2 0 -11.39653,2 0 -11.39653,2 0 -11.39653,2 0 -11.39653,2 0 -11.39653,2 0 -11.39653,2 0 -11.39653,2 0 -11.39653,2 0 -11.39653,2 0 -11.39653,7.210,
2 0 -10.34614,2 0 -10.34614,2 0 -10.34614,2 0 -10.34614,2 0 -10.34614,2 0 -10.34614,2 0 -10.34614,2 0 -10.34614,2 0 -10.34614,2 0 -10.34614,2 0 -10.34614,2 0 -10.34614,2 0 -10.34614,2 0 -10.34614,2 0 -10.34614,2 0 -10.34614,2 0 -10.34614,2 0 -10.34614,2 0 -10.34614,2 0 -10.34614,2 0 -10.34614,2 0 -11.39653,2 0 -11.39653,2 0 -11.39653,2 0 -11.39653,2 0 -11.39653,2 0 -11.39653,2 0 -11.39653,2 0 -11.39653,2 0 -11.39653,2 0 -11.39653,2 0 -11.39653,2 0 -11.39653,2 0 -11.39653,2 0 -11.39653,2 0 -11.39653,2 0 -11.39653,2 0 -11.39653,2 0 -11.39653,2 0 -11.39653,2 0 -11.39653,2 0 -11.39653,7.310,
2 0 -10.34614,2 0 -10.34614,2 0 -10.34614,2 0 -10.34614,2 0 -10.34614,2 0 -10.34614,2 0 -10.34614,2 0 -10.34614,2 0 -10.34614,2 0 -10.34614,2 0 -10.34614,2 0 -10.34614,2 0 -10.34614,2 0 -10.34614,2 0 -10.34614,2 0 -10.34614,2 0 -10.34614,2 0 -10.34614,2 0 -10.34614,2 0 -10.34614,2 0 -10.34614,2 0 -11.39653,2 0 -11.39653,2 0 -11.39653,2 0 -11.39653,2 0 -11.39653,2 0 -11.39653,2 0 -11.39653,2 0 -11.39653,2 0 -11.39653,2 0 -11.39653,2 0 -11.39653,2 0 -11.39653,2 0 -11.39653,2 0 -11.39653,2 0 -11.39653,2 0 -11.39653,2 0 -11.39653,2 0 -11.39653,2 0 -11.39653,2 0 -11.39653,2 0 -11.39653,7.410,
2 0 -10.34614,2 0 -10.34614,2 0 -10.34614,2 0 -10.34614,2 0 -10.34614,2 0 -10.34614,2 0 -10.34614,2 0 -10.34614,2 0 -10.34614,2 0 -10.34614,2 0 -10.34614,2 0 -10.34614,2 0 -10.34614,2 0 -10.34614,2 0 -10.34614,2 0 -10.34614,2 0 -10.34614,2 0 -10.34614,2 0 -10.34614,2 0 -10.34614,2 0 -10.34614,2 0 -11.39653,2 0 -11.39653,2 0 -11.39653,2 0 -11.39653,2 0 -11.39653,2 0 -11.39653,2 0 -11.39653,2 0 -11.39653,2 0 -11.39653,2 0 -11.39653,2 0 -11.39653,2 0 -11.39653,2 0 -11.39653,2 0 -11.39653,2 0 -11.39653,2 0 -11.39653,2 0 -11.39653,2 0 -11.39653,2 0 -11.39653,2 0 -11.39653,2 0 -11.39653,7.510,
2 0 -10.34614,2 0 -10.34614,2 0 -10.34614,2 0 -10.34614,2 0 -10.34614,2 0 -10.34614,2 0 -10.34614,2 0 -10.34614,2 0 -10.34614,2 0 -10.34614,2 0 -10.34614,2 0 -10.34614,2 0 -10.34614,2 0 -10.34614,2 0 -10.34614,2 0 -10.34614,2 0 -10.34614,2 0 -10.34614,2 0 -10.34614,2 0 -10.34614,2 0 -10.34614,2 0 -11.39653,2 0 -11.39653,2 0 -11.39653,2 0 -11.39653,2 0 -11.39653,2 0 -11.39653,2 0 -11.39653,2 0 -11.39653,2 0 -11.39653,2 0 -11.39653,2 0 -11.39653,2 0 -11.39653,2 0 -11.39653,2 0 -11.39653,2 0 -11.39653,2 0 -11.39653,2 0 -11.39653,2 0 -11.39653,2 0 -11.39653,2 0 -11.39653,2 0 -11.39653,7.610,
2 0 -10.34614,2 0 -10.34614,2 0 -10.34614,2 0 -10.34614,2 0 -10.34614,2 0 -10.34614,2 0 -10.34614,2 0 -10.34614,2 0 -10.34614,2 0 -10.34614,2 0 -10.34614,2 0 -10.34614,2 0 -10.34614,2 0 -10.34614,2 0 -10.34614,2 0 -10.34614,2 0 -10.34614,2 0 -10.34614,2 0 -10.34614,2 0 -10.34614,2 0 -10.34614,2 0 -11.39653,2 0 -11.39653,2 0 -11.39653,2 0 -11.39653,2 0 -11.39653,2 0 -11.39653,2 0 -11.39653,2 0 -11.39653,2 0 -11.39653,2 0 -11.39653,2 0 -11.39653,2 0 -11.39653,2 0 -11.39653,2 0 -11.39653,2 0 -11.39653,2 0 -11.39653,2 0 -11.39653,2 0 -11.39653,2 0 -11.39653,2 0 -11.39653,2 0 -11.39653,7.710,
2 0 -10.34614,2 0 -10.34614,2 0 -10.34614,2 0 -10.34614,2 0 -10.34614,2 0 -10.34614,2 0 -10.34614,2 0 -10.34614,2 0 -10.34614,2 0 -10.34614,2 0 -10.34614,2 0 -10.34614,2 0 -10.34614,2 0 -10.34614,2 0 -10.34614,2 0 -10.34614,2 0 -10.34614,2 0 -10.34614,2 0 -10.34614,2 0 -10.34614,2 0 -10.34614,2 0 -11.39653,2 0 -11.39653,2 0 -11.39653,2 0 -11.39653,2 0 -11.39653,2 0 -11.39653,2 0 -11.39653,2 0 -11.39653,2 0 -11.39653,2 0 -11.39653,2 0 -11.39653,2 0 -11.39653,2 0 -11.39653,2 0 -11.39653,2 0 -11.39653,2 0 -11.39653,2 0 -11.39653,2 0 -11.39653,2 0 -11.39653,2 0 -11.39653,2 0 -11.39653,7.810,
2 0 -10.34614,2 0 -10.34614,2 0 -10.34614,2 0 -10.34614,2 0 -10.34614,2 0 -10.34614,2 0 -10.34614,2 0 -10.34614,2 0 -10.34614,2 0 -10.34614,2 0 -10.34614,2 0 -10.34614,2 0 -10.34614,2 0 -10.34614,2 0 -10.34614,2 0 -10.34614,2 0 -10.34614,2 0 -10.34614,2 0 -10.34614,2 0 -10.34614,2 0 -10.34614,2 0 -11.39653,2 0 -11.39653,2 0 -11.39653,2 0 -11.39653,2 0 -11.39653,2 0 -11.39653,2 0 -11.39653,2 0 -11.39653,2 0 -11.39653,2 0 -11.39653,2 0 -11.39653,2 0 -11.39653,2 0 -11.39653,2 0 -11.39653,2 0 -11.39653,2 0 -11.39653,2 0 -11.39653,2 0 -11.39653,2 0 -11.39653,2 0 -11.39653,2 0 -11.39653,7.910,
2 0 -10.34614,2 0 -10.34614,2 0 -10.34614,2 0 -10.34614,2 0 -10.34614,2 0 -10.34614,2 0 -10.34614,2 0 -10.34614,2 0 -10.34614,2 0 -10.34614,2 0 -10.34614,2 0 -10.34614,2 0 -10.34614,2 0 -10.34614,2 0 -10.34614,2 0 -10.34614,2 0 -10.34614,2 0 -10.34614,2 0 -10.34614,2 0 -10.34614,2 0 -10.34614,2 0 -11.39653,2 0 -11.39653,2 0 -11.39653,2 0 -11.39653,2 0 -11.39653,2 0 -11.39653,2 0 -11.39653,2 0 -11.39653,2 0 -11.39653,2 0 -11.39653,2 0 -11.39653,2 0 -11.39653,2 0 -11.39653,2 0 -11.39653,2 0 -11.39653,2 0 -11.39653,2 0 -11.39653,2 0 -11.39653,2 0 -11.39653,2 0 -11.39653,2 0 -11.39653,8.010,
2 0 -10.34614,2 0 -10.34614,2 0 -10.34614,2 0 -10.34614,2 0 -10.34614,2 0 -10.34614,2 0 -10.34614,2 0 -10.34614,2 0 -10.34614,2 0 -10.34614,2 0 -10.34614,2 0 -10.34614,2 0 -10.34614,2 0 -10.34614,2 0 -10.34614,2 0 -10.34614,2 0 -10.34614,2 0 -10.34614,2 0 -10.34614,2 0 -10.34614,2 0 -10.34614,2 0 -11.39653,2 0 -11.39653,2 0 -11.39653,2 0 -11.39653,2 0 -11.39653,2 0 -11.39653,2 0 -11.39653,2 0 -11.39653,2 0 -11.39653,2 0 -11.39653,2 0 -11.39653,2 0 -11.39653,2 0 -11.39653,2 0 -11.39653,2 0 -11.39653,2 0 -11.39653,2 0 -11.39653,2 0 -11.39653,2 0 -11.39653,2 0 -11.39653,2 0 -11.39653,8.110,
2 0 -10.34614,2 0 -10.34614,2 0 -10.34614,2 0 -10.34614,2 0 -10.34614,2 0 -10.34614,2 0 -10.34614,2 0 -10.34614,2 0 -10.34614,2 0 -10.34614,2 0 -10.34614,2 0 -10.34614,2 0 -10.34614,2 0 -10.34614,2 0 -10.34614,2 0 -10.34614,2 0 -10.34614,2 0 -10.34614,2 0 -10.34614,2 0 -10.34614,2 0 -10.34614,2 0 -11.39653,2 0 -11.39653,2 0 -11.39653,2 0 -11.39653,2 0 -11.39653,2 0 -11.39653,2 0 -11.39653,2 0 -11.39653,2 0 -11.39653,2 0 -11.39653,2 0 -11.39653,2 0 -11.39653,2 0 -11.39653,2 0 -11.39653,2 0 -11.39653,2 0 -11.39653,2 0 -11.39653,2 0 -11.39653,2 0 -11.39653,2 0 -11.39653,2 0 -11.39653,8.210,
2 0 -10.34614,2 0 -10.34614,2 0 -10.34614,2 0 -10.34614,2 0 -10.34614,2 0 -10.34614,2 0 -10.34614,2 0 -10.34614,2 0 -10.34614,2 0 -10.34614,2 0 -10.34614,2 0 -10.34614,2 0 -10.34614,2 0 -10.34614,2 0 -10.34614,2 0 -10.34614,2 0 -10.34614,2 0 -10.34614,2 0 -10.34614,2 0 -10.34614,2 0 -10.34614,2 0 -11.39653,2 0 -11.39653,2 0 -11.39653,2 0 -11.39653,2 0 -11.39653,2 0 -11.39653,2 0 -11.39653,2 0 -11.39653,2 0 -11.39653,2 0 -11.39653,2 0 -11.39653,2 0 -11.39653,2 0 -11.39653,2 0 -11.39653,2 0 -11.39653,2 0 -11.39653,2 0 -11.39653,2 0 -11.39653,2 0 -11.39653,2 0 -11.39653,2 0 -11.39653,8.310,
2 0 -10.34614,2 0 -10.34614,2 0 -10.34614,2 0 -10.34614,2 0 -10.34614,2 0 -10.34614,2 0 -10.34614,2 0 -10.34614,2 0 -10.34614,2 0 -10.34614,2 0 -10.34614,2 0 -10.34614,2 0 -10.34614,2 0 -10.34614,2 0 -10.34614,2 0 -10.34614,2 0 -10.34614,2 0 -10.34614,2 0 -10.34614,2 0 -10.34614,2 0 -10.34614,2 0 -11.39653,2 0 -11.39653,2 0 -11.39653,2 0 -11.39653,2 0 -11.39653,2 0 -11.39653,2 0 -11.39653,2 0 -11.39653,2 0 -11.39653,2 0 -11.39653,2 0 -11.39653,2 0 -11.39653,2 0 -11.39653,2 0 -11.39653,2 0 -11.39653,2 0 -11.39653,2 0 -11.39653,2 0 -11.39653,2 0 -11.39653,2 0 -11.39653,2 0 -11.39653,8.410,
2 0 -10.34614,2 0 -10.34614,2 0 -10.34614,2 0 -10.34614,2 0 -10.34614,2 0 -10.34614,2 0 -10.34614,2 0 -10.34614,2 0 -10.34614,2 0 -10.34614,2 0 -10.34614,2 0 -10.34614,2 0 -10.34614,2 0 -10.34614,2 0 -10.34614,2 0 -10.34614,2 0 -10.34614,2 0 -10.34614,2 0 -10.34614,2 0 -10.34614,2 0 -10.34614,2 0 -11.39653,2 0 -11.39653,2 0 -11.39653,2 0 -11.39653,2 0 -11.39653,2 0 -11.39653,2 0 -11.39653,2 0 -11.39653,2 0 -11.39653,2 0 -11.39653,2 0 -11.39653,2 0 -11.39653,2 0 -11.39653,2 0 -11.39653,2 0 -11.39653,2 0 -11.39653,2 0 -11.39653,2 0 -11.39653,2 0 -11.39653,2 0 -11.39653,2 0 -11.39653,8.510,
2 0 -10.34614,2 0 -10.34614,2 0 -10.34614,2 0 -10.34614,2 0 -10.34614,2 0 -10.34614,2 0 -10.34614,2 0 -10.34614,2 0 -10.34614,2 0 -10.34614,2 0 -10.34614,2 0 -10.34614,2 0 -10.34614,2 0 -10.34614,2 0 -10.34614,2 0 -10.34614,2 0 -10.34614,2 0 -10.34614,2 0 -10.34614,2 0 -10.34614,2 0 -10.34614,2 0 -11.39653,2 0 -11.39653,2 0 -11.39653,2 0 -11.39653,2 0 -11.39653,2 0 -11.39653,2 0 -11.39653,2 0 -11.39653,2 0 -11.39653,2 0 -11.39653,2 0 -11.39653,2 0 -11.39653,2 0 -11.39653,2 0 -11.39653,2 0 -11.39653,2 0 -11.39653,2 0 -11.39653,2 0 -11.39653,2 0 -11.39653,2 0 -11.39653,2 0 -11.39653,8.610,
2 0 -10.34614,2 0 -10.34614,2 0 -10.34614,2 0 -10.34614,2 0 -10.34614,2 0 -10.34614,2 0 -10.34614,2 0 -10.34614,2 0 -10.34614,2 0 -10.34614,2 0 -10.34614,2 0 -10.34614,2 0 -10.34614,2 0 -10.34614,2 0 -10.34614,2 0 -10.34614,2 0 -10.34614,2 0 -10.34614,2 0 -10.34614,2 0 -10.34614,2 0 -10.34614,2 0 -11.39653,2 0 -11.39653,2 0 -11.39653,2 0 -11.39653,2 0 -11.39653,2 0 -11.39653,2 0 -11.39653,2 0 -11.39653,2 0 -11.39653,2 0 -11.39653,2 0 -11.39653,2 0 -11.39653,2 0 -11.39653,2 0 -11.39653,2 0 -11.39653,2 0 -11.39653,2 0 -11.39653,2 0 -11.39653,2 0 -11.39653,2 0 -11.39653,2 0 -11.39653,8.710,
2 0 -10.34614,2 0 -10.34614,2 0 -10.34614,2 0 -10.34614,2 0 -10.34614,2 0 -10.34614,2 0 -10.34614,2 0 -10.34614,2 0 -10.34614,2 0 -10.34614,2 0 -10.34614,2 0 -10.34614,2 0 -10.34614,2 0 -10.34614,2 0 -10.34614,2 0 -10.34614,2 0 -10.34614,2 0 -10.34614,2 0 -10.34614,2 0 -10.34614,2 0 -10.34614,2 0 -11.39653,2 0 -11.39653,2 0 -11.39653,2 0 -11.39653,2 0 -11.39653,2 0 -11.39653,2 0 -11.39653,2 0 -11.39653,2 0 -11.39653,2 0 -11.39653,2 0 -11.39653,2 0 -11.39653,2 0 -11.39653,2 0 -11.39653,2 0 -11.39653,2 0 -11.39653,2 0 -11.39653,2 0 -11.39653,2 0 -11.39653,2 0 -11.39653,2 0 -11.39653,8.810,
2 0 -10.34614,2 0 -10.34614,2 0 -10.34614,2 0 -10.34614,2 0 -10.34614,2 0 -10.34614,2 0 -10.34614,2 0 -10.34614,2 0 -10.34614,2 0 -10.34614,2 0 -10.34614,2 0 -10.34614,2 0 -10.34614,2 0 -10.34614,2 0 -10.34614,2 0 -10.34614,2 0 -10.34614,2 0 -10.34614,2 0 -10.34614,2 0 -10.34614,2 0 -10.34614,2 0 -11.39653,2 0 -11.39653,2 0 -11.39653,2 0 -11.39653,2 0 -11.39653,2 0 -11.39653,2 0 -11.39653,2 0 -11.39653,2 0 -11.39653,2 0 -11.39653,2 0 -11.39653,2 0 -11.39653,2 0 -11.39653,2 0 -11.39653,2 0 -11.39653,2 0 -11.39653,2 0 -11.39653,2 0 -11.39653,2 0 -11.39653,2 0 -11.39653,2 0 -11.39653,8.910,
2 0 -10.34614,2 0 -10.34614,2 0 -10.34614,2 0 -10.34614,2 0 -10.34614,2 0 -10.34614,2 0 -10.34614,2 0 -10.34614,2 0 -10.34614,2 0 -10.34614,2 0 -10.34614,2 0 -10.34614,2 0 -10.34614,2 0 -10.34614,2 0 -10.34614,2 0 -10.34614,2 0 -10.34614,2 0 -10.34614,2 0 -10.34614,2 0 -10.34614,2 0 -10.34614,2 0 -11.39653,2 0 -11.39653,2 0 -11.39653,2 0 -11.39653,2 0 -11.39653,2 0 -11.39653,2 0 -11.39653,2 0 -11.39653,2 0 -11.39653,2 0 -11.39653,2 0 -11.39653,2 0 -11.39653,2 0 -11.39653,2 0 -11.39653,2 0 -11.39653,2 0 -11.39653,2 0 -11.39653,2 0 -11.39653,2 0 -11.39653,2 0 -11.39653,2 0 -11.39653,9.010,
2 0 -10.34614,2 0 -10.34614,2 0 -10.34614,2 0 -10.34614,2 0 -10.34614,2 0 -10.34614,2 0 -10.34614,2 0 -10.34614,2 0 -10.34614,2 0 -10.34614,2 0 -10.34614,2 0 -10.34614,2 0 -10.34614,2 0 -10.34614,2 0 -10.34614,2 0 -10.34614,2 0 -10.34614,2 0 -10.34614,2 0 -10.34614,2 0 -10.34614,2 0 -10.34614,2 0 -11.39653,2 0 -11.39653,2 0 -11.39653,2 0 -11.39653,2 0 -11.39653,2 0 -11.39653,2 0 -11.39653,2 0 -11.39653,2 0 -11.39653,2 0 -11.39653,2 0 -11.39653,2 0 -11.39653,2 0 -11.39653,2 0 -11.39653,2 0 -11.39653,2 0 -11.39653,2 0 -11.39653,2 0 -11.39653,2 0 -11.39653,2 0 -11.39653,2 0 -11.39653,9.110,
2 0 -10.34614,2 0 -10.34614,2 0 -10.34614,2 0 -10.34614,2 0 -10.34614,2 0 -10.34614,2 0 -10.34614,2 0 -10.34614,2 0 -10.34614,2 0 -10.34614,2 0 -10.34614,2 0 -10.34614,2 0 -10.34614,2 0 -10.34614,2 0 -10.34614,2 0 -10.34614,2 0 -10.34614,2 0 -10.34614,2 0 -10.34614,2 0 -10.34614,2 0 -10.34614,2 0 -11.39653,2 0 -11.39653,2 0 -11.39653,2 0 -11.39653,2 0 -11.39653,2 0 -11.39653,2 0 -11.39653,2 0 -11.39653,2 0 -11.39653,2 0 -11.39653,2 0 -11.39653,2 0 -11.39653,2 0 -11.39653,2 0 -11.39653,2 0 -11.39653,2 0 -11.39653,2 0 -11.39653,2 0 -11.39653,2 0 -11.39653,2 0 -11.39653,2 0 -11.39653,9.210,
2 0 -10.34614,2 0 -10.34614,2 0 -10.34614,2 0 -10.34614,2 0 -10.34614,2 0 -10.34614,2 0 -10.34614,2 0 -10.34614,2 0 -10.34614,2 0 -10.34614,2 0 -10.34614,2 0 -10.34614,2 0 -10.34614,2 0 -10.34614,2 0 -10.34614,2 0 -10.34614,2 0 -10.34614,2 0 -10.34614,2 0 -10.34614,2 0 -10.34614,2 0 -10.34614,2 0 -11.39653,2 0 -11.39653,2 0 -11.39653,2 0 -11.39653,2 0 -11.39653,2 0 -11.39653,2 0 -11.39653,2 0 -11.39653,2 0 -11.39653,2 0 -11.39653,2 0 -11.39653,2 0 -11.39653,2 0 -11.39653,2 0 -11.39653,2 0 -11.39653,2 0 -11.39653,2 0 -11.39653,2 0 -11.39653,2 0 -11.39653,2 0 -11.39653,2 0 -11.39653,9.310,
2 0 -10.34614,2 0 -10.34614,2 0 -10.34614,2 0 -10.34614,2 0 -10.34614,2 0 -10.34614,2 0 -10.34614,2 0 -10.34614,2 0 -10.34614,2 0 -10.34614,2 0 -10.34614,2 0 -10.34614,2 0 -10.34614,2 0 -10.34614,2 0 -10.34614,2 0 -10.34614,2 0 -10.34614,2 0 -10.34614,2 0 -10.34614,2 0 -10.34614,2 0 -10.34614,2 0 -11.39653,2 0 -11.39653,2 0 -11.39653,2 0 -11.39653,2 0 -11.39653,2 0 -11.39653,2 0 -11.39653,2 0 -11.39653,2 0 -11.39653,2 0 -11.39653,2 0 -11.39653,2 0 -11.39653,2 0 -11.39653,2 0 -11.39653,2 0 -11.39653,2 0 -11.39653,2 0 -11.39653,2 0 -11.39653,2 0 -11.39653,2 0 -11.39653,2 0 -11.39653,9.410,
2 0 -10.34614,2 0 -10.34614,2 0 -10.34614,2 0 -10.34614,2 0 -10.34614,2 0 -10.34614,2 0 -10.34614,2 0 -10.34614,2 0 -10.34614,2 0 -10.34614,2 0 -10.34614,2 0 -10.34614,2 0 -10.34614,2 0 -10.34614,2 0 -10.34614,2 0 -10.34614,2 0 -10.34614,2 0 -10.34614,2 0 -10.34614,2 0 -10.34614,2 0 -10.34614,2 0 -11.39653,2 0 -11.39653,2 0 -11.39653,2 0 -11.39653,2 0 -11.39653,2 0 -11.39653,2 0 -11.39653,2 0 -11.39653,2 0 -11.39653,2 0 -11.39653,2 0 -11.39653,2 0 -11.39653,2 0 -11.39653,2 0 -11.39653,2 0 -11.39653,2 0 -11.39653,2 0 -11.39653,2 0 -11.39653,2 0 -11.39653,2 0 -11.39653,2 0 -11.39653,9.510,
2 0 -10.34614,2 0 -10.34614,2 0 -10.34614,2 0 -10.34614,2 0 -10.34614,2 0 -10.34614,2 0 -10.34614,2 0 -10.34614,2 0 -10.34614,2 0 -10.34614,2 0 -10.34614,2 0 -10.34614,2 0 -10.34614,2 0 -10.34614,2 0 -10.34614,2 0 -10.34614,2 0 -10.34614,2 0 -10.34614,2 0 -10.34614,2 0 -10.34614,2 0 -10.34614,2 0 -11.39653,2 0 -11.39653,2 0 -11.39653,2 0 -11.39653,2 0 -11.39653,2 0 -11.39653,2 0 -11.39653,2 0 -11.39653,2 0 -11.39653,2 0 -11.39653,2 0 -11.39653,2 0 -11.39653,2 0 -11.39653,2 0 -11.39653,2 0 -11.39653,2 0 -11.39653,2 0 -11.39653,2 0 -11.39653,2 0 -11.39653,2 0 -11.39653,2 0 -11.39653,9.610,
2 0 -10.34614,2 0 -10.34614,2 0 -10.34614,2 0 -10.34614,2 0 -10.34614,2 0 -10.34614,2 0 -10.34614,2 0 -10.34614,2 0 -10.34614,2 0 -10.34614,2 0 -10.34614,2 0 -10.34614,2 0 -10.34614,2 0 -10.34614,2 0 -10.34614,2 0 -10.34614,2 0 -10.34614,2 0 -10.34614,2 0 -10.34614,2 0 -10.34614,2 0 -10.34614,2 0 -11.39653,2 0 -11.39653,2 0 -11.39653,2 0 -11.39653,2 0 -11.39653,2 0 -11.39653,2 0 -11.39653,2 0 -11.39653,2 0 -11.39653,2 0 -11.39653,2 0 -11.39653,2 0 -11.39653,2 0 -11.39653,2 0 -11.39653,2 0 -11.39653,2 0 -11.39653,2 0 -11.39653,2 0 -11.39653,2 0 -11.39653,2 0 -11.39653,2 0 -11.39653,9.710,
2 0 -10.34614,2 0 -10.34614,2 0 -10.34614,2 0 -10.34614,2 0 -10.34614,2 0 -10.34614,2 0 -10.34614,2 0 -10.34614,2 0 -10.34614,2 0 -10.34614,2 0 -10.34614,2 0 -10.34614,2 0 -10.34614,2 0 -10.34614,2 0 -10.34614,2 0 -10.34614,2 0 -10.34614,2 0 -10.34614,2 0 -10.34614,2 0 -10.34614,2 0 -10.34614,2 0 -11.39653,2 0 -11.39653,2 0 -11.39653,2 0 -11.39653,2 0 -11.39653,2 0 -11.39653,2 0 -11.39653,2 0 -11.39653,2 0 -11.39653,2 0 -11.39653,2 0 -11.39653,2 0 -11.39653,2 0 -11.39653,2 0 -11.39653,2 0 -11.39653,2 0 -11.39653,2 0 -11.39653,2 0 -11.39653,2 0 -11.39653,2 0 -11.39653,2 0 -11.39653,9.810,
2 0 -10.34614,2 0 -10.34614,2 0 -10.34614,2 0 -10.34614,2 0 -10.34614,2 0 -10.34614,2 0 -10.34614,2 0 -10.34614,2 0 -10.34614,2 0 -10.34614,2 0 -10.34614,2 0 -10.34614,2 0 -10.34614,2 0 -10.34614,2 0 -10.34614,2 0 -10.34614,2 0 -10.34614,2 0 -10.34614,2 0 -10.34614,2 0 -10.34614,2 0 -10.34614,2 0 -11.39653,2 0 -11.39653,2 0 -11.39653,2 0 -11.39653,2 0 -11.39653,2 0 -11.39653,2 0 -11.39653,2 0 -11.39653,2 0 -11.39653,2 0 -11.39653,2 0 -11.39653,2 0 -11.39653,2 0 -11.39653,2 0 -11.39653,2 0 -11.39653,2 0 -11.39653,2 0 -11.39653,2 0 -11.39653,2 0 -11.39653,2 0 -11.39653,2 0 -11.39653,9.910,
2 0 -10.34614,2 0 -10.34614,2 0 -10.34614,2 0 -10.34614,2 0 -10.34614,2 0 -10.34614,2 0 -10.34614,2 0 -10.34614,2 0 -10.34614,2 0 -10.34614,2 0 -10.34614,2 0 -10.34614,2 0 -10.34614,2 0 -10.34614,2 0 -10.34614,2 0 -10.34614,2 0 -10.34614,2 0 -10.34614,2 0 -10.34614,2 0 -10.34614,2 0 -10.34614,2 0 -11.39653,2 0 -11.39653,2 0 -11.39653,2 0 -11.39653,2 0 -11.39653,2 0 -11.39653,2 0 -11.39653,2 0 -11.39653,2 0 -11.39653,2 0 -11.39653,2 0 -11.39653,2 0 -11.39653,2 0 -11.39653,2 0 -11.39653,2 0 -11.39653,2 0 -11.39653,2 0 -11.39653,2 0 -11.39653,2 0 -11.39653,2 0 -11.39653,2 0 -11.39653,10.010,
2 0 -10.34614,2 0 -10.34614,2 0 -10.34614,2 0 -10.34614,2 0 -10.34614,2 0 -10.34614,2 0 -10.34614,2 0 -10.34614,2 0 -10.34614,2 0 -10.34614,2 0 -10.34614,2 0 -10.34614,2 0 -10.34614,2 0 -10.34614,2 0 -10.34614,2 0 -10.34614,2 0 -10.34614,2 0 -10.34614,2 0 -10.34614,2 0 -10.34614,2 0 -10.34614,2 0 -11.39653,2 0 -11.39653,2 0 -11.39653,2 0 -11.39653,2 0 -11.39653,2 0 -11.39653,2 0 -11.39653,2 0 -11.39653,2 0 -11.39653,2 0 -11.39653,2 0 -11.39653,2 0 -11.39653,2 0 -11.39653,2 0 -11.39653,2 0 -11.39653,2 0 -11.39653,2 0 -11.39653,2 0 -11.39653,2 0 -11.39653,2 0 -11.39653,2 0 -11.39653,10.110,
2 0 -10.34614,2 0 -10.34614,2 0 -10.34614,2 0 -10.34614,2 0 -10.34614,2 0 -10.34614,2 0 -10.34614,2 0 -10.34614,2 0 -10.34614,2 0 -10.34614,2 0 -10.34614,2 0 -10.34614,2 0 -10.34614,2 0 -10.34614,2 0 -10.34614,2 0 -10.34614,2 0 -10.34614,2 0 -10.34614,2 0 -10.34614,2 0 -10.34614,2 0 -10.34614,2 0 -11.39653,2 0 -11.39653,2 0 -11.39653,2 0 -11.39653,2 0 -11.39653,2 0 -11.39653,2 0 -11.39653,2 0 -11.39653,2 0 -11.39653,2 0 -11.39653,2 0 -11.39653,2 0 -11.39653,2 0 -11.39653,2 0 -11.39653,2 0 -11.39653,2 0 -11.39653,2 0 -11.39653,2 0 -11.39653,2 0 -11.39653,2 0 -11.39653,2 0 -11.39653,10.210,
2 0 -10.34614,2 0 -10.34614,2 0 -10.34614,2 0 -10.34614,2 0 -10.34614,2 0 -10.34614,2 0 -10.34614,2 0 -10.34614,2 0 -10.34614,2 0 -10.34614,2 0 -10.34614,2 0 -10.34614,2 0 -10.34614,2 0 -10.34614,2 0 -10.34614,2 0 -10.34614,2 0 -10.34614,2 0 -10.34614,2 0 -10.34614,2 0 -10.34614,2 0 -10.34614,2 0 -11.39653,2 0 -11.39653,2 0 -11.39653,2 0 -11.39653,2 0 -11.39653,2 0 -11.39653,2 0 -11.39653,2 0 -11.39653,2 0 -11.39653,2 0 -11.39653,2 0 -11.39653,2 0 -11.39653,2 0 -11.39653,2 0 -11.39653,2 0 -11.39653,2 0 -11.39653,2 0 -11.39653,2 0 -11.39653,2 0 -11.39653,2 0 -11.39653,2 0 -11.39653,10.310,
2 0 -10.34614,2 0 -10.34614,2 0 -10.34614,2 0 -10.34614,2 0 -10.34614,2 0 -10.34614,2 0 -10.34614,2 0 -10.34614,2 0 -10.34614,2 0 -10.34614,2 0 -10.34614,2 0 -10.34614,2 0 -10.34614,2 0 -10.34614,2 0 -10.34614,2 0 -10.34614,2 0 -10.34614,2 0 -10.34614,2 0 -10.34614,2 0 -10.34614,2 0 -10.34614,2 0 -11.39653,2 0 -11.39653,2 0 -11.39653,2 0 -11.39653,2 0 -11.39653,2 0 -11.39653,2 0 -11.39653,2 0 -11.39653,2 0 -11.39653,2 0 -11.39653,2 0 -11.39653,2 0 -11.39653,2 0 -11.39653,2 0 -11.39653,2 0 -11.39653,2 0 -11.39653,2 0 -11.39653,2 0 -11.39653,2 0 -11.39653,2 0 -11.39653,2 0 -11.39653,10.410,
2 0 -10.34614,2 0 -10.34614,2 0 -10.34614,2 0 -10.34614,2 0 -10.34614,2 0 -10.34614,2 0 -10.34614,2 0 -10.34614,2 0 -10.34614,2 0 -10.34614,2 0 -10.34614,2 0 -10.34614,2 0 -10.34614,2 0 -10.34614,2 0 -10.34614,2 0 -10.34614,2 0 -10.34614,2 0 -10.34614,2 0 -10.34614,2 0 -10.34614,2 0 -10.34614,2 0 -11.39653,2 0 -11.39653,2 0 -11.39653,2 0 -11.39653,2 0 -11.39653,2 0 -11.39653,2 0 -11.39653,2 0 -11.39653,2 0 -11.39653,2 0 -11.39653,2 0 -11.39653,2 0 -11.39653,2 0 -11.39653,2 0 -11.39653,2 0 -11.39653,2 0 -11.39653,2 0 -11.39653,2 0 -11.39653,2 0 -11.39653,2 0 -11.39653,2 0 -11.39653,10.510,
2 0 -10.34614,2 0 -10.34614,2 0 -10.34614,2 0 -10.34614,2 0 -10.34614,2 0 -10.34614,2 0 -10.34614,2 0 -10.34614,2 0 -10.34614,2 0 -10.34614,2 0 -10.34614,2 0 -10.34614,2 0 -10.34614,2 0 -10.34614,2 0 -10.34614,2 0 -10.34614,2 0 -10.34614,2 0 -10.34614,2 0 -10.34614,2 0 -10.34614,2 0 -10.34614,2 0 -11.39653,2 0 -11.39653,2 0 -11.39653,2 0 -11.39653,2 0 -11.39653,2 0 -11.39653,2 0 -11.39653,2 0 -11.39653,2 0 -11.39653,2 0 -11.39653,2 0 -11.39653,2 0 -11.39653,2 0 -11.39653,2 0 -11.39653,2 0 -11.39653,2 0 -11.39653,2 0 -11.39653,2 0 -11.39653,2 0 -11.39653,2 0 -11.39653,2 0 -11.39653,10.610,
2 0 -10.34614,2 0 -10.34614,2 0 -10.34614,2 0 -10.34614,2 0 -10.34614,2 0 -10.34614,2 0 -10.34614,2 0 -10.34614,2 0 -10.34614,2 0 -10.34614,2 0 -10.34614,2 0 -10.34614,2 0 -10.34614,2 0 -10.34614,2 0 -10.34614,2 0 -10.34614,2 0 -10.34614,2 0 -10.34614,2 0 -10.34614,2 0 -10.34614,2 0 -10.34614,2 0 -11.39653,2 0 -11.39653,2 0 -11.39653,2 0 -11.39653,2 0 -11.39653,2 0 -11.39653,2 0 -11.39653,2 0 -11.39653,2 0 -11.39653,2 0 -11.39653,2 0 -11.39653,2 0 -11.39653,2 0 -11.39653,2 0 -11.39653,2 0 -11.39653,2 0 -11.39653,2 0 -11.39653,2 0 -11.39653,2 0 -11.39653,2 0 -11.39653,2 0 -11.39653,10.710,
2 0 -10.34614,2 0 -10.34614,2 0 -10.34614,2 0 -10.34614,2 0 -10.34614,2 0 -10.34614,2 0 -10.34614,2 0 -10.34614,2 0 -10.34614,2 0 -10.34614,2 0 -10.34614,2 0 -10.34614,2 0 -10.34614,2 0 -10.34614,2 0 -10.34614,2 0 -10.34614,2 0 -10.34614,2 0 -10.34614,2 0 -10.34614,2 0 -10.34614,2 0 -10.34614,2 0 -11.39653,2 0 -11.39653,2 0 -11.39653,2 0 -11.39653,2 0 -11.39653,2 0 -11.39653,2 0 -11.39653,2 0 -11.39653,2 0 -11.39653,2 0 -11.39653,2 0 -11.39653,2 0 -11.39653,2 0 -11.39653,2 0 -11.39653,2 0 -11.39653,2 0 -11.39653,2 0 -11.39653,2 0 -11.39653,2 0 -11.39653,2 0 -11.39653,2 0 -11.39653,10.810,
2 0 -10.34614,2 0 -10.34614,2 0 -10.34614,2 0 -10.34614,2 0 -10.34614,2 0 -10.34614,2 0 -10.34614,2 0 -10.34614,2 0 -10.34614,2 0 -10.34614,2 0 -10.34614,2 0 -10.34614,2 0 -10.34614,2 0 -10.34614,2 0 -10.34614,2 0 -10.34614,2 0 -10.34614,2 0 -10.34614,2 0 -10.34614,2 0 -10.34614,2 0 -10.34614,2 0 -11.39653,2 0 -11.39653,2 0 -11.39653,2 0 -11.39653,2 0 -11.39653,2 0 -11.39653,2 0 -11.39653,2 0 -11.39653,2 0 -11.39653,2 0 -11.39653,2 0 -11.39653,2 0 -11.39653,2 0 -11.39653,2 0 -11.39653,2 0 -11.39653,2 0 -11.39653,2 0 -11.39653,2 0 -11.39653,2 0 -11.39653,2 0 -11.39653,2 0 -11.39653,10.910,
2 0 -10.34614,2 0 -10.34614,2 0 -10.34614,2 0 -10.34614,2 0 -10.34614,2 0 -10.34614,2 0 -10.34614,2 0 -10.34614,2 0 -10.34614,2 0 -10.34614,2 0 -10.34614,2 0 -10.34614,2 0 -10.34614,2 0 -10.34614,2 0 -10.34614,2 0 -10.34614,2 0 -10.34614,2 0 -10.34614,2 0 -10.34614,2 0 -10.34614,2 0 -10.34614,2 0 -11.39653,2 0 -11.39653,2 0 -11.39653,2 0 -11.39653,2 0 -11.39653,2 0 -11.39653,2 0 -11.39653,2 0 -11.39653,2 0 -11.39653,2 0 -11.39653,2 0 -11.39653,2 0 -11.39653,2 0 -11.39653,2 0 -11.39653,2 0 -11.39653,2 0 -11.39653,2 0 -11.39653,2 0 -11.39653,2 0 -11.39653,2 0 -11.39653,2 0 -11.39653,11.010,
2 0 -10.34614,2 0 -10.34614,2 0 -10.34614,2 0 -10.34614,2 0 -10.34614,2 0 -10.34614,2 0 -10.34614,2 0 -10.34614,2 0 -10.34614,2 0 -10.34614,2 0 -10.34614,2 0 -10.34614,2 0 -10.34614,2 0 -10.34614,2 0 -10.34614,2 0 -10.34614,2 0 -10.34614,2 0 -10.34614,2 0 -10.34614,2 0 -10.34614,2 0 -10.34614,2 0 -11.39653,2 0 -11.39653,2 0 -11.39653,2 0 -11.39653,2 0 -11.39653,2 0 -11.39653,2 0 -11.39653,2 0 -11.39653,2 0 -11.39653,2 0 -11.39653,2 0 -11.39653,2 0 -11.39653,2 0 -11.39653,2 0 -11.39653,2 0 -11.39653,2 0 -11.39653,2 0 -11.39653,2 0 -11.39653,2 0 -11.39653,2 0 -11.39653,2 0 -11.39653,11.110,
2 0 -10.34614,2 0 -10.34614,2 0 -10.34614,2 0 -10.34614,2 0 -10.34614,2 0 -10.34614,2 0 -10.34614,2 0 -10.34614,2 0 -10.34614,2 0 -10.34614,2 0 -10.34614,2 0 -10.34614,2 0 -10.34614,2 0 -10.34614,2 0 -10.34614,2 0 -10.34614,2 0 -10.34614,2 0 -10.34614,2 0 -10.34614,2 0 -10.34614,2 0 -10.34614,2 0 -11.39653,2 0 -11.39653,2 0 -11.39653,2 0 -11.39653,2 0 -11.39653,2 0 -11.39653,2 0 -11.39653,2 0 -11.39653,2 0 -11.39653,2 0 -11.39653,2 0 -11.39653,2 0 -11.39653,2 0 -11.39653,2 0 -11.39653,2 0 -11.39653,2 0 -11.39653,2 0 -11.39653,2 0 -11.39653,2 0 -11.39653,2 0 -11.39653,2 0 -11.39653,11.210,
2 0 -10.34614,2 0 -10.34614,2 0 -10.34614,2 0 -10.34614,2 0 -10.34614,2 0 -10.34614,2 0 -10.34614,2 0 -10.34614,2 0 -10.34614,2 0 -10.34614,2 0 -10.34614,2 0 -10.34614,2 0 -10.34614,2 0 -10.34614,2 0 -10.34614,2 0 -10.34614,2 0 -10.34614,2 0 -10.34614,2 0 -10.34614,2 0 -10.34614,2 0 -10.34614,2 0 -11.39653,2 0 -11.39653,2 0 -11.39653,2 0 -11.39653,2 0 -11.39653,2 0 -11.39653,2 0 -11.39653,2 0 -11.39653,2 0 -11.39653,2 0 -11.39653,2 0 -11.39653,2 0 -11.39653,2 0 -11.39653,2 0 -11.39653,2 0 -11.39653,2 0 -11.39653,2 0 -11.39653,2 0 -11.39653,2 0 -11.39653,2 0 -11.39653,2 0 -11.39653,11.310,
2 0 -10.34614,2 0 -10.34614,2 0 -10.34614,2 0 -10.34614,2 0 -10.34614,2 0 -10.34614,2 0 -10.34614,2 0 -10.34614,2 0 -10.34614,2 0 -10.34614,2 0 -10.34614,2 0 -10.34614,2 0 -10.34614,2 0 -10.34614,2 0 -10.34614,2 0 -10.34614,2 0 -10.34614,2 0 -10.34614,2 0 -10.34614,2 0 -10.34614,2 0 -10.34614,2 0 -11.39653,2 0 -11.39653,2 0 -11.39653,2 0 -11.39653,2 0 -11.39653,2 0 -11.39653,2 0 -11.39653,2 0 -11.39653,2 0 -11.39653,2 0 -11.39653,2 0 -11.39653,2 0 -11.39653,2 0 -11.39653,2 0 -11.39653,2 0 -11.39653,2 0 -11.39653,2 0 -11.39653,2 0 -11.39653,2 0 -11.39653,2 0 -11.39653,2 0 -11.39653,11.410,
2 0 -10.34614,2 0 -10.34614,2 0 -10.34614,2 0 -10.34614,2 0 -10.34614,2 0 -10.34614,2 0 -10.34614,2 0 -10.34614,2 0 -10.34614,2 0 -10.34614,2 0 -10.34614,2 0 -10.34614,2 0 -10.34614,2 0 -10.34614,2 0 -10.34614,2 0 -10.34614,2 0 -10.34614,2 0 -10.34614,2 0 -10.34614,2 0 -10.34614,2 0 -10.34614,2 0 -11.39653,2 0 -11.39653,2 0 -11.39653,2 0 -11.39653,2 0 -11.39653,2 0 -11.39653,2 0 -11.39653,2 0 -11.39653,2 0 -11.39653,2 0 -11.39653,2 0 -11.39653,2 0 -11.39653,2 0 -11.39653,2 0 -11.39653,2 0 -11.39653,2 0 -11.39653,2 0 -11.39653,2 0 -11.39653,2 0 -11.39653,2 0 -11.39653,2 0 -11.39653,11.510,
2 0 -10.34614,2 0 -10.34614,2 0 -10.34614,2 0 -10.34614,2 0 -10.34614,2 0 -10.34614,2 0 -10.34614,2 0 -10.34614,2 0 -10.34614,2 0 -10.34614,2 0 -10.34614,2 0 -10.34614,2 0 -10.34614,2 0 -10.34614,2 0 -10.34614,2 0 -10.34614,2 0 -10.34614,2 0 -10.34614,2 0 -10.34614,2 0 -10.34614,2 0 -10.34614,2 0 -11.39653,2 0 -11.39653,2 0 -11.39653,2 0 -11.39653,2 0 -11.39653,2 0 -11.39653,2 0 -11.39653,2 0 -11.39653,2 0 -11.39653,2 0 -11.39653,2 0 -11.39653,2 0 -11.39653,2 0 -11.39653,2 0 -11.39653,2 0 -11.39653,2 0 -11.39653,2 0 -11.39653,2 0 -11.39653,2 0 -11.39653,2 0 -11.39653,2 0 -11.39653,11.610,
2 0 -10.34614,2 0 -10.34614,2 0 -10.34614,2 0 -10.34614,2 0 -10.34614,2 0 -10.34614,2 0 -10.34614,2 0 -10.34614,2 0 -10.34614,2 0 -10.34614,2 0 -10.34614,2 0 -10.34614,2 0 -10.34614,2 0 -10.34614,2 0 -10.34614,2 0 -10.34614,2 0 -10.34614,2 0 -10.34614,2 0 -10.34614,2 0 -10.34614,2 0 -10.34614,2 0 -11.39653,2 0 -11.39653,2 0 -11.39653,2 0 -11.39653,2 0 -11.39653,2 0 -11.39653,2 0 -11.39653,2 0 -11.39653,2 0 -11.39653,2 0 -11.39653,2 0 -11.39653,2 0 -11.39653,2 0 -11.39653,2 0 -11.39653,2 0 -11.39653,2 0 -11.39653,2 0 -11.39653,2 0 -11.39653,2 0 -11.39653,2 0 -11.39653,2 0 -11.39653,11.710,
2 0 -10.34614,2 0 -10.34614,2 0 -10.34614,2 0 -10.34614,2 0 -10.34614,2 0 -10.34614,2 0 -10.34614,2 0 -10.34614,2 0 -10.34614,2 0 -10.34614,2 0 -10.34614,2 0 -10.34614,2 0 -10.34614,2 0 -10.34614,2 0 -10.34614,2 0 -10.34614,2 0 -10.34614,2 0 -10.34614,2 0 -10.34614,2 0 -10.34614,2 0 -10.34614,2 0 -11.39653,2 0 -11.39653,2 0 -11.39653,2 0 -11.39653,2 0 -11.39653,2 0 -11.39653,2 0 -11.39653,2 0 -11.39653,2 0 -11.39653,2 0 -11.39653,2 0 -11.39653,2 0 -11.39653,2 0 -11.39653,2 0 -11.39653,2 0 -11.39653,2 0 -11.39653,2 0 -11.39653,2 0 -11.39653,2 0 -11.39653,2 0 -11.39653,2 0 -11.39653,11.810,
2 0 -10.34614,2 0 -10.34614,2 0 -10.34614,2 0 -10.34614,2 0 -10.34614,2 0 -10.34614,2 0 -10.34614,2 0 -10.34614,2 0 -10.34614,2 0 -10.34614,2 0 -10.34614,2 0 -10.34614,2 0 -10.34614,2 0 -10.34614,2 0 -10.34614,2 0 -10.34614,2 0 -10.34614,2 0 -10.34614,2 0 -10.34614,2 0 -10.34614,2 0 -10.34614,2 0 -11.39653,2 0 -11.39653,2 0 -11.39653,2 0 -11.39653,2 0 -11.39653,2 0 -11.39653,2 0 -11.39653,2 0 -11.39653,2 0 -11.39653,2 0 -11.39653,2 0 -11.39653,2 0 -11.39653,2 0 -11.39653,2 0 -11.39653,2 0 -11.39653,2 0 -11.39653,2 0 -11.39653,2 0 -11.39653,2 0 -11.39653,2 0 -11.39653,2 0 -11.39653,11.910,
2 0 -10.34614,2 0 -10.34614,2 0 -10.34614,2 0 -10.34614,2 0 -10.34614,2 0 -10.34614,2 0 -10.34614,2 0 -10.34614,2 0 -10.34614,2 0 -10.34614,2 0 -10.34614,2 0 -10.34614,2 0 -10.34614,2 0 -10.34614,2 0 -10.34614,2 0 -10.34614,2 0 -10.34614,2 0 -10.34614,2 0 -10.34614,2 0 -10.34614,2 0 -10.34614,2 0 -11.39653,2 0 -11.39653,2 0 -11.39653,2 0 -11.39653,2 0 -11.39653,2 0 -11.39653,2 0 -11.39653,2 0 -11.39653,2 0 -11.39653,2 0 -11.39653,2 0 -11.39653,2 0 -11.39653,2 0 -11.39653,2 0 -11.39653,2 0 -11.39653,2 0 -11.39653,2 0 -11.39653,2 0 -11.39653,2 0 -11.39653,2 0 -11.39653,2 0 -11.39653,12.010,
2 0 -10.34614,2 0 -10.34614,2 0 -10.34614,2 0 -10.34614,2 0 -10.34614,2 0 -10.34614,2 0 -10.34614,2 0 -10.34614,2 0 -10.34614,2 0 -10.34614,2 0 -10.34614,2 0 -10.34614,2 0 -10.34614,2 0 -10.34614,2 0 -10.34614,2 0 -10.34614,2 0 -10.34614,2 0 -10.34614,2 0 -10.34614,2 0 -10.34614,2 0 -10.34614,2 0 -11.39653,2 0 -11.39653,2 0 -11.39653,2 0 -11.39653,2 0 -11.39653,2 0 -11.39653,2 0 -11.39653,2 0 -11.39653,2 0 -11.39653,2 0 -11.39653,2 0 -11.39653,2 0 -11.39653,2 0 -11.39653,2 0 -11.39653,2 0 -11.39653,2 0 -11.39653,2 0 -11.39653,2 0 -11.39653,2 0 -11.39653,2 0 -11.39653,2 0 -11.39653,12.110,
2 0 -10.34614,2 0 -10.34614,2 0 -10.34614,2 0 -10.34614,2 0 -10.34614,2 0 -10.34614,2 0 -10.34614,2 0 -10.34614,2 0 -10.34614,2 0 -10.34614,2 0 -10.34614,2 0 -10.34614,2 0 -10.34614,2 0 -10.34614,2 0 -10.34614,2 0 -10.34614,2 0 -10.34614,2 0 -10.34614,2 0 -10.34614,2 0 -10.34614,2 0 -10.34614,2 0 -11.39653,2 0 -11.39653,2 0 -11.39653,2 0 -11.39653,2 0 -11.39653,2 0 -11.39653,2 0 -11.39653,2 0 -11.39653,2 0 -11.39653,2 0 -11.39653,2 0 -11.39653,2 0 -11.39653,2 0 -11.39653,2 0 -11.39653,2 0 -11.39653,2 0 -11.39653,2 0 -11.39653,2 0 -11.39653,2 0 -11.39653,2 0 -11.39653,2 0 -11.39653,12.210,
2 0 -10.34614,2 0 -10.34614,2 0 -10.34614,2 0 -10.34614,2 0 -10.34614,2 0 -10.34614,2 0 -10.34614,2 0 -10.34614,2 0 -10.34614,2 0 -10.34614,2 0 -10.34614,2 0 -10.34614,2 0 -10.34614,2 0 -10.34614,2 0 -10.34614,2 0 -10.34614,2 0 -10.34614,2 0 -10.34614,2 0 -10.34614,2 0 -10.34614,2 0 -10.34614,2 0 -11.39653,2 0 -11.39653,2 0 -11.39653,2 0 -11.39653,2 0 -11.39653,2 0 -11.39653,2 0 -11.39653,2 0 -11.39653,2 0 -11.39653,2 0 -11.39653,2 0 -11.39653,2 0 -11.39653,2 0 -11.39653,2 0 -11.39653,2 0 -11.39653,2 0 -11.39653,2 0 -11.39653,2 0 -11.39653,2 0 -11.39653,2 0 -11.39653,2 0 -11.39653,12.310,
2 0 -10.34614,2 0 -10.34614,2 0 -10.34614,2 0 -10.34614,2 0 -10.34614,2 0 -10.34614,2 0 -10.34614,2 0 -10.34614,2 0 -10.34614,2 0 -10.34614,2 0 -10.34614,2 0 -10.34614,2 0 -10.34614,2 0 -10.34614,2 0 -10.34614,2 0 -10.34614,2 0 -10.34614,2 0 -10.34614,2 0 -10.34614,2 0 -10.34614,2 0 -10.34614,2 0 -11.39653,2 0 -11.39653,2 0 -11.39653,2 0 -11.39653,2 0 -11.39653,2 0 -11.39653,2 0 -11.39653,2 0 -11.39653,2 0 -11.39653,2 0 -11.39653,2 0 -11.39653,2 0 -11.39653,2 0 -11.39653,2 0 -11.39653,2 0 -11.39653,2 0 -11.39653,2 0 -11.39653,2 0 -11.39653,2 0 -11.39653,2 0 -11.39653,2 0 -11.39653,12.410,
1.182257 0 -9.496596,3.282751 0 -10.07224,0.03771162 0 -10.17875,-0.5959377 0 -10.25681,4.63178 0 -10.21742,5.954611 0 -10.17247,7.927618 0 -10.18827,-2.614552 0 -10.2253,-1.914686 0 -10.2411,2.616962 0 -9.912835,0.7103987 0 -10.06827,7.265081 0 -10.17695,-1.293166 0 -10.19085,6.600254 0 -10.19516,-3.235563 0 -10.23578,1.865838 0 -9.901429,-3.935562 0 -10.22973,3.964785 0 -10.15104,8.613588 0 -10.16798,5.295665 0 -10.16487,-4.602379 0 -10.23299,2 0 -11.39653,6.429914 0 -11.34779,5.970069 0 -11.89633,2.416877 0 -11.98293,14.8505 0 -11.47535,4.577551 0 -11.43412,3.27762 0 -11.83452,10.37804 0 -11.68139,9.750772 0 -11.36081,8.390622 0 -11.26275,5.268943 0 -11.31983,7.302705 0 -11.21871,11.68423 0 -11.5809,14.16019 0 -11.53496,13.53013 0 -11.22015,3.975876 0 -11.78247,12.3332 0 -11.26221,7.664016 0 -11.8462,9.076207 0 -11.4085,12.91105 0 -11.67075,11.00275 0 -11.41593,12.510,
2 0 -10.34614,2 0 -10.34614,2 0 -10.34614,2 0 -10.34614,2 0 -10.34614,2 0 -10.34614,2 0 -10.34614,2 0 -10.34614,2 0 -10.34614,2 0 -10.34614,2 0 -10.34614,2 0 -10.34614,2 0 -10.34614,2 0 -10.34614,2 0 -10.34614,2 0 -10.34614,2 0 -10.34614,2 0 -10.34614,2 0 -10.34614,2 0 -10.34614,2 0 -10.34614,2 0 -11.39653,2 0 -11.39653,2 0 -11.39653,2 0 -11.39653,2 0 -11.39653,2 0 -11.39653,2 0 -11.39653,2 0 -11.39653,2 0 -11.39653,2 0 -11.39653,2 0 -11.39653,2 0 -11.39653,2 0 -11.39653,2 0 -11.39653,2 0 -11.39653,2 0 -11.39653,2 0 -11.39653,2 0 -11.39653,2 0 -11.39653,2 0 -11.39653,2 0 -11.39653,12.610,
2 0 -10.34614,2 0 -10.34614,2 0 -10.34614,2 0 -10.34614,2 0 -10.34614,2 0 -10.34614,2 0 -10.34614,2 0 -10.34614,2 0 -10.34614,2 0 -10.34614,2 0 -10.34614,2 0 -10.34614,2 0 -10.34614,2 0 -10.34614,2 0 -10.34614,2 0 -10.34614,2 0 -10.34614,2 0 -10.34614,2 0 -10.34614,2 0 -10.34614,2 0 -10.34614,2 0 -11.39653,2 0 -11.39653,2 0 -11.39653,2 0 -11.39653,2 0 -11.39653,2 0 -11.39653,2 0 -11.39653,2 0 -11.39653,2 0 -11.39653,2 0 -11.39653,2 0 -11.39653,2 0 -11.39653,2 0 -11.39653,2 0 -11.39653,2 0 -11.39653,2 0 -11.39653,2 0 -11.39653,2 0 -11.39653,2 0 -11.39653,2 0 -11.39653,2 0 -11.39653,12.710,
2 0 -10.34614,2 0 -10.34614,2 0 -10.34614,2 0 -10.34614,2 0 -10.34614,2 0 -10.34614,2 0 -10.34614,2 0 -10.34614,2 0 -10.34614,2 0 -10.34614,2 0 -10.34614,2 0 -10.34614,2 0 -10.34614,2 0 -10.34614,2 0 -10.34614,2 0 -10.34614,2 0 -10.34614,2 0 -10.34614,2 0 -10.34614,2 0 -10.34614,2 0 -10.34614,2 0 -11.39653,2 0 -11.39653,2 0 -11.39653,2 0 -11.39653,2 0 -11.39653,2 0 -11.39653,2 0 -11.39653,2 0 -11.39653,2 0 -11.39653,2 0 -11.39653,2 0 -11.39653,2 0 -11.39653,2 0 -11.39653,2 0 -11.39653,2 0 -11.39653,2 0 -11.39653,2 0 -11.39653,2 0 -11.39653,2 0 -11.39653,2 0 -11.39653,2 0 -11.39653,12.810,
2 0 -10.34614,2 0 -10.34614,2 0 -10.34614,2 0 -10.34614,2 0 -10.34614,2 0 -10.34614,2 0 -10.34614,2 0 -10.34614,2 0 -10.34614,2 0 -10.34614,2 0 -10.34614,2 0 -10.34614,2 0 -10.34614,2 0 -10.34614,2 0 -10.34614,2 0 -10.34614,2 0 -10.34614,2 0 -10.34614,2 0 -10.34614,2 0 -10.34614,2 0 -10.34614,2 0 -11.39653,2 0 -11.39653,2 0 -11.39653,2 0 -11.39653,2 0 -11.39653,2 0 -11.39653,2 0 -11.39653,2 0 -11.39653,2 0 -11.39653,2 0 -11.39653,2 0 -11.39653,2 0 -11.39653,2 0 -11.39653,2 0 -11.39653,2 0 -11.39653,2 0 -11.39653,2 0 -11.39653,2 0 -11.39653,2 0 -11.39653,2 0 -11.39653,2 0 -11.39653,12.910,
2 0 -10.34614,2 0 -10.34614,2 0 -10.34614,2 0 -10.34614,2 0 -10.34614,2 0 -10.34614,2 0 -10.34614,2 0 -10.34614,2 0 -10.34614,2 0 -10.34614,2 0 -10.34614,2 0 -10.34614,2 0 -10.34614,2 0 -10.34614,2 0 -10.34614,2 0 -10.34614,2 0 -10.34614,2 0 -10.34614,2 0 -10.34614,2 0 -10.34614,2 0 -10.34614,2 0 -11.39653,2 0 -11.39653,2 0 -11.39653,2 0 -11.39653,2 0 -11.39653,2 0 -11.39653,2 0 -11.39653,2 0 -11.39653,2 0 -11.39653,2 0 -11.39653,2 0 -11.39653,2 0 -11.39653,2 0 -11.39653,2 0 -11.39653,2 0 -11.39653,2 0 -11.39653,2 0 -11.39653,2 0 -11.39653,2 0 -11.39653,2 0 -11.39653,2 0 -11.39653,13.010,
2 0 -10.34614,2 0 -10.34614,2 0 -10.34614,2 0 -10.34614,2 0 -10.34614,2 0 -10.34614,2 0 -10.34614,2 0 -10.34614,2 0 -10.34614,2 0 -10.34614,2 0 -10.34614,2 0 -10.34614,2 0 -10.34614,2 0 -10.34614,2 0 -10.34614,2 0 -10.34614,2 0 -10.34614,2 0 -10.34614,2 0 -10.34614,2 0 -10.34614,2 0 -10.34614,2 0 -11.39653,2 0 -11.39653,2 0 -11.39653,2 0 -11.39653,2 0 -11.39653,2 0 -11.39653,2 0 -11.39653,2 0 -11.39653,2 0 -11.39653,2 0 -11.39653,2 0 -11.39653,2 0 -11.39653,2 0 -11.39653,2 0 -11.39653,2 0 -11.39653,2 0 -11.39653,2 0 -11.39653,2 0 -11.39653,2 0 -11.39653,2 0 -11.39653,2 0 -11.39653,13.110,
2 0 -10.34614,2 0 -10.34614,2 0 -10.34614,2 0 -10.34614,2 0 -10.34614,2 0 -10.34614,2 0 -10.34614,2 0 -10.34614,2 0 -10.34614,2 0 -10.34614,2 0 -10.34614,2 0 -10.34614,2 0 -10.34614,2 0 -10.34614,2 0 -10.34614,2 0 -10.34614,2 0 -10.34614,2 0 -10.34614,2 0 -10.34614,2 0 -10.34614,2 0 -10.34614,2 0 -11.39653,2 0 -11.39653,2 0 -11.39653,2 0 -11.39653,2 0 -11.39653,2 0 -11.39653,2 0 -11.39653,2 0 -11.39653,2 0 -11.39653,2 0 -11.39653,2 0 -11.39653,2 0 -11.39653,2 0 -11.39653,2 0 -11.39653,2 0 -11.39653,2 0 -11.39653,2 0 -11.39653,2 0 -11.39653,2 0 -11.39653,2 0 -11.39653,2 0 -11.39653,13.210,
2 0 -10.34614,2 0 -10.34614,2 0 -10.34614,2 0 -10.34614,2 0 -10.34614,2 0 -10.34614,2 0 -10.34614,2 0 -10.34614,2 0 -10.34614,2 0 -10.34614,2 0 -10.34614,2 0 -10.34614,2 0 -10.34614,2 0 -10.34614,2 0 -10.34614,2 0 -10.34614,2 0 -10.34614,2 0 -10.34614,2 0 -10.34614,2 0 -10.34614,2 0 -10.34614,2 0 -11.39653,2 0 -11.39653,2 0 -11.39653,2 0 -11.39653,2 0 -11.39653,2 0 -11.39653,2 0 -11.39653,2 0 -11.39653,2 0 -11.39653,2 0 -11.39653,2 0 -11.39653,2 0 -11.39653,2 0 -11.39653,2 0 -11.39653,2 0 -11.39653,2 0 -11.39653,2 0 -11.39653,2 0 -11.39653,2 0 -11.39653,2 0 -11.39653,2 0 -11.39653,13.310,
2 0 -10.34614,2 0 -10.34614,2 0 -10.34614,2 0 -10.34614,2 0 -10.34614,2 0 -10.34614,2 0 -10.34614,2 0 -10.34614,2 0 -10.34614,2 0 -10.34614,2 0 -10.34614,2 0 -10.34614,2 0 -10.34614,2 0 -10.34614,2 0 -10.34614,2 0 -10.34614,2 0 -10.34614,2 0 -10.34614,2 0 -10.34614,2 0 -10.34614,2 0 -10.34614,-6.971331 -10.18115 -5.560681,-6.97001 -9.035751 -5.78712,-6.774704 -8.129637 -5.687526,-6.59084 -7.299123 -5.572237,-6.52244 -6.573106 -5.400993,-6.104152 -8.347582 -5.234046,-5.367306 -8.043013 -5.142443,-4.925422 -7.901207 -5.18458,-4.612244 -7.820533 -5.240216,-5.940857 -8.956808 -5.092461,-5.132353 -8.61002 -4.934244,-4.645531 -8.412884 -4.990038,-4.29003 -8.293653 -5.057786,-5.84319 -9.609789 -5.021349,-5.086715 -9.330889 -4.918694,-4.617599 -9.126537 -5.000741,-4.275787 -8.973772 -5.064461,-5.79904 -10.24245 -4.985849,-5.153712 -9.95863 -4.977002,-4.809534 -9.78882 -5.021886,-4.499706 -9.629696 -5.05634,13.410,
2 0 -10.34614,2 0 -10.34614,2 0 -10.34614,2 0 -10.34614,2 0 -10.34614,2 0 -10.34614,2 0 -10.34614,2 0 -10.34614,2 0 -10.34614,2 0 -10.34614,2 0 -10.34614,2 0 -10.34614,2 0 -10.34614,2 0 -10.34614,2 0 -10.34614,2 0 -10.34614,2 0 -10.34614,2 0 -10.34614,2 0 -10.34614,2 0 -10.34614,2 0 -10.34614,-7.043557 -10.20286 -5.756032,-7.057739 -9.121613 -5.98391,-6.88655 -8.215738 -5.848929,-6.749362 -7.334171 -5.675996,-6.698421 -6.559452 -5.439619,-6.290394 -8.412342 -5.446633,-5.662664 -8.092443 -5.291871,-5.261768 -7.891424 -5.296292,-4.983799 -7.733371 -5.339786,-6.111416 -8.979187 -5.275002,-5.39164 -8.605289 -5.069671,-4.930745 -8.366434 -5.10668,-4.585678 -8.195036 -5.170548,-5.984694 -9.600935 -5.16753,-5.29319 -9.305479 -5.025651,-4.826113 -9.128094 -5.07008,-4.473504 -8.979927 -5.118669,-5.925649 -10.21601 -5.099009,-5.331488 -9.932838 -5.060462,-4.99009 -9.77948 -5.085704,-4.68902 -9.658506 -5.112106,13.510,
2 0 -10.34614,2 0 -10.34614,2 0 -10.34614,2 0 -10.34614,2 0 -10.34614,2 0 -10.34614,2 0 -10.34614,2 0 -10.34614,2 0 -10.34614,2 0 -10.34614,2 0 -10.34614,2 0 -10.34614,2 0 -10.34614,2 0 -10.34614,2 0 -10.34614,2 0 -10.34614,2 0 -10.34614,2 0 -10.34614,2 0 -10.34614,2 0 -10.34614,2 0 -10.34614,-7.043557 -10.20286 -5.756032,-7.057739 -9.121613 -5.98391,-6.88655 -8.215738 -5.848929,-6.749362 -7.334171 -5.675996,-6.698421 -6.559452 -5.439619,-6.290394 -8.412342 -5.446633,-5.662664 -8.092443 -5.291871,-5.261768 -7.891424 -5.296292,-4.983799 -7.733371 -5.339786,-6.111416 -8.979187 -5.275002,-5.39164 -8.605289 -5.069671,-4.930745 -8.366434 -5.10668,-4.585678 -8.195036 -5.170548,-5.984694 -9.600935 -5.16753,-5.29319 -9.305479 -5.025651,-4.826113 -9.128094 -5.07008,-4.473504 -8.979927 -5.118669,-5.925649 -10.21601 -5.099009,-5.331488 -9.932838 -5.060462,-4.99009 -9.77948 -5.085704,-4.68902 -9.658506 -5.112106,13.610,
2 0 -10.34614,2 0 -10.34614,2 0 -10.34614,2 0 -10.34614,2 0 -10.34614,2 0 -10.34614,2 0 -10.34614,2 0 -10.34614,2 0 -10.34614,2 0 -10.34614,2 0 -10.34614,2 0 -10.34614,2 0 -10.34614,2 0 -10.34614,2 0 -10.34614,2 0 -10.34614,2 0 -10.34614,2 0 -10.34614,2 0 -10.34614,2 0 -10.34614,2 0 -10.34614,-7.403388 -10.87736 -5.084585,-7.422193 -9.816383 -5.117053,-7.253561 -8.787739 -4.87485,-7.151248 -7.855327 -4.647164,-7.183462 -7.015792 -4.328909,-6.798201 -9.000296 -4.30441,-6.173978 -8.588491 -4.017406,-5.804184 -8.304188 -3.929334,-5.516954 -8.04767 -3.87688,-6.588118 -9.528366 -4.208297,-5.905689 -8.950146 -3.928807,-5.490966 -8.60766 -3.903698,-5.179546 -8.36203 -3.894282,-6.434221 -10.12891 -4.176087,-5.76629 -9.647455 -3.950752,-5.354525 -9.374662 -3.930332,-5.031914 -9.138628 -3.921047,-6.369576 -10.75661 -4.16954,-5.760265 -10.43233 -4.028095,-5.440903 -10.27097 -3.98385,-5.17368 -10.15093 -3.95413,13.710,
2 0 -10.34614,2 0 -10.34614,2 0 -10.34614,2 0 -10.34614,2 0 -10.34614,2 0 -10.34614,2 0 -10.34614,2 0 -10.34614,2 0 -10.34614,2 0 -10.34614,2 0 -10.34614,2 0 -10.34614,2 0 -10.34614,2 0 -10.34614,2 0 -10.34614,2 0 -10.34614,2 0 -10.34614,2 0 -10.34614,2 0 -10.34614,2 0 -10.34614,2 0 -10.34614,-7.51155 -10.84484 -4.686164,-7.619698 -9.782793 -4.773083,-7.486838 -8.792805 -4.540003,-7.380926 -7.89508 -4.316872,-7.378727 -7.116514 -4.030745,-6.872456 -8.846571 -3.934614,-6.184117 -8.169125 -3.566559,-5.745882 -7.791706 -3.39598,-5.368427 -7.57342 -3.293161,-6.673415 -9.388948 -3.762009,-5.899036 -8.643408 -3.269506,-5.393028 -8.179804 -3.088971,-4.965855 -7.843755 -2.9648,-6.531126 -10.00858 -3.6582,-5.80074 -9.428293 -3.270114,-5.333006 -9.033592 -3.172252,-4.95372 -8.707199 -3.101756,-6.452165 -10.64752 -3.614123,-5.81629 -10.21969 -3.352143,-5.458839 -9.951111 -3.281926,-5.128277 -9.687347 -3.212579,13.810,
2 0 -10.34614,2 0 -10.34614,2 0 -10.34614,2 0 -10.34614,2 0 -10.34614,2 0 -10.34614,2 0 -10.34614,2 0 -10.34614,2 0 -10.34614,2 0 -10.34614,2 0 -10.34614,2 0 -10.34614,2 0 -10.34614,2 0 -10.34614,2 0 -10.34614,2 0 -10.34614,2 0 -10.34614,2 0 -10.34614,2 0 -10.34614,2 0 -10.34614,2 0 -10.34614,-7.503754 -10.73518 -4.668914,-7.582872 -9.715776 -4.703069,-7.446057 -8.742405 -4.443868,-7.350389 -7.876517 -4.205946,-7.362462 -7.137222 -3.906909,-6.832729 -8.841978 -3.752269,-6.133866 -8.193592 -3.320834,-5.679914 -7.810041 -3.118655,-5.296928 -7.580684 -3.00568,-6.645663 -9.393948 -3.59192,-5.864122 -8.674538 -3.063819,-5.352394 -8.230284 -2.867574,-4.911067 -7.929633 -2.745487,-6.52063 -10.02549 -3.505765,-5.769806 -9.476151 -3.077262,-5.2834 -9.123709 -2.963284,-4.881649 -8.844238 -2.899587,-6.463505 -10.6657 -3.468859,-5.817086 -10.26663 -3.175967,-5.441733 -10.01158 -3.084785,-5.093349 -9.782204 -3.022761,13.910,
2 0 -10.34614,2 0 -10.34614,2 0 -10.34614,2 0 -10.34614,2 0 -10.34614,2 0 -10.34614,2 0 -10.34614,2 0 -10.34614,2 0 -10.34614,2 0 -10.34614,2 0 -10.34614,2 0 -10.34614,2 0 -10.34614,2 0 -10.34614,2 0 -10.34614,2 0 -10.34614,2 0 -10.34614,2 0 -10.34614,2 0 -10.34614,2 0 -10.34614,2 0 -10.34614,-7.503754 -10.73518 -4.668914,-7.582872 -9.715776 -4.703069,-7.446057 -8.742405 -4.443868,-7.350389 -7.876517 -4.205946,-7.362462 -7.137222 -3.906909,-6.832729 -8.841978 -3.752269,-6.133866 -8.193592 -3.320834,-5.679914 -7.810041 -3.118655,-5.296928 -7.580684 -3.00568,-6.645663 -9.393948 -3.59192,-5.864122 -8.674538 -3.063819,-5.352394 -8.230284 -2.867574,-4.911067 -7.929633 -2.745487,-6.52063 -10.02549 -3.505765,-5.769806 -9.476151 -3.077262,-5.2834 -9.123709 -2.963284,-4.881649 -8.844238 -2.899587,-6.463505 -10.6657 -3.468859,-5.817086 -10.26663 -3.175967,-5.441733 -10.01158 -3.084785,-5.093349 -9.782204 -3.022761,14.010,
2 0 -10.34614,2 0 -10.34614,2 0 -10.34614,2 0 -10.34614,2 0 -10.34614,2 0 -10.34614,2 0 -10.34614,2 0 -10.34614,2 0 -10.34614,2 0 -10.34614,2 0 -10.34614,2 0 -10.34614,2 0 -10.34614,2 0 -10.34614,2 0 -10.34614,2 0 -10.34614,2 0 -10.34614,2 0 -10.34614,2 0 -10.34614,2 0 -10.34614,2 0 -10.34614,-7.503754 -10.73518 -4.668914,-7.582872 -9.715776 -4.703069,-7.446057 -8.742405 -4.443868,-7.350389 -7.876517 -4.205946,-7.362462 -7.137222 -3.906909,-6.832729 -8.841978 -3.752269,-6.133866 -8.193592 -3.320834,-5.679914 -7.810041 -3.118655,-5.296928 -7.580684 -3.00568,-6.645663 -9.393948 -3.59192,-5.864122 -8.674538 -3.063819,-5.352394 -8.230284 -2.867574,-4.911067 -7.929633 -2.745487,-6.52063 -10.02549 -3.505765,-5.769806 -9.476151 -3.077262,-5.2834 -9.123709 -2.963284,-4.881649 -8.844238 -2.899587,-6.463505 -10.6657 -3.468859,-5.817086 -10.26663 -3.175967,-5.441733 -10.01158 -3.084785,-5.093349 -9.782204 -3.022761,14.110,
2 0 -10.34614,2 0 -10.34614,2 0 -10.34614,2 0 -10.34614,2 0 -10.34614,2 0 -10.34614,2 0 -10.34614,2 0 -10.34614,2 0 -10.34614,2 0 -10.34614,2 0 -10.34614,2 0 -10.34614,2 0 -10.34614,2 0 -10.34614,2 0 -10.34614,2 0 -10.34614,2 0 -10.34614,2 0 -10.34614,2 0 -10.34614,2 0 -10.34614,2 0 -10.34614,-7.503754 -10.73518 -4.668914,-7.582872 -9.715776 -4.703069,-7.446057 -8.742405 -4.443868,-7.350389 -7.876517 -4.205946,-7.362462 -7.137222 -3.906909,-6.832729 -8.841978 -3.752269,-6.133866 -8.193592 -3.320834,-5.679914 -7.810041 -3.118655,-5.296928 -7.580684 -3.00568,-6.645663 -9.393948 -3.59192,-5.864122 -8.674538 -3.063819,-5.352394 -8.230284 -2.867574,-4.911067 -7.929633 -2.745487,-6.52063 -10.02549 -3.505765,-5.769806 -9.476151 -3.077262,-5.2834 -9.123709 -2.963284,-4.881649 -8.844238 -2.899587,-6.463505 -10.6657 -3.468859,-5.817086 -10.26663 -3.175967,-5.441733 -10.01158 -3.084785,-5.093349 -9.782204 -3.022761,14.210,
2 0 -10.34614,2 0 -10.34614,2 0 -10.34614,2 0 -10.34614,2 0 -10.34614,2 0 -10.34614,2 0 -10.34614,2 0 -10.34614,2 0 -10.34614,2 0 -10.34614,2 0 -10.34614,2 0 -10.34614,2 0 -10.34614,2 0 -10.34614,2 0 -10.34614,2 0 -10.34614,2 0 -10.34614,2 0 -10.34614,2 0 -10.34614,2 0 -10.34614,2 0 -10.34614,-7.503754 -10.73518 -4.668914,-7.582872 -9.715776 -4.703069,-7.446057 -8.742405 -4.443868,-7.350389 -7.876517 -4.205946,-7.362462 -7.137222 -3.906909,-6.832729 -8.841978 -3.752269,-6.133866 -8.193592 -3.320834,-5.679914 -7.810041 -3.118655,-5.296928 -7.580684 -3.00568,-6.645663 -9.393948 -3.59192,-5.864122 -8.674538 -3.063819,-5.352394 -8.230284 -2.867574,-4.911067 -7.929633 -2.745487,-6.52063 -10.02549 -3.505765,-5.769806 -9.476151 -3.077262,-5.2834 -9.123709 -2.963284,-4.881649 -8.844238 -2.899587,-6.463505 -10.6657 -3.468859,-5.817086 -10.26663 -3.175967,-5.441733 -10.01158 -3.084785,-5.093349 -9.782204 -3.022761,14.310,
2 0 -10.34614,2 0 -10.34614,2 0 -10.34614,2 0 -10.34614,2 0 -10.34614,2 0 -10.34614,2 0 -10.34614,2 0 -10.34614,2 0 -10.34614,2 0 -10.34614,2 0 -10.34614,2 0 -10.34614,2 0 -10.34614,2 0 -10.34614,2 0 -10.34614,2 0 -10.34614,2 0 -10.34614,2 0 -10.34614,2 0 -10.34614,2 0 -10.34614,2 0 -10.34614,-7.503754 -10.73518 -4.668914,-7.582872 -9.715776 -4.703069,-7.446057 -8.742405 -4.443868,-7.350389 -7.876517 -4.205946,-7.362462 -7.137222 -3.906909,-6.832729 -8.841978 -3.752269,-6.133866 -8.193592 -3.320834,-5.679914 -7.810041 -3.118655,-5.296928 -7.580684 -3.00568,-6.645663 -9.393948 -3.59192,-5.864122 -8.674538 -3.063819,-5.352394 -8.230284 -2.867574,-4.911067 -7.929633 -2.745487,-6.52063 -10.02549 -3.505765,-5.769806 -9.476151 -3.077262,-5.2834 -9.123709 -2.963284,-4.881649 -8.844238 -2.899587,-6.463505 -10.6657 -3.468859,-5.817086 -10.26663 -3.175967,-5.441733 -10.01158 -3.084785,-5.093349 -9.782204 -3.022761,14.410,
2 0 -10.34614,2 0 -10.34614,2 0 -10.34614,2 0 -10.34614,2 0 -10.34614,2 0 -10.34614,2 0 -10.34614,2 0 -10.34614,2 0 -10.34614,2 0 -10.34614,2 0 -10.34614,2 0 -10.34614,2 0 -10.34614,2 0 -10.34614,2 0 -10.34614,2 0 -10.34614,2 0 -10.34614,2 0 -10.34614,2 0 -10.34614,2 0 -10.34614,2 0 -10.34614,-7.503754 -10.73518 -4.668914,-7.582872 -9.715776 -4.703069,-7.446057 -8.742405 -4.443868,-7.350389 -7.876517 -4.205946,-7.362462 -7.137222 -3.906909,-6.832729 -8.841978 -3.752269,-6.133866 -8.193592 -3.320834,-5.679914 -7.810041 -3.118655,-5.296928 -7.580684 -3.00568,-6.645663 -9.393948 -3.59192,-5.864122 -8.674538 -3.063819,-5.352394 -8.230284 -2.867574,-4.911067 -7.929633 -2.745487,-6.52063 -10.02549 -3.505765,-5.769806 -9.476151 -3.077262,-5.2834 -9.123709 -2.963284,-4.881649 -8.844238 -2.899587,-6.463505 -10.6657 -3.468859,-5.817086 -10.26663 -3.175967,-5.441733 -10.01158 -3.084785,-5.093349 -9.782204 -3.022761,14.510,
2 0 -10.34614,2 0 -10.34614,2 0 -10.34614,2 0 -10.34614,2 0 -10.34614,2 0 -10.34614,2 0 -10.34614,2 0 -10.34614,2 0 -10.34614,2 0 -10.34614,2 0 -10.34614,2 0 -10.34614,2 0 -10.34614,2 0 -10.34614,2 0 -10.34614,2 0 -10.34614,2 0 -10.34614,2 0 -10.34614,2 0 -10.34614,2 0 -10.34614,2 0 -10.34614,-7.503754 -10.73518 -4.668914,-7.582872 -9.715776 -4.703069,-7.446057 -8.742405 -4.443868,-7.350389 -7.876517 -4.205946,-7.362462 -7.137222 -3.906909,-6.832729 -8.841978 -3.752269,-6.133866 -8.193592 -3.320834,-5.679914 -7.810041 -3.118655,-5.296928 -7.580684 -3.00568,-6.645663 -9.393948 -3.59192,-5.864122 -8.674538 -3.063819,-5.352394 -8.230284 -2.867574,-4.911067 -7.929633 -2.745487,-6.52063 -10.02549 -3.505765,-5.769806 -9.476151 -3.077262,-5.2834 -9.123709 -2.963284,-4.881649 -8.844238 -2.899587,-6.463505 -10.6657 -3.468859,-5.817086 -10.26663 -3.175967,-5.441733 -10.01158 -3.084785,-5.093349 -9.782204 -3.022761,14.610,
2 0 -10.34614,2 0 -10.34614,2 0 -10.34614,2 0 -10.34614,2 0 -10.34614,2 0 -10.34614,2 0 -10.34614,2 0 -10.34614,2 0 -10.34614,2 0 -10.34614,2 0 -10.34614,2 0 -10.34614,2 0 -10.34614,2 0 -10.34614,2 0 -10.34614,2 0 -10.34614,2 0 -10.34614,2 0 -10.34614,2 0 -10.34614,2 0 -10.34614,2 0 -10.34614,-7.503754 -10.73518 -4.668914,-7.582872 -9.715776 -4.703069,-7.446057 -8.742405 -4.443868,-7.350389 -7.876517 -4.205946,-7.362462 -7.137222 -3.906909,-6.832729 -8.841978 -3.752269,-6.133866 -8.193592 -3.320834,-5.679914 -7.810041 -3.118655,-5.296928 -7.580684 -3.00568,-6.645663 -9.393948 -3.59192,-5.864122 -8.674538 -3.063819,-5.352394 -8.230284 -2.867574,-4.911067 -7.929633 -2.745487,-6.52063 -10.02549 -3.505765,-5.769806 -9.476151 -3.077262,-5.2834 -9.123709 -2.963284,-4.881649 -8.844238 -2.899587,-6.463505 -10.6657 -3.468859,-5.817086 -10.26663 -3.175967,-5.441733 -10.01158 -3.084785,-5.093349 -9.782204 -3.022761,14.710,
2 0 -10.34614,2 0 -10.34614,2 0 -10.34614,2 0 -10.34614,2 0 -10.34614,2 0 -10.34614,2 0 -10.34614,2 0 -10.34614,2 0 -10.34614,2 0 -10.34614,2 0 -10.34614,2 0 -10.34614,2 0 -10.34614,2 0 -10.34614,2 0 -10.34614,2 0 -10.34614,2 0 -10.34614,2 0 -10.34614,2 0 -10.34614,2 0 -10.34614,2 0 -10.34614,-7.503754 -10.73518 -4.668914,-7.582872 -9.715776 -4.703069,-7.446057 -8.742405 -4.443868,-7.350389 -7.876517 -4.205946,-7.362462 -7.137222 -3.906909,-6.832729 -8.841978 -3.752269,-6.133866 -8.193592 -3.320834,-5.679914 -7.810041 -3.118655,-5.296928 -7.580684 -3.00568,-6.645663 -9.393948 -3.59192,-5.864122 -8.674538 -3.063819,-5.352394 -8.230284 -2.867574,-4.911067 -7.929633 -2.745487,-6.52063 -10.02549 -3.505765,-5.769806 -9.476151 -3.077262,-5.2834 -9.123709 -2.963284,-4.881649 -8.844238 -2.899587,-6.463505 -10.6657 -3.468859,-5.817086 -10.26663 -3.175967,-5.441733 -10.01158 -3.084785,-5.093349 -9.782204 -3.022761,14.810,
2 0 -10.34614,2 0 -10.34614,2 0 -10.34614,2 0 -10.34614,2 0 -10.34614,2 0 -10.34614,2 0 -10.34614,2 0 -10.34614,2 0 -10.34614,2 0 -10.34614,2 0 -10.34614,2 0 -10.34614,2 0 -10.34614,2 0 -10.34614,2 0 -10.34614,2 0 -10.34614,2 0 -10.34614,2 0 -10.34614,2 0 -10.34614,2 0 -10.34614,2 0 -10.34614,-7.415252 -11.46688 -2.986145,-7.449922 -10.33841 -3.568081,-7.232977 -9.453672 -3.52823,-6.923494 -8.877144 -3.362106,-6.611901 -8.458576 -3.10128,-7.413326 -8.85865 -2.665745,-6.684409 -7.916675 -2.499539,-6.165556 -7.542422 -2.52292,-5.773128 -7.368276 -2.592617,-7.340927 -9.177231 -2.260802,-6.481561 -8.139652 -1.956294,-5.930223 -7.730209 -1.963247,-5.528452 -7.520681 -1.996965,-7.157563 -9.645914 -1.953741,-6.335745 -8.629448 -1.732121,-5.826001 -8.198109 -1.78535,-5.489357 -7.952318 -1.841301,-6.894778 -10.18219 -1.708204,-6.249336 -9.345781 -1.579507,-5.86206 -8.983126 -1.585382,-5.566189 -8.700901 -1.610087,14.910,
2 0 -10.34614,2 0 -10.34614,2 0 -10.34614,2 0 -10.34614,2 0 -10.34614,2 0 -10.34614,2 0 -10.34614,2 0 -10.34614,2 0 -10.34614,2 0 -10.34614,2 0 -10.34614,2 0 -10.34614,2 0 -10.34614,2 0 -10.34614,2 0 -10.34614,2 0 -10.34614,2 0 -10.34614,2 0 -10.34614,2 0 -10.34614,2 0 -10.34614,2 0 -10.34614,-7.415252 -11.46688 -2.986145,-7.449922 -10.33841 -3.568081,-7.232977 -9.453672 -3.52823,-6.923494 -8.877144 -3.362106,-6.611901 -8.458576 -3.10128,-7.413326 -8.85865 -2.665745,-6.684409 -7.916675 -2.499539,-6.165556 -7.542422 -2.52292,-5.773128 -7.368276 -2.592617,-7.340927 -9.177231 -2.260802,-6.481561 -8.139652 -1.956294,-5.930223 -7.730209 -1.963247,-5.528452 -7.520681 -1.996965,-7.157563 -9.645914 -1.953741,-6.335745 -8.629448 -1.732121,-5.826001 -8.198109 -1.78535,-5.489357 -7.952318 -1.841301,-6.894778 -10.18219 -1.708204,-6.249336 -9.345781 -1.579507,-5.86206 -8.983126 -1.585382,-5.566189 -8.700901 -1.610087,15.010,
2 0 -10.34614,2 0 -10.34614,2 0 -10.34614,2 0 -10.34614,2 0 -10.34614,2 0 -10.34614,2 0 -10.34614,2 0 -10.34614,2 0 -10.34614,2 0 -10.34614,2 0 -10.34614,2 0 -10.34614,2 0 -10.34614,2 0 -10.34614,2 0 -10.34614,2 0 -10.34614,2 0 -10.34614,2 0 -10.34614,2 0 -10.34614,2 0 -10.34614,2 0 -10.34614,-7.415252 -11.46688 -2.986145,-7.449922 -10.33841 -3.568081,-7.232977 -9.453672 -3.52823,-6.923494 -8.877144 -3.362106,-6.611901 -8.458576 -3.10128,-7.413326 -8.85865 -2.665745,-6.684409 -7.916675 -2.499539,-6.165556 -7.542422 -2.52292,-5.773128 -7.368276 -2.592617,-7.340927 -9.177231 -2.260802,-6.481561 -8.139652 -1.956294,-5.930223 -7.730209 -1.963247,-5.528452 -7.520681 -1.996965,-7.157563 -9.645914 -1.953741,-6.335745 -8.629448 -1.732121,-5.826001 -8.198109 -1.78535,-5.489357 -7.952318 -1.841301,-6.894778 -10.18219 -1.708204,-6.249336 -9.345781 -1.579507,-5.86206 -8.983126 -1.585382,-5.566189 -8.700901 -1.610087,15.110,
2 0 -10.34614,2 0 -10.34614,2 0 -10.34614,2 0 -10.34614,2 0 -10.34614,2 0 -10.34614,2 0 -10.34614,2 0 -10.34614,2 0 -10.34614,2 0 -10.34614,2 0 -10.34614,2 0 -10.34614,2 0 -10.34614,2 0 -10.34614,2 0 -10.34614,2 0 -10.34614,2 0 -10.34614,2 0 -10.34614,2 0 -10.34614,2 0 -10.34614,2 0 -10.34614,-7.415252 -11.46688 -2.986145,-7.449922 -10.33841 -3.568081,-7.232977 -9.453672 -3.52823,-6.923494 -8.877144 -3.362106,-6.611901 -8.458576 -3.10128,-7.413326 -8.85865 -2.665745,-6.684409 -7.916675 -2.499539,-6.165556 -7.542422 -2.52292,-5.773128 -7.368276 -2.592617,-7.340927 -9.177231 -2.260802,-6.481561 -8.139652 -1.956294,-5.930223 -7.730209 -1.963247,-5.528452 -7.520681 -1.996965,-7.157563 -9.645914 -1.953741,-6.335745 -8.629448 -1.732121,-5.826001 -8.198109 -1.78535,-5.489357 -7.952318 -1.841301,-6.894778 -10.18219 -1.708204,-6.249336 -9.345781 -1.579507,-5.86206 -8.983126 -1.585382,-5.566189 -8.700901 -1.610087,15.210,
2 0 -10.34614,2 0 -10.34614,2 0 -10.34614,2 0 -10.34614,2 0 -10.34614,2 0 -10.34614,2 0 -10.34614,2 0 -10.34614,2 0 -10.34614,2 0 -10.34614,2 0 -10.34614,2 0 -10.34614,2 0 -10.34614,2 0 -10.34614,2 0 -10.34614,2 0 -10.34614,2 0 -10.34614,2 0 -10.34614,2 0 -10.34614,2 0 -10.34614,2 0 -10.34614,-7.415252 -11.46688 -2.986145,-7.449922 -10.33841 -3.568081,-7.232977 -9.453672 -3.52823,-6.923494 -8.877144 -3.362106,-6.611901 -8.458576 -3.10128,-7.413326 -8.85865 -2.665745,-6.684409 -7.916675 -2.499539,-6.165556 -7.542422 -2.52292,-5.773128 -7.368276 -2.592617,-7.340927 -9.177231 -2.260802,-6.481561 -8.139652 -1.956294,-5.930223 -7.730209 -1.963247,-5.528452 -7.520681 -1.996965,-7.157563 -9.645914 -1.953741,-6.335745 -8.629448 -1.732121,-5.826001 -8.198109 -1.78535,-5.489357 -7.952318 -1.841301,-6.894778 -10.18219 -1.708204,-6.249336 -9.345781 -1.579507,-5.86206 -8.983126 -1.585382,-5.566189 -8.700901 -1.610087,15.310,
2 0 -10.34614,2 0 -10.34614,2 0 -10.34614,2 0 -10.34614,2 0 -10.34614,2 0 -10.34614,2 0 -10.34614,2 0 -10.34614,2 0 -10.34614,2 0 -10.34614,2 0 -10.34614,2 0 -10.34614,2 0 -10.34614,2 0 -10.34614,2 0 -10.34614,2 0 -10.34614,2 0 -10.34614,2 0 -10.34614,2 0 -10.34614,2 0 -10.34614,2 0 -10.34614,-7.415252 -11.46688 -2.986145,-7.449922 -10.33841 -3.568081,-7.232977 -9.453672 -3.52823,-6.923494 -8.877144 -3.362106,-6.611901 -8.458576 -3.10128,-7.413326 -8.85865 -2.665745,-6.684409 -7.916675 -2.499539,-6.165556 -7.542422 -2.52292,-5.773128 -7.368276 -2.592617,-7.340927 -9.177231 -2.260802,-6.481561 -8.139652 -1.956294,-5.930223 -7.730209 -1.963247,-5.528452 -7.520681 -1.996965,-7.157563 -9.645914 -1.953741,-6.335745 -8.629448 -1.732121,-5.826001 -8.198109 -1.78535,-5.489357 -7.952318 -1.841301,-6.894778 -10.18219 -1.708204,-6.249336 -9.345781 -1.579507,-5.86206 -8.983126 -1.585382,-5.566189 -8.700901 -1.610087,15.410,
