TiagoOliveira98/HandTracking/DataLogging/JointData/Logs(1642688099)_BOT_Calculator.csv
WRIST,THUMB_CMC,THUMB_MCP,THUMB_IP,THUMB_TIP,INDEX_FINGER_MCP,INDEX_FINGER_PIP,INDEX_FINGER_DIP,INDEX_FINGER_TIP,MIDDLE_FINGER_MCP,MIDDLE_FINGER_PIP,MIDDLE_FINGER_DIP,MIDDLE_FINGER_TIP,RING_FINGER_MCP,RING_FINGER_PIP,RING_FINGER_DIP,RING_FINGER_TIP,PINKY_MCP,PINKY_PIP,PINKY_DIP,PINKY_TIP,WRIST2,THUMB_CMC2,THUMB_MCP2,THUMB_IP2,THUMB_TIP2,INDEX_FINGER_MCP2,INDEX_FINGER_PIP2,INDEX_FINGER_DIP2,INDEX_FINGER_TIP2,MIDDLE_FINGER_MCP2,MIDDLE_FINGER_PIP2,MIDDLE_FINGER_DIP2,MIDDLE_FINGER_TIP2,RING_FINGER_MCP2,RING_FINGER_PIP2,RING_FINGER_DIP2,RING_FINGER_TIP2,PINKY_MCP2,PINKY_PIP2,PINKY_DIP2,PINKY_TIP2,Timestamp,Event
10 0 0,10 7.47 0,10 7.47 0,10 7.47 0,10 7.47 0,10 7.47 0,10 7.47 0,10 7.47 0,10 7.47 0,10 7.47 0,10 7.47 0,10 7.47 0,10 7.47 0,10 7.47 0,10 7.47 0,10 7.47 0,10 7.47 0,10 7.47 0,10 7.47 0,10 7.47 0,10 7.47 0,10 0 0,10 7.47 0,10 7.47 0,10 7.47 0,10 7.47 0,10 7.47 0,10 7.47 0,10 7.47 0,10 7.47 0,10 7.47 0,10 7.47 0,10 7.47 0,10 7.47 0,10 7.47 0,10 7.47 0,10 7.47 0,10 7.47 0,10 7.47 0,10 7.47 0,10 7.47 0,10 7.47 0,0.010,
2 0 -10.8706,2 0 -10.8706,2 0 -10.8706,2 0 -10.8706,2 0 -10.8706,2 0 -10.8706,2 0 -10.8706,2 0 -10.8706,2 0 -10.8706,2 0 -10.8706,2 0 -10.8706,2 0 -10.8706,2 0 -10.8706,2 0 -10.8706,2 0 -10.8706,2 0 -10.8706,2 0 -10.8706,2 0 -10.8706,2 0 -10.8706,2 0 -10.8706,2 0 -10.8706,2 0 -9.275845,2 0 -9.275845,2 0 -9.275845,2 0 -9.275845,2 0 -9.275845,2 0 -9.275845,2 0 -9.275845,2 0 -9.275845,2 0 -9.275845,2 0 -9.275845,2 0 -9.275845,2 0 -9.275845,2 0 -9.275845,2 0 -9.275845,2 0 -9.275845,2 0 -9.275845,2 0 -9.275845,2 0 -9.275845,2 0 -9.275845,2 0 -9.275845,2 0 -9.275845,0.110,
2 0 -10.8706,2 0 -10.8706,2 0 -10.8706,2 0 -10.8706,2 0 -10.8706,2 0 -10.8706,2 0 -10.8706,2 0 -10.8706,2 0 -10.8706,2 0 -10.8706,2 0 -10.8706,2 0 -10.8706,2 0 -10.8706,2 0 -10.8706,2 0 -10.8706,2 0 -10.8706,2 0 -10.8706,2 0 -10.8706,2 0 -10.8706,2 0 -10.8706,2 0 -10.8706,2 0 -9.275845,2 0 -9.275845,2 0 -9.275845,2 0 -9.275845,2 0 -9.275845,2 0 -9.275845,2 0 -9.275845,2 0 -9.275845,2 0 -9.275845,2 0 -9.275845,2 0 -9.275845,2 0 -9.275845,2 0 -9.275845,2 0 -9.275845,2 0 -9.275845,2 0 -9.275845,2 0 -9.275845,2 0 -9.275845,2 0 -9.275845,2 0 -9.275845,2 0 -9.275845,0.210,
2 0 -10.8706,2 0 -10.8706,2 0 -10.8706,2 0 -10.8706,2 0 -10.8706,2 0 -10.8706,2 0 -10.8706,2 0 -10.8706,2 0 -10.8706,2 0 -10.8706,2 0 -10.8706,2 0 -10.8706,2 0 -10.8706,2 0 -10.8706,2 0 -10.8706,2 0 -10.8706,2 0 -10.8706,2 0 -10.8706,2 0 -10.8706,2 0 -10.8706,2 0 -10.8706,2 0 -9.275845,2 0 -9.275845,2 0 -9.275845,2 0 -9.275845,2 0 -9.275845,2 0 -9.275845,2 0 -9.275845,2 0 -9.275845,2 0 -9.275845,2 0 -9.275845,2 0 -9.275845,2 0 -9.275845,2 0 -9.275845,2 0 -9.275845,2 0 -9.275845,2 0 -9.275845,2 0 -9.275845,2 0 -9.275845,2 0 -9.275845,2 0 -9.275845,2 0 -9.275845,0.310,
2 0 -10.8706,2 0 -10.8706,2 0 -10.8706,2 0 -10.8706,2 0 -10.8706,2 0 -10.8706,2 0 -10.8706,2 0 -10.8706,2 0 -10.8706,2 0 -10.8706,2 0 -10.8706,2 0 -10.8706,2 0 -10.8706,2 0 -10.8706,2 0 -10.8706,2 0 -10.8706,2 0 -10.8706,2 0 -10.8706,2 0 -10.8706,2 0 -10.8706,2 0 -10.8706,2 0 -9.275845,2 0 -9.275845,2 0 -9.275845,2 0 -9.275845,2 0 -9.275845,2 0 -9.275845,2 0 -9.275845,2 0 -9.275845,2 0 -9.275845,2 0 -9.275845,2 0 -9.275845,2 0 -9.275845,2 0 -9.275845,2 0 -9.275845,2 0 -9.275845,2 0 -9.275845,2 0 -9.275845,2 0 -9.275845,2 0 -9.275845,2 0 -9.275845,2 0 -9.275845,0.410,
2 0 -10.8706,2 0 -10.8706,2 0 -10.8706,2 0 -10.8706,2 0 -10.8706,2 0 -10.8706,2 0 -10.8706,2 0 -10.8706,2 0 -10.8706,2 0 -10.8706,2 0 -10.8706,2 0 -10.8706,2 0 -10.8706,2 0 -10.8706,2 0 -10.8706,2 0 -10.8706,2 0 -10.8706,2 0 -10.8706,2 0 -10.8706,2 0 -10.8706,2 0 -10.8706,2 0 -9.275845,2 0 -9.275845,2 0 -9.275845,2 0 -9.275845,2 0 -9.275845,2 0 -9.275845,2 0 -9.275845,2 0 -9.275845,2 0 -9.275845,2 0 -9.275845,2 0 -9.275845,2 0 -9.275845,2 0 -9.275845,2 0 -9.275845,2 0 -9.275845,2 0 -9.275845,2 0 -9.275845,2 0 -9.275845,2 0 -9.275845,2 0 -9.275845,2 0 -9.275845,0.510,
2 0 -10.8706,2 0 -10.8706,2 0 -10.8706,2 0 -10.8706,2 0 -10.8706,2 0 -10.8706,2 0 -10.8706,2 0 -10.8706,2 0 -10.8706,2 0 -10.8706,2 0 -10.8706,2 0 -10.8706,2 0 -10.8706,2 0 -10.8706,2 0 -10.8706,2 0 -10.8706,2 0 -10.8706,2 0 -10.8706,2 0 -10.8706,2 0 -10.8706,2 0 -10.8706,2 0 -9.275845,2 0 -9.275845,2 0 -9.275845,2 0 -9.275845,2 0 -9.275845,2 0 -9.275845,2 0 -9.275845,2 0 -9.275845,2 0 -9.275845,2 0 -9.275845,2 0 -9.275845,2 0 -9.275845,2 0 -9.275845,2 0 -9.275845,2 0 -9.275845,2 0 -9.275845,2 0 -9.275845,2 0 -9.275845,2 0 -9.275845,2 0 -9.275845,2 0 -9.275845,0.610,
2 0 -10.8706,2 0 -10.8706,2 0 -10.8706,2 0 -10.8706,2 0 -10.8706,2 0 -10.8706,2 0 -10.8706,2 0 -10.8706,2 0 -10.8706,2 0 -10.8706,2 0 -10.8706,2 0 -10.8706,2 0 -10.8706,2 0 -10.8706,2 0 -10.8706,2 0 -10.8706,2 0 -10.8706,2 0 -10.8706,2 0 -10.8706,2 0 -10.8706,2 0 -10.8706,2 0 -9.275845,2 0 -9.275845,2 0 -9.275845,2 0 -9.275845,2 0 -9.275845,2 0 -9.275845,2 0 -9.275845,2 0 -9.275845,2 0 -9.275845,2 0 -9.275845,2 0 -9.275845,2 0 -9.275845,2 0 -9.275845,2 0 -9.275845,2 0 -9.275845,2 0 -9.275845,2 0 -9.275845,2 0 -9.275845,2 0 -9.275845,2 0 -9.275845,2 0 -9.275845,0.710,
2 0 -10.8706,2 0 -10.8706,2 0 -10.8706,2 0 -10.8706,2 0 -10.8706,2 0 -10.8706,2 0 -10.8706,2 0 -10.8706,2 0 -10.8706,2 0 -10.8706,2 0 -10.8706,2 0 -10.8706,2 0 -10.8706,2 0 -10.8706,2 0 -10.8706,2 0 -10.8706,2 0 -10.8706,2 0 -10.8706,2 0 -10.8706,2 0 -10.8706,2 0 -10.8706,2 0 -9.275845,2 0 -9.275845,2 0 -9.275845,2 0 -9.275845,2 0 -9.275845,2 0 -9.275845,2 0 -9.275845,2 0 -9.275845,2 0 -9.275845,2 0 -9.275845,2 0 -9.275845,2 0 -9.275845,2 0 -9.275845,2 0 -9.275845,2 0 -9.275845,2 0 -9.275845,2 0 -9.275845,2 0 -9.275845,2 0 -9.275845,2 0 -9.275845,2 0 -9.275845,0.810,
2 0 -10.8706,2 0 -10.8706,2 0 -10.8706,2 0 -10.8706,2 0 -10.8706,2 0 -10.8706,2 0 -10.8706,2 0 -10.8706,2 0 -10.8706,2 0 -10.8706,2 0 -10.8706,2 0 -10.8706,2 0 -10.8706,2 0 -10.8706,2 0 -10.8706,2 0 -10.8706,2 0 -10.8706,2 0 -10.8706,2 0 -10.8706,2 0 -10.8706,2 0 -10.8706,2 0 -9.275845,2 0 -9.275845,2 0 -9.275845,2 0 -9.275845,2 0 -9.275845,2 0 -9.275845,2 0 -9.275845,2 0 -9.275845,2 0 -9.275845,2 0 -9.275845,2 0 -9.275845,2 0 -9.275845,2 0 -9.275845,2 0 -9.275845,2 0 -9.275845,2 0 -9.275845,2 0 -9.275845,2 0 -9.275845,2 0 -9.275845,2 0 -9.275845,2 0 -9.275845,0.910,
2 0 -10.8706,2 0 -10.8706,2 0 -10.8706,2 0 -10.8706,2 0 -10.8706,2 0 -10.8706,2 0 -10.8706,2 0 -10.8706,2 0 -10.8706,2 0 -10.8706,2 0 -10.8706,2 0 -10.8706,2 0 -10.8706,2 0 -10.8706,2 0 -10.8706,2 0 -10.8706,2 0 -10.8706,2 0 -10.8706,2 0 -10.8706,2 0 -10.8706,2 0 -10.8706,2 0 -9.275845,2 0 -9.275845,2 0 -9.275845,2 0 -9.275845,2 0 -9.275845,2 0 -9.275845,2 0 -9.275845,2 0 -9.275845,2 0 -9.275845,2 0 -9.275845,2 0 -9.275845,2 0 -9.275845,2 0 -9.275845,2 0 -9.275845,2 0 -9.275845,2 0 -9.275845,2 0 -9.275845,2 0 -9.275845,2 0 -9.275845,2 0 -9.275845,2 0 -9.275845,1.010,
2 0 -10.8706,2 0 -10.8706,2 0 -10.8706,2 0 -10.8706,2 0 -10.8706,2 0 -10.8706,2 0 -10.8706,2 0 -10.8706,2 0 -10.8706,2 0 -10.8706,2 0 -10.8706,2 0 -10.8706,2 0 -10.8706,2 0 -10.8706,2 0 -10.8706,2 0 -10.8706,2 0 -10.8706,2 0 -10.8706,2 0 -10.8706,2 0 -10.8706,2 0 -10.8706,2 0 -9.275845,2 0 -9.275845,2 0 -9.275845,2 0 -9.275845,2 0 -9.275845,2 0 -9.275845,2 0 -9.275845,2 0 -9.275845,2 0 -9.275845,2 0 -9.275845,2 0 -9.275845,2 0 -9.275845,2 0 -9.275845,2 0 -9.275845,2 0 -9.275845,2 0 -9.275845,2 0 -9.275845,2 0 -9.275845,2 0 -9.275845,2 0 -9.275845,2 0 -9.275845,1.110,
2 0 -10.8706,2 0 -10.8706,2 0 -10.8706,2 0 -10.8706,2 0 -10.8706,2 0 -10.8706,2 0 -10.8706,2 0 -10.8706,2 0 -10.8706,2 0 -10.8706,2 0 -10.8706,2 0 -10.8706,2 0 -10.8706,2 0 -10.8706,2 0 -10.8706,2 0 -10.8706,2 0 -10.8706,2 0 -10.8706,2 0 -10.8706,2 0 -10.8706,2 0 -10.8706,2 0 -9.275845,2 0 -9.275845,2 0 -9.275845,2 0 -9.275845,2 0 -9.275845,2 0 -9.275845,2 0 -9.275845,2 0 -9.275845,2 0 -9.275845,2 0 -9.275845,2 0 -9.275845,2 0 -9.275845,2 0 -9.275845,2 0 -9.275845,2 0 -9.275845,2 0 -9.275845,2 0 -9.275845,2 0 -9.275845,2 0 -9.275845,2 0 -9.275845,2 0 -9.275845,1.210,
2 0 -10.8706,2 0 -10.8706,2 0 -10.8706,2 0 -10.8706,2 0 -10.8706,2 0 -10.8706,2 0 -10.8706,2 0 -10.8706,2 0 -10.8706,2 0 -10.8706,2 0 -10.8706,2 0 -10.8706,2 0 -10.8706,2 0 -10.8706,2 0 -10.8706,2 0 -10.8706,2 0 -10.8706,2 0 -10.8706,2 0 -10.8706,2 0 -10.8706,2 0 -10.8706,2 0 -9.275845,2 0 -9.275845,2 0 -9.275845,2 0 -9.275845,2 0 -9.275845,2 0 -9.275845,2 0 -9.275845,2 0 -9.275845,2 0 -9.275845,2 0 -9.275845,2 0 -9.275845,2 0 -9.275845,2 0 -9.275845,2 0 -9.275845,2 0 -9.275845,2 0 -9.275845,2 0 -9.275845,2 0 -9.275845,2 0 -9.275845,2 0 -9.275845,2 0 -9.275845,1.310,
-3.160372 -14.20631 -2.251088,-3.899939 -14.11475 -1.954324,-4.366813 -13.39053 -1.762865,-4.604212 -12.60383 -1.637499,-4.829924 -11.89843 -1.53175,-3.938877 -11.94768 -1.816362,-4.177939 -10.88032 -1.805402,-4.335196 -10.25129 -1.788417,-4.464751 -9.730904 -1.776073,-3.531641 -11.78633 -1.985913,-3.716901 -10.64886 -2.002941,-3.877136 -10.06278 -2.088539,-4.011101 -9.625059 -2.157492,-3.184 -11.83299 -2.153231,-3.308434 -10.84636 -2.243439,-3.504865 -10.38091 -2.373628,-3.677992 -10.13806 -2.453113,-2.897747 -12.04274 -2.305078,-2.986839 -11.29223 -2.42014,-3.1276 -10.95455 -2.489827,-3.247179 -10.7959 -2.542526,2 0 -9.275845,2 0 -9.275845,2 0 -9.275845,2 0 -9.275845,2 0 -9.275845,2 0 -9.275845,2 0 -9.275845,2 0 -9.275845,2 0 -9.275845,2 0 -9.275845,2 0 -9.275845,2 0 -9.275845,2 0 -9.275845,2 0 -9.275845,2 0 -9.275845,2 0 -9.275845,2 0 -9.275845,2 0 -9.275845,2 0 -9.275845,2 0 -9.275845,2 0 -9.275845,1.410,
-3.340045 -12.39612 -3.653843,-4.122602 -11.67708 -3.492647,-4.611948 -10.88681 -3.283885,-4.901884 -10.14779 -3.063224,-5.133807 -9.362419 -2.806957,-4.239735 -10.55799 -3.149594,-4.264083 -9.994276 -2.88056,-4.319613 -9.409554 -2.669016,-4.411932 -8.878317 -2.578577,-3.881937 -10.49625 -3.062946,-3.940734 -9.775112 -2.761179,-4.004204 -9.008663 -2.526256,-4.057835 -8.393564 -2.355974,-3.564634 -10.42566 -2.996289,-3.606606 -9.65785 -2.76609,-3.632212 -8.929142 -2.499353,-3.661854 -8.369671 -2.30989,-3.298342 -10.39533 -2.911031,-3.283188 -9.665373 -2.708527,-3.283382 -9.079245 -2.53918,-3.285185 -8.6376 -2.449206,-9.338643 -10.83037 3.049099,-8.64575 -10.80146 3.330679,-8.049603 -10.21558 3.825256,-7.65362 -9.682241 4.306848,-7.390179 -9.014013 4.731318,-8.361953 -7.727886 3.957659,-8.170321 -6.100597 4.378503,-7.980114 -6.472227 4.698351,-7.936272 -7.164704 4.895971,-8.776717 -7.513362 4.088581,-8.503952 -5.701843 4.55596,-8.239307 -6.345467 4.907922,-8.197129 -7.150221 5.166144,-9.215002 -7.618421 4.217102,-9.048882 -5.968524 4.578084,-8.82941 -6.638399 4.679507,-8.824858 -7.475973 4.766695,-9.684308 -7.944046 4.339683,-9.725458 -6.70907 4.631489,-9.594818 -6.999662 4.673859,-9.555495 -7.508031 4.684112,1.510,Left Hand Closed
-3.478926 -10.58628 0.7457809,-4.190657 -10.04862 1.141163,-4.695845 -9.249075 1.422125,-4.908402 -8.445639 1.73664,-5.031998 -7.665772 2.049932,-4.459769 -7.527038 0.8248439,-4.714121 -6.470949 1.132063,-4.832617 -5.955652 1.440169,-4.929073 -5.603455 1.632525,-4.084942 -7.326707 0.8970667,-4.236979 -6.086112 1.190177,-4.363266 -5.488568 1.480429,-4.482449 -5.111187 1.659646,-3.728217 -7.339159 1.063968,-3.817086 -6.184377 1.375949,-3.926845 -5.600538 1.697002,-4.061174 -5.21249 1.930048,-3.353865 -7.586999 1.289754,-3.361057 -6.699085 1.591115,-3.464949 -6.218118 1.825346,-3.619011 -5.861267 1.975024,-9.597191 -10.64799 2.541311,-8.783637 -10.17832 2.698812,-8.177122 -9.428957 3.03002,-7.804499 -8.699684 3.356283,-7.584732 -8.126251 3.682954,-8.426119 -7.602821 3.119402,-8.25033 -6.146449 3.398357,-8.193679 -5.881923 3.58471,-8.210918 -6.068305 3.70334,-8.863727 -7.428228 3.2438,-8.650367 -5.81648 3.606665,-8.573308 -5.553384 3.775128,-8.556005 -5.672719 3.864518,-9.311286 -7.522132 3.355905,-9.15488 -6.084169 3.674908,-9.094583 -5.879721 3.796983,-9.059493 -5.989749 3.864765,-9.766622 -7.837331 3.453562,-9.807139 -6.824808 3.72271,-9.795514 -6.54424 3.82379,-9.766354 -6.509682 3.848835,1.610,
-3.290499 -9.580469 0.08661985,-4.010962 -8.858732 0.1209166,-4.537971 -8.12759 0.2362005,-4.848341 -7.367684 0.4628736,-5.087682 -6.666596 0.7385712,-4.21356 -6.677791 -0.0719841,-4.434517 -5.735861 0.04852273,-4.584464 -5.196445 0.2298531,-4.734833 -4.668479 0.3691416,-3.913622 -6.513013 0.1333816,-4.088573 -5.459005 0.2602285,-4.2322 -4.812225 0.4754824,-4.363287 -4.209748 0.6376538,-3.619513 -6.552507 0.3838373,-3.700047 -5.501329 0.5177658,-3.822278 -4.885669 0.7170587,-3.96625 -4.347921 0.8836812,-3.309834 -6.782758 0.6642973,-3.304785 -5.952551 0.8198538,-3.375268 -5.393549 0.980665,-3.477131 -4.873842 1.115674,-9.77638 -9.857801 1.954222,-9.018293 -9.365009 1.903559,-8.436377 -8.594494 2.07612,-8.056498 -7.955184 2.362709,-7.729054 -7.41575 2.727924,-8.74139 -6.903723 1.916312,-8.555521 -5.846992 2.097515,-8.464224 -5.218584 2.290954,-8.392286 -4.68621 2.418124,-9.063596 -6.738605 2.190537,-8.887889 -5.497159 2.307712,-8.787006 -4.760353 2.449671,-8.697157 -4.088139 2.554728,-9.397643 -6.80823 2.483549,-9.303283 -5.652492 2.622869,-9.229856 -4.943913 2.812274,-9.124404 -4.316374 2.899522,-9.748465 -7.107066 2.784606,-9.780584 -6.191972 2.93088,-9.783661 -5.599411 3.059073,-9.727869 -5.015909 3.166149,1.710,
-3.287355 -9.158222 -0.4689044,-3.97308 -8.597321 -0.3821006,-4.506083 -7.882078 -0.2883305,-4.810523 -7.126249 -0.1015572,-5.036621 -6.466535 0.1224882,-4.215296 -6.452154 -0.6789314,-4.449644 -5.515094 -0.597393,-4.588793 -4.992505 -0.4624811,-4.720053 -4.491006 -0.3594627,-3.915565 -6.254376 -0.5351969,-4.108865 -5.206966 -0.4802103,-4.245317 -4.575174 -0.3108594,-4.373659 -4.004102 -0.1862614,-3.622298 -6.250867 -0.3309928,-3.727299 -5.241312 -0.2598082,-3.840412 -4.656747 -0.1110789,-3.979279 -4.14326 0.0215748,-3.309472 -6.429388 -0.08605999,-3.330091 -5.646476 0.02627441,-3.398461 -5.133315 0.1587511,-3.495792 -4.636476 0.2687345,-9.748898 -9.520912 1.682053,-9.058155 -9.074961 1.739733,-8.495877 -8.300329 1.911914,-8.163714 -7.62323 2.184525,-7.87641 -7.121557 2.499063,-8.787476 -6.644277 1.680893,-8.584514 -5.575157 1.887954,-8.508123 -4.920451 2.08038,-8.464714 -4.329946 2.206011,-9.116497 -6.461854 1.889367,-8.953808 -5.2278 2.024222,-8.880261 -4.474941 2.208713,-8.830752 -3.782575 2.338647,-9.453924 -6.509872 2.124718,-9.37147 -5.366712 2.28167,-9.314365 -4.662613 2.479258,-9.236545 -4.022623 2.586452,-9.81068 -6.779735 2.373488,-9.853738 -5.905742 2.517209,-9.860877 -5.336462 2.646106,-9.809496 -4.75494 2.746499,1.810,
-3.349922 -8.968136 -0.8462436,-3.971714 -8.506647 -0.7550197,-4.485603 -7.747975 -0.6953145,-4.779335 -6.990636 -0.5419505,-5.023479 -6.381162 -0.3367407,-4.224838 -6.365148 -1.096416,-4.449961 -5.426956 -1.026861,-4.584448 -4.904132 -0.9449564,-4.703436 -4.409429 -0.8880362,-3.92358 -6.164559 -0.9587108,-4.100382 -5.104055 -0.9128873,-4.237379 -4.487369 -0.7666104,-4.357588 -3.939554 -0.6549201,-3.627344 -6.149477 -0.7523574,-3.723043 -5.133544 -0.6711112,-3.831837 -4.548993 -0.5168884,-3.956966 -4.034061 -0.3911943,-3.313086 -6.310024 -0.5057545,-3.34086 -5.492462 -0.3849041,-3.402991 -4.990401 -0.2491546,-3.492203 -4.512135 -0.1394407,-9.665002 -9.381695 1.278429,-9.00841 -8.971743 1.385049,-8.468902 -8.193588 1.514895,-8.137794 -7.474407 1.719241,-7.855973 -7.012331 1.959145,-8.781374 -6.614829 1.307082,-8.598248 -5.513652 1.464602,-8.521871 -4.872741 1.611987,-8.46776 -4.318088 1.694042,-9.122435 -6.420146 1.441792,-8.949726 -5.155452 1.522468,-8.859935 -4.403669 1.703598,-8.797045 -3.744012 1.840611,-9.462169 -6.473376 1.607979,-9.380617 -5.325353 1.723659,-9.316947 -4.615858 1.885075,-9.248654 -3.993744 2.000587,-9.812616 -6.734804 1.786393,-9.855314 -5.822834 1.932087,-9.859445 -5.252613 2.035747,-9.82797 -4.710556 2.110606,1.910,
-3.322017 -8.689819 -1.38723,-3.91769 -8.296366 -1.304023,-4.412196 -7.616591 -1.26038,-4.695824 -6.936426 -1.134644,-4.92856 -6.360748 -0.9747713,-4.159758 -6.252314 -1.596653,-4.390499 -5.347661 -1.507729,-4.53808 -4.802869 -1.429309,-4.662409 -4.30561 -1.37716,-3.874073 -6.038476 -1.464657,-4.073055 -4.997785 -1.393824,-4.23064 -4.391374 -1.256205,-4.364971 -3.849992 -1.15215,-3.58353 -6.002691 -1.270544,-3.703777 -4.994018 -1.168104,-3.820681 -4.404329 -1.028908,-3.948427 -3.877279 -0.9169846,-3.267159 -6.138643 -1.040435,-3.314537 -5.32573 -0.9229952,-3.38522 -4.836339 -0.7976004,-3.481562 -4.392379 -0.695748,-9.615815 -9.168987 0.9124961,-8.963666 -8.801481 1.033957,-8.434209 -8.084801 1.152194,-8.106515 -7.377775 1.339927,-7.836156 -6.923566 1.552117,-8.746254 -6.506292 0.8556432,-8.569375 -5.438603 0.9839603,-8.482258 -4.80981 1.133733,-8.419069 -4.271687 1.219053,-9.073932 -6.309919 0.9798785,-8.914445 -5.066249 1.038292,-8.830457 -4.321226 1.235969,-8.771237 -3.668141 1.380109,-9.40359 -6.366186 1.138827,-9.31274 -5.231393 1.231755,-9.249463 -4.525192 1.404524,-9.183406 -3.909564 1.532253,-9.749164 -6.621942 1.318676,-9.787585 -5.725475 1.452457,-9.79645 -5.156421 1.576866,-9.774719 -4.613038 1.667726,2.010,
-3.293182 -8.592041 -1.545415,-3.882552 -8.245197 -1.438372,-4.371688 -7.567565 -1.395607,-4.6534 -6.889024 -1.277017,-4.884891 -6.313587 -1.128259,-4.139723 -6.209354 -1.737917,-4.368804 -5.313887 -1.643915,-4.518673 -4.767902 -1.568783,-4.643187 -4.269262 -1.520704,-3.853102 -5.988559 -1.621564,-4.046329 -4.956165 -1.552048,-4.201092 -4.348835 -1.431914,-4.328061 -3.808513 -1.345302,-3.561832 -5.946647 -1.437328,-3.682241 -4.952678 -1.336255,-3.799389 -4.362215 -1.208306,-3.922133 -3.836038 -1.103861,-3.24464 -6.079019 -1.216566,-3.296587 -5.277439 -1.104639,-3.366611 -4.789749 -0.9837337,-3.458002 -4.345702 -0.885088,-9.581063 -9.115582 0.9102122,-8.94032 -8.756691 1.020702,-8.422873 -8.030472 1.14399,-8.114844 -7.351483 1.344956,-7.872244 -6.923744 1.574548,-8.734265 -6.447368 0.8137784,-8.565342 -5.415657 0.9311978,-8.481256 -4.790529 1.080515,-8.421311 -4.256156 1.168792,-9.059343 -6.252877 0.9480607,-8.908687 -5.033883 0.9948052,-8.823528 -4.286687 1.183775,-8.764833 -3.631278 1.320391,-9.388654 -6.306559 1.117169,-9.306128 -5.203624 1.19491,-9.240046 -4.507738 1.345684,-9.174791 -3.90059 1.454562,-9.736197 -6.56541 1.311464,-9.780744 -5.677181 1.431616,-9.787481 -5.111213 1.542053,-9.767351 -4.568285 1.621384,2.110,
-3.218175 -8.429016 -1.828234,-3.803228 -8.062822 -1.725748,-4.27966 -7.449193 -1.663996,-4.566278 -6.809673 -1.521842,-4.80007 -6.225696 -1.346403,-4.058021 -6.116662 -2.000065,-4.301723 -5.233107 -1.914998,-4.449163 -4.701854 -1.853125,-4.567638 -4.210518 -1.815278,-3.779007 -5.907838 -1.880241,-3.983918 -4.878151 -1.804869,-4.13664 -4.279743 -1.690119,-4.26096 -3.761377 -1.609392,-3.489759 -5.870031 -1.693612,-3.61809 -4.8756 -1.584901,-3.74058 -4.2889 -1.447709,-3.870234 -3.772671 -1.335084,-3.170029 -6.002167 -1.474634,-3.222651 -5.207897 -1.356617,-3.297722 -4.71713 -1.220032,-3.395199 -4.272192 -1.107383,-9.53354 -9.042032 0.8709803,-8.898667 -8.674217 0.9927136,-8.386978 -7.94659 1.110879,-8.083677 -7.240249 1.300556,-7.832818 -6.791898 1.507509,-8.713358 -6.378788 0.7866925,-8.56076 -5.337072 0.9083132,-8.483459 -4.705997 1.055923,-8.429803 -4.163045 1.152077,-9.036447 -6.186325 0.9083412,-8.888068 -4.987209 0.9647598,-8.811319 -4.246371 1.16251,-8.76074 -3.588151 1.313761,-9.362153 -6.242406 1.066554,-9.280563 -5.147871 1.149185,-9.220351 -4.451014 1.307674,-9.156499 -3.832458 1.429903,-9.70471 -6.504814 1.247263,-9.749778 -5.631856 1.366,-9.76142 -5.076995 1.477592,-9.741308 -4.531778 1.568922,2.210,
-3.107651 -8.370714 -1.920923,-3.675437 -8.015059 -1.782688,-4.13949 -7.401148 -1.720622,-4.407507 -6.743649 -1.597954,-4.649804 -6.18148 -1.430451,-3.92305 -6.091523 -2.056022,-4.167491 -5.232954 -1.971417,-4.316871 -4.698028 -1.911019,-4.438437 -4.205778 -1.867386,-3.63768 -5.869884 -1.97206,-3.838873 -4.885235 -1.915615,-3.992137 -4.283235 -1.813853,-4.112078 -3.75268 -1.745538,-3.345519 -5.823537 -1.82338,-3.472116 -4.866951 -1.748622,-3.597418 -4.290798 -1.629966,-3.721751 -3.784656 -1.527006,-3.026714 -5.949562 -1.637865,-3.087876 -5.173187 -1.537399,-3.169607 -4.691345 -1.414401,-3.270039 -4.265243 -1.317479,-9.428186 -8.961498 0.7344459,-8.816598 -8.576252 0.8568896,-8.324471 -7.850072 0.9791194,-8.025746 -7.172963 1.160892,-7.766249 -6.761277 1.352788,-8.663354 -6.309257 0.7531199,-8.514051 -5.271612 0.8965596,-8.433429 -4.658588 1.049125,-8.372069 -4.116052 1.151281,-8.977753 -6.141293 0.8845065,-8.855731 -4.941879 0.9824901,-8.784183 -4.20251 1.197942,-8.732463 -3.553915 1.36636,-9.293346 -6.221199 1.046873,-9.227574 -5.114137 1.163562,-9.174033 -4.407985 1.352241,-9.116965 -3.782194 1.499241,-9.624088 -6.50159 1.225246,-9.681 -5.642008 1.366749,-9.694954 -5.087808 1.502227,-9.680102 -4.544673 1.612525,2.310,
-3.002984 -8.319126 -2.076484,-3.573433 -7.970111 -1.938728,-4.042966 -7.40682 -1.870591,-4.326408 -6.773221 -1.748175,-4.503654 -6.217791 -1.592807,-3.835457 -6.105636 -2.190471,-4.096848 -5.246709 -2.113104,-4.242146 -4.715691 -2.04715,-4.358055 -4.228091 -1.990128,-3.550795 -5.867288 -2.105402,-3.762955 -4.872304 -2.061609,-3.921041 -4.27142 -1.954957,-4.048019 -3.752702 -1.879039,-3.259457 -5.805455 -1.960435,-3.389436 -4.842293 -1.896678,-3.513542 -4.27404 -1.785416,-3.644496 -3.779848 -1.680524,-2.939387 -5.912979 -1.778506,-2.988962 -5.137218 -1.681482,-3.069714 -4.663059 -1.568584,-3.179356 -4.248602 -1.479711,-9.368576 -8.926552 0.6343087,-8.758836 -8.517323 0.7074533,-8.282615 -7.776144 0.8112727,-7.991025 -7.105451 0.9851284,-7.729675 -6.712585 1.173065,-8.630776 -6.275251 0.6137512,-8.493871 -5.239827 0.7484069,-8.411216 -4.631895 0.9023284,-8.349 -4.098711 1.013111,-8.937931 -6.131837 0.776665,-8.826635 -4.937989 0.8662153,-8.754557 -4.202854 1.082966,-8.704537 -3.555234 1.249058,-9.243728 -6.223941 0.9667662,-9.191537 -5.123821 1.086787,-9.139685 -4.414808 1.282561,-9.086363 -3.788337 1.427785,-9.559353 -6.51298 1.172804,-9.636831 -5.651187 1.317265,-9.663989 -5.091173 1.453556,-9.661823 -4.538566 1.563072,2.410,
-2.65186 -8.209578 -2.169612,-3.227491 -7.883937 -2.062378,-3.680164 -7.29249 -2.022621,-3.928979 -6.598522 -1.938928,-4.109427 -6.020014 -1.837277,-3.481014 -6.01114 -2.333467,-3.739019 -5.140653 -2.301273,-3.885192 -4.628752 -2.235726,-4.002365 -4.188313 -2.172946,-3.188381 -5.784249 -2.26759,-3.394684 -4.821828 -2.254091,-3.540684 -4.259855 -2.159728,-3.649712 -3.770377 -2.060767,-2.900899 -5.732002 -2.151379,-3.052112 -4.823534 -2.132919,-3.167177 -4.289529 -2.021427,-3.27206 -3.828222 -1.902147,-2.588367 -5.821722 -2.004076,-2.660237 -5.098031 -1.938992,-2.738449 -4.658979 -1.870416,-2.826146 -4.260145 -1.785364,-9.20541 -8.821896 0.3640538,-8.619468 -8.388325 0.4706391,-8.152218 -7.652751 0.5967646,-7.865275 -7.000799 0.7762566,-7.590013 -6.59595 0.9652063,-8.5188 -6.236463 0.4551087,-8.366617 -5.210958 0.64521,-8.270306 -4.629831 0.8190598,-8.197966 -4.100387 0.9561332,-8.820883 -6.106872 0.6206883,-8.709049 -4.941644 0.8014893,-8.628323 -4.2294 1.067296,-8.561591 -3.595818 1.271224,-9.117525 -6.214965 0.8133878,-9.055692 -5.13466 1.017662,-8.995017 -4.431573 1.27395,-8.92262 -3.810979 1.467176,-9.425393 -6.511629 1.014772,-9.495935 -5.692681 1.243268,-9.513256 -5.140718 1.447258,-9.49422 -4.592218 1.610224,2.510,
-2.520274 -8.174866 -2.245699,-3.079708 -7.864255 -2.092585,-3.520841 -7.290668 -2.026616,-3.753105 -6.589037 -1.921538,-3.893235 -5.978542 -1.806642,-3.337224 -5.982292 -2.365558,-3.578423 -5.121336 -2.336404,-3.715298 -4.60931 -2.276995,-3.821648 -4.15917 -2.204419,-3.040108 -5.767454 -2.32098,-3.217629 -4.813741 -2.347723,-3.33784 -4.245412 -2.27481,-3.422463 -3.770516 -2.202485,-2.751875 -5.730884 -2.225693,-2.876345 -4.841396 -2.233023,-2.968904 -4.317789 -2.140178,-3.054472 -3.880208 -2.040199,-2.446181 -5.842151 -2.091076,-2.497468 -5.132621 -2.043128,-2.554401 -4.702018 -1.973605,-2.6212 -4.32562 -1.904534,-9.158776 -8.769108 0.1817817,-8.569 -8.347212 0.2617159,-8.117908 -7.62535 0.3793815,-7.834983 -6.979519 0.5508837,-7.569443 -6.587969 0.7256072,-8.478975 -6.226064 0.2943394,-8.349112 -5.19013 0.4800882,-8.268596 -4.586353 0.6560761,-8.20941 -4.037895 0.7919191,-8.772912 -6.109641 0.4631518,-8.67319 -4.950062 0.6409667,-8.600629 -4.241167 0.8910016,-8.545533 -3.603765 1.082177,-9.066176 -6.224028 0.6525757,-9.017829 -5.14813 0.8480423,-8.958965 -4.463769 1.083674,-8.899702 -3.854396 1.252615,-9.367213 -6.526109 0.8452389,-9.446215 -5.707036 1.052804,-9.471835 -5.162654 1.228545,-9.473391 -4.613782 1.364631,2.610,
-2.369961 -8.135294 -2.322964,-2.928321 -7.863455 -2.157231,-3.367641 -7.279549 -2.099877,-3.599876 -6.578048 -2.002957,-3.742954 -5.978272 -1.90065,-3.210799 -5.970666 -2.491011,-3.459435 -5.111818 -2.471621,-3.589296 -4.583269 -2.400763,-3.673178 -4.117509 -2.313882,-2.921119 -5.760202 -2.458779,-3.11484 -4.822237 -2.50949,-3.229218 -4.24143 -2.441547,-3.291981 -3.766577 -2.375273,-2.637521 -5.714226 -2.369631,-2.772573 -4.834066 -2.404343,-2.871158 -4.30403 -2.330985,-2.947181 -3.872737 -2.243533,-2.327236 -5.817325 -2.233137,-2.379631 -5.108469 -2.220935,-2.431706 -4.674678 -2.165615,-2.480618 -4.292774 -2.110963,-9.102321 -8.744768 0.07199442,-8.527452 -8.323517 0.1270268,-8.083848 -7.583225 0.2449734,-7.799345 -6.955465 0.4228776,-7.527443 -6.576672 0.6077707,-8.43001 -6.226951 0.1846041,-8.300523 -5.198318 0.3828574,-8.213964 -4.609996 0.5563296,-8.145576 -4.082281 0.6895982,-8.715966 -6.119822 0.3763264,-8.622005 -4.987796 0.5718812,-8.544507 -4.284862 0.8304693,-8.481927 -3.654244 1.032604,-9.003502 -6.243927 0.5869528,-8.951211 -5.199676 0.8027579,-8.892232 -4.51456 1.044492,-8.828323 -3.907189 1.223151,-9.300561 -6.553148 0.7991279,-9.373117 -5.740449 1.026242,-9.398392 -5.195728 1.21034,-9.398953 -4.654863 1.35334,2.710,
-2.109811 -8.013889 -2.281269,-2.664624 -7.710231 -2.050819,-3.092323 -7.110885 -1.985064,-3.293697 -6.370095 -1.898538,-3.399786 -5.719742 -1.812871,-2.918431 -5.814697 -2.421793,-3.14897 -4.944526 -2.406285,-3.270927 -4.396982 -2.340333,-3.348434 -3.914901 -2.259662,-2.604537 -5.614855 -2.427632,-2.77938 -4.702339 -2.493186,-2.88125 -4.149395 -2.418458,-2.93039 -3.689264 -2.346595,-2.307039 -5.592479 -2.378467,-2.427121 -4.737866 -2.408217,-2.507129 -4.236622 -2.286541,-2.563068 -3.821218 -2.179713,-1.989285 -5.711515 -2.278164,-2.040219 -5.041152 -2.238336,-2.089771 -4.628416 -2.151325,-2.129943 -4.255195 -2.073832,-8.946213 -8.523712 -0.2204185,-8.387218 -8.184505 -0.112903,-7.947436 -7.481115 0.03794825,-7.668036 -6.875753 0.2403042,-7.389771 -6.493446 0.4548919,-8.280346 -6.118226 -0.003374785,-8.112731 -5.105687 0.2325781,-8.00563 -4.535254 0.4290323,-7.919638 -4.007526 0.5625759,-8.558257 -5.995881 0.1705554,-8.425201 -4.87911 0.4313979,-8.317278 -4.184081 0.7014013,-8.22484 -3.54736 0.911449,-8.840979 -6.109296 0.3655953,-8.757501 -5.070728 0.6321289,-8.676087 -4.382843 0.9008507,-8.586299 -3.761396 1.105694,-9.140189 -6.402188 0.55751,-9.177366 -5.591508 0.8248205,-9.177195 -5.043318 1.03024,-9.151834 -4.492394 1.1925,2.810,
-2.044037 -7.954113 -2.318369,-2.583747 -7.643371 -2.037511,-2.98814 -7.052379 -1.936914,-3.173389 -6.338081 -1.811508,-3.294157 -5.6853 -1.67243,-2.837333 -5.741555 -2.389238,-3.049072 -4.871881 -2.318575,-3.16349 -4.330025 -2.179776,-3.241367 -3.821358 -2.031266,-2.520355 -5.558515 -2.382971,-2.662849 -4.61722 -2.356847,-2.742069 -4.04063 -2.190332,-2.776126 -3.591754 -2.060598,-2.221372 -5.545782 -2.312245,-2.306762 -4.657861 -2.255172,-2.368501 -4.140209 -2.062708,-2.413407 -3.747751 -1.90785,-1.899465 -5.670791 -2.191197,-1.932705 -4.952384 -2.105657,-1.973235 -4.521072 -1.970476,-2.011484 -4.160343 -1.864834,-8.907552 -8.435068 -0.3044591,-8.344542 -8.101456 -0.1759809,-7.902732 -7.417562 -0.03188527,-7.613579 -6.809255 0.1549176,-7.335495 -6.418046 0.3472766,-8.232467 -6.064451 -0.08112539,-8.058022 -5.073949 0.1525643,-7.948217 -4.50904 0.3448343,-7.868459 -3.985022 0.4747199,-8.508862 -5.930812 0.06868646,-8.369844 -4.817323 0.2996888,-8.265842 -4.135768 0.5495085,-8.18405 -3.518613 0.7377495,-8.792008 -6.030696 0.2378824,-8.712947 -4.984251 0.4816834,-8.633828 -4.304357 0.7300885,-8.551097 -3.695068 0.9187516,-9.091213 -6.315336 0.4097437,-9.131674 -5.506633 0.6650436,-9.133213 -4.967042 0.8669649,-9.112228 -4.425767 1.021794,2.910,
-1.96013 -7.853159 -2.302955,-2.524745 -7.535882 -1.949643,-2.927699 -6.970787 -1.832807,-3.111776 -6.276418 -1.703069,-3.221781 -5.595237 -1.561695,-2.769607 -5.626895 -2.39907,-2.981538 -4.758169 -2.375972,-3.091999 -4.205653 -2.243501,-3.163187 -3.696134 -2.090022,-2.440574 -5.457639 -2.451893,-2.587791 -4.516872 -2.48292,-2.647623 -3.948587 -2.316369,-2.66195 -3.507756 -2.18636,-2.13549 -5.447143 -2.435558,-2.227191 -4.574667 -2.415208,-2.285833 -4.065202 -2.214716,-2.324349 -3.686006 -2.053732,-1.813838 -5.551518 -2.364487,-1.852703 -4.836484 -2.292368,-1.898226 -4.430413 -2.145262,-1.936764 -4.106645 -2.035131,-8.857579 -8.398037 -0.3371069,-8.304836 -8.074451 -0.2042187,-7.864969 -7.384973 -0.0586139,-7.57255 -6.782726 0.1314125,-7.290129 -6.406255 0.3283704,-8.18199 -6.040634 -0.1192797,-8.007653 -5.05983 0.1095871,-7.893485 -4.494514 0.2996144,-7.810744 -3.974689 0.4312486,-8.461239 -5.901779 0.02820799,-8.320635 -4.798525 0.2545571,-8.208147 -4.109687 0.5061784,-8.122988 -3.495235 0.6938607,-8.745889 -5.999366 0.1975467,-8.666814 -4.960719 0.4394505,-8.581693 -4.275104 0.6869365,-8.496182 -3.665173 0.8760409,-9.043467 -6.283676 0.3723027,-9.08532 -5.472973 0.6350766,-9.081009 -4.928581 0.8435594,-9.055326 -4.386066 1.000828,3.010,
-1.81533 -7.754444 -2.350915,-2.363286 -7.412363 -1.983116,-2.749582 -6.858013 -1.846919,-2.926584 -6.1629 -1.717914,-3.030747 -5.501035 -1.573382,-2.601489 -5.542707 -2.344746,-2.823295 -4.642976 -2.28988,-2.922904 -4.062428 -2.149469,-2.98657 -3.529362 -1.987312,-2.271066 -5.364311 -2.415752,-2.411119 -4.380908 -2.415772,-2.460013 -3.788057 -2.256294,-2.469611 -3.299053 -2.126754,-1.967101 -5.35039 -2.419162,-2.059794 -4.442811 -2.38681,-2.109675 -3.894659 -2.194949,-2.14086 -3.444807 -2.033601,-1.648739 -5.466396 -2.371325,-1.685808 -4.729091 -2.299328,-1.722905 -4.292896 -2.154553,-1.753917 -3.915367 -2.04346,-8.787719 -8.34663 -0.3623317,-8.239622 -8.046619 -0.2276295,-7.807122 -7.348316 -0.08927149,-7.518673 -6.739743 0.08909127,-7.232867 -6.378107 0.2750964,-8.12111 -5.99736 -0.1623599,-7.942661 -5.033807 0.06423467,-7.820281 -4.465379 0.2570027,-7.730081 -3.939754 0.3911819,-8.406016 -5.851915 -0.02201506,-8.266362 -4.765108 0.1996948,-8.144976 -4.069389 0.4532778,-8.052368 -3.452451 0.6362114,-8.692113 -5.942951 0.1417711,-8.615451 -4.916999 0.3743151,-8.5182 -4.245164 0.6125335,-8.425361 -3.653368 0.7881895,-8.987311 -6.221086 0.3110709,-9.02641 -5.415897 0.5707363,-9.012694 -4.871393 0.7713307,-8.982299 -4.326425 0.9152362,3.110,
-1.721824 -7.671681 -2.407681,-2.298445 -7.326063 -2.021071,-2.673144 -6.783292 -1.879845,-2.841641 -6.098602 -1.749399,-2.941138 -5.415134 -1.605199,-2.530224 -5.477158 -2.420042,-2.757804 -4.560754 -2.38082,-2.852364 -3.964992 -2.253595,-2.90523 -3.439824 -2.099616,-2.189719 -5.301475 -2.502991,-2.327864 -4.290658 -2.510207,-2.360335 -3.66353 -2.340833,-2.349748 -3.162611 -2.203669,-1.877661 -5.281012 -2.51749,-1.978219 -4.349594 -2.485219,-2.025112 -3.775064 -2.282031,-2.049432 -3.331938 -2.110786,-1.553956 -5.371984 -2.485958,-1.597387 -4.607668 -2.403104,-1.635229 -4.160222 -2.243058,-1.666474 -3.796245 -2.126319,-8.785707 -8.325981 -0.3764904,-8.230852 -8.033369 -0.2507224,-7.795483 -7.335162 -0.1207245,-7.501545 -6.726642 0.05011293,-7.215138 -6.369092 0.2306457,-8.109141 -5.977111 -0.2056828,-7.932234 -5.025007 0.00588432,-7.812148 -4.45753 0.1986072,-7.721205 -3.935695 0.3330098,-8.395201 -5.832882 -0.06592384,-8.259819 -4.750543 0.1352661,-8.140809 -4.057903 0.3801829,-8.046607 -3.449146 0.5624478,-8.683968 -5.92359 0.09645355,-8.613788 -4.908098 0.3073128,-8.520292 -4.242181 0.534412,-8.426056 -3.656493 0.7054535,-8.981565 -6.20368 0.2640513,-9.023781 -5.406368 0.510545,-9.011496 -4.864158 0.7049396,-8.978295 -4.319363 0.8483038,3.210,
-1.579144 -7.601821 -2.497808,-2.17208 -7.248872 -2.228528,-2.515617 -6.674037 -2.166197,-2.658603 -5.952125 -2.128437,-2.783289 -5.262018 -2.101966,-2.348519 -5.427564 -2.586252,-2.587306 -4.455469 -2.618863,-2.682885 -3.826774 -2.57115,-2.731091 -3.301625 -2.480011,-1.998654 -5.254001 -2.682031,-2.173137 -4.197475 -2.790686,-2.240963 -3.569775 -2.722482,-2.263499 -3.085742 -2.636182,-1.678286 -5.234367 -2.729295,-1.793162 -4.240348 -2.803412,-1.854971 -3.649438 -2.682654,-1.896755 -3.190117 -2.554695,-1.353146 -5.330861 -2.741866,-1.421875 -4.554309 -2.742196,-1.483435 -4.070463 -2.63723,-1.540173 -3.654041 -2.551445,-8.766705 -8.356588 -0.3268912,-8.222844 -8.045704 -0.2021632,-7.791673 -7.342887 -0.05791911,-7.492533 -6.738843 0.131568,-7.203648 -6.358835 0.3348377,-8.117748 -5.982609 -0.1508972,-7.948367 -5.033138 0.06161052,-7.828432 -4.468087 0.253867,-7.733035 -3.949974 0.3860371,-8.400599 -5.84671 -0.005857885,-8.27414 -4.77342 0.1934097,-8.160606 -4.084022 0.4323786,-8.067051 -3.481238 0.6020157,-8.685653 -5.944117 0.1655275,-8.619084 -4.931647 0.3760488,-8.530616 -4.259272 0.6048265,-8.436528 -3.670759 0.7754272,-8.979969 -6.229425 0.3399467,-9.02681 -5.423293 0.5938962,-9.016326 -4.870899 0.7963694,-8.981214 -4.32397 0.939056,3.310,
-1.384387 -7.59797 -2.363663,-2.024033 -7.231992 -1.954621,-2.369953 -6.654808 -1.827138,-2.472581 -5.915657 -1.720864,-2.566239 -5.166681 -1.611482,-2.205335 -5.372537 -2.434967,-2.387897 -4.356416 -2.428,-2.457613 -3.705528 -2.300407,-2.489985 -3.158933 -2.126306,-1.823748 -5.214794 -2.549126,-1.944203 -4.128776 -2.605745,-1.96552 -3.47396 -2.427363,-1.958758 -2.984509 -2.268779,-1.479842 -5.200399 -2.596038,-1.574963 -4.201429 -2.613445,-1.598561 -3.579788 -2.405181,-1.619411 -3.115612 -2.226889,-1.131985 -5.295135 -2.59484,-1.184574 -4.456478 -2.54745,-1.214313 -3.956528 -2.399104,-1.254296 -3.544603 -2.286783,-8.798816 -8.374714 -0.3664667,-8.24701 -8.078468 -0.2487514,-7.817335 -7.372015 -0.1090577,-7.518747 -6.762025 0.07871035,-7.222826 -6.383607 0.2827184,-8.129068 -6.014927 -0.2084244,-7.963797 -5.067907 0.0054892,-7.845588 -4.498109 0.2036177,-7.752075 -3.979814 0.3404112,-8.413401 -5.877808 -0.0567686,-8.287416 -4.803373 0.14003,-8.169523 -4.106901 0.3837566,-8.072611 -3.507009 0.5573345,-8.70162 -5.9724 0.122054,-8.638593 -4.958118 0.3314285,-8.546782 -4.283762 0.5625535,-8.449703 -3.699949 0.7333088,-9.000944 -6.256883 0.3051257,-9.048865 -5.447294 0.5597137,-9.036236 -4.889114 0.7635498,-9.000628 -4.338232 0.9068259,3.410,
-1.181404 -7.608633 -2.38971,-1.776574 -7.346559 -1.739842,-2.198746 -6.744801 -1.454232,-2.334111 -5.976449 -1.211147,-2.311838 -5.119196 -0.9959728,-2.093883 -5.359398 -2.167162,-2.220691 -4.282858 -1.982646,-2.239029 -3.621009 -1.663829,-2.192867 -3.114971 -1.350694,-1.681288 -5.239093 -2.309476,-1.770869 -4.217408 -2.035108,-1.761713 -3.672049 -1.539966,-1.698741 -3.470956 -1.173425,-1.298783 -5.240833 -2.366447,-1.379541 -4.309022 -2.110632,-1.398852 -3.775577 -1.646537,-1.399359 -3.556077 -1.316705,-0.8914161 -5.314449 -2.360075,-0.9330654 -4.550081 -2.119402,-0.9636817 -4.103376 -1.830062,-0.9986849 -3.7859 -1.61942,-8.841747 -8.39621 -0.3876003,-8.296053 -8.11586 -0.2585278,-7.867348 -7.401975 -0.1141557,-7.568673 -6.791521 0.07948706,-7.26878 -6.418741 0.2943215,-8.160639 -6.052131 -0.2238719,-7.992294 -5.100622 -0.02904764,-7.869584 -4.528202 0.1508011,-7.770816 -4.013676 0.2820517,-8.442614 -5.907275 -0.08057743,-8.301027 -4.838806 0.095056,-8.181732 -4.142745 0.321222,-8.086384 -3.542642 0.4931196,-8.732959 -5.993198 0.09182239,-8.652961 -4.980259 0.2856812,-8.552179 -4.298694 0.504534,-8.44998 -3.709548 0.6675373,-9.040129 -6.269322 0.2682701,-9.087402 -5.461279 0.5208734,-9.082094 -4.910488 0.7170579,-9.053491 -4.369007 0.8538834,3.510,
-1.162999 -7.694965 -1.770827,-1.656217 -7.362442 -0.9068048,-1.972312 -6.677131 -0.4702123,-2.038823 -5.912303 -0.1112267,-1.981588 -5.103118 0.284443,-1.83041 -5.214694 -0.9314275,-1.905593 -4.288835 -0.4121275,-1.85935 -3.733868 0.01418912,-1.781592 -3.333656 0.3295964,-1.394069 -5.183254 -1.140945,-1.294667 -4.341018 -0.3513751,-1.225865 -5.133169 0.02591825,-1.243617 -5.840421 0.1443582,-1.019379 -5.289434 -1.253498,-0.9109693 -4.696378 -0.5240675,-0.9165001 -5.540037 -0.3435227,-0.9807329 -6.174634 -0.3934796,-0.681138 -5.494725 -1.300305,-0.5368495 -4.8966 -0.7004284,-0.591814 -5.431118 -0.5119821,-0.6984735 -5.905525 -0.5175232,-8.861736 -8.406128 -0.3993022,-8.310463 -8.122072 -0.257037,-7.879763 -7.416284 -0.1066895,-7.589501 -6.810934 0.09137014,-7.294842 -6.444385 0.3091497,-8.190693 -6.059755 -0.2359695,-8.027335 -5.108529 -0.03614062,-7.913241 -4.538754 0.1514181,-7.822165 -4.021991 0.2850453,-8.476816 -5.917844 -0.0962933,-8.342918 -4.859869 0.08658475,-8.225828 -4.182476 0.3227654,-8.133128 -3.593477 0.4978634,-8.765512 -6.005207 0.07124743,-8.696391 -5.002038 0.2684608,-8.598482 -4.336866 0.4940963,-8.499547 -3.754171 0.6643947,-9.069431 -6.278261 0.2487862,-9.121004 -5.477912 0.4904193,-9.107936 -4.93084 0.6845299,-9.071254 -4.386234 0.8279077,3.610,
-1.180986 -7.84728 -2.19146,-1.609129 -7.435035 -1.471077,-1.902481 -6.718475 -1.126367,-1.964435 -5.974549 -0.8179861,-1.84636 -5.177973 -0.511261,-1.719034 -5.410295 -1.516403,-1.774361 -4.51523 -1.060524,-1.730236 -3.961977 -0.7121325,-1.652704 -3.516275 -0.438089,-1.327291 -5.434996 -1.637491,-1.169821 -4.839685 -0.8977674,-1.18787 -5.764316 -0.6334906,-1.263259 -6.495691 -0.6097525,-0.9739037 -5.595797 -1.689421,-0.8506432 -5.186931 -0.953239,-0.9243631 -6.123404 -0.8867317,-1.024561 -6.769952 -1.016041,-0.6580272 -5.8441 -1.681397,-0.5059948 -5.28161 -1.117281,-0.6072769 -5.860775 -1.011917,-0.7421007 -6.315435 -1.072353,-8.85244 -8.396702 -0.4520336,-8.300749 -8.123394 -0.2903619,-7.876544 -7.432842 -0.1309187,-7.590188 -6.827721 0.06785738,-7.30201 -6.448091 0.2808571,-8.192284 -6.070341 -0.2484812,-8.024517 -5.10893 -0.02378371,-7.902613 -4.539049 0.1746556,-7.80587 -4.023929 0.309097,-8.477962 -5.926376 -0.116356,-8.342446 -4.849908 0.09281611,-8.216455 -4.164237 0.3395554,-8.114847 -3.569284 0.5171862,-8.765778 -6.020847 0.04222107,-8.70206 -4.99961 0.2572812,-8.604253 -4.328731 0.4841737,-8.503516 -3.738806 0.652725,-9.06704 -6.304004 0.2122475,-9.117665 -5.492225 0.4637584,-9.100748 -4.940302 0.6588129,-9.061235 -4.392761 0.7976054,3.710,
-1.16364 -7.876661 -2.145817,-1.538073 -7.556795 -1.441719,-1.833609 -6.851644 -1.092218,-1.853251 -6.086483 -0.7891798,-1.747807 -5.372155 -0.4548516,-1.688097 -5.495543 -1.397088,-1.729739 -4.655672 -0.8942254,-1.660166 -4.149896 -0.5289593,-1.549845 -3.746095 -0.2470393,-1.297306 -5.471216 -1.506322,-1.125695 -5.224761 -0.7865154,-1.138057 -6.174221 -0.5369869,-1.218957 -6.885047 -0.4855815,-0.9324398 -5.637182 -1.548088,-0.7970533 -5.521263 -0.8186688,-0.8631425 -6.464688 -0.7491227,-0.9747114 -7.091014 -0.8480468,-0.6105938 -5.922525 -1.538469,-0.4399428 -5.626834 -0.9302107,-0.5447512 -6.322357 -0.8453261,-0.6958847 -6.787838 -0.9051096,-8.854505 -8.376787 -0.4790021,-8.299284 -8.098572 -0.3232495,-7.867934 -7.399383 -0.1762986,-7.57574 -6.797319 0.01268792,-7.286814 -6.43078 0.2169992,-8.186883 -6.057441 -0.3232819,-8.018903 -5.098178 -0.1182728,-7.900538 -4.529859 0.07302338,-7.806017 -4.013608 0.2063152,-8.474627 -5.908728 -0.1943354,-8.337749 -4.844028 -0.01138172,-8.216942 -4.163613 0.2277743,-8.121012 -3.571996 0.4097409,-8.762897 -5.995604 -0.03864622,-8.694845 -4.985783 0.155937,-8.598117 -4.319431 0.3745518,-8.499012 -3.731096 0.5396639,-9.064822 -6.270055 0.1308985,-9.117767 -5.467514 0.3695567,-9.101624 -4.922726 0.5538183,-9.062039 -4.377866 0.689948,3.810,
-1.170817 -7.831184 -1.836027,-1.54821 -7.484489 -1.17067,-1.835032 -6.775373 -0.8155895,-1.834663 -6.033309 -0.5019573,-1.696939 -5.344127 -0.1533867,-1.669613 -5.36761 -1.135294,-1.706955 -4.639745 -0.655995,-1.626082 -4.166057 -0.3079293,-1.507069 -3.76953 -0.0319519,-1.268668 -5.326429 -1.220637,-1.123742 -5.279451 -0.5399953,-1.158997 -6.238547 -0.3008165,-1.249251 -6.916294 -0.2485793,-0.8935709 -5.521688 -1.236845,-0.788022 -5.570997 -0.5581493,-0.8711634 -6.490318 -0.5147038,-0.9857402 -7.065711 -0.6233772,-0.5675173 -5.849432 -1.199194,-0.4298615 -5.716163 -0.6335585,-0.5522704 -6.419311 -0.5723736,-0.7105579 -6.852125 -0.6506234,-8.854733 -8.35597 -0.5002171,-8.30005 -8.086679 -0.3270725,-7.87243 -7.396045 -0.1677702,-7.580948 -6.797864 0.02999192,-7.289371 -6.4363 0.2413942,-8.189143 -6.043581 -0.3098092,-8.024929 -5.088638 -0.09313679,-7.901576 -4.525417 0.1007457,-7.801462 -4.011301 0.2364424,-8.476981 -5.897863 -0.1821423,-8.345447 -4.83341 0.01785427,-8.223203 -4.154943 0.2597139,-8.12348 -3.564261 0.4401146,-8.765835 -5.983375 -0.02307189,-8.700705 -4.973958 0.1854294,-8.601655 -4.308862 0.4098414,-8.498746 -3.719396 0.5766706,-9.068713 -6.257465 0.1482872,-9.122077 -5.454452 0.4019202,-9.107845 -4.904705 0.5926909,-9.069361 -4.354581 0.7315586,3.910,
-1.148519 -7.700891 -1.14325,-1.553166 -7.393695 -0.3903702,-1.846207 -6.739748 0.09602094,-1.820541 -6.063842 0.5113485,-1.66449 -5.336163 0.9552748,-1.663096 -5.256429 -0.1294115,-1.704465 -4.690958 0.4846116,-1.609151 -4.308454 0.8938668,-1.469481 -3.951461 1.181378,-1.218553 -5.070562 -0.2489291,-1.1296 -5.425862 0.488959,-1.195241 -6.420127 0.6500105,-1.292485 -6.934892 0.652938,-0.8155684 -5.229431 -0.2859208,-0.7636003 -5.640932 0.3885236,-0.882781 -6.572173 0.3178271,-1.014597 -7.005525 0.1544809,-0.4814496 -5.54047 -0.2493659,-0.4069901 -5.729478 0.2600825,-0.5690994 -6.450889 0.2544222,-0.7435775 -6.796865 0.1522945,-8.855908 -8.365698 -0.5006143,-8.305045 -8.10928 -0.3330828,-7.879808 -7.411306 -0.1790903,-7.589778 -6.815114 0.01517522,-7.295247 -6.468126 0.2249345,-8.186169 -6.053855 -0.313243,-8.021214 -5.105176 -0.09548414,-7.898911 -4.536832 0.1003973,-7.802308 -4.02225 0.2429832,-8.474405 -5.908327 -0.1821861,-8.336859 -4.852697 0.02119815,-8.209031 -4.165828 0.2674739,-8.106616 -3.566638 0.4524641,-8.765385 -5.996568 -0.02182567,-8.70099 -4.989995 0.1929568,-8.6022 -4.318973 0.4167459,-8.503049 -3.726502 0.5838072,-9.071211 -6.274553 0.1499597,-9.125189 -5.467199 0.4075118,-9.109647 -4.914135 0.5971187,-9.073644 -4.366476 0.7350121,4.010,
-1.152626 -7.622449 -1.398904,-1.563458 -7.335775 -0.6170039,-1.852186 -6.683259 -0.1219968,-1.802158 -5.983823 0.2930937,-1.646675 -5.239075 0.7256097,-1.684583 -5.232134 -0.3501821,-1.718597 -4.690071 0.3087704,-1.602093 -4.322755 0.7224623,-1.449899 -3.978091 0.9951762,-1.228821 -5.073183 -0.4941851,-1.16775 -5.376611 0.2911812,-1.220974 -6.375068 0.4436265,-1.314686 -6.894448 0.4249148,-0.8130455 -5.238857 -0.5384078,-0.7736006 -5.581672 0.1783725,-0.8891764 -6.535579 0.09082997,-1.02822 -6.991827 -0.09634507,-0.4692535 -5.544028 -0.5171769,-0.3986797 -5.682129 0.02729189,-0.5630598 -6.412893 0.02052474,-0.7484651 -6.792837 -0.09055209,-8.863971 -8.369596 -0.5140864,-8.308482 -8.113403 -0.3542762,-7.885801 -7.417528 -0.2049832,-7.597821 -6.818952 -0.01487738,-7.305128 -6.473033 0.1904178,-8.191494 -6.06418 -0.3313166,-8.025161 -5.1082 -0.1124584,-7.904377 -4.538694 0.08220679,-7.811591 -4.020391 0.2235834,-8.477513 -5.916992 -0.1951149,-8.339798 -4.856203 0.01077467,-8.211183 -4.165206 0.2579954,-8.110401 -3.564139 0.4424632,-8.767418 -6.005729 -0.03072894,-8.704652 -4.998867 0.1862745,-8.604232 -4.326395 0.4125903,-8.504497 -3.732327 0.5830081,-9.072551 -6.285509 0.1455112,-9.129538 -5.47421 0.4080215,-9.114006 -4.917831 0.6040169,-9.077746 -4.364307 0.7461756,4.110,
-1.193883 -7.386177 -2.211653,-1.663068 -7.168929 -1.452635,-1.915082 -6.569108 -0.9089446,-1.8254 -5.903346 -0.4956844,-1.635052 -5.18098 -0.08475578,-1.709882 -5.28602 -0.8954504,-1.718324 -4.754474 -0.2490274,-1.598675 -4.334377 0.1302398,-1.44749 -3.951252 0.3856627,-1.23317 -5.200895 -1.052859,-1.163481 -5.369622 -0.3183171,-1.267631 -6.208087 -0.2628148,-1.391854 -6.649993 -0.3122253,-0.8063002 -5.403544 -1.136142,-0.7452946 -5.543151 -0.4678969,-0.8945827 -6.310874 -0.6236085,-1.048081 -6.681663 -0.849396,-0.4596267 -5.708284 -1.161037,-0.3850656 -5.627943 -0.6641697,-0.558938 -6.198627 -0.7103071,-0.7361164 -6.512495 -0.8470761,-8.880119 -8.397299 -0.5236032,-8.32819 -8.132511 -0.3733011,-7.903396 -7.430887 -0.2286575,-7.604778 -6.827363 -0.04142141,-7.301622 -6.474878 0.1672086,-8.213585 -6.089717 -0.3509133,-8.04398 -5.134937 -0.1350382,-7.923592 -4.560787 0.05777222,-7.829964 -4.037782 0.1948468,-8.499557 -5.945282 -0.2144917,-8.357886 -4.876665 -0.01619852,-8.228819 -4.183176 0.2224152,-8.125924 -3.5851 0.4017938,-8.788307 -6.035617 -0.05075297,-8.720723 -5.023069 0.1600747,-8.62127 -4.351653 0.377039,-8.521448 -3.761655 0.5404069,-9.091214 -6.318008 0.1231893,-9.14576 -5.506 0.3831832,-9.131855 -4.950204 0.5768219,-9.096569 -4.398849 0.7174461,4.210,
-1.323851 -7.936411 -0.3188946,-1.86367 -7.048463 -0.07340276,-2.046993 -6.046669 0.1403163,-1.957413 -5.139718 0.3935997,-1.814257 -4.52603 0.7076743,-1.691469 -5.107103 0.3167604,-1.548915 -4.376863 0.8753884,-1.503282 -4.414654 1.06899,-1.486053 -4.556052 1.064982,-1.220538 -5.003883 0.3715567,-0.9658699 -5.554761 0.9407103,-1.146792 -6.307041 0.9000094,-1.334663 -6.371361 0.8023999,-0.8415556 -5.209669 0.4644407,-0.6754951 -5.826543 1.001528,-0.9007115 -6.483899 0.9386047,-1.089933 -6.53607 0.81721,-0.5629311 -5.537439 0.5732348,-0.4629993 -5.782293 0.8412775,-0.6856585 -6.294513 0.8251654,-0.8860245 -6.398519 0.7273701,-8.897388 -8.395741 -0.5234821,-8.346761 -8.125082 -0.3582882,-7.920907 -7.435867 -0.2000232,-7.62095 -6.8408 0.0003481507,-7.316643 -6.493202 0.2232392,-8.21993 -6.089036 -0.3233685,-8.051507 -5.126596 -0.1058807,-7.931863 -4.549593 0.08780205,-7.839328 -4.032965 0.2229789,-8.507282 -5.947858 -0.1940053,-8.361873 -4.876962 0.00256747,-8.232407 -4.18736 0.2369969,-8.128941 -3.593735 0.4152604,-8.797148 -6.039615 -0.03732941,-8.72895 -5.027786 0.171222,-8.628542 -4.356216 0.3859548,-8.527081 -3.765244 0.5452514,-9.100204 -6.317914 0.1309824,-9.159407 -5.512868 0.3837739,-9.147671 -4.965078 0.5693353,-9.111856 -4.421833 0.7031956,4.310,
-1.101331 -7.448982 -0.9195733,-1.570779 -7.181575 -0.1821782,-1.917717 -6.597101 0.3987918,-1.894474 -5.939342 0.8974049,-1.681626 -5.238103 1.433031,-1.724102 -5.088405 0.3687474,-1.761744 -4.655752 1.07391,-1.668112 -4.308366 1.483479,-1.531324 -3.99482 1.751582,-1.233619 -4.86433 0.2573092,-1.155204 -5.413297 1.013553,-1.259094 -6.289285 1.122239,-1.375308 -6.684652 1.139241,-0.7887173 -5.02811 0.226361,-0.7404881 -5.602941 0.8825614,-0.9077196 -6.417572 0.7531155,-1.061825 -6.743025 0.5790888,-0.4363165 -5.35844 0.2639279,-0.3777752 -5.685724 0.7159485,-0.5788994 -6.339777 0.668745,-0.7702832 -6.591796 0.5515224,-8.917099 -8.411625 -0.5095437,-8.35864 -8.142927 -0.3565128,-7.928535 -7.4558 -0.2044927,-7.628666 -6.864249 -0.007628262,-7.326101 -6.513237 0.212705,-8.237878 -6.10462 -0.3299142,-8.068632 -5.141205 -0.112838,-7.947797 -4.568241 0.08076298,-7.85515 -4.051129 0.2140844,-8.525189 -5.958349 -0.1922219,-8.380977 -4.888402 0.004441977,-8.253444 -4.204698 0.2391024,-8.15151 -3.613693 0.4130982,-8.816017 -6.042669 -0.02560377,-8.745958 -5.030164 0.1809475,-8.647465 -4.359655 0.3942611,-8.547232 -3.769653 0.5541804,-9.121751 -6.316665 0.1514059,-9.176942 -5.501232 0.4029845,-9.16431 -4.949163 0.5856997,-9.127759 -4.403293 0.7204163,4.410,
-1.121561 -7.529245 -0.5357816,-1.592487 -7.154153 0.1540486,-1.944732 -6.509844 0.7027589,-1.895719 -5.795614 1.158368,-1.663321 -5.129747 1.676389,-1.702588 -5.055473 0.7379929,-1.744702 -4.547042 1.38961,-1.636606 -4.196826 1.73048,-1.506342 -3.895729 1.919577,-1.216054 -4.808891 0.6086097,-1.147625 -5.315547 1.23833,-1.252259 -6.196229 1.285953,-1.364831 -6.578532 1.292457,-0.7836494 -4.962856 0.5516988,-0.7335258 -5.539266 1.133928,-0.887269 -6.348857 0.9917699,-1.030776 -6.670156 0.8433992,-0.4504032 -5.272135 0.5575452,-0.3855014 -5.63655 0.9522247,-0.5788364 -6.305648 0.8918563,-0.7655077 -6.563177 0.7832942,-8.925535 -8.435995 -0.4913841,-8.375736 -8.161989 -0.3479884,-7.945222 -7.474531 -0.2015435,-7.647585 -6.887311 -0.007186651,-7.350097 -6.533541 0.2072638,-8.255611 -6.114878 -0.3339269,-8.089253 -5.154874 -0.1278386,-7.96825 -4.580392 0.06528372,-7.871908 -4.066289 0.2006195,-8.537745 -5.974182 -0.1949094,-8.401834 -4.907362 -0.008983523,-8.280354 -4.222652 0.2233379,-8.182515 -3.634209 0.3980208,-8.824202 -6.060584 -0.02665344,-8.757062 -5.05456 0.1703702,-8.662412 -4.381271 0.3900103,-8.56587 -3.793188 0.5558733,-9.126854 -6.335153 0.1523861,-9.185237 -5.526098 0.393985,-9.176453 -4.973318 0.5819581,-9.144471 -4.430318 0.7225171,4.510,
-1.108474 -7.30756 -1.408596,-1.601299 -7.060564 -0.6596155,-1.918433 -6.485569 -0.07391608,-1.85373 -5.814554 0.3901644,-1.635492 -5.109475 0.8739755,-1.724589 -5.086631 -0.01330531,-1.722185 -4.623775 0.7041903,-1.610859 -4.215171 1.084424,-1.481423 -3.827998 1.346359,-1.220578 -4.917982 -0.149389,-1.127836 -5.249935 0.5893465,-1.241854 -6.130548 0.6113,-1.376116 -6.580303 0.5614529,-0.7632256 -5.086248 -0.2066369,-0.6967125 -5.473301 0.4780844,-0.8750758 -6.292677 0.2879525,-1.047744 -6.662996 0.05078363,-0.402154 -5.401273 -0.1997721,-0.3455238 -5.574052 0.2835937,-0.5529499 -6.196288 0.1899581,-0.7623835 -6.45734 0.02360845,-8.916605 -8.438015 -0.4921211,-8.374109 -8.153997 -0.3551952,-7.944278 -7.459555 -0.2117027,-7.642827 -6.878385 -0.01931494,-7.338338 -6.536706 0.1961955,-8.255588 -6.110316 -0.3390364,-8.093555 -5.145667 -0.1415471,-7.978138 -4.569047 0.04668283,-7.887774 -4.050964 0.1826264,-8.540315 -5.974349 -0.1980127,-8.40309 -4.909808 -0.01791501,-8.283673 -4.22448 0.2143657,-8.189783 -3.63438 0.3910793,-8.828854 -6.062799 -0.03074721,-8.757795 -5.056492 0.1616914,-8.661862 -4.383398 0.3761763,-8.567071 -3.796688 0.5394773,-9.132989 -6.33786 0.1484749,-9.192177 -5.525552 0.3834392,-9.181366 -4.975557 0.5651922,-9.148996 -4.434185 0.7004746,4.610,
-1.07798 -7.464921 -0.6453339,-1.550467 -7.098732 0.08046871,-1.897395 -6.471448 0.6729984,-1.809183 -5.767286 1.171385,-1.542468 -5.117034 1.708794,-1.631429 -5.067531 0.7367314,-1.606834 -4.497215 1.431545,-1.494442 -4.165004 1.815607,-1.361951 -3.876563 2.039629,-1.134809 -4.832191 0.6197127,-1.00139 -5.358972 1.286962,-1.142235 -6.218257 1.326697,-1.29073 -6.476683 1.336182,-0.6973972 -4.995389 0.5739591,-0.5985851 -5.543298 1.210237,-0.7815571 -6.318916 1.044412,-0.952776 -6.53709 0.8641033,-0.3598466 -5.31461 0.596872,-0.2398858 -5.578383 0.9996597,-0.4471188 -6.206878 0.9275637,-0.6552591 -6.415245 0.7973429,-8.950379 -8.430899 -0.5302371,-8.394045 -8.15554 -0.3922202,-7.955419 -7.467326 -0.2540394,-7.651855 -6.878684 -0.0681659,-7.352128 -6.535809 0.1354266,-8.261227 -6.123964 -0.3679061,-8.097227 -5.157907 -0.1712769,-7.982787 -4.581903 0.01487345,-7.894148 -4.066032 0.1474181,-8.549699 -5.982786 -0.2313299,-8.411533 -4.915767 -0.05574536,-8.29306 -4.231347 0.1752139,-8.201529 -3.641919 0.3550243,-8.840973 -6.069276 -0.06907028,-8.772401 -5.066417 0.1206968,-8.677485 -4.399148 0.3331189,-8.583399 -3.815056 0.4967926,-9.146164 -6.342163 0.1039626,-9.206605 -5.537631 0.3394762,-9.196345 -4.993185 0.519453,-9.162745 -4.456829 0.6549605,4.710,
-1.02134 -7.395395 -0.9309559,-1.509485 -7.065918 -0.1828045,-1.839662 -6.390605 0.4524845,-1.723272 -5.653215 0.9871827,-1.4502 -5.045249 1.586973,-1.593247 -5.076305 0.5392693,-1.544112 -4.520682 1.318774,-1.382954 -4.173546 1.72016,-1.225539 -3.839071 1.942469,-1.086023 -4.891512 0.4076591,-0.9449234 -5.243564 1.158978,-1.086466 -6.086395 1.178489,-1.2498 -6.339461 1.147369,-0.629746 -5.048204 0.3632087,-0.5364647 -5.502391 1.024743,-0.7417278 -6.26555 0.7919798,-0.9350185 -6.471891 0.5499154,-0.2737556 -5.351668 0.3795185,-0.1833682 -5.614357 0.8073057,-0.4111633 -6.209671 0.6929374,-0.6392117 -6.369833 0.5358231,-8.95225 -8.439064 -0.5180942,-8.394899 -8.160486 -0.3589013,-7.963037 -7.478137 -0.2014557,-7.667919 -6.891946 -0.001740932,-7.375394 -6.527608 0.2118711,-8.273119 -6.133222 -0.3288271,-8.099099 -5.179975 -0.1119867,-7.979139 -4.615512 0.08462662,-7.889765 -4.107494 0.219804,-8.56033 -5.988941 -0.1959117,-8.418307 -4.929673 0.0015136,-8.302335 -4.248615 0.2399693,-8.214008 -3.65655 0.4189314,-8.852398 -6.078035 -0.0353424,-8.784245 -5.075874 0.1695289,-8.69114 -4.41065 0.3896199,-8.598754 -3.825457 0.5576848,-9.160042 -6.355451 0.1389196,-9.220304 -5.555198 0.3794278,-9.211226 -5.00959 0.5643522,-9.180336 -4.46805 0.7063816,4.810,
-1.023503 -7.087398 -3.699465,-1.545149 -6.638593 -3.076856,-1.770859 -6.018529 -2.403134,-1.66051 -5.268892 -1.944081,-1.402769 -4.601959 -1.57149,-1.591065 -6.388174 -1.608762,-1.505525 -5.257698 -1.019231,-1.374325 -4.391368 -0.9193481,-1.222938 -3.843427 -0.8485056,-1.101672 -6.458325 -1.751166,-0.9604125 -5.134835 -1.241909,-1.043472 -4.724227 -1.608938,-1.144143 -4.829921 -1.86866,-0.6568317 -6.3911 -1.890184,-0.506022 -5.127536 -1.53919,-0.6763172 -4.853553 -2.037989,-0.8519773 -5.006525 -2.339686,-0.2921824 -6.276715 -1.967978,-0.1622558 -5.255594 -1.721749,-0.3523827 -5.036564 -1.861098,-0.5618916 -5.193133 -1.944182,-8.938678 -8.458559 -0.5032824,-8.389973 -8.179821 -0.3523343,-7.959451 -7.495267 -0.2019273,-7.664191 -6.914121 -0.005974084,-7.374717 -6.557548 0.2022957,-8.277257 -6.137134 -0.3325898,-8.112845 -5.182764 -0.1234742,-7.995691 -4.610685 0.0672797,-7.903872 -4.098011 0.2053879,-8.563774 -5.999178 -0.1989128,-8.42722 -4.939342 -0.002332628,-8.310986 -4.251704 0.2419819,-8.220975 -3.657223 0.4257865,-8.854628 -6.089168 -0.03792661,-8.784236 -5.088408 0.1665397,-8.690163 -4.417028 0.3922124,-8.597422 -3.831142 0.5627373,-9.160993 -6.365541 0.1343873,-9.222869 -5.563241 0.374919,-9.213351 -5.015574 0.5629116,-9.181026 -4.480153 0.7038888,4.910,
-1.263065 -7.158512 -2.537069,-1.704808 -6.224367 -1.916116,-1.85087 -5.366878 -1.42374,-1.700442 -4.577316 -0.9935614,-1.47657 -3.946806 -0.6408082,-1.498897 -5.146551 -0.9180938,-1.165842 -5.157022 -0.3029553,-1.146287 -5.457803 -0.3657645,-1.184715 -5.53654 -0.5985438,-0.9997687 -5.376891 -0.9800503,-0.6637135 -5.648325 -0.2384135,-0.8534374 -5.987535 -0.4712483,-1.034186 -5.98424 -0.751151,-0.5817566 -5.597261 -1.03318,-0.3381071 -5.870176 -0.364107,-0.6026301 -6.174879 -0.6973708,-0.8028431 -6.13389 -1.079693,-0.288414 -5.78992 -1.015653,-0.08940029 -5.768482 -0.5681561,-0.3526816 -5.98342 -0.5384617,-0.5944948 -6.030065 -0.618423,-8.95902 -8.478317 -0.5029611,-8.39762 -8.197645 -0.3539633,-7.965212 -7.508193 -0.1970586,-7.661614 -6.914695 0.003222883,-7.364091 -6.545993 0.2209,-8.27563 -6.168418 -0.3115076,-8.103449 -5.212236 -0.09128809,-7.983762 -4.63935 0.1054001,-7.89515 -4.12519 0.2427155,-8.559594 -6.02634 -0.1707263,-8.419366 -4.964255 0.03794217,-8.297778 -4.278621 0.2851396,-8.203862 -3.677929 0.4677616,-8.849455 -6.118169 -0.005204946,-8.783561 -5.111862 0.2128037,-8.68803 -4.438676 0.4450979,-8.593965 -3.846401 0.6204885,-9.155048 -6.401323 0.1721083,-9.216768 -5.592388 0.4317734,-9.20855 -5.037725 0.6336944,-9.178595 -4.487632 0.7851644,5.010,Right Hand Closed 
-0.9441233 -7.233861 -2.191314,-1.469893 -6.922355 -1.454224,-1.747055 -6.293968 -0.7787948,-1.596773 -5.538826 -0.2937024,-1.344374 -4.827766 0.1661255,-1.496791 -5.588232 -0.2652748,-1.400905 -4.903085 0.437767,-1.246675 -4.310369 0.7452025,-1.07774 -3.808916 0.984134,-0.9609518 -5.481081 -0.4372785,-0.8138943 -5.263497 0.1594188,-0.9812331 -5.805841 -0.0785749,-1.163159 -6.190656 -0.2181331,-0.4910417 -5.554692 -0.5753789,-0.3740544 -5.423137 -0.04470205,-0.5998669 -5.972479 -0.4860681,-0.8107624 -6.30186 -0.8308761,-0.1199522 -5.710784 -0.6434257,-0.04391575 -5.513264 -0.2218463,-0.2693739 -5.933504 -0.381322,-0.4912739 -6.207407 -0.5377575,-8.943795 -8.452999 -0.5506749,-8.388507 -8.179237 -0.4115771,-7.951704 -7.49937 -0.263583,-7.654685 -6.919979 -0.06591243,-7.368833 -6.558414 0.1479328,-8.266249 -6.14824 -0.4033374,-8.096176 -5.203467 -0.1979975,-7.980191 -4.640234 -0.005163431,-7.889843 -4.135776 0.1277013,-8.551464 -6.00838 -0.2609071,-8.415559 -4.95107 -0.07550219,-8.303028 -4.27255 0.1627583,-8.215383 -3.685102 0.3375914,-8.841194 -6.094887 -0.09030029,-8.772068 -5.094739 0.1049569,-8.679854 -4.430475 0.3262932,-8.587847 -3.851647 0.4936694,-9.146668 -6.367038 0.09212351,-9.207815 -5.562537 0.3232566,-9.199499 -5.011787 0.5092884,-9.168184 -4.475671 0.6488117,5.110,
-1.182664 -7.075407 -2.642034,-1.601875 -6.083187 -2.02348,-1.751263 -5.254585 -1.484843,-1.548234 -4.503925 -1.023134,-1.214729 -3.920932 -0.6205019,-1.364319 -5.154227 -0.935212,-1.061002 -5.380521 -0.3037027,-1.04564 -5.557901 -0.2806128,-1.087386 -5.53148 -0.4492995,-0.8600721 -5.397607 -1.027554,-0.5446157 -5.83365 -0.3348421,-0.7357054 -6.056134 -0.5603484,-0.905683 -5.976686 -0.805537,-0.4508963 -5.619297 -1.119069,-0.2074986 -6.014776 -0.5180084,-0.4726768 -6.190677 -0.852695,-0.6609015 -6.065946 -1.196534,-0.1803117 -5.790816 -1.137667,0.0308342 -5.876226 -0.7363484,-0.2313023 -6.031891 -0.7096533,-0.4702196 -6.043703 -0.7696472,-8.94668 -8.467403 -0.5417793,-8.390091 -8.194933 -0.3967258,-7.951988 -7.508508 -0.2486153,-7.650311 -6.92622 -0.05722079,-7.359881 -6.57657 0.1465682,-8.260815 -6.164265 -0.3505589,-8.092582 -5.211811 -0.1315183,-7.975046 -4.646839 0.06491011,-7.885201 -4.135513 0.2000154,-8.547317 -6.026454 -0.2116695,-8.412735 -4.965261 -0.006773174,-8.297008 -4.282934 0.2366275,-8.208006 -3.690917 0.4162017,-8.838673 -6.116798 -0.04867649,-8.772239 -5.112134 0.1677638,-8.680718 -4.443782 0.392634,-8.591188 -3.859832 0.5613939,-9.145336 -6.391349 0.1242611,-9.202216 -5.583646 0.3705077,-9.191687 -5.032207 0.5594238,-9.160554 -4.491622 0.699932,5.210,
-0.8395433 -7.379137 -1.518988,-1.356128 -7.048927 -0.7251616,-1.65712 -6.370069 -0.08880246,-1.510444 -5.64048 0.3784308,-1.236319 -5.030679 0.894402,-1.37487 -5.321768 0.2136972,-1.313112 -4.6691 1.017393,-1.132362 -4.237144 1.377106,-0.9608569 -3.891391 1.596224,-0.8429337 -5.194715 0.01965189,-0.705368 -5.261976 0.7723687,-0.8518767 -6.020077 0.6654956,-1.051353 -6.454998 0.5107417,-0.3782263 -5.327089 -0.1057554,-0.2899828 -5.567418 0.6086917,-0.4991302 -6.314557 0.3128567,-0.7428632 -6.693449 -0.01385617,-0.01301908 -5.577131 -0.1713307,0.03893137 -5.626708 0.3537953,-0.1858358 -6.192442 0.2495526,-0.4317827 -6.497159 0.07685649,-8.939652 -8.470417 -0.4981294,-8.38534 -8.194693 -0.3470283,-7.956136 -7.51127 -0.1872422,-7.656947 -6.929338 0.01642144,-7.357656 -6.574277 0.2385088,-8.262266 -6.162086 -0.2970232,-8.091616 -5.222574 -0.07728884,-7.970144 -4.663101 0.1200024,-7.874587 -4.15938 0.256588,-8.546628 -6.017375 -0.1558155,-8.407184 -4.953315 0.01451266,-8.290691 -4.276439 0.2569452,-8.199992 -3.686289 0.4376322,-8.835114 -6.097499 -0.01100811,-8.762934 -5.100446 0.1913128,-8.666069 -4.437488 0.4149731,-8.570772 -3.855758 0.5849159,-9.142759 -6.376331 0.1726896,-9.198716 -5.574993 0.4092236,-9.186608 -5.024518 0.5970271,-9.154083 -4.48434 0.7374709,5.310,
-0.8685541 -7.271516 -2.547351,-1.37415 -6.810243 -1.831662,-1.614043 -6.174599 -1.131915,-1.43971 -5.46384 -0.6703596,-1.145378 -4.793071 -0.2834073,-1.391134 -5.785335 -0.4786772,-1.217759 -4.975655 0.1838182,-1.033799 -4.319024 0.3918828,-0.8313513 -3.835454 0.5598832,-0.8583632 -5.811264 -0.6705765,-0.6192255 -5.21969 -0.1537548,-0.825326 -5.586067 -0.5901808,-1.02586 -5.900833 -0.8527969,-0.389328 -5.909153 -0.8260949,-0.1866388 -5.355486 -0.38758,-0.4574633 -5.665555 -0.9678164,-0.6755009 -5.884345 -1.356984,-0.02172661 -6.038288 -0.9087918,0.1078677 -5.426533 -0.5737383,-0.1402726 -5.618948 -0.7772441,-0.3563871 -5.846179 -0.9302026,-8.932827 -8.465704 -0.5071602,-8.383847 -8.200258 -0.3658096,-7.950961 -7.509239 -0.2155432,-7.653893 -6.92059 -0.0187875,-7.365687 -6.550409 0.1947988,-8.262463 -6.154953 -0.3414328,-8.088258 -5.221947 -0.1322003,-7.96776 -4.667062 0.06007487,-7.874084 -4.166992 0.190289,-8.545375 -6.010133 -0.1969575,-8.408022 -4.956504 -0.009502828,-8.289966 -4.283983 0.2243498,-8.196228 -3.69978 0.3934159,-8.834241 -6.099567 -0.02555895,-8.766385 -5.098726 0.1766402,-8.673118 -4.435232 0.4011076,-8.579277 -3.853784 0.5706602,-9.138342 -6.3771 0.1581739,-9.199364 -5.573665 0.4000354,-9.194245 -5.020523 0.5926914,-9.166039 -4.477778 0.7354611,5.410,
-0.8635874 -7.277905 -2.289931,-1.337295 -6.870199 -1.434992,-1.551885 -6.305784 -0.7322989,-1.409648 -5.664978 -0.2264681,-1.155971 -4.995544 0.2528403,-1.319195 -5.310888 -0.6026986,-1.190078 -4.720302 0.2252767,-1.017054 -4.264859 0.5914073,-0.8147693 -3.827577 0.7972782,-0.7844224 -5.327731 -0.8064016,-0.5669432 -5.374406 0.03597546,-0.7823973 -6.135382 -0.1159356,-0.9832201 -6.35775 -0.3331707,-0.3229094 -5.524721 -0.9114455,-0.1490459 -5.567222 -0.1719489,-0.4364815 -6.246912 -0.5966514,-0.6614428 -6.404487 -1.025421,0.01682854 -5.764041 -0.9351163,0.1639171 -5.6014 -0.4647822,-0.09479523 -6.038286 -0.6637183,-0.3224506 -6.169029 -0.9212003,-8.945513 -8.457462 -0.518994,-8.39042 -8.180286 -0.3720921,-7.955274 -7.501997 -0.2154221,-7.654273 -6.920383 -0.01813942,-7.360826 -6.568979 0.1967077,-8.260369 -6.160013 -0.3222041,-8.085377 -5.22741 -0.1042581,-7.962196 -4.674558 0.09085548,-7.867637 -4.177942 0.2235271,-8.545433 -6.010732 -0.1834563,-8.40592 -4.957859 0.0163132,-8.282521 -4.284932 0.2581471,-8.18346 -3.696349 0.4375866,-8.83725 -6.096864 -0.02095556,-8.766981 -5.096258 0.1867091,-8.670594 -4.432144 0.4114711,-8.573495 -3.845568 0.5838009,-9.143571 -6.369955 0.1528158,-9.203598 -5.570678 0.3978566,-9.196465 -5.019199 0.5889102,-9.167352 -4.472953 0.7365147,5.510,
-0.8446856 -7.258018 -1.411284,-1.326426 -6.905542 -0.5230337,-1.562781 -6.302252 0.1688304,-1.375157 -5.66471 0.6604154,-1.092833 -5.011028 1.164691,-1.315044 -5.07065 0.3325675,-1.205606 -4.613773 1.198498,-1.016206 -4.223635 1.603602,-0.8002691 -3.822336 1.855973,-0.7781296 -5.032079 0.1199727,-0.6131668 -5.290713 1.009234,-0.7854404 -6.103238 0.9515882,-0.9621773 -6.388721 0.8133545,-0.3072524 -5.261919 0.01329112,-0.1658545 -5.535968 0.8070662,-0.4285421 -6.296321 0.4559128,-0.6583829 -6.520297 0.06295395,0.04954529 -5.598552 -0.0319736,0.1710143 -5.662374 0.5076921,-0.09077215 -6.180115 0.3608538,-0.3404303 -6.325517 0.131478,-8.932069 -8.463026 -0.5168282,-8.379953 -8.194576 -0.397288,-7.945849 -7.495563 -0.2597538,-7.651906 -6.915637 -0.07487434,-7.369631 -6.565648 0.1235698,-8.261212 -6.151237 -0.3657035,-8.091427 -5.217073 -0.1591724,-7.971073 -4.664228 0.03416365,-7.876345 -4.16327 0.1701759,-8.544661 -6.009395 -0.2137079,-8.408434 -4.957953 -0.02539402,-8.290687 -4.281393 0.2107018,-8.198034 -3.689152 0.3845817,-8.83426 -6.09933 -0.03693759,-8.76037 -5.102109 0.1647996,-8.664462 -4.432805 0.3856658,-8.570727 -3.844757 0.5553628,-9.139503 -6.377354 0.1495642,-9.195982 -5.569313 0.386374,-9.18781 -5.014165 0.5748856,-9.158935 -4.469886 0.7190982,5.610,
-0.8339477 -7.219915 -2.419522,-1.333143 -6.768345 -1.614774,-1.557144 -6.182587 -0.8744364,-1.395121 -5.509126 -0.3762699,-1.11861 -4.860763 0.05224454,-1.317478 -5.625526 -0.3741392,-1.175342 -4.877663 0.328992,-0.9939022 -4.274023 0.6096338,-0.7959504 -3.820468 0.8173066,-0.7666349 -5.675424 -0.5648471,-0.5595531 -5.226324 0.06485379,-0.754961 -5.649019 -0.1972026,-0.9610114 -5.937726 -0.3572892,-0.3034616 -5.811635 -0.7211592,-0.1221676 -5.379992 -0.1941851,-0.378643 -5.735158 -0.6351683,-0.6006985 -5.925235 -0.9563277,0.06051636 -5.96006 -0.7930567,0.2145815 -5.475117 -0.410581,-0.02657461 -5.718296 -0.5479573,-0.2556133 -5.899977 -0.6661539,-8.928291 -8.483633 -0.5237127,-8.37617 -8.205912 -0.3892731,-7.948373 -7.519639 -0.2403828,-7.651031 -6.93319 -0.049115,-7.357938 -6.579343 0.1597283,-8.258747 -6.18063 -0.3501465,-8.086209 -5.249382 -0.1356174,-7.960888 -4.691064 0.06254333,-7.863814 -4.189926 0.2007257,-8.543692 -6.033208 -0.2075397,-8.406181 -4.980757 -0.01129985,-8.276974 -4.299633 0.2334782,-8.172415 -3.706191 0.4140326,-8.83411 -6.1197 -0.04156032,-8.765985 -5.117342 0.1608393,-8.666502 -4.451075 0.3835144,-8.567606 -3.86854 0.5535018,-9.137722 -6.393214 0.134447,-9.199923 -5.584497 0.3762496,-9.191313 -5.031164 0.5662744,-9.161237 -4.487873 0.7083673,5.710,
-0.7907934 -7.298189 -1.457893,-1.268964 -6.919935 -0.5729278,-1.539298 -6.343578 0.1585786,-1.393844 -5.682449 0.6881589,-1.123781 -5.006569 1.197561,-1.287147 -5.230819 0.3705094,-1.168273 -4.730094 1.286303,-0.9973154 -4.330442 1.682249,-0.7897377 -3.87 1.901095,-0.7372284 -5.149341 0.1583424,-0.5084109 -5.546618 1.041871,-0.7275133 -6.290523 0.8995782,-0.9256945 -6.323108 0.7220112,-0.2638803 -5.339377 0.05197179,-0.08970451 -5.725667 0.8099173,-0.3981552 -6.366194 0.3655883,-0.6326356 -6.356481 -0.06921899,0.08479786 -5.613716 0.02261531,0.2293291 -5.797755 0.4910572,-0.0543704 -6.244846 0.2602772,-0.2959065 -6.247995 0.003315926,-8.942605 -8.471682 -0.5397848,-8.383604 -8.208178 -0.3984349,-7.950402 -7.524081 -0.249577,-7.654765 -6.937133 -0.05722782,-7.371928 -6.574204 0.1492135,-8.262867 -6.17815 -0.3754845,-8.088435 -5.249887 -0.1677715,-7.963902 -4.69856 0.0229401,-7.867324 -4.205715 0.1544337,-8.547422 -6.025997 -0.2365219,-8.402737 -4.97886 -0.05159518,-8.275298 -4.305751 0.1839213,-8.172511 -3.717605 0.3581348,-8.837366 -6.110633 -0.07289258,-8.764007 -5.107952 0.1216829,-8.664177 -4.444112 0.3405334,-8.563553 -3.860869 0.5082574,-9.140599 -6.383163 0.1027023,-9.201772 -5.583711 0.3370579,-9.194068 -5.034004 0.522687,-9.163179 -4.490967 0.6630599,5.810,
-0.8465128 -7.133132 -2.635912,-1.343819 -6.200552 -2.038768,-1.493174 -5.428703 -1.546248,-1.324923 -4.71447 -1.113359,-1.015733 -4.113104 -0.7652853,-1.012476 -5.094369 -1.139474,-0.7180643 -5.162393 -0.4763185,-0.7456689 -5.231771 -0.3852137,-0.7881174 -5.23176 -0.52466,-0.4873385 -5.293928 -1.213917,-0.1925845 -5.868068 -0.5706631,-0.4589906 -6.089746 -0.7712564,-0.6562562 -5.953401 -0.9896702,-0.0955658 -5.562406 -1.262349,0.1127448 -6.116704 -0.7120963,-0.2192059 -6.246196 -0.9687842,-0.4214439 -6.050481 -1.217716,0.1302247 -5.79956 -1.246507,0.2727246 -6.105531 -0.919046,-0.00638485 -6.225929 -0.8849756,-0.2306304 -6.155949 -0.8970877,-8.932058 -8.469986 -0.5294999,-8.384988 -8.201176 -0.3885053,-7.951963 -7.523141 -0.2335767,-7.652673 -6.944912 -0.03416994,-7.37355 -6.57716 0.1811944,-8.262677 -6.167368 -0.3574639,-8.087296 -5.238405 -0.1489397,-7.960617 -4.688591 0.04451978,-7.859768 -4.198038 0.17566,-8.543655 -6.021875 -0.2130997,-8.404908 -4.970749 -0.02493083,-8.279415 -4.298779 0.2113776,-8.177052 -3.71689 0.3820894,-8.832824 -6.108478 -0.04357356,-8.760275 -5.106855 0.1544068,-8.662418 -4.437919 0.3797566,-8.563974 -3.856415 0.5507952,-9.137525 -6.381931 0.1382055,-9.198714 -5.576339 0.3750209,-9.194772 -5.020088 0.5678657,-9.167478 -4.480501 0.7133167,5.910,Right Hand Closed 
-0.7585106 -6.721331 -3.161968,-1.243571 -6.008316 -2.446043,-1.425202 -5.404994 -1.961565,-1.326517 -4.81973 -1.590104,-1.08537 -4.273777 -1.269198,-0.9017639 -4.893867 -1.55485,-0.6639533 -5.70487 -1.020845,-0.7261963 -5.823992 -0.9593906,-0.8004222 -5.621031 -1.059289,-0.3933287 -5.089592 -1.729044,-0.1000934 -6.165274 -1.142395,-0.3103514 -6.326452 -1.177156,-0.4970446 -6.094442 -1.27324,-0.007483482 -5.322328 -1.909438,0.1847281 -6.225392 -1.396753,-0.1033626 -6.372447 -1.499347,-0.3166604 -6.133485 -1.643158,0.2003202 -5.533897 -2.031343,0.3693304 -5.98454 -1.666366,0.1141944 -6.119922 -1.494976,-0.1360993 -6.070858 -1.430529,-8.934644 -8.463509 -0.5108536,-8.384404 -8.202879 -0.3706882,-7.953414 -7.516267 -0.2226121,-7.655424 -6.938979 -0.03136319,-7.369033 -6.589416 0.1794124,-8.261535 -6.153512 -0.3325086,-8.08545 -5.223901 -0.1285646,-7.960558 -4.675056 0.0629667,-7.862592 -4.18209 0.1960896,-8.544369 -6.011058 -0.1884273,-8.405628 -4.960262 -0.002401948,-8.283216 -4.28631 0.2317377,-8.184737 -3.69922 0.40298,-8.833328 -6.100737 -0.01930135,-8.759084 -5.097506 0.1776515,-8.660321 -4.428483 0.3982959,-8.561819 -3.843256 0.5690544,-9.137249 -6.379442 0.1612797,-9.194625 -5.569637 0.3987401,-9.187869 -5.014062 0.5896453,-9.158441 -4.471439 0.7359926,6.010,
-0.6232185 -6.270538 -5.375301,-1.183928 -5.617011 -4.659625,-1.438422 -5.273951 -4.175355,-1.43304 -4.76159 -3.823281,-1.283937 -4.195704 -3.518668,-0.8592548 -5.18721 -3.91512,-0.7322283 -5.901509 -3.513365,-0.7696118 -5.741924 -3.424184,-0.8025274 -5.419285 -3.451764,-0.3569555 -5.37013 -4.11749,-0.2254505 -6.227815 -3.570482,-0.356389 -6.088636 -3.544283,-0.4614048 -5.810949 -3.546007,0.01764011 -5.458044 -4.35495,0.06477451 -6.126462 -3.883711,-0.1523833 -6.052099 -3.955653,-0.3017235 -5.760225 -4.082249,0.2166533 -5.447048 -4.538185,0.3125076 -5.694046 -4.186182,0.1144409 -5.634069 -3.989468,-0.0694809 -5.491003 -3.909416,-8.927617 -8.475807 -0.5070327,-8.381401 -8.199627 -0.3858639,-7.94954 -7.502384 -0.2457032,-7.650273 -6.92325 -0.06073308,-7.368508 -6.564659 0.144748,-8.267168 -6.16094 -0.354008,-8.092109 -5.236364 -0.1450016,-7.96463 -4.689662 0.05204558,-7.863291 -4.196794 0.1876151,-8.548026 -6.018233 -0.2029772,-8.411145 -4.965667 -0.01292649,-8.284285 -4.286868 0.2253492,-8.18203 -3.696744 0.3988611,-8.836001 -6.107344 -0.02811024,-8.76403 -5.10786 0.1720011,-8.662523 -4.437688 0.3943942,-8.562099 -3.854167 0.565197,-9.138006 -6.386009 0.1566543,-9.195017 -5.578238 0.3977427,-9.185985 -5.02144 0.587363,-9.156646 -4.47787 0.7322463,6.110,Right Hand Closed 
-0.5995197 -6.022804 -4.624632,-1.072455 -5.429115 -3.808674,-1.324417 -5.247195 -3.254103,-1.322439 -4.84767 -2.854256,-1.17338 -4.347589 -2.554126,-0.8597875 -5.310089 -2.736555,-0.633215 -5.997503 -2.270464,-0.6615877 -5.811636 -2.274879,-0.7017345 -5.436096 -2.356288,-0.3654766 -5.461717 -2.947273,-0.08581734 -6.372289 -2.286257,-0.2484674 -6.252683 -2.353147,-0.3944139 -5.86889 -2.453305,0.009588242 -5.527465 -3.197015,0.223372 -6.292072 -2.676255,-0.03307438 -6.251741 -2.853744,-0.2307382 -5.874065 -3.047085,0.2290006 -5.487962 -3.382368,0.4030991 -5.933127 -2.910506,0.1705036 -5.936251 -2.653919,-0.06165886 -5.746904 -2.525875,-8.948125 -8.438009 -0.5699869,-8.3999 -8.176491 -0.4433954,-7.959222 -7.502958 -0.3002654,-7.652884 -6.935373 -0.1076974,-7.367765 -6.571565 0.1028393,-8.267828 -6.142345 -0.4336883,-8.087634 -5.210352 -0.2457362,-7.963381 -4.660144 -0.05893397,-7.864575 -4.171249 0.06805551,-8.54808 -5.999544 -0.2865552,-8.406842 -4.948587 -0.1215975,-8.285396 -4.275367 0.1049141,-8.186888 -3.696373 0.2723328,-8.835502 -6.086586 -0.1138673,-8.756209 -5.084089 0.06876105,-8.656167 -4.413116 0.2924136,-8.553868 -3.834482 0.4652566,-9.138553 -6.359197 0.07146209,-9.197186 -5.557323 0.2995833,-9.191753 -5.006132 0.4918673,-9.160997 -4.468979 0.6389145,6.210,Right Hand Closed 
-0.6658888 -6.580993 -3.457909,-1.179441 -5.863731 -2.831855,-1.384712 -5.336609 -2.322756,-1.30534 -4.768756 -1.883803,-1.047987 -4.227843 -1.550468,-0.9632587 -5.195909 -1.668479,-0.661027 -5.771355 -0.9962196,-0.6421437 -5.709463 -0.8893588,-0.6397142 -5.504825 -0.9741907,-0.4004755 -5.355348 -1.751696,-0.06825638 -6.425265 -1.097194,-0.3011761 -6.435479 -1.319911,-0.506011 -6.062555 -1.505956,0.02122545 -5.567934 -1.799354,0.2823248 -6.477632 -1.228236,-0.04874086 -6.459249 -1.519553,-0.2762351 -6.113761 -1.745744,0.2670951 -5.735671 -1.792209,0.460536 -6.326368 -1.369209,0.189446 -6.391888 -1.265573,-0.05149174 -6.252553 -1.207957,-8.938484 -8.454268 -0.5430409,-8.386474 -8.194778 -0.3968892,-7.951771 -7.505855 -0.2378832,-7.65517 -6.929237 -0.03310251,-7.374178 -6.564926 0.1896576,-8.263372 -6.148859 -0.3652923,-8.090725 -5.220375 -0.1565295,-7.965242 -4.672296 0.03801095,-7.865477 -4.18273 0.1743907,-8.547034 -6.011777 -0.2177075,-8.412105 -4.961659 -0.02475107,-8.292884 -4.287433 0.2134774,-8.198137 -3.701127 0.3902084,-8.835195 -6.102867 -0.04265648,-8.761952 -5.102684 0.1645333,-8.660773 -4.436864 0.3913571,-8.559818 -3.857326 0.56661,-9.139745 -6.378494 0.144839,-9.197252 -5.572294 0.3848833,-9.191189 -5.02213 0.5761335,-9.163261 -4.484966 0.7261144,6.310,Right Hand Closed 
-0.5102339 -7.413825 -0.505971,-1.059258 -7.146573 0.5259445,-1.39517 -6.471412 1.316933,-1.21511 -5.768411 1.922716,-0.9185886 -5.088802 2.524485,-1.105717 -5.32225 1.499127,-0.9506865 -4.84374 2.50799,-0.7909412 -4.522219 3.009932,-0.6430101 -4.191249 3.282946,-0.530509 -5.04875 1.275942,-0.2541165 -5.752098 2.262742,-0.4599285 -6.609996 2.193331,-0.67837 -6.754688 2.077928,-0.03310585 -5.175266 1.16077,0.1603179 -5.95161 2.066472,-0.09498787 -6.704928 1.762433,-0.3332176 -6.77008 1.435997,0.3480678 -5.407909 1.136172,0.5144091 -5.923999 1.715716,0.2612815 -6.538333 1.6545,0.003368855 -6.641292 1.558475,-8.927477 -8.459063 -0.5591611,-8.38003 -8.196245 -0.4241004,-7.951138 -7.512664 -0.2858794,-7.658138 -6.933454 -0.1038025,-7.377078 -6.577859 0.09475636,-8.260507 -6.156958 -0.4299146,-8.086627 -5.237417 -0.2248704,-7.96 -4.687273 -0.03031129,-7.859252 -4.19483 0.1019406,-8.543343 -6.013443 -0.2883923,-8.408524 -4.96076 -0.1057141,-8.285493 -4.280729 0.1275421,-8.184482 -3.693272 0.294522,-8.83169 -6.10002 -0.1197934,-8.762817 -5.099197 0.07366687,-8.666122 -4.433375 0.2929413,-8.56776 -3.853571 0.4588972,-9.133227 -6.372783 0.0610013,-9.191389 -5.573911 0.2953635,-9.183522 -5.022087 0.4841417,-9.15396 -4.487508 0.6253749,6.410,
-0.6439285 -7.118217 -2.847881,-1.130507 -6.683496 -2.116544,-1.474375 -6.192419 -1.318593,-1.368715 -5.53241 -0.7440776,-1.038244 -5.000614 -0.3318893,-1.241685 -6.315767 -0.5511624,-1.044838 -5.557905 0.1790272,-0.9178715 -4.907184 0.1803499,-0.7639246 -4.438732 0.1423904,-0.6745386 -6.339557 -0.692232,-0.2822948 -5.667869 0.01044905,-0.4721518 -5.571708 -0.441451,-0.6790619 -5.480501 -0.7856039,-0.1832142 -6.323729 -0.8126544,0.1518497 -5.769091 -0.3523344,-0.1412592 -5.699485 -1.008582,-0.4074564 -5.531481 -1.441006,0.1960425 -6.24517 -0.8478664,0.4586625 -5.933572 -0.6237344,0.1878724 -5.898525 -0.8573041,-0.08725262 -5.790084 -1.011409,-8.917739 -8.477053 -0.5382264,-8.373574 -8.217184 -0.4007906,-7.944755 -7.53633 -0.2555491,-7.649362 -6.957565 -0.0693588,-7.364148 -6.599454 0.134065,-8.247232 -6.179925 -0.3795167,-8.069449 -5.260454 -0.1637339,-7.940845 -4.713734 0.03399992,-7.841378 -4.225619 0.1671165,-8.528505 -6.029839 -0.2359668,-8.387273 -4.985361 -0.03761327,-8.254715 -4.313037 0.204046,-8.146797 -3.728206 0.3763803,-8.817469 -6.116601 -0.06642261,-8.746824 -5.12371 0.1431812,-8.646403 -4.465093 0.3700758,-8.5446 -3.889 0.5404667,-9.118423 -6.392753 0.1138411,-9.177126 -5.600519 0.3643501,-9.171489 -5.049718 0.5581964,-9.142847 -4.506187 0.7035844,6.510,
-0.6569638 -7.465686 -0.9908752,-1.170982 -7.105821 -0.09519577,-1.572026 -6.606765 0.7195981,-1.481272 -6.068669 1.331293,-1.129077 -5.528754 1.834792,-1.354567 -5.454059 1.004156,-1.261689 -5.097997 1.952739,-1.097402 -4.742391 2.311355,-0.904294 -4.253994 2.506927,-0.7630239 -5.31854 0.8385835,-0.4705954 -5.822883 1.818605,-0.6444607 -6.44284 1.725715,-0.8316422 -6.302064 1.619988,-0.2265329 -5.459844 0.7607543,0.001166344 -6.039992 1.558998,-0.3111577 -6.60561 1.074516,-0.5482521 -6.415211 0.6470211,0.1851916 -5.713796 0.7591372,0.347507 -6.147331 1.188637,0.03587914 -6.60592 0.8989744,-0.2269368 -6.515148 0.6358392,-8.929072 -8.484907 -0.5577582,-8.377152 -8.236311 -0.4382058,-7.941316 -7.54339 -0.305336,-7.635471 -6.966429 -0.1301033,-7.350448 -6.611333 0.06236345,-8.254277 -6.189413 -0.4271269,-8.080187 -5.266332 -0.226929,-7.948132 -4.726366 -0.03366172,-7.842118 -4.245225 0.098791,-8.536262 -6.041353 -0.2772619,-8.398272 -4.989503 -0.09896487,-8.265503 -4.318162 0.1295339,-8.154871 -3.738798 0.295825,-8.824553 -6.12956 -0.1027644,-8.752969 -5.123529 0.0892818,-8.647552 -4.461631 0.3060271,-8.540346 -3.884665 0.4733142,-9.124598 -6.409408 0.08302349,-9.184225 -5.611269 0.3191552,-9.176741 -5.058044 0.5067773,-9.146324 -4.51754 0.6503407,6.610,
-0.7359838 -7.485534 -1.830265,-1.221533 -7.13717 -0.9597744,-1.572436 -6.631559 -0.1942779,-1.508784 -6.026424 0.3791907,-1.204062 -5.460146 0.8168638,-1.334889 -5.686344 0.1376319,-1.196082 -5.180208 0.996541,-1.021916 -4.713059 1.270737,-0.840023 -4.248752 1.409359,-0.7583065 -5.639695 -0.02372551,-0.440237 -5.688379 0.884865,-0.6160717 -6.083515 0.7892745,-0.831152 -6.055645 0.6689677,-0.2570438 -5.771724 -0.125967,0.004267216 -5.864636 0.6287303,-0.2878971 -6.231576 0.1794252,-0.5421667 -6.137012 -0.226944,0.1359019 -5.987145 -0.135268,0.3439975 -5.940138 0.2972031,0.04731655 -6.227145 0.1008974,-0.2322321 -6.234105 -0.1197709,-8.93627 -8.508131 -0.5057559,-8.380549 -8.254532 -0.3901369,-7.94779 -7.560429 -0.2635369,-7.648452 -6.980071 -0.09090021,-7.363901 -6.61984 0.09788847,-8.255322 -6.193367 -0.395504,-8.085026 -5.275603 -0.2118756,-7.955567 -4.731313 -0.02715102,-7.848365 -4.251865 0.1002133,-8.538487 -6.047575 -0.2497572,-8.404272 -5.007125 -0.09210226,-8.277231 -4.347772 0.1280476,-8.169564 -3.783485 0.2902,-8.827469 -6.131302 -0.07655126,-8.755929 -5.134759 0.09724873,-8.654003 -4.484998 0.3098658,-8.549932 -3.926677 0.4714721,-9.128033 -6.402536 0.1058688,-9.189932 -5.61243 0.3261743,-9.188901 -5.068132 0.50721,-9.164055 -4.540899 0.6450055,6.710,
-0.6993866 -7.490354 -1.776886,-1.187829 -7.059892 -1.01454,-1.578941 -6.553346 -0.2392401,-1.520537 -5.956277 0.3519149,-1.161878 -5.418331 0.8239915,-1.352229 -5.704429 0.1764709,-1.260086 -5.203289 1.014122,-1.079113 -4.732158 1.233095,-0.8774548 -4.266417 1.335996,-0.7734604 -5.662344 0.06794655,-0.4830799 -5.752836 0.9824305,-0.645237 -6.096775 0.8397639,-0.8313556 -5.997364 0.6985292,-0.2591271 -5.79319 0.0163312,-0.0283165 -5.96427 0.7425752,-0.3174019 -6.298221 0.2225544,-0.5473804 -6.12737 -0.2243428,0.1424084 -5.994332 0.0373112,0.3145127 -6.109943 0.4428642,0.01380205 -6.404415 0.1887369,-0.248662 -6.34811 -0.0504005,-8.941157 -8.515577 -0.5745682,-8.384669 -8.252842 -0.4386325,-7.94627 -7.587524 -0.2980124,-7.638805 -7.018229 -0.1188554,-7.361735 -6.653877 0.07297921,-8.253835 -6.224903 -0.4333183,-8.079062 -5.304555 -0.2321463,-7.950275 -4.764087 -0.03910542,-7.848175 -4.285248 0.09051538,-8.539268 -6.078336 -0.294756,-8.405849 -5.028115 -0.1139066,-8.276615 -4.361547 0.1208122,-8.167786 -3.790893 0.2913535,-8.829683 -6.167599 -0.1314631,-8.764399 -5.165306 0.06158328,-8.664808 -4.507225 0.2821641,-8.559864 -3.936426 0.451972,-9.129028 -6.444486 0.0434767,-9.191751 -5.651275 0.2777251,-9.183637 -5.099212 0.4664941,-9.14883 -4.561821 0.6099827,6.810,
-0.7322226 -7.380613 -2.641071,-1.221335 -6.878946 -1.907439,-1.583323 -6.355407 -1.120661,-1.522183 -5.7255 -0.5562942,-1.17436 -5.23782 -0.1371188,-1.350245 -6.147928 -0.4942391,-1.241812 -5.41238 0.2780077,-1.0827 -4.766017 0.4114702,-0.9051533 -4.211835 0.482513,-0.7849474 -6.214906 -0.5998499,-0.5297108 -5.608355 0.264436,-0.6607709 -5.492815 0.08140302,-0.8087006 -5.355812 -0.08039665,-0.2734604 -6.271295 -0.6769459,-0.05054808 -5.778762 -0.0572114,-0.3233395 -5.802032 -0.5806572,-0.5677662 -5.68047 -0.9788253,0.1362863 -6.345451 -0.6869334,0.3265543 -5.894102 -0.3131614,0.03633833 -5.934844 -0.521728,-0.2516689 -5.940807 -0.6959834,-8.922587 -8.550512 -0.4901945,-8.376896 -8.274822 -0.387607,-7.943899 -7.578668 -0.2579014,-7.644298 -7.01123 -0.07824874,-7.366612 -6.650438 0.1162244,-8.260926 -6.218148 -0.3837651,-8.093796 -5.302728 -0.1999556,-7.967615 -4.758693 -0.01446438,-7.862439 -4.27632 0.1161289,-8.545053 -6.082675 -0.2302498,-8.412259 -5.046506 -0.06860951,-8.29171 -4.384565 0.1523067,-8.19204 -3.817233 0.3138986,-8.835338 -6.174572 -0.05080873,-8.760608 -5.181651 0.124929,-8.660241 -4.524467 0.3357698,-8.557878 -3.96066 0.4946208,-9.137904 -6.453359 0.1366578,-9.198068 -5.655784 0.3529343,-9.19316 -5.107582 0.5295571,-9.165375 -4.578932 0.6646479,6.910,
-0.7474027 -7.672493 -0.7591018,-1.2268 -7.249434 0.04058218,-1.579882 -6.68748 0.7776784,-1.502394 -6.050202 1.356006,-1.203305 -5.407259 1.88499,-1.329628 -5.35709 0.9340363,-1.257503 -4.954694 1.796965,-1.095596 -4.572726 2.1358,-0.9057894 -4.150728 2.30543,-0.7612495 -5.244415 0.8062686,-0.5080566 -5.763519 1.682696,-0.6851959 -6.467163 1.618623,-0.8716469 -6.426885 1.522764,-0.2518969 -5.450773 0.7771775,-0.05349016 -5.948311 1.52695,-0.3382978 -6.564853 1.102983,-0.561511 -6.483719 0.6940169,0.1439815 -5.792681 0.8188254,0.3023601 -6.065803 1.273044,0.006852627 -6.52597 1.045986,-0.249331 -6.499147 0.7983371,-8.942119 -8.544849 -0.549661,-8.386449 -8.288391 -0.4246669,-7.941928 -7.598815 -0.2915499,-7.640724 -7.017511 -0.1143009,-7.368196 -6.641912 0.0745942,-8.255844 -6.242899 -0.4573799,-8.085597 -5.32668 -0.2784564,-7.961728 -4.783077 -0.09242019,-7.858755 -4.298754 0.03324419,-8.541598 -6.09526 -0.3163885,-8.407307 -5.059675 -0.1676854,-8.28861 -4.402208 0.0511694,-8.187285 -3.836547 0.2128686,-8.833586 -6.174619 -0.1470296,-8.75443 -5.178943 0.01787817,-8.656674 -4.530572 0.2279049,-8.553949 -3.973256 0.3881424,-9.139544 -6.441108 0.03325117,-9.198184 -5.649153 0.2390227,-9.194453 -5.106007 0.4151667,-9.166003 -4.581321 0.5530965,7.010,
-0.7397337 -7.24699 -2.805712,-1.252646 -6.79864 -2.036882,-1.576419 -6.2628 -1.229234,-1.48007 -5.599006 -0.6748414,-1.181669 -5.046604 -0.2461221,-1.388551 -6.466963 -0.4943483,-1.28175 -5.63744 0.3027303,-1.133571 -4.856961 0.4490716,-0.9700246 -4.210636 0.5240953,-0.8081107 -6.525114 -0.6185694,-0.5407667 -5.660642 0.2592733,-0.6387563 -5.380992 0.06481767,-0.7780809 -5.224849 -0.1074979,-0.2804327 -6.501686 -0.7148786,-0.01392555 -5.716581 -0.1209493,-0.2591162 -5.655962 -0.6560929,-0.5122132 -5.597681 -1.036744,0.1441498 -6.453111 -0.7545938,0.3703184 -5.81113 -0.3917494,0.1130037 -5.796525 -0.5601461,-0.1768055 -5.847292 -0.6946628,-8.937781 -8.553177 -0.5282316,-8.389104 -8.281811 -0.4150418,-7.953101 -7.601596 -0.2768494,-7.650757 -7.037202 -0.0889461,-7.37518 -6.663612 0.1102018,-8.264048 -6.234618 -0.420736,-8.096693 -5.321876 -0.2315126,-7.967983 -4.779979 -0.04053649,-7.860679 -4.299144 0.09075373,-8.545238 -6.098867 -0.2670782,-8.414691 -5.064112 -0.100959,-8.291073 -4.405246 0.128841,-8.18737 -3.843456 0.293617,-8.835416 -6.190165 -0.08661723,-8.765399 -5.198807 0.09499872,-8.66676 -4.544672 0.3193489,-8.564876 -3.983166 0.4877309,-9.14011 -6.46775 0.1024244,-9.203873 -5.677938 0.3255571,-9.199678 -5.131456 0.5105186,-9.172023 -4.6065 0.6514428,7.110,
-0.7222958 -7.381952 -2.864617,-1.231093 -6.885004 -2.051197,-1.532896 -6.277538 -1.307124,-1.408538 -5.68531 -0.7762334,-1.121754 -5.13579 -0.3817022,-1.346147 -5.830595 -0.9539499,-1.198934 -5.13783 -0.2556784,-1.045896 -4.54474 -0.03634,-0.8267179 -4.076015 0.1445947,-0.7780867 -5.941326 -1.088808,-0.4664574 -5.402368 -0.3408489,-0.6659303 -5.767648 -0.5563188,-0.8850837 -5.949931 -0.7399542,-0.2717242 -6.083642 -1.179069,-0.0136776 -5.527785 -0.5978756,-0.3223681 -5.913517 -1.114845,-0.5668135 -6.026508 -1.493798,0.1268482 -6.232927 -1.174831,0.3447647 -5.665361 -0.7596037,0.02576637 -5.955762 -0.9694209,-0.2354984 -6.128397 -1.142759,-8.936996 -8.566177 -0.5511546,-8.389563 -8.297104 -0.4192718,-7.951276 -7.618659 -0.2716815,-7.64978 -7.046669 -0.07910126,-7.379474 -6.671009 0.1254303,-8.262198 -6.25721 -0.4276152,-8.094204 -5.334024 -0.2356503,-7.971421 -4.787824 -0.04801369,-7.869853 -4.306409 0.07806009,-8.547026 -6.1187 -0.2848201,-8.415915 -5.079606 -0.116699,-8.296423 -4.41808 0.1115898,-8.196527 -3.852647 0.276095,-8.837889 -6.211205 -0.1151177,-8.76762 -5.222085 0.06910765,-8.671567 -4.570303 0.2883131,-8.572088 -4.007112 0.45208,-9.140739 -6.489448 0.06541353,-9.205374 -5.699933 0.2862423,-9.204374 -5.157421 0.4699066,-9.179767 -4.630481 0.609277,7.210,
-0.7001696 -7.353827 -2.554721,-1.201796 -6.824012 -1.764966,-1.538446 -6.265995 -0.9429789,-1.459039 -5.670879 -0.3575709,-1.09932 -5.184362 0.08738899,-1.348954 -6.088066 -0.3581092,-1.228091 -5.302881 0.4085793,-1.041421 -4.63366 0.5708697,-0.8358421 -4.131898 0.6752555,-0.7635555 -6.206689 -0.4751456,-0.4824934 -5.507366 0.3552513,-0.6008468 -5.421342 0.1257548,-0.7589817 -5.371116 -0.03843093,-0.2305946 -6.293718 -0.5548997,0.02495241 -5.692707 0.0403893,-0.2461214 -5.748594 -0.5121386,-0.5007677 -5.732265 -0.8990772,0.1971707 -6.384576 -0.5543668,0.4045405 -5.830283 -0.1889563,0.1181064 -5.875286 -0.4056981,-0.1719551 -5.938392 -0.5745252,-8.945578 -8.557552 -0.5766432,-8.393486 -8.304499 -0.4466907,-7.957185 -7.633768 -0.307575,-7.655057 -7.063591 -0.1227278,-7.383118 -6.687821 0.07354701,-8.258926 -6.262111 -0.4754471,-8.088109 -5.33785 -0.2880722,-7.966322 -4.792755 -0.09875321,-7.868479 -4.311094 0.02774853,-8.545592 -6.116606 -0.3341538,-8.411283 -5.076086 -0.1755754,-8.290281 -4.420198 0.04651415,-8.188517 -3.857801 0.2061254,-8.839082 -6.200465 -0.1649419,-8.767144 -5.203674 0.008710027,-8.671085 -4.555202 0.2217535,-8.569674 -3.994247 0.3832713,-9.144082 -6.471098 0.01737505,-9.209273 -5.680608 0.2285809,-9.206926 -5.135998 0.4068571,-9.178672 -4.606085 0.5417478,7.310,
-0.690134 -6.975236 -3.180936,-1.21876 -6.512224 -2.391381,-1.56136 -6.057333 -1.596535,-1.524644 -5.390266 -1.039283,-1.197688 -4.842221 -0.663106,-1.300426 -6.498147 -0.8429093,-1.115248 -5.720447 -0.1660087,-1.014946 -4.981628 -0.2099762,-0.8566217 -4.403615 -0.2795193,-0.7457185 -6.639095 -1.010489,-0.4101992 -5.683076 -0.3728566,-0.6095066 -5.312235 -0.8207154,-0.7988577 -5.116878 -1.101984,-0.2541795 -6.622672 -1.150655,0.04990292 -5.706863 -0.7172713,-0.2462354 -5.434372 -1.332066,-0.514369 -5.262328 -1.664649,0.1256838 -6.524585 -1.206509,0.3846025 -5.80636 -0.9032459,0.07446241 -5.619904 -1.060967,-0.208313 -5.563336 -1.133939,-8.941546 -8.582045 -0.5358099,-8.385664 -8.310226 -0.4240063,-7.949232 -7.63187 -0.2907749,-7.657193 -7.057733 -0.1103196,-7.394747 -6.684879 0.08307254,-8.262627 -6.266716 -0.446235,-8.09457 -5.35309 -0.2586181,-7.971478 -4.812512 -0.06871158,-7.873012 -4.33394 0.05809367,-8.547662 -6.127812 -0.2976232,-8.416439 -5.093248 -0.1374379,-8.294182 -4.437661 0.08946508,-8.195159 -3.875605 0.2521082,-8.838308 -6.219755 -0.1209229,-8.770443 -5.233295 0.05538553,-8.676105 -4.58657 0.2719182,-8.580751 -4.026013 0.4352729,-9.140133 -6.497257 0.06548262,-9.203635 -5.703449 0.2781357,-9.19989 -5.159579 0.4567827,-9.173478 -4.634712 0.5920277,7.410,
-0.8726807 -7.204839 0.8059391,-1.479578 -6.798795 1.706515,-1.761409 -6.130901 2.504478,-1.700236 -5.627495 3.190508,-1.460619 -5.220512 3.736432,-1.092131 -4.752412 3.036657,-0.9443703 -4.996121 3.9563,-1.033296 -5.469686 3.970747,-1.076546 -5.559032 3.748923,-0.488802 -4.691236 2.965024,-0.4961505 -6.208769 3.790259,-0.7375879 -6.791881 3.396974,-0.8251085 -6.518613 3.072453,-0.06122255 -5.023306 2.982259,-0.1568542 -6.500321 3.678675,-0.4383922 -6.92551 3.245358,-0.5099039 -6.656332 2.962816,0.2528262 -5.474874 3.100641,0.2081137 -6.434158 3.425325,-0.0846777 -6.888299 3.399436,-0.2167664 -6.844514 3.389294,-8.941689 -8.583618 -0.5677242,-8.384089 -8.318239 -0.4358348,-7.945004 -7.651767 -0.2898746,-7.649508 -7.077692 -0.09877089,-7.388148 -6.689658 0.10171,-8.257332 -6.282185 -0.4474598,-8.088158 -5.361158 -0.2533902,-7.968519 -4.822141 -0.06043178,-7.870856 -4.340705 0.06688881,-8.542118 -6.142019 -0.3057769,-8.411432 -5.106892 -0.1374258,-8.294697 -4.4545 0.0928455,-8.196988 -3.894389 0.2590514,-8.833076 -6.231545 -0.1360481,-8.762033 -5.243175 0.04508686,-8.670078 -4.598697 0.2672231,-8.573501 -4.043602 0.434691,-9.136171 -6.507268 0.04480267,-9.199751 -5.715389 0.2595961,-9.197575 -5.170406 0.4442836,-9.170968 -4.643938 0.5857482,7.510,
-0.6856909 -7.478357 0.02208945,-1.277317 -7.263563 0.9901398,-1.665677 -6.6162 1.751322,-1.581005 -5.95042 2.344989,-1.254932 -5.33706 2.92596,-1.332317 -5.158458 2.005803,-1.303326 -4.735131 2.999332,-1.186522 -4.365332 3.546585,-1.051189 -4.062377 3.872205,-0.7542877 -4.966334 1.857922,-0.6466632 -5.453498 2.884843,-0.7956066 -6.285897 2.948187,-0.9337406 -6.632944 2.934503,-0.243639 -5.210018 1.78657,-0.1585827 -5.847798 2.756936,-0.3873587 -6.61788 2.569952,-0.5658207 -6.8622 2.311702,0.1760321 -5.602823 1.788693,0.2843132 -5.948287 2.431009,0.01760626 -6.598175 2.41119,-0.2238045 -6.838787 2.334997,-8.936228 -8.572046 -0.5910456,-8.381179 -8.309828 -0.4607353,-7.938611 -7.644632 -0.3151636,-7.636185 -7.072116 -0.1236438,-7.37485 -6.678957 0.0773865,-8.250634 -6.27672 -0.478124,-8.079738 -5.360387 -0.2863189,-7.95823 -4.821477 -0.09747866,-7.858213 -4.344631 0.0263316,-8.535158 -6.136762 -0.3358766,-8.403023 -5.108558 -0.1714415,-8.284387 -4.459272 0.0543164,-8.183284 -3.902208 0.2161329,-8.826274 -6.227883 -0.164356,-8.755952 -5.249433 0.01834422,-8.664991 -4.60534 0.240428,-8.566373 -4.046595 0.4086341,-9.128682 -6.505115 0.01841527,-9.194568 -5.720216 0.236406,-9.194326 -5.177446 0.4223419,-9.16588 -4.649568 0.5652102,7.610,
-0.7822671 -7.557861 -0.4979466,-1.29223 -7.228416 0.3408567,-1.692899 -6.641256 1.101767,-1.662224 -6.096559 1.721979,-1.28677 -5.589595 2.298177,-1.414376 -5.14682 1.258955,-1.396558 -4.700853 2.141197,-1.247479 -4.335025 2.563946,-1.082657 -4.06184 2.799005,-0.8102002 -5.101863 1.160238,-0.6357412 -5.345438 2.146288,-0.7728624 -6.031499 2.306824,-0.9359226 -6.281297 2.347668,-0.2712917 -5.352643 1.117194,-0.136457 -5.748084 1.967436,-0.3908482 -6.450874 1.717538,-0.6075077 -6.617855 1.412975,0.1608214 -5.758766 1.140572,0.2766776 -5.870744 1.683463,-0.009276867 -6.390577 1.578538,-0.2703371 -6.534524 1.393472,-8.923652 -8.598053 -0.587883,-8.368095 -8.35219 -0.4582809,-7.928108 -7.673725 -0.3253074,-7.632312 -7.089261 -0.1525984,-7.374313 -6.704814 0.0267272,-8.24372 -6.304542 -0.4743921,-8.073715 -5.387868 -0.2908994,-7.951494 -4.848423 -0.1097666,-7.85067 -4.374108 0.01000232,-8.53056 -6.159397 -0.3440101,-8.395658 -5.122343 -0.1894037,-8.276349 -4.469064 0.02752328,-8.174735 -3.91089 0.1848623,-8.822485 -6.249731 -0.1856528,-8.748458 -5.257673 -0.01543742,-8.65575 -4.616009 0.1941022,-8.556735 -4.064411 0.3550048,-9.123693 -6.525985 -0.01768458,-9.189055 -5.739631 0.1898445,-9.191338 -5.20147 0.369201,-9.16665 -4.684194 0.5061387,7.710,
-0.7774401 -7.499147 -0.7543617,-1.293797 -7.240363 0.1008381,-1.697678 -6.661249 0.8527942,-1.64664 -6.073699 1.471281,-1.30532 -5.494062 2.038291,-1.444909 -5.257932 1.036548,-1.421894 -4.760917 1.962093,-1.281173 -4.352998 2.419687,-1.127313 -4.052497 2.67592,-0.8477345 -5.147581 0.9244324,-0.6588278 -5.420604 1.905071,-0.7996249 -6.146244 2.002253,-0.9717922 -6.397247 1.987146,-0.3038845 -5.357345 0.8819927,-0.1521454 -5.776959 1.728561,-0.4019842 -6.48196 1.446765,-0.6225934 -6.642282 1.127122,0.1384077 -5.705142 0.9118514,0.2796378 -5.876039 1.473421,0.001504898 -6.402521 1.375979,-0.2697363 -6.545105 1.202889,-8.92059 -8.595158 -0.615213,-8.36348 -8.339678 -0.4770694,-7.924137 -7.679571 -0.3314057,-7.624531 -7.09971 -0.147361,-7.36509 -6.692832 0.04367578,-8.236269 -6.313327 -0.4831154,-8.064957 -5.394179 -0.2906763,-7.94121 -4.859221 -0.1055678,-7.838936 -4.388815 0.01497871,-8.521962 -6.167587 -0.3500209,-8.390751 -5.128406 -0.1828613,-8.270264 -4.479982 0.04240799,-8.1651 -3.926122 0.2042642,-8.814082 -6.256969 -0.1886015,-8.74297 -5.265558 -0.00913763,-8.649745 -4.62017 0.214003,-8.547242 -4.063231 0.3853195,-9.116283 -6.53346 -0.01632595,-9.181098 -5.74648 0.2038274,-9.182941 -5.200104 0.3948482,-9.155386 -4.669216 0.5431571,7.810,
-0.7480993 -7.550266 -1.624388,-1.276068 -7.191488 -0.7790692,-1.647618 -6.662329 0.01073885,-1.618834 -6.12363 0.6313655,-1.305827 -5.571441 1.16919,-1.445141 -5.551505 0.2158377,-1.425051 -4.973823 1.11811,-1.25789 -4.478002 1.516799,-1.078833 -4.09822 1.741319,-0.8266625 -5.568962 0.1210974,-0.6169543 -5.360261 1.181704,-0.7189083 -5.717831 1.343131,-0.878603 -5.815776 1.375652,-0.2795296 -5.749948 0.08420384,-0.09705782 -5.769449 0.9571934,-0.3496952 -6.290052 0.63275,-0.5949945 -6.372137 0.282815,0.159687 -6.027721 0.1182977,0.3216138 -5.890434 0.6850002,0.04066658 -6.281845 0.5579605,-0.2363863 -6.391321 0.3566613,-8.922197 -8.594482 -0.6324659,-8.372076 -8.340208 -0.5004391,-7.931245 -7.671621 -0.3537462,-7.630575 -7.099391 -0.159917,-7.37229 -6.706336 0.04126078,-8.238029 -6.310686 -0.5299343,-8.068557 -5.392608 -0.3483146,-7.948937 -4.850512 -0.1676064,-7.848433 -4.377327 -0.04920542,-8.520784 -6.169935 -0.3908153,-8.386453 -5.13636 -0.2410635,-8.271606 -4.490488 -0.0324558,-8.172701 -3.940767 0.1205559,-8.810888 -6.257518 -0.2208698,-8.736253 -5.268888 -0.05438012,-8.64108 -4.625619 0.1552804,-8.536612 -4.07007 0.313337,-9.114279 -6.531091 -0.03815812,-9.180653 -5.749282 0.1675586,-9.180383 -5.212394 0.3457723,-9.149652 -4.689043 0.4838725,7.910,
-0.7324448 -7.683418 0.2232471,-1.260417 -7.287707 1.074615,-1.671535 -6.733352 1.85175,-1.632467 -6.215798 2.496622,-1.2753 -5.579002 3.092936,-1.39653 -5.113756 1.977943,-1.37618 -4.824531 2.888458,-1.224775 -4.509788 3.350166,-1.01473 -4.163107 3.644121,-0.7790031 -4.968351 1.857942,-0.5770493 -5.718906 2.803584,-0.7481794 -6.535394 2.841851,-0.9132938 -6.560306 2.813353,-0.2129874 -5.218463 1.837051,-0.0672617 -6.020123 2.620829,-0.3849545 -6.73426 2.24869,-0.599134 -6.676509 1.893136,0.2348008 -5.617548 1.886817,0.3407121 -6.159503 2.319896,-0.005023003 -6.732734 2.051831,-0.2606902 -6.71524 1.774595,-8.930965 -8.596201 -0.6353151,-8.37083 -8.358921 -0.5066839,-7.92613 -7.695944 -0.3725721,-7.628349 -7.118623 -0.1936338,-7.37282 -6.718992 -0.01053399,-8.236458 -6.319622 -0.5414873,-8.071221 -5.399919 -0.3674052,-7.951773 -4.857816 -0.1900794,-7.849722 -4.384424 -0.07114726,-8.521894 -6.172328 -0.4085721,-8.387978 -5.141603 -0.2652566,-8.269887 -4.497029 -0.0539332,-8.166779 -3.949348 0.100363,-8.814451 -6.252994 -0.2462959,-8.737325 -5.266241 -0.08665198,-8.641311 -4.627378 0.1267249,-8.535911 -4.080308 0.2903469,-9.118305 -6.519781 -0.07289189,-9.187673 -5.743311 0.126996,-9.189182 -5.207553 0.3098769,-9.159263 -4.688618 0.4512278,8.010,
-0.7155571 -7.589292 -0.9420186,-1.231246 -7.211212 -0.07865202,-1.60767 -6.64093 0.7215712,-1.559258 -6.092269 1.369528,-1.219695 -5.536445 1.927635,-1.349527 -5.395415 0.9257318,-1.28432 -4.934492 1.859163,-1.109548 -4.497545 2.27283,-0.9228902 -4.090198 2.497138,-0.7456589 -5.365306 0.8185956,-0.4829397 -5.621891 1.879834,-0.6467533 -6.164764 1.986586,-0.8599677 -6.219123 1.977356,-0.1995869 -5.570802 0.7781066,0.01415396 -5.943515 1.653566,-0.2783074 -6.472263 1.322839,-0.5396214 -6.458386 0.9618709,0.2426786 -5.879877 0.8183264,0.4229689 -6.065516 1.345299,0.1069107 -6.50568 1.18118,-0.191853 -6.551404 0.9579321,-8.935794 -8.614735 -0.6048639,-8.387828 -8.362331 -0.4595729,-7.941865 -7.686225 -0.305387,-7.638908 -7.110567 -0.1066876,-7.37593 -6.713487 0.09617877,-8.254704 -6.328706 -0.4656616,-8.085044 -5.415466 -0.2789603,-7.966494 -4.874473 -0.1015461,-7.868347 -4.401374 0.01421094,-8.538067 -6.184496 -0.3351789,-8.40178 -5.162803 -0.1811294,-8.289188 -4.522867 0.02841341,-8.193408 -3.975744 0.1840276,-8.828639 -6.269464 -0.1753609,-8.753247 -5.289739 -0.00173825,-8.660169 -4.648881 0.2119125,-8.5581 -4.097394 0.3703341,-9.133233 -6.536975 -0.003881931,-9.200154 -5.761687 0.2057484,-9.201655 -5.229976 0.383971,-9.171805 -4.711338 0.5212852,8.110,
-0.7241659 -7.531457 -2.084523,-1.256946 -7.112295 -1.251715,-1.612504 -6.511845 -0.456558,-1.566076 -5.871815 0.139029,-1.23289 -5.353776 0.5714817,-1.304695 -5.932556 0.006804466,-1.23798 -5.189767 0.8679726,-1.116898 -4.543611 1.121706,-0.9935622 -3.969029 1.244544,-0.7093506 -5.988815 -0.1043214,-0.4614344 -5.487741 0.8787744,-0.6039095 -5.513816 0.8745394,-0.7843208 -5.484554 0.7939398,-0.1933818 -6.110145 -0.1843797,0.03049994 -5.767285 0.5766776,-0.2270784 -5.906083 0.1993117,-0.4785523 -5.881146 -0.151876,0.2223473 -6.279991 -0.1895931,0.4233251 -5.888065 0.3038213,0.1532903 -6.012809 0.2168667,-0.1300974 -6.080047 0.08592248,-8.947228 -8.630434 -0.6084945,-8.384033 -8.390301 -0.4708151,-7.939595 -7.716086 -0.3301607,-7.642951 -7.130677 -0.1474898,-7.383276 -6.725753 0.03477001,-8.256306 -6.351526 -0.4921894,-8.08777 -5.434165 -0.3174276,-7.969695 -4.893194 -0.1428388,-7.870522 -4.419691 -0.02358067,-8.540483 -6.19992 -0.3655168,-8.405763 -5.174158 -0.2202035,-8.292773 -4.531669 -0.007708371,-8.194272 -3.978218 0.1534367,-8.833268 -6.279312 -0.2104988,-8.75503 -5.296386 -0.04963607,-8.661187 -4.657131 0.162105,-8.559664 -4.106991 0.3277453,-9.140686 -6.544296 -0.04489118,-9.208474 -5.769057 0.1536992,-9.21264 -5.238916 0.3329656,-9.186967 -4.725031 0.476263,8.210,
-0.8749337 -7.786568 0.5301687,-1.374789 -7.305683 1.441347,-1.7065 -6.678282 2.189003,-1.611154 -6.12009 2.80199,-1.24152 -5.523221 3.430707,-1.344872 -4.92486 2.067897,-1.316446 -4.571075 2.984616,-1.182419 -4.206069 3.452903,-0.9931126 -3.805459 3.712888,-0.7681684 -4.82941 1.891991,-0.6193905 -5.46848 2.854955,-0.8184795 -6.483112 2.928841,-0.9934244 -6.82815 2.83009,-0.2551241 -5.139781 1.854913,-0.1336479 -5.73461 2.681468,-0.4214687 -6.658847 2.431075,-0.6326079 -6.908547 2.09376,0.1304774 -5.636112 1.879756,0.2300625 -5.907777 2.411301,-0.06165695 -6.575462 2.25699,-0.2925744 -6.746703 2.006689,-8.95971 -8.677555 -0.5870761,-8.401811 -8.41873 -0.4369431,-7.958653 -7.742942 -0.2816799,-7.659893 -7.158023 -0.08331853,-7.388256 -6.743894 0.1201074,-8.275508 -6.391 -0.4313356,-8.111257 -5.471752 -0.2459428,-7.992662 -4.928593 -0.07042408,-7.892816 -4.450723 0.04817885,-8.561819 -6.243337 -0.3071185,-8.431126 -5.219509 -0.1538662,-8.321733 -4.57689 0.06078458,-8.226048 -4.021224 0.2218528,-8.854486 -6.32769 -0.1540929,-8.780273 -5.346704 0.01607996,-8.692171 -4.707372 0.2337543,-8.593354 -4.156304 0.4005061,-9.161032 -6.595607 0.009114325,-9.228724 -5.822711 0.2156537,-9.235868 -5.296302 0.3979585,-9.212124 -4.78375 0.5415639,8.310,
-0.9611378 -7.622283 -0.1694522,-1.47672 -7.312349 0.7484063,-1.800834 -6.712965 1.4411,-1.755717 -6.136398 2.028746,-1.476765 -5.520097 2.648448,-1.484233 -4.992546 1.377208,-1.433736 -4.546707 2.191673,-1.288022 -4.236742 2.721663,-1.10497 -4.047917 3.084436,-0.9280548 -4.902709 1.226908,-0.711482 -5.27152 2.161735,-0.8482709 -6.279342 2.396804,-1.010722 -6.858923 2.435353,-0.4408102 -5.195054 1.161843,-0.2557454 -5.571123 1.994301,-0.4571738 -6.504772 1.944087,-0.6452608 -6.947885 1.768803,-0.05600548 -5.638491 1.165615,0.1162133 -5.782059 1.782671,-0.1003933 -6.495412 1.810899,-0.3111234 -6.815937 1.698911,-8.987388 -8.693132 -0.6140265,-8.425116 -8.442829 -0.4675228,-7.975863 -7.775137 -0.317232,-7.668982 -7.196438 -0.1249587,-7.395111 -6.790718 0.07019436,-8.289175 -6.415941 -0.4741252,-8.130514 -5.501264 -0.3003757,-8.018083 -4.95821 -0.1298174,-7.918516 -4.479685 -0.01206625,-8.576846 -6.26675 -0.3530326,-8.450508 -5.255495 -0.2119763,-8.346403 -4.614116 0.005308151,-8.252385 -4.063411 0.1734446,-8.87173 -6.347784 -0.2049435,-8.798902 -5.384541 -0.04545832,-8.710839 -4.750637 0.1731447,-8.610394 -4.206164 0.3388975,-9.182688 -6.611952 -0.04653436,-9.251807 -5.854642 0.1499925,-9.255157 -5.334882 0.3279527,-9.226138 -4.830084 0.4686638,8.410,
-1.054402 -7.756261 -0.280843,-1.551625 -7.396644 0.6806158,-1.854156 -6.791654 1.330175,-1.841015 -6.121265 1.856097,-1.623026 -5.41281 2.430048,-1.579549 -5.04829 1.091227,-1.5334 -4.602844 1.773927,-1.40253 -4.388509 2.280473,-1.253362 -4.368356 2.666109,-1.078726 -4.978005 0.9167806,-0.8557024 -5.252893 1.799578,-0.9170079 -6.279397 2.118049,-1.027087 -7.038416 2.208778,-0.6320286 -5.234142 0.8193215,-0.4174137 -5.497962 1.601666,-0.532125 -6.469829 1.655377,-0.6666131 -7.086243 1.570963,-0.2496595 -5.620632 0.8004608,-0.04623222 -5.701967 1.439705,-0.1876917 -6.43869 1.568169,-0.3463802 -6.869042 1.53125,-8.987427 -8.716644 -0.6328232,-8.418726 -8.464527 -0.490635,-7.974093 -7.792238 -0.3425551,-7.674761 -7.207017 -0.1536814,-7.410394 -6.792331 0.03761494,-8.294736 -6.438661 -0.4975454,-8.146866 -5.521239 -0.3282724,-8.04065 -4.975687 -0.1611291,-7.947406 -4.493312 -0.03960228,-8.582832 -6.293981 -0.3789642,-8.46341 -5.276617 -0.2369233,-8.364142 -4.624506 -0.01232338,-8.274895 -4.057424 0.1656498,-8.878511 -6.379786 -0.2354738,-8.806165 -5.41326 -0.07404101,-8.721262 -4.769981 0.1463506,-8.626243 -4.213904 0.3153654,-9.190837 -6.648399 -0.08445442,-9.260645 -5.887562 0.1110344,-9.267439 -5.368598 0.2915398,-9.243196 -4.866552 0.4329939,8.510,
