TiagoOliveira98/HandTracking/DataLogging/JointData/Logs(1643071520)_Tiago_MemoryGame.csv
WRIST,THUMB_CMC,THUMB_MCP,THUMB_IP,THUMB_TIP,INDEX_FINGER_MCP,INDEX_FINGER_PIP,INDEX_FINGER_DIP,INDEX_FINGER_TIP,MIDDLE_FINGER_MCP,MIDDLE_FINGER_PIP,MIDDLE_FINGER_DIP,MIDDLE_FINGER_TIP,RING_FINGER_MCP,RING_FINGER_PIP,RING_FINGER_DIP,RING_FINGER_TIP,PINKY_MCP,PINKY_PIP,PINKY_DIP,PINKY_TIP,WRIST2,THUMB_CMC2,THUMB_MCP2,THUMB_IP2,THUMB_TIP2,INDEX_FINGER_MCP2,INDEX_FINGER_PIP2,INDEX_FINGER_DIP2,INDEX_FINGER_TIP2,MIDDLE_FINGER_MCP2,MIDDLE_FINGER_PIP2,MIDDLE_FINGER_DIP2,MIDDLE_FINGER_TIP2,RING_FINGER_MCP2,RING_FINGER_PIP2,RING_FINGER_DIP2,RING_FINGER_TIP2,PINKY_MCP2,PINKY_PIP2,PINKY_DIP2,PINKY_TIP2,Timestamp,Event
10 0 0,10 7.47 0,10 7.47 0,10 7.47 0,10 7.47 0,10 7.47 0,10 7.47 0,10 7.47 0,10 7.47 0,10 7.47 0,10 7.47 0,10 7.47 0,10 7.47 0,10 7.47 0,10 7.47 0,10 7.47 0,10 7.47 0,10 7.47 0,10 7.47 0,10 7.47 0,10 7.47 0,10 0 0,10 7.47 0,10 7.47 0,10 7.47 0,10 7.47 0,10 7.47 0,10 7.47 0,10 7.47 0,10 7.47 0,10 7.47 0,10 7.47 0,10 7.47 0,10 7.47 0,10 7.47 0,10 7.47 0,10 7.47 0,10 7.47 0,10 7.47 0,10 7.47 0,10 7.47 0,10 7.47 0,0.010,
2 0 -9.423465,2 0 -9.423465,2 0 -9.423465,2 0 -9.423465,2 0 -9.423465,2 0 -9.423465,2 0 -9.423465,2 0 -9.423465,2 0 -9.423465,2 0 -9.423465,2 0 -9.423465,2 0 -9.423465,2 0 -9.423465,2 0 -9.423465,2 0 -9.423465,2 0 -9.423465,2 0 -9.423465,2 0 -9.423465,2 0 -9.423465,2 0 -9.423465,2 0 -9.423465,2 0 -9.306138,2 0 -9.306138,2 0 -9.306138,2 0 -9.306138,2 0 -9.306138,2 0 -9.306138,2 0 -9.306138,2 0 -9.306138,2 0 -9.306138,2 0 -9.306138,2 0 -9.306138,2 0 -9.306138,2 0 -9.306138,2 0 -9.306138,2 0 -9.306138,2 0 -9.306138,2 0 -9.306138,2 0 -9.306138,2 0 -9.306138,2 0 -9.306138,2 0 -9.306138,0.110, 0
2 0 -9.423465,2 0 -9.423465,2 0 -9.423465,2 0 -9.423465,2 0 -9.423465,2 0 -9.423465,2 0 -9.423465,2 0 -9.423465,2 0 -9.423465,2 0 -9.423465,2 0 -9.423465,2 0 -9.423465,2 0 -9.423465,2 0 -9.423465,2 0 -9.423465,2 0 -9.423465,2 0 -9.423465,2 0 -9.423465,2 0 -9.423465,2 0 -9.423465,2 0 -9.423465,2 0 -9.306138,2 0 -9.306138,2 0 -9.306138,2 0 -9.306138,2 0 -9.306138,2 0 -9.306138,2 0 -9.306138,2 0 -9.306138,2 0 -9.306138,2 0 -9.306138,2 0 -9.306138,2 0 -9.306138,2 0 -9.306138,2 0 -9.306138,2 0 -9.306138,2 0 -9.306138,2 0 -9.306138,2 0 -9.306138,2 0 -9.306138,2 0 -9.306138,2 0 -9.306138,0.210, 0
2 0 -9.423465,2 0 -9.423465,2 0 -9.423465,2 0 -9.423465,2 0 -9.423465,2 0 -9.423465,2 0 -9.423465,2 0 -9.423465,2 0 -9.423465,2 0 -9.423465,2 0 -9.423465,2 0 -9.423465,2 0 -9.423465,2 0 -9.423465,2 0 -9.423465,2 0 -9.423465,2 0 -9.423465,2 0 -9.423465,2 0 -9.423465,2 0 -9.423465,2 0 -9.423465,2 0 -9.306138,2 0 -9.306138,2 0 -9.306138,2 0 -9.306138,2 0 -9.306138,2 0 -9.306138,2 0 -9.306138,2 0 -9.306138,2 0 -9.306138,2 0 -9.306138,2 0 -9.306138,2 0 -9.306138,2 0 -9.306138,2 0 -9.306138,2 0 -9.306138,2 0 -9.306138,2 0 -9.306138,2 0 -9.306138,2 0 -9.306138,2 0 -9.306138,2 0 -9.306138,0.310, 0
2 0 -9.423465,2 0 -9.423465,2 0 -9.423465,2 0 -9.423465,2 0 -9.423465,2 0 -9.423465,2 0 -9.423465,2 0 -9.423465,2 0 -9.423465,2 0 -9.423465,2 0 -9.423465,2 0 -9.423465,2 0 -9.423465,2 0 -9.423465,2 0 -9.423465,2 0 -9.423465,2 0 -9.423465,2 0 -9.423465,2 0 -9.423465,2 0 -9.423465,2 0 -9.423465,2 0 -9.306138,2 0 -9.306138,2 0 -9.306138,2 0 -9.306138,2 0 -9.306138,2 0 -9.306138,2 0 -9.306138,2 0 -9.306138,2 0 -9.306138,2 0 -9.306138,2 0 -9.306138,2 0 -9.306138,2 0 -9.306138,2 0 -9.306138,2 0 -9.306138,2 0 -9.306138,2 0 -9.306138,2 0 -9.306138,2 0 -9.306138,2 0 -9.306138,2 0 -9.306138,0.410, 0
2 0 -9.423465,2 0 -9.423465,2 0 -9.423465,2 0 -9.423465,2 0 -9.423465,2 0 -9.423465,2 0 -9.423465,2 0 -9.423465,2 0 -9.423465,2 0 -9.423465,2 0 -9.423465,2 0 -9.423465,2 0 -9.423465,2 0 -9.423465,2 0 -9.423465,2 0 -9.423465,2 0 -9.423465,2 0 -9.423465,2 0 -9.423465,2 0 -9.423465,2 0 -9.423465,2 0 -9.306138,2 0 -9.306138,2 0 -9.306138,2 0 -9.306138,2 0 -9.306138,2 0 -9.306138,2 0 -9.306138,2 0 -9.306138,2 0 -9.306138,2 0 -9.306138,2 0 -9.306138,2 0 -9.306138,2 0 -9.306138,2 0 -9.306138,2 0 -9.306138,2 0 -9.306138,2 0 -9.306138,2 0 -9.306138,2 0 -9.306138,2 0 -9.306138,2 0 -9.306138,0.510, 0
2 0 -9.423465,2 0 -9.423465,2 0 -9.423465,2 0 -9.423465,2 0 -9.423465,2 0 -9.423465,2 0 -9.423465,2 0 -9.423465,2 0 -9.423465,2 0 -9.423465,2 0 -9.423465,2 0 -9.423465,2 0 -9.423465,2 0 -9.423465,2 0 -9.423465,2 0 -9.423465,2 0 -9.423465,2 0 -9.423465,2 0 -9.423465,2 0 -9.423465,2 0 -9.423465,2 0 -9.306138,2 0 -9.306138,2 0 -9.306138,2 0 -9.306138,2 0 -9.306138,2 0 -9.306138,2 0 -9.306138,2 0 -9.306138,2 0 -9.306138,2 0 -9.306138,2 0 -9.306138,2 0 -9.306138,2 0 -9.306138,2 0 -9.306138,2 0 -9.306138,2 0 -9.306138,2 0 -9.306138,2 0 -9.306138,2 0 -9.306138,2 0 -9.306138,2 0 -9.306138,0.610, 0
2 0 -9.423465,2 0 -9.423465,2 0 -9.423465,2 0 -9.423465,2 0 -9.423465,2 0 -9.423465,2 0 -9.423465,2 0 -9.423465,2 0 -9.423465,2 0 -9.423465,2 0 -9.423465,2 0 -9.423465,2 0 -9.423465,2 0 -9.423465,2 0 -9.423465,2 0 -9.423465,2 0 -9.423465,2 0 -9.423465,2 0 -9.423465,2 0 -9.423465,2 0 -9.423465,2 0 -9.306138,2 0 -9.306138,2 0 -9.306138,2 0 -9.306138,2 0 -9.306138,2 0 -9.306138,2 0 -9.306138,2 0 -9.306138,2 0 -9.306138,2 0 -9.306138,2 0 -9.306138,2 0 -9.306138,2 0 -9.306138,2 0 -9.306138,2 0 -9.306138,2 0 -9.306138,2 0 -9.306138,2 0 -9.306138,2 0 -9.306138,2 0 -9.306138,2 0 -9.306138,0.710, 0
2 0 -9.423465,2 0 -9.423465,2 0 -9.423465,2 0 -9.423465,2 0 -9.423465,2 0 -9.423465,2 0 -9.423465,2 0 -9.423465,2 0 -9.423465,2 0 -9.423465,2 0 -9.423465,2 0 -9.423465,2 0 -9.423465,2 0 -9.423465,2 0 -9.423465,2 0 -9.423465,2 0 -9.423465,2 0 -9.423465,2 0 -9.423465,2 0 -9.423465,2 0 -9.423465,2 0 -9.306138,2 0 -9.306138,2 0 -9.306138,2 0 -9.306138,2 0 -9.306138,2 0 -9.306138,2 0 -9.306138,2 0 -9.306138,2 0 -9.306138,2 0 -9.306138,2 0 -9.306138,2 0 -9.306138,2 0 -9.306138,2 0 -9.306138,2 0 -9.306138,2 0 -9.306138,2 0 -9.306138,2 0 -9.306138,2 0 -9.306138,2 0 -9.306138,2 0 -9.306138,0.810, 0
2 0 -9.423465,2 0 -9.423465,2 0 -9.423465,2 0 -9.423465,2 0 -9.423465,2 0 -9.423465,2 0 -9.423465,2 0 -9.423465,2 0 -9.423465,2 0 -9.423465,2 0 -9.423465,2 0 -9.423465,2 0 -9.423465,2 0 -9.423465,2 0 -9.423465,2 0 -9.423465,2 0 -9.423465,2 0 -9.423465,2 0 -9.423465,2 0 -9.423465,2 0 -9.423465,2 0 -9.306138,2 0 -9.306138,2 0 -9.306138,2 0 -9.306138,2 0 -9.306138,2 0 -9.306138,2 0 -9.306138,2 0 -9.306138,2 0 -9.306138,2 0 -9.306138,2 0 -9.306138,2 0 -9.306138,2 0 -9.306138,2 0 -9.306138,2 0 -9.306138,2 0 -9.306138,2 0 -9.306138,2 0 -9.306138,2 0 -9.306138,2 0 -9.306138,2 0 -9.306138,0.910, 0
2 0 -9.423465,2 0 -9.423465,2 0 -9.423465,2 0 -9.423465,2 0 -9.423465,2 0 -9.423465,2 0 -9.423465,2 0 -9.423465,2 0 -9.423465,2 0 -9.423465,2 0 -9.423465,2 0 -9.423465,2 0 -9.423465,2 0 -9.423465,2 0 -9.423465,2 0 -9.423465,2 0 -9.423465,2 0 -9.423465,2 0 -9.423465,2 0 -9.423465,2 0 -9.423465,2 0 -9.306138,2 0 -9.306138,2 0 -9.306138,2 0 -9.306138,2 0 -9.306138,2 0 -9.306138,2 0 -9.306138,2 0 -9.306138,2 0 -9.306138,2 0 -9.306138,2 0 -9.306138,2 0 -9.306138,2 0 -9.306138,2 0 -9.306138,2 0 -9.306138,2 0 -9.306138,2 0 -9.306138,2 0 -9.306138,2 0 -9.306138,2 0 -9.306138,2 0 -9.306138,1.010, 0
2 0 -9.423465,2 0 -9.423465,2 0 -9.423465,2 0 -9.423465,2 0 -9.423465,2 0 -9.423465,2 0 -9.423465,2 0 -9.423465,2 0 -9.423465,2 0 -9.423465,2 0 -9.423465,2 0 -9.423465,2 0 -9.423465,2 0 -9.423465,2 0 -9.423465,2 0 -9.423465,2 0 -9.423465,2 0 -9.423465,2 0 -9.423465,2 0 -9.423465,2 0 -9.423465,2 0 -9.306138,2 0 -9.306138,2 0 -9.306138,2 0 -9.306138,2 0 -9.306138,2 0 -9.306138,2 0 -9.306138,2 0 -9.306138,2 0 -9.306138,2 0 -9.306138,2 0 -9.306138,2 0 -9.306138,2 0 -9.306138,2 0 -9.306138,2 0 -9.306138,2 0 -9.306138,2 0 -9.306138,2 0 -9.306138,2 0 -9.306138,2 0 -9.306138,2 0 -9.306138,1.110, 0
2 0 -9.423465,2 0 -9.423465,2 0 -9.423465,2 0 -9.423465,2 0 -9.423465,2 0 -9.423465,2 0 -9.423465,2 0 -9.423465,2 0 -9.423465,2 0 -9.423465,2 0 -9.423465,2 0 -9.423465,2 0 -9.423465,2 0 -9.423465,2 0 -9.423465,2 0 -9.423465,2 0 -9.423465,2 0 -9.423465,2 0 -9.423465,2 0 -9.423465,2 0 -9.423465,2 0 -9.306138,2 0 -9.306138,2 0 -9.306138,2 0 -9.306138,2 0 -9.306138,2 0 -9.306138,2 0 -9.306138,2 0 -9.306138,2 0 -9.306138,2 0 -9.306138,2 0 -9.306138,2 0 -9.306138,2 0 -9.306138,2 0 -9.306138,2 0 -9.306138,2 0 -9.306138,2 0 -9.306138,2 0 -9.306138,2 0 -9.306138,2 0 -9.306138,2 0 -9.306138,1.210, 0
2 0 -9.423465,2 0 -9.423465,2 0 -9.423465,2 0 -9.423465,2 0 -9.423465,2 0 -9.423465,2 0 -9.423465,2 0 -9.423465,2 0 -9.423465,2 0 -9.423465,2 0 -9.423465,2 0 -9.423465,2 0 -9.423465,2 0 -9.423465,2 0 -9.423465,2 0 -9.423465,2 0 -9.423465,2 0 -9.423465,2 0 -9.423465,2 0 -9.423465,2 0 -9.423465,2 0 -9.306138,2 0 -9.306138,2 0 -9.306138,2 0 -9.306138,2 0 -9.306138,2 0 -9.306138,2 0 -9.306138,2 0 -9.306138,2 0 -9.306138,2 0 -9.306138,2 0 -9.306138,2 0 -9.306138,2 0 -9.306138,2 0 -9.306138,2 0 -9.306138,2 0 -9.306138,2 0 -9.306138,2 0 -9.306138,2 0 -9.306138,2 0 -9.306138,2 0 -9.306138,1.310, 0
2 0 -9.423465,2 0 -9.423465,2 0 -9.423465,2 0 -9.423465,2 0 -9.423465,2 0 -9.423465,2 0 -9.423465,2 0 -9.423465,2 0 -9.423465,2 0 -9.423465,2 0 -9.423465,2 0 -9.423465,2 0 -9.423465,2 0 -9.423465,2 0 -9.423465,2 0 -9.423465,2 0 -9.423465,2 0 -9.423465,2 0 -9.423465,2 0 -9.423465,2 0 -9.423465,2 0 -9.306138,2 0 -9.306138,2 0 -9.306138,2 0 -9.306138,2 0 -9.306138,2 0 -9.306138,2 0 -9.306138,2 0 -9.306138,2 0 -9.306138,2 0 -9.306138,2 0 -9.306138,2 0 -9.306138,2 0 -9.306138,2 0 -9.306138,2 0 -9.306138,2 0 -9.306138,2 0 -9.306138,2 0 -9.306138,2 0 -9.306138,2 0 -9.306138,2 0 -9.306138,1.410, 0
2 0 -9.423465,2 0 -9.423465,2 0 -9.423465,2 0 -9.423465,2 0 -9.423465,2 0 -9.423465,2 0 -9.423465,2 0 -9.423465,2 0 -9.423465,2 0 -9.423465,2 0 -9.423465,2 0 -9.423465,2 0 -9.423465,2 0 -9.423465,2 0 -9.423465,2 0 -9.423465,2 0 -9.423465,2 0 -9.423465,2 0 -9.423465,2 0 -9.423465,2 0 -9.423465,2 0 -9.306138,2 0 -9.306138,2 0 -9.306138,2 0 -9.306138,2 0 -9.306138,2 0 -9.306138,2 0 -9.306138,2 0 -9.306138,2 0 -9.306138,2 0 -9.306138,2 0 -9.306138,2 0 -9.306138,2 0 -9.306138,2 0 -9.306138,2 0 -9.306138,2 0 -9.306138,2 0 -9.306138,2 0 -9.306138,2 0 -9.306138,2 0 -9.306138,2 0 -9.306138,1.510, 0
2 0 -9.423465,2 0 -9.423465,2 0 -9.423465,2 0 -9.423465,2 0 -9.423465,2 0 -9.423465,2 0 -9.423465,2 0 -9.423465,2 0 -9.423465,2 0 -9.423465,2 0 -9.423465,2 0 -9.423465,2 0 -9.423465,2 0 -9.423465,2 0 -9.423465,2 0 -9.423465,2 0 -9.423465,2 0 -9.423465,2 0 -9.423465,2 0 -9.423465,2 0 -9.423465,2 0 -9.306138,2 0 -9.306138,2 0 -9.306138,2 0 -9.306138,2 0 -9.306138,2 0 -9.306138,2 0 -9.306138,2 0 -9.306138,2 0 -9.306138,2 0 -9.306138,2 0 -9.306138,2 0 -9.306138,2 0 -9.306138,2 0 -9.306138,2 0 -9.306138,2 0 -9.306138,2 0 -9.306138,2 0 -9.306138,2 0 -9.306138,2 0 -9.306138,2 0 -9.306138,1.610, 0
2 0 -9.423465,2 0 -9.423465,2 0 -9.423465,2 0 -9.423465,2 0 -9.423465,2 0 -9.423465,2 0 -9.423465,2 0 -9.423465,2 0 -9.423465,2 0 -9.423465,2 0 -9.423465,2 0 -9.423465,2 0 -9.423465,2 0 -9.423465,2 0 -9.423465,2 0 -9.423465,2 0 -9.423465,2 0 -9.423465,2 0 -9.423465,2 0 -9.423465,2 0 -9.423465,2 0 -9.306138,2 0 -9.306138,2 0 -9.306138,2 0 -9.306138,2 0 -9.306138,2 0 -9.306138,2 0 -9.306138,2 0 -9.306138,2 0 -9.306138,2 0 -9.306138,2 0 -9.306138,2 0 -9.306138,2 0 -9.306138,2 0 -9.306138,2 0 -9.306138,2 0 -9.306138,2 0 -9.306138,2 0 -9.306138,2 0 -9.306138,2 0 -9.306138,2 0 -9.306138,1.710, 0
2 0 -9.423465,2 0 -9.423465,2 0 -9.423465,2 0 -9.423465,2 0 -9.423465,2 0 -9.423465,2 0 -9.423465,2 0 -9.423465,2 0 -9.423465,2 0 -9.423465,2 0 -9.423465,2 0 -9.423465,2 0 -9.423465,2 0 -9.423465,2 0 -9.423465,2 0 -9.423465,2 0 -9.423465,2 0 -9.423465,2 0 -9.423465,2 0 -9.423465,2 0 -9.423465,2 0 -9.306138,2 0 -9.306138,2 0 -9.306138,2 0 -9.306138,2 0 -9.306138,2 0 -9.306138,2 0 -9.306138,2 0 -9.306138,2 0 -9.306138,2 0 -9.306138,2 0 -9.306138,2 0 -9.306138,2 0 -9.306138,2 0 -9.306138,2 0 -9.306138,2 0 -9.306138,2 0 -9.306138,2 0 -9.306138,2 0 -9.306138,2 0 -9.306138,2 0 -9.306138,1.810, 0
2 0 -9.423465,2 0 -9.423465,2 0 -9.423465,2 0 -9.423465,2 0 -9.423465,2 0 -9.423465,2 0 -9.423465,2 0 -9.423465,2 0 -9.423465,2 0 -9.423465,2 0 -9.423465,2 0 -9.423465,2 0 -9.423465,2 0 -9.423465,2 0 -9.423465,2 0 -9.423465,2 0 -9.423465,2 0 -9.423465,2 0 -9.423465,2 0 -9.423465,2 0 -9.423465,2 0 -9.306138,2 0 -9.306138,2 0 -9.306138,2 0 -9.306138,2 0 -9.306138,2 0 -9.306138,2 0 -9.306138,2 0 -9.306138,2 0 -9.306138,2 0 -9.306138,2 0 -9.306138,2 0 -9.306138,2 0 -9.306138,2 0 -9.306138,2 0 -9.306138,2 0 -9.306138,2 0 -9.306138,2 0 -9.306138,2 0 -9.306138,2 0 -9.306138,2 0 -9.306138,1.910, 0
2 0 -9.423465,2 0 -9.423465,2 0 -9.423465,2 0 -9.423465,2 0 -9.423465,2 0 -9.423465,2 0 -9.423465,2 0 -9.423465,2 0 -9.423465,2 0 -9.423465,2 0 -9.423465,2 0 -9.423465,2 0 -9.423465,2 0 -9.423465,2 0 -9.423465,2 0 -9.423465,2 0 -9.423465,2 0 -9.423465,2 0 -9.423465,2 0 -9.423465,2 0 -9.423465,2 0 -9.306138,2 0 -9.306138,2 0 -9.306138,2 0 -9.306138,2 0 -9.306138,2 0 -9.306138,2 0 -9.306138,2 0 -9.306138,2 0 -9.306138,2 0 -9.306138,2 0 -9.306138,2 0 -9.306138,2 0 -9.306138,2 0 -9.306138,2 0 -9.306138,2 0 -9.306138,2 0 -9.306138,2 0 -9.306138,2 0 -9.306138,2 0 -9.306138,2 0 -9.306138,2.010, 0
2 0 -9.423465,2 0 -9.423465,2 0 -9.423465,2 0 -9.423465,2 0 -9.423465,2 0 -9.423465,2 0 -9.423465,2 0 -9.423465,2 0 -9.423465,2 0 -9.423465,2 0 -9.423465,2 0 -9.423465,2 0 -9.423465,2 0 -9.423465,2 0 -9.423465,2 0 -9.423465,2 0 -9.423465,2 0 -9.423465,2 0 -9.423465,2 0 -9.423465,2 0 -9.423465,2 0 -9.306138,2 0 -9.306138,2 0 -9.306138,2 0 -9.306138,2 0 -9.306138,2 0 -9.306138,2 0 -9.306138,2 0 -9.306138,2 0 -9.306138,2 0 -9.306138,2 0 -9.306138,2 0 -9.306138,2 0 -9.306138,2 0 -9.306138,2 0 -9.306138,2 0 -9.306138,2 0 -9.306138,2 0 -9.306138,2 0 -9.306138,2 0 -9.306138,2 0 -9.306138,2.110, 0
2 0 -9.423465,2 0 -9.423465,2 0 -9.423465,2 0 -9.423465,2 0 -9.423465,2 0 -9.423465,2 0 -9.423465,2 0 -9.423465,2 0 -9.423465,2 0 -9.423465,2 0 -9.423465,2 0 -9.423465,2 0 -9.423465,2 0 -9.423465,2 0 -9.423465,2 0 -9.423465,2 0 -9.423465,2 0 -9.423465,2 0 -9.423465,2 0 -9.423465,2 0 -9.423465,2 0 -9.306138,2 0 -9.306138,2 0 -9.306138,2 0 -9.306138,2 0 -9.306138,2 0 -9.306138,2 0 -9.306138,2 0 -9.306138,2 0 -9.306138,2 0 -9.306138,2 0 -9.306138,2 0 -9.306138,2 0 -9.306138,2 0 -9.306138,2 0 -9.306138,2 0 -9.306138,2 0 -9.306138,2 0 -9.306138,2 0 -9.306138,2 0 -9.306138,2 0 -9.306138,2.210, 0
2 0 -9.423465,2 0 -9.423465,2 0 -9.423465,2 0 -9.423465,2 0 -9.423465,2 0 -9.423465,2 0 -9.423465,2 0 -9.423465,2 0 -9.423465,2 0 -9.423465,2 0 -9.423465,2 0 -9.423465,2 0 -9.423465,2 0 -9.423465,2 0 -9.423465,2 0 -9.423465,2 0 -9.423465,2 0 -9.423465,2 0 -9.423465,2 0 -9.423465,2 0 -9.423465,2 0 -9.306138,2 0 -9.306138,2 0 -9.306138,2 0 -9.306138,2 0 -9.306138,2 0 -9.306138,2 0 -9.306138,2 0 -9.306138,2 0 -9.306138,2 0 -9.306138,2 0 -9.306138,2 0 -9.306138,2 0 -9.306138,2 0 -9.306138,2 0 -9.306138,2 0 -9.306138,2 0 -9.306138,2 0 -9.306138,2 0 -9.306138,2 0 -9.306138,2 0 -9.306138,2.310, 0
2 0 -9.423465,2 0 -9.423465,2 0 -9.423465,2 0 -9.423465,2 0 -9.423465,2 0 -9.423465,2 0 -9.423465,2 0 -9.423465,2 0 -9.423465,2 0 -9.423465,2 0 -9.423465,2 0 -9.423465,2 0 -9.423465,2 0 -9.423465,2 0 -9.423465,2 0 -9.423465,2 0 -9.423465,2 0 -9.423465,2 0 -9.423465,2 0 -9.423465,2 0 -9.423465,2 0 -9.306138,2 0 -9.306138,2 0 -9.306138,2 0 -9.306138,2 0 -9.306138,2 0 -9.306138,2 0 -9.306138,2 0 -9.306138,2 0 -9.306138,2 0 -9.306138,2 0 -9.306138,2 0 -9.306138,2 0 -9.306138,2 0 -9.306138,2 0 -9.306138,2 0 -9.306138,2 0 -9.306138,2 0 -9.306138,2 0 -9.306138,2 0 -9.306138,2 0 -9.306138,2.410, 0
2 0 -9.423465,2 0 -9.423465,2 0 -9.423465,2 0 -9.423465,2 0 -9.423465,2 0 -9.423465,2 0 -9.423465,2 0 -9.423465,2 0 -9.423465,2 0 -9.423465,2 0 -9.423465,2 0 -9.423465,2 0 -9.423465,2 0 -9.423465,2 0 -9.423465,2 0 -9.423465,2 0 -9.423465,2 0 -9.423465,2 0 -9.423465,2 0 -9.423465,2 0 -9.423465,2 0 -9.306138,2 0 -9.306138,2 0 -9.306138,2 0 -9.306138,2 0 -9.306138,2 0 -9.306138,2 0 -9.306138,2 0 -9.306138,2 0 -9.306138,2 0 -9.306138,2 0 -9.306138,2 0 -9.306138,2 0 -9.306138,2 0 -9.306138,2 0 -9.306138,2 0 -9.306138,2 0 -9.306138,2 0 -9.306138,2 0 -9.306138,2 0 -9.306138,2 0 -9.306138,2.510, 0
2 0 -9.423465,2 0 -9.423465,2 0 -9.423465,2 0 -9.423465,2 0 -9.423465,2 0 -9.423465,2 0 -9.423465,2 0 -9.423465,2 0 -9.423465,2 0 -9.423465,2 0 -9.423465,2 0 -9.423465,2 0 -9.423465,2 0 -9.423465,2 0 -9.423465,2 0 -9.423465,2 0 -9.423465,2 0 -9.423465,2 0 -9.423465,2 0 -9.423465,2 0 -9.423465,2 0 -9.306138,2 0 -9.306138,2 0 -9.306138,2 0 -9.306138,2 0 -9.306138,2 0 -9.306138,2 0 -9.306138,2 0 