TiagoOliveira98/HandTracking/DataLogging/JointData/Logs(1642687414)_RUS_Calculator.csv
WRIST,THUMB_CMC,THUMB_MCP,THUMB_IP,THUMB_TIP,INDEX_FINGER_MCP,INDEX_FINGER_PIP,INDEX_FINGER_DIP,INDEX_FINGER_TIP,MIDDLE_FINGER_MCP,MIDDLE_FINGER_PIP,MIDDLE_FINGER_DIP,MIDDLE_FINGER_TIP,RING_FINGER_MCP,RING_FINGER_PIP,RING_FINGER_DIP,RING_FINGER_TIP,PINKY_MCP,PINKY_PIP,PINKY_DIP,PINKY_TIP,WRIST2,THUMB_CMC2,THUMB_MCP2,THUMB_IP2,THUMB_TIP2,INDEX_FINGER_MCP2,INDEX_FINGER_PIP2,INDEX_FINGER_DIP2,INDEX_FINGER_TIP2,MIDDLE_FINGER_MCP2,MIDDLE_FINGER_PIP2,MIDDLE_FINGER_DIP2,MIDDLE_FINGER_TIP2,RING_FINGER_MCP2,RING_FINGER_PIP2,RING_FINGER_DIP2,RING_FINGER_TIP2,PINKY_MCP2,PINKY_PIP2,PINKY_DIP2,PINKY_TIP2,Timestamp,Event
10 0 0,10 7.47 0,10 7.47 0,10 7.47 0,10 7.47 0,10 7.47 0,10 7.47 0,10 7.47 0,10 7.47 0,10 7.47 0,10 7.47 0,10 7.47 0,10 7.47 0,10 7.47 0,10 7.47 0,10 7.47 0,10 7.47 0,10 7.47 0,10 7.47 0,10 7.47 0,10 7.47 0,10 0 0,10 7.47 0,10 7.47 0,10 7.47 0,10 7.47 0,10 7.47 0,10 7.47 0,10 7.47 0,10 7.47 0,10 7.47 0,10 7.47 0,10 7.47 0,10 7.47 0,10 7.47 0,10 7.47 0,10 7.47 0,10 7.47 0,10 7.47 0,10 7.47 0,10 7.47 0,10 7.47 0,0.010,
2 0 -9.272282,2 0 -9.272282,2 0 -9.272282,2 0 -9.272282,2 0 -9.272282,2 0 -9.272282,2 0 -9.272282,2 0 -9.272282,2 0 -9.272282,2 0 -9.272282,2 0 -9.272282,2 0 -9.272282,2 0 -9.272282,2 0 -9.272282,2 0 -9.272282,2 0 -9.272282,2 0 -9.272282,2 0 -9.272282,2 0 -9.272282,2 0 -9.272282,2 0 -9.272282,2 0 -9.661501,2 0 -9.661501,2 0 -9.661501,2 0 -9.661501,2 0 -9.661501,2 0 -9.661501,2 0 -9.661501,2 0 -9.661501,2 0 -9.661501,2 0 -9.661501,2 0 -9.661501,2 0 -9.661501,2 0 -9.661501,2 0 -9.661501,2 0 -9.661501,2 0 -9.661501,2 0 -9.661501,2 0 -9.661501,2 0 -9.661501,2 0 -9.661501,2 0 -9.661501,0.110,
2 0 -9.272282,2 0 -9.272282,2 0 -9.272282,2 0 -9.272282,2 0 -9.272282,2 0 -9.272282,2 0 -9.272282,2 0 -9.272282,2 0 -9.272282,2 0 -9.272282,2 0 -9.272282,2 0 -9.272282,2 0 -9.272282,2 0 -9.272282,2 0 -9.272282,2 0 -9.272282,2 0 -9.272282,2 0 -9.272282,2 0 -9.272282,2 0 -9.272282,2 0 -9.272282,2 0 -9.661501,2 0 -9.661501,2 0 -9.661501,2 0 -9.661501,2 0 -9.661501,2 0 -9.661501,2 0 -9.661501,2 0 -9.661501,2 0 -9.661501,2 0 -9.661501,2 0 -9.661501,2 0 -9.661501,2 0 -9.661501,2 0 -9.661501,2 0 -9.661501,2 0 -9.661501,2 0 -9.661501,2 0 -9.661501,2 0 -9.661501,2 0 -9.661501,2 0 -9.661501,0.210,
2 0 -9.272282,2 0 -9.272282,2 0 -9.272282,2 0 -9.272282,2 0 -9.272282,2 0 -9.272282,2 0 -9.272282,2 0 -9.272282,2 0 -9.272282,2 0 -9.272282,2 0 -9.272282,2 0 -9.272282,2 0 -9.272282,2 0 -9.272282,2 0 -9.272282,2 0 -9.272282,2 0 -9.272282,2 0 -9.272282,2 0 -9.272282,2 0 -9.272282,2 0 -9.272282,2 0 -9.661501,2 0 -9.661501,2 0 -9.661501,2 0 -9.661501,2 0 -9.661501,2 0 -9.661501,2 0 -9.661501,2 0 -9.661501,2 0 -9.661501,2 0 -9.661501,2 0 -9.661501,2 0 -9.661501,2 0 -9.661501,2 0 -9.661501,2 0 -9.661501,2 0 -9.661501,2 0 -9.661501,2 0 -9.661501,2 0 -9.661501,2 0 -9.661501,2 0 -9.661501,0.310,
2 0 -9.272282,2 0 -9.272282,2 0 -9.272282,2 0 -9.272282,2 0 -9.272282,2 0 -9.272282,2 0 -9.272282,2 0 -9.272282,2 0 -9.272282,2 0 -9.272282,2 0 -9.272282,2 0 -9.272282,2 0 -9.272282,2 0 -9.272282,2 0 -9.272282,2 0 -9.272282,2 0 -9.272282,2 0 -9.272282,2 0 -9.272282,2 0 -9.272282,2 0 -9.272282,2 0 -9.661501,2 0 -9.661501,2 0 -9.661501,2 0 -9.661501,2 0 -9.661501,2 0 -9.661501,2 0 -9.661501,2 0 -9.661501,2 0 -9.661501,2 0 -9.661501,2 0 -9.661501,2 0 -9.661501,2 0 -9.661501,2 0 -9.661501,2 0 -9.661501,2 0 -9.661501,2 0 -9.661501,2 0 -9.661501,2 0 -9.661501,2 0 -9.661501,2 0 -9.661501,0.410,
2 0 -9.272282,2 0 -9.272282,2 0 -9.272282,2 0 -9.272282,2 0 -9.272282,2 0 -9.272282,2 0 -9.272282,2 0 -9.272282,2 0 -9.272282,2 0 -9.272282,2 0 -9.272282,2 0 -9.272282,2 0 -9.272282,2 0 -9.272282,2 0 -9.272282,2 0 -9.272282,2 0 -9.272282,2 0 -9.272282,2 0 -9.272282,2 0 -9.272282,2 0 -9.272282,2 0 -9.661501,2 0 -9.661501,2 0 -9.661501,2 0 -9.661501,2 0 -9.661501,2 0 -9.661501,2 0 -9.661501,2 0 -9.661501,2 0 -9.661501,2 0 -9.661501,2 0 -9.661501,2 0 -9.661501,2 0 -9.661501,2 0 -9.661501,2 0 -9.661501,2 0 -9.661501,2 0 -9.661501,2 0 -9.661501,2 0 -9.661501,2 0 -9.661501,2 0 -9.661501,0.510,
-1.841606 -15.54429 -0.06291392,-2.567083 -15.01097 -0.2038105,-2.96377 -14.24271 -0.3008779,-3.21361 -13.45708 -0.4423506,-3.354166 -12.88034 -0.623135,-2.582196 -13.06486 0.0352136,-2.867839 -11.81792 -0.2964729,-3.023465 -11.42986 -0.7157772,-3.113956 -11.22738 -1.030704,-2.183545 -12.93585 -0.109119,-2.461839 -11.61954 -0.5357246,-2.680966 -11.40233 -1.077522,-2.797473 -11.3094 -1.466521,-1.84899 -12.99804 -0.324107,-2.095477 -11.82053 -0.7691996,-2.31595 -11.70368 -1.239451,-2.442749 -11.72992 -1.542457,-1.587467 -13.19736 -0.5461825,-1.777128 -12.28427 -0.906757,-1.970125 -12.17836 -1.225964,-2.080568 -12.22795 -1.477476,-7.72577 -14.51994 -1.741109,-7.236544 -14.48497 -1.29466,-6.785967 -14.26608 -0.8323421,-6.45515 -14.14658 -0.4042022,-6.22999 -14.02213 0.02224576,-6.835561 -12.63824 -0.9382068,-6.56189 -11.91961 -0.5163635,-6.389327 -12.26445 -0.2780849,-6.342847 -12.75832 -0.1523184,-7.091171 -12.50993 -0.9175332,-6.774982 -11.74503 -0.3981063,-6.597307 -12.22148 -0.06657124,-6.565649 -12.7069 0.08746314,-7.376797 -12.5737 -0.8690379,-7.097032 -11.83739 -0.4764466,-6.904948 -12.21495 -0.1926713,-6.87546 -12.66965 -0.02965534,-7.670103 -12.76951 -0.8013368,-7.45941 -12.16912 -0.4565181,-7.268037 -12.32688 -0.2030501,-7.188316 -12.60216 -0.05320752,0.610,Left Hand Closed
-2.011218 -14.03011 -0.4002625,-2.73695 -13.86852 -0.3109792,-3.221691 -13.13684 -0.2694873,-3.476689 -12.3986 -0.2374359,-3.645332 -11.76229 -0.2669586,-2.867815 -11.74467 -0.4122834,-3.136616 -10.81401 -0.4320814,-3.285387 -10.33265 -0.4924011,-3.421233 -9.992191 -0.5674984,-2.498354 -11.54523 -0.5124664,-2.697451 -10.49036 -0.6082588,-2.891989 -10.10697 -0.79743,-3.061342 -9.943939 -0.9870386,-2.168778 -11.53597 -0.5955533,-2.295787 -10.54923 -0.7476361,-2.486129 -10.1526 -0.9390181,-2.657306 -9.992714 -1.077877,-1.869612 -11.70085 -0.6742227,-1.946352 -10.8906 -0.8511462,-2.098755 -10.52891 -0.9928976,-2.248527 -10.39631 -1.100499,-7.826481 -14.29671 -2.186832,-7.093759 -13.80781 -2.017797,-6.660918 -13.14458 -1.869314,-6.38647 -12.60433 -1.715243,-6.136839 -12.00748 -1.541529,-6.973219 -12.26277 -1.791576,-6.890329 -11.43218 -1.562677,-6.791372 -10.82002 -1.351412,-6.658294 -10.29557 -1.157627,-7.211313 -12.30361 -1.729441,-7.122712 -11.37875 -1.515469,-6.962389 -10.7602 -1.367719,-6.822396 -10.21631 -1.28297,-7.455593 -12.42857 -1.63051,-7.413969 -11.61002 -1.433055,-7.28338 -11.00529 -1.288772,-7.162605 -10.51733 -1.209194,-7.695947 -12.68954 -1.524367,-7.66484 -12.10432 -1.338931,-7.598652 -11.64383 -1.226056,-7.543925 -11.24094 -1.161592,0.710,
-2.340977 -11.5006 0.4318523,-2.974353 -11.1177 0.60858,-3.403312 -10.35726 0.708634,-3.62292 -9.645031 0.8523433,-3.847576 -8.978203 1.032296,-3.138912 -8.917772 0.2951542,-3.330264 -7.988933 0.3511516,-3.463985 -7.439907 0.4025747,-3.589624 -6.974334 0.460467,-2.813888 -8.769642 0.3647565,-2.950237 -7.724674 0.419507,-3.079157 -7.14698 0.4933124,-3.200353 -6.720373 0.5395792,-2.501997 -8.815735 0.4992795,-2.59568 -7.805871 0.6021309,-2.726146 -7.243408 0.7264734,-2.841972 -6.86586 0.828672,-2.18186 -9.047979 0.6690318,-2.201609 -8.235575 0.8086847,-2.25874 -7.706388 0.9404597,-2.324735 -7.261545 1.050414,-8.006243 -11.61427 0.8409739,-7.379481 -11.14817 0.9284235,-6.932508 -10.26168 1.063328,-6.708737 -9.550425 1.248876,-6.514141 -8.949141 1.384213,-7.248475 -8.762175 0.9627802,-7.074943 -7.541832 1.204109,-6.976155 -7.013409 1.385238,-6.881197 -6.643846 1.520459,-7.53719 -8.666235 1.145004,-7.4126 -7.312273 1.390233,-7.33633 -6.728506 1.602903,-7.267638 -6.327424 1.724272,-7.829653 -8.833977 1.349366,-7.77803 -7.570203 1.597648,-7.698396 -7.002656 1.814963,-7.587152 -6.586037 1.959873,-8.142663 -9.250471 1.573263,-8.216402 -8.378325 1.815802,-8.196471 -7.859716 1.981743,-8.116916 -7.394298 2.090475,0.810,
-2.160201 -10.61364 0.9771304,-2.824461 -10.0556 1.04357,-3.287067 -9.332117 1.122093,-3.531742 -8.662107 1.277499,-3.7907 -8.088028 1.473673,-3.067166 -7.946222 0.7901918,-3.284345 -7.10917 0.8934957,-3.441038 -6.586797 1.025929,-3.599111 -6.093236 1.117577,-2.759531 -7.747793 0.9207088,-2.929798 -6.819241 0.987609,-3.075565 -6.221477 1.101492,-3.198126 -5.695544 1.175225,-2.467397 -7.752004 1.109056,-2.564465 -6.794973 1.181995,-2.68449 -6.218351 1.258057,-2.816808 -5.720897 1.32731,-2.165374 -7.939077 1.32648,-2.172197 -7.161802 1.395113,-2.235874 -6.658741 1.459151,-2.328622 -6.152441 1.514201,-8.113984 -10.90895 0.850763,-7.480082 -10.27804 0.8246059,-7.055034 -9.33474 0.9334853,-6.820796 -8.592758 1.120231,-6.591089 -7.977643 1.320665,-7.401684 -8.031918 0.8217481,-7.259956 -7.086247 0.975621,-7.15637 -6.507553 1.134017,-7.052065 -6.005476 1.252394,-7.710478 -7.939537 1.048709,-7.625018 -6.787366 1.15406,-7.540624 -6.076284 1.292461,-7.456453 -5.421234 1.383827,-8.00511 -8.041727 1.286916,-8.003809 -6.950824 1.400489,-7.947557 -6.283834 1.547804,-7.85308 -5.668374 1.633422,-8.297173 -8.343044 1.530442,-8.402412 -7.537864 1.629454,-8.424492 -6.986337 1.710189,-8.406817 -6.462951 1.7819,0.910,
-2.111503 -10.13841 0.8654822,-2.76425 -9.642729 0.9204757,-3.248573 -8.94488 0.9816316,-3.516047 -8.265743 1.134746,-3.777397 -7.703097 1.322207,-3.049981 -7.52033 0.6716838,-3.306259 -6.672021 0.746712,-3.473581 -6.13405 0.8500393,-3.621441 -5.633604 0.9310088,-2.753556 -7.314764 0.8051363,-2.957327 -6.370992 0.84961,-3.113647 -5.77875 0.9552858,-3.231025 -5.255342 1.023307,-2.464988 -7.314399 0.9971434,-2.582023 -6.361562 1.044707,-2.713743 -5.802536 1.122894,-2.838517 -5.297635 1.194022,-2.158829 -7.50089 1.21688,-2.177384 -6.730239 1.27712,-2.242468 -6.236387 1.347545,-2.318524 -5.734781 1.412729,-8.123017 -10.48047 0.7287331,-7.52266 -9.882753 0.7194199,-7.098837 -8.988884 0.8368686,-6.86497 -8.271412 1.032339,-6.631845 -7.690771 1.245031,-7.44084 -7.641273 0.7354151,-7.320497 -6.677179 0.8982937,-7.228901 -6.076702 1.064437,-7.138988 -5.554931 1.178651,-7.742541 -7.545402 0.956645,-7.663165 -6.379112 1.084037,-7.588735 -5.627664 1.233035,-7.510924 -4.942785 1.335589,-8.028297 -7.650167 1.185832,-8.020833 -6.543903 1.311334,-7.968212 -5.856246 1.449899,-7.880049 -5.232036 1.534021,-8.3159 -7.944677 1.421076,-8.404363 -7.144168 1.538038,-8.427201 -6.60624 1.614048,-8.420059 -6.081148 1.678825,1.010,
-2.110943 -9.346077 0.5202938,-2.725275 -8.910887 0.5780336,-3.217544 -8.251738 0.6293218,-3.506181 -7.555862 0.7653897,-3.747738 -6.965702 0.9353538,-3.050941 -6.84937 0.3137991,-3.30442 -5.994263 0.3730302,-3.461914 -5.487768 0.4622961,-3.602634 -5.026107 0.5373369,-2.771309 -6.628898 0.4321188,-2.981026 -5.658384 0.4683115,-3.134928 -5.066144 0.581008,-3.257027 -4.543935 0.6700702,-2.486502 -6.603338 0.6079059,-2.61202 -5.646011 0.6524788,-2.739757 -5.097644 0.7378418,-2.859325 -4.608421 0.8174369,-2.173429 -6.751947 0.813169,-2.203338 -5.990469 0.8671205,-2.270095 -5.518844 0.9444327,-2.339594 -5.050418 1.015097,-8.110407 -9.726545 0.4153026,-7.533966 -9.211893 0.4471043,-7.126459 -8.350168 0.5729147,-6.905364 -7.621255 0.7681338,-6.677318 -7.071285 0.9861469,-7.455077 -6.985504 0.4854964,-7.359536 -5.986942 0.6687713,-7.282009 -5.398921 0.8312745,-7.198757 -4.889667 0.9399844,-7.758624 -6.882061 0.6851243,-7.702111 -5.697542 0.8301092,-7.635269 -4.941417 0.995703,-7.565788 -4.257401 1.115751,-8.049117 -6.985073 0.8936786,-8.049029 -5.869226 1.044386,-8.000425 -5.168581 1.202626,-7.925192 -4.536955 1.315503,-8.342857 -7.281319 1.10889,-8.446136 -6.476235 1.252487,-8.491184 -5.941423 1.341108,-8.50622 -5.401268 1.414968,1.110,
-2.152404 -9.118359 0.2024673,-2.739295 -8.768959 0.303445,-3.215986 -8.090078 0.3502439,-3.483755 -7.364656 0.4695818,-3.705112 -6.782678 0.6259894,-3.068257 -6.710618 0.01714425,-3.338381 -5.863119 0.09037995,-3.481834 -5.367176 0.1442864,-3.590678 -4.918859 0.1804006,-2.778909 -6.486267 0.1250977,-2.99766 -5.47394 0.1695462,-3.140802 -4.892921 0.2633647,-3.249796 -4.38356 0.33312,-2.483598 -6.454708 0.2983288,-2.613189 -5.491983 0.3720998,-2.730405 -4.95767 0.4860965,-2.834568 -4.489362 0.5780798,-2.162621 -6.593917 0.5061571,-2.207675 -5.826407 0.5915591,-2.273164 -5.380619 0.6997789,-2.339299 -4.950811 0.7881526,-8.136434 -9.58321 0.1394623,-7.549397 -9.140554 0.1899522,-7.127458 -8.26543 0.2802518,-6.898882 -7.527811 0.4313624,-6.666151 -7.040237 0.5951452,-7.483096 -6.924892 0.2082065,-7.374086 -5.874204 0.3859046,-7.299376 -5.284518 0.5408554,-7.233692 -4.778189 0.6361865,-7.781465 -6.815444 0.3707071,-7.704906 -5.606201 0.5097649,-7.64081 -4.864036 0.7100846,-7.58432 -4.188961 0.8644007,-8.065832 -6.922384 0.552075,-8.032537 -5.779785 0.7129841,-7.977047 -5.069724 0.9183636,-7.91515 -4.444678 1.064339,-8.357387 -7.218397 0.7337734,-8.448066 -6.37557 0.9111736,-8.495857 -5.830755 1.042292,-8.514118 -5.284577 1.135868,1.210,
-2.145853 -8.93404 -0.1225602,-2.732388 -8.630054 0.02569564,-3.192727 -7.988733 0.07933556,-3.441405 -7.2795 0.1856849,-3.673925 -6.710525 0.3166564,-3.043431 -6.617594 -0.2508397,-3.313661 -5.772533 -0.1586263,-3.457238 -5.258742 -0.1088589,-3.564968 -4.791591 -0.075018,-2.753904 -6.39254 -0.1811987,-2.965152 -5.396099 -0.1358598,-3.112397 -4.80179 -0.05422917,-3.22438 -4.284649 0.007469162,-2.459495 -6.371294 -0.04033633,-2.587041 -5.414689 0.03362523,-2.704126 -4.843801 0.1557922,-2.810609 -4.351207 0.2540534,-2.136225 -6.525658 0.1364281,-2.17629 -5.751958 0.2265376,-2.241196 -5.287693 0.3573214,-2.308429 -4.858783 0.4612736,-8.125496 -9.454992 0.006686797,-7.547427 -9.016731 0.09451813,-7.137894 -8.182882 0.1967529,-6.919963 -7.455307 0.3537294,-6.69005 -6.961101 0.5208395,-7.495099 -6.838317 0.07764664,-7.383963 -5.810892 0.2448072,-7.299944 -5.212959 0.4022257,-7.225095 -4.695037 0.5063469,-7.791107 -6.721227 0.2167177,-7.711649 -5.538158 0.3399166,-7.643591 -4.802568 0.5422732,-7.582628 -4.137582 0.6971412,-8.071111 -6.81637 0.3792684,-8.031909 -5.696131 0.5207884,-7.972095 -4.996715 0.7193862,-7.907404 -4.390279 0.8641039,-8.360291 -7.09794 0.5473111,-8.445268 -6.258436 0.720139,-8.48849 -5.708999 0.8565625,-8.50578 -5.173982 0.9483877,1.310,
-2.148793 -8.819435 -0.3233717,-2.71809 -8.538542 -0.154553,-3.167452 -7.922709 -0.09836593,-3.412001 -7.233463 0.005283505,-3.653986 -6.679128 0.1289247,-3.022885 -6.558757 -0.4451033,-3.286788 -5.738136 -0.3477556,-3.431115 -5.229021 -0.2886917,-3.545052 -4.763239 -0.2426405,-2.736656 -6.332032 -0.3802596,-2.94442 -5.363035 -0.3239199,-3.093172 -4.781534 -0.2302938,-3.212028 -4.278049 -0.1583391,-2.442824 -6.308368 -0.242626,-2.566798 -5.376316 -0.1526245,-2.684715 -4.814973 -0.01843333,-2.796488 -4.329723 0.08812746,-2.118854 -6.458218 -0.0669283,-2.160897 -5.704827 0.03949901,-2.227464 -5.248064 0.1838784,-2.297564 -4.830211 0.2946811,-8.144764 -9.38946 -0.09313376,-7.565913 -8.971699 0.01244558,-7.153626 -8.15263 0.1292042,-6.930115 -7.433713 0.3000187,-6.691964 -6.943316 0.4809415,-7.504241 -6.803957 -0.008444428,-7.390797 -5.774401 0.1669132,-7.303456 -5.17876 0.330145,-7.227055 -4.661764 0.4341928,-7.798058 -6.686859 0.1268787,-7.71892 -5.498828 0.2616449,-7.650653 -4.761533 0.4646455,-7.590858 -4.096641 0.6205082,-8.077723 -6.785049 0.2886907,-8.038135 -5.665243 0.4408575,-7.97627 -4.962956 0.6440817,-7.910531 -4.354574 0.7906908,-8.367152 -7.068161 0.4567776,-8.4472 -6.230987 0.6423399,-8.487605 -5.683358 0.7870132,-8.504128 -5.148363 0.8828781,1.410,
-2.123511 -8.77239 -0.4241542,-2.700657 -8.492252 -0.2566846,-3.147786 -7.882053 -0.1958419,-3.396258 -7.202722 -0.0876711,-3.643247 -6.649637 0.04602593,-3.002245 -6.542882 -0.5471559,-3.254524 -5.720673 -0.4475711,-3.397001 -5.206697 -0.3784252,-3.512566 -4.744803 -0.3256355,-2.716177 -6.315834 -0.4846851,-2.918806 -5.353751 -0.4334402,-3.070265 -4.774499 -0.3373755,-3.192551 -4.277511 -0.2619931,-2.421791 -6.282333 -0.3489107,-2.546135 -5.357297 -0.2687061,-2.66406 -4.797861 -0.1355742,-2.774808 -4.322099 -0.0250496,-2.097133 -6.414976 -0.1766348,-2.148136 -5.663274 -0.0832608,-2.220878 -5.20325 0.053785,-2.296139 -4.79108 0.159964,-8.150575 -9.296267 -0.2587731,-7.577097 -8.889616 -0.1246493,-7.162673 -8.088898 0.001145124,-6.935043 -7.376729 0.1757706,-6.700878 -6.876091 0.3584376,-7.519088 -6.762773 -0.1581284,-7.402988 -5.733049 0.01904887,-7.316597 -5.137813 0.1776757,-7.240321 -4.626368 0.2879613,-7.811963 -6.640382 -0.04005983,-7.723926 -5.452705 0.09103492,-7.656837 -4.72019 0.2898396,-7.59401 -4.062686 0.4499238,-8.089021 -6.732262 0.1050729,-8.038648 -5.612981 0.2585815,-7.979729 -4.909493 0.463335,-7.914022 -4.304574 0.6167901,-8.376656 -7.010259 0.2609899,-8.453382 -6.184019 0.440771,-8.494893 -5.647352 0.5896978,-8.511395 -5.133375 0.6932619,1.510,
-2.100392 -8.625755 -0.5858868,-2.674458 -8.38294 -0.4380394,-3.123141 -7.740007 -0.3912237,-3.366295 -7.043688 -0.2957874,-3.612089 -6.497255 -0.1672204,-2.968507 -6.440273 -0.7046316,-3.235188 -5.617468 -0.5997674,-3.390095 -5.110614 -0.5299171,-3.510939 -4.647394 -0.4721323,-2.681558 -6.213605 -0.6296018,-2.885692 -5.257332 -0.568912,-3.039691 -4.674816 -0.470883,-3.159319 -4.171453 -0.397412,-2.387398 -6.188625 -0.482231,-2.521315 -5.271231 -0.3853143,-2.646501 -4.706717 -0.2496903,-2.755348 -4.222031 -0.1397482,-2.063653 -6.331747 -0.3041277,-2.114403 -5.584163 -0.1837894,-2.191345 -5.123016 -0.03252584,-2.267617 -4.703027 0.08142292,-8.135144 -9.177395 -0.3381907,-7.563104 -8.797253 -0.2144338,-7.154808 -7.996338 -0.1006325,-6.927917 -7.276678 0.0631569,-6.685683 -6.766361 0.2408748,-7.516048 -6.6667 -0.2474927,-7.38994 -5.642253 -0.08369696,-7.298854 -5.045213 0.06028873,-7.22382 -4.535198 0.1555169,-7.806232 -6.54285 -0.1238898,-7.717765 -5.349609 -0.0001511872,-7.650578 -4.606359 0.1916724,-7.589506 -3.953706 0.3392224,-8.08231 -6.642476 0.02370697,-8.034322 -5.519884 0.180682,-7.979605 -4.804564 0.3834137,-7.915544 -4.195659 0.5384101,-8.366015 -6.930731 0.1838838,-8.449444 -6.10294 0.3756278,-8.492241 -5.562423 0.5385035,-8.502417 -5.05699 0.6501026,1.610,
-2.112787 -8.599747 -0.6240738,-2.678813 -8.353703 -0.4532103,-3.121323 -7.733255 -0.3870184,-3.363124 -7.058469 -0.2766322,-3.609118 -6.506589 -0.1349323,-2.968693 -6.424726 -0.7124297,-3.230127 -5.60924 -0.5980927,-3.380404 -5.105881 -0.5249263,-3.498822 -4.64451 -0.4697868,-2.683067 -6.195905 -0.6431,-2.887515 -5.242557 -0.571817,-3.042869 -4.664358 -0.4711276,-3.165316 -4.162007 -0.3961076,-2.390794 -6.169804 -0.5004486,-2.525681 -5.243044 -0.3874853,-2.648671 -4.670549 -0.2405757,-2.759021 -4.177251 -0.1223342,-2.068363 -6.316814 -0.3258666,-2.126042 -5.561525 -0.1992454,-2.203675 -5.091399 -0.04157996,-2.282937 -4.665424 0.0796569,-8.122136 -9.147367 -0.3565572,-7.55336 -8.759945 -0.229883,-7.146657 -7.965866 -0.1148079,-6.920116 -7.247508 0.05207118,-6.680189 -6.739016 0.2333795,-7.50549 -6.642056 -0.2802235,-7.373462 -5.625853 -0.1151849,-7.279527 -5.031117 0.0348677,-7.203153 -4.522786 0.1354359,-7.795708 -6.51675 -0.1557854,-7.701879 -5.332597 -0.03714049,-7.630229 -4.5951 0.1612226,-7.568159 -3.950473 0.3108624,-8.072095 -6.608247 -0.00513947,-8.018607 -5.48951 0.1469302,-7.959858 -4.775342 0.3532553,-7.894226 -4.17111 0.5105866,-8.356666 -6.88482 0.1585165,-8.43724 -6.047031 0.3452507,-8.480593 -5.503569 0.5059848,-8.493806 -4.993301 0.6183599,1.710,
-2.107924 -8.499411 -0.6396595,-2.668673 -8.236341 -0.4381487,-3.114927 -7.660622 -0.3541895,-3.372204 -7.021107 -0.232787,-3.620249 -6.471523 -0.07682008,-2.95052 -6.324716 -0.6952818,-3.212126 -5.511974 -0.6059088,-3.366911 -5.02021 -0.5466765,-3.489786 -4.569351 -0.496421,-2.667587 -6.097577 -0.6489481,-2.864791 -5.146245 -0.5897149,-3.013063 -4.581079 -0.4926263,-3.124707 -4.079166 -0.4180285,-2.378511 -6.069435 -0.5304805,-2.504172 -5.147495 -0.4414212,-2.626256 -4.5886 -0.3005976,-2.732974 -4.091865 -0.1779951,-2.061729 -6.206722 -0.3798381,-2.118381 -5.449409 -0.2748163,-2.193449 -4.975606 -0.1232277,-2.26644 -4.534391 -0.003863037,-8.096457 -9.053085 -0.3636342,-7.52715 -8.680332 -0.2424959,-7.131472 -7.879495 -0.1376436,-6.911719 -7.157171 0.02059582,-6.664865 -6.665018 0.1935208,-7.479439 -6.547 -0.3064596,-7.339087 -5.546497 -0.1503294,-7.247707 -4.955143 0.0003864169,-7.17662 -4.441921 0.09620109,-7.772186 -6.42309 -0.1782373,-7.685639 -5.254177 -0.07396603,-7.620222 -4.523785 0.1179644,-7.566215 -3.8871 0.2638556,-8.050847 -6.515125 -0.02318564,-8.009974 -5.404439 0.1225934,-7.960014 -4.694629 0.3281247,-7.904139 -4.082658 0.4844508,-8.337652 -6.792087 0.1450391,-8.43195 -5.954288 0.334071,-8.482722 -5.403989 0.4951658,-8.50304 -4.872799 0.6112462,1.810,
-2.098352 -8.50107 -0.6740896,-2.664973 -8.242161 -0.4535354,-3.11618 -7.670904 -0.3522938,-3.377983 -7.025124 -0.2169136,-3.61517 -6.451253 -0.05426174,-2.938601 -6.336904 -0.7111768,-3.190176 -5.512584 -0.6122912,-3.339971 -5.012473 -0.5423989,-3.457244 -4.558996 -0.484223,-2.652898 -6.108125 -0.6746211,-2.843186 -5.149873 -0.6157741,-2.990615 -4.569592 -0.5267439,-3.101551 -4.06923 -0.453919,-2.364368 -6.082922 -0.5652246,-2.482876 -5.15858 -0.4748082,-2.600813 -4.585134 -0.335065,-2.70283 -4.089427 -0.2150028,-2.051805 -6.225992 -0.4222136,-2.100072 -5.47083 -0.3151377,-2.171607 -4.992681 -0.1628692,-2.241301 -4.559408 -0.04291469,-8.075462 -9.029745 -0.3715263,-7.509203 -8.661463 -0.2703492,-7.117925 -7.854692 -0.1773035,-6.903189 -7.135601 -0.02599147,-6.662631 -6.636514 0.1391885,-7.473068 -6.523929 -0.361304,-7.333816 -5.529963 -0.2202343,-7.236922 -4.944784 -0.07626092,-7.159629 -4.440786 0.01587963,-7.765903 -6.397722 -0.226329,-7.68415 -5.222746 -0.1355751,-7.61675 -4.48977 0.05368638,-7.559335 -3.858449 0.1927887,-8.046009 -6.486286 -0.06404981,-8.004371 -5.368201 0.06357139,-7.951723 -4.652982 0.2599267,-7.890303 -4.04832 0.4118584,-8.334608 -6.756277 0.1110862,-8.421885 -5.901908 0.291119,-8.467564 -5.343694 0.4498639,-8.482224 -4.822206 0.5620748,1.910,
-2.075543 -8.523865 -0.6623566,-2.641602 -8.266443 -0.4322505,-3.093443 -7.698834 -0.3259901,-3.355263 -7.046825 -0.1894702,-3.590157 -6.464544 -0.02328455,-2.918989 -6.360301 -0.7053432,-3.164941 -5.53462 -0.6084961,-3.314056 -5.033973 -0.5297583,-3.433098 -4.572959 -0.4604802,-2.632468 -6.128059 -0.6731544,-2.820547 -5.174041 -0.6184432,-2.968315 -4.600303 -0.5224368,-3.080578 -4.096903 -0.4413307,-2.342135 -6.099726 -0.5657099,-2.461966 -5.175575 -0.4807669,-2.584518 -4.606648 -0.3380598,-2.689901 -4.111417 -0.2122684,-2.025136 -6.239334 -0.4239346,-2.070021 -5.48036 -0.317692,-2.143381 -5.000005 -0.1609054,-2.214695 -4.565376 -0.03421128,-8.092045 -9.054611 -0.2813895,-7.525614 -8.663404 -0.1675543,-7.129683 -7.855367 -0.06894138,-6.907192 -7.131813 0.08478394,-6.660661 -6.624666 0.2486469,-7.482999 -6.524366 -0.2546888,-7.345795 -5.529073 -0.1116074,-7.24989 -4.935848 0.03250688,-7.17458 -4.424041 0.1301863,-7.774471 -6.398181 -0.1255385,-7.688958 -5.232582 -0.0316121,-7.621058 -4.495777 0.1636569,-7.565186 -3.861933 0.3096239,-8.052322 -6.489692 0.03047922,-8.011278 -5.378986 0.1634473,-7.957437 -4.660425 0.372987,-7.894354 -4.05575 0.5356497,-8.33886 -6.764959 0.2006236,-8.431815 -5.927349 0.3840495,-8.477279 -5.374385 0.552914,-8.48892 -4.852033 0.6732319,2.010,
-2.060135 -8.522232 -0.6753553,-2.621586 -8.25877 -0.4756481,-3.061624 -7.667558 -0.3959289,-3.308834 -7.00461 -0.2813236,-3.551346 -6.443962 -0.1337953,-2.882096 -6.350531 -0.7287522,-3.138313 -5.521905 -0.6354653,-3.289515 -5.020202 -0.569316,-3.407717 -4.557311 -0.5096086,-2.595851 -6.125376 -0.6818163,-2.783516 -5.165117 -0.6172823,-2.926943 -4.591852 -0.522019,-3.0329 -4.080215 -0.4450305,-2.306715 -6.100097 -0.5617222,-2.42601 -5.173793 -0.4711114,-2.54749 -4.608022 -0.3276703,-2.649443 -4.10506 -0.2013366,-1.990591 -6.240308 -0.4108193,-2.03233 -5.47738 -0.3045088,-2.103761 -5.000082 -0.1487129,-2.172018 -4.558203 -0.02408695,-8.118676 -9.085857 -0.2411173,-7.551645 -8.689857 -0.1381906,-7.156766 -7.876886 -0.03809848,-6.938488 -7.151766 0.1229135,-6.687632 -6.646072 0.2930558,-7.500063 -6.540637 -0.2246503,-7.365652 -5.543075 -0.07463139,-7.266388 -4.950689 0.07702428,-7.184073 -4.431745 0.1745932,-7.793904 -6.418714 -0.0846425,-7.711846 -5.252329 0.01736668,-7.640595 -4.51478 0.213363,-7.577117 -3.877883 0.3548964,-8.074519 -6.513029 0.08339748,-8.032695 -5.393521 0.2219688,-7.974442 -4.674156 0.4333108,-7.903206 -4.069755 0.5917085,-8.364835 -6.78833 0.2626004,-8.443284 -5.935578 0.4541187,-8.476539 -5.376098 0.6229642,-8.474627 -4.850354 0.7383034,2.110,
-2.054007 -8.50182 -0.6412225,-2.6206 -8.245304 -0.4318199,-3.057758 -7.641983 -0.3474343,-3.299081 -6.969238 -0.2317927,-3.536898 -6.409706 -0.08784544,-2.878038 -6.317643 -0.6844753,-3.126568 -5.492854 -0.5803654,-3.272652 -4.991249 -0.5052797,-3.386742 -4.523355 -0.4395382,-2.585744 -6.09407 -0.6415908,-2.764384 -5.144143 -0.5647052,-2.90276 -4.576993 -0.4619694,-3.005887 -4.070127 -0.3798374,-2.291625 -6.076006 -0.5242887,-2.405495 -5.160588 -0.4200457,-2.522394 -4.599653 -0.2677476,-2.622062 -4.102567 -0.1395621,-1.96997 -6.226842 -0.3755125,-2.006272 -5.480024 -0.2556735,-2.074895 -5.005336 -0.09252131,-2.14174 -4.561983 0.03545088,-8.128786 -9.105585 -0.2079519,-7.563596 -8.703875 -0.1046276,-7.16521 -7.891405 0.001527697,-6.944408 -7.177459 0.1688572,-6.688431 -6.668573 0.3422534,-7.510588 -6.549608 -0.1846733,-7.378743 -5.555749 -0.02519727,-7.281052 -4.961614 0.1275539,-7.201125 -4.439163 0.2284869,-7.805048 -6.429201 -0.04396486,-7.716749 -5.27062 0.07634556,-7.645236 -4.532182 0.282994,-7.583103 -3.894743 0.4328063,-8.086278 -6.524935 0.1242406,-8.035515 -5.410188 0.2753329,-7.975613 -4.689312 0.4931757,-7.901912 -4.085529 0.6586348,-8.379317 -6.802128 0.3020326,-8.438818 -5.949014 0.5039605,-8.459017 -5.38923 0.6806487,-8.44459 -4.865593 0.8026065,2.210,
-2.019053 -8.497946 -0.6774311,-2.582582 -8.236322 -0.4850536,-3.014585 -7.624747 -0.4119225,-3.252409 -6.950744 -0.3008395,-3.491844 -6.397251 -0.1590386,-2.846513 -6.320039 -0.7433965,-3.094191 -5.498924 -0.639735,-3.243892 -4.995725 -0.5576095,-3.361872 -4.52955 -0.4860956,-2.558213 -6.102483 -0.691023,-2.738824 -5.151626 -0.6276085,-2.885873 -4.580459 -0.5256413,-2.996508 -4.078938 -0.440931,-2.267412 -6.090462 -0.5651528,-2.376368 -5.178554 -0.4662701,-2.49376 -4.612394 -0.3105409,-2.594384 -4.119085 -0.1802065,-1.949787 -6.251377 -0.4080304,-1.981508 -5.508909 -0.2853382,-2.052577 -5.039676 -0.1210802,-2.122288 -4.611154 0.006207347,-8.161516 -9.139536 -0.1957309,-7.589792 -8.723627 -0.08882263,-7.168949 -7.932773 0.01845309,-6.934195 -7.219354 0.186157,-6.681192 -6.677604 0.3579001,-7.498918 -6.591686 -0.2304891,-7.356136 -5.628253 -0.07161169,-7.255945 -5.047364 0.07084614,-7.172779 -4.538143 0.1535288,-7.790318 -6.462486 -0.100078,-7.670107 -5.369545 0.0009132624,-7.574938 -4.688625 0.1946564,-7.487693 -4.100305 0.3355568,-8.072645 -6.542501 0.06538603,-7.996926 -5.482127 0.1947227,-7.923072 -4.816251 0.4043292,-7.830319 -4.260215 0.5631106,-8.370969 -6.799139 0.2383881,-8.390882 -5.997359 0.4282039,-8.368721 -5.470603 0.5940617,-8.303789 -4.985681 0.7124392,2.310,
-2.009371 -8.519688 -0.6772575,-2.564683 -8.253469 -0.4953415,-2.998769 -7.641754 -0.419043,-3.242703 -6.978118 -0.300988,-3.481009 -6.422299 -0.1528578,-2.827414 -6.34272 -0.736968,-3.080052 -5.526901 -0.6283736,-3.226465 -5.025625 -0.5456259,-3.338806 -4.558311 -0.4728644,-2.543969 -6.123122 -0.6785079,-2.733179 -5.180261 -0.6139832,-2.878872 -4.605098 -0.512033,-2.987676 -4.101383 -0.4281243,-2.254226 -6.111455 -0.5494337,-2.373274 -5.195482 -0.4520167,-2.491896 -4.632099 -0.2994429,-2.59289 -4.144413 -0.1714918,-1.935722 -6.275869 -0.3908942,-1.97167 -5.530059 -0.2650897,-2.040906 -5.059751 -0.09595221,-2.109802 -4.630912 0.03322381,-8.139699 -9.17882 -0.08607358,-7.589443 -8.731947 -0.007259421,-7.188096 -7.898961 0.09776525,-6.967463 -7.176422 0.2846668,-6.726332 -6.581322 0.4828625,-7.501577 -6.560229 -0.2510785,-7.364496 -5.637379 -0.1361489,-7.27173 -5.099506 -0.001113318,-7.170168 -4.613221 0.07240482,-7.815599 -6.462569 -0.114251,-7.719094 -5.491916 -0.05863896,-7.629924 -4.934509 0.1420629,-7.534271 -4.493614 0.273687,-8.098549 -6.544729 0.05509324,-8.061601 -5.601871 0.1109912,-7.9773 -5.077432 0.2836772,-7.866692 -4.692935 0.4134732,-8.385506 -6.787877 0.248449,-8.390242 -6.042408 0.3430175,-8.329247 -5.605971 0.4486117,-8.222883 -5.231759 0.5381563,2.410,
-1.995449 -8.559311 -0.6586769,-2.552309 -8.276506 -0.4788938,-2.981438 -7.666744 -0.4025753,-3.221083 -6.995277 -0.2844727,-3.454967 -6.442446 -0.139207,-2.809288 -6.372793 -0.7226501,-3.059013 -5.558648 -0.6174348,-3.202906 -5.056878 -0.5363805,-3.315314 -4.585607 -0.4652342,-2.523643 -6.155877 -0.6670921,-2.707817 -5.223135 -0.6102237,-2.848194 -4.655477 -0.5099348,-2.952976 -4.155504 -0.4301845,-2.234181 -6.145305 -0.5417228,-2.343768 -5.245252 -0.4540814,-2.457075 -4.692354 -0.3060114,-2.555094 -4.210523 -0.1825015,-1.918016 -6.307662 -0.3867629,-1.951151 -5.57208 -0.2744489,-2.017434 -5.112298 -0.1173899,-2.083878 -4.690308 0.003698111,-8.147239 -9.051519 -0.3423641,-7.62148 -8.585356 -0.1467636,-7.279777 -7.721315 -0.0470283,-7.104626 -6.943792 0.1083956,-6.947449 -6.306626 0.2107459,-7.567678 -6.486499 -0.6129118,-7.447537 -5.623441 -0.5237962,-7.337258 -5.069929 -0.3944508,-7.2472 -4.588212 -0.2705418,-7.864543 -6.409639 -0.5132918,-7.827898 -5.287941 -0.2035431,-7.68363 -5.673434 0.1657917,-7.643914 -6.243849 0.3155397,-8.148707 -6.482422 -0.3672429,-8.155071 -5.439942 -0.08059794,-8.00474 -5.807274 0.2155783,-7.963422 -6.403999 0.3303183,-8.458412 -6.698297 -0.2108974,-8.501221 -5.86483 0.07892099,-8.366289 -5.880136 0.2798908,-8.28273 -6.266687 0.3705881,2.510,
-1.95528 -8.610634 -0.6530151,-2.505884 -8.321478 -0.4819832,-2.933129 -7.699903 -0.4138433,-3.171693 -7.027734 -0.3030501,-3.412505 -6.484437 -0.1550614,-2.765144 -6.415246 -0.7477978,-3.007518 -5.605152 -0.6435823,-3.150444 -5.103986 -0.5455616,-3.265659 -4.629014 -0.4576022,-2.476901 -6.204284 -0.6852169,-2.647813 -5.287661 -0.627121,-2.783018 -4.728975 -0.503552,-2.887754 -4.229511 -0.3965774,-2.184743 -6.194866 -0.5547223,-2.289083 -5.32274 -0.4706946,-2.405075 -4.786278 -0.3077833,-2.507457 -4.324926 -0.1682898,-1.869286 -6.354761 -0.3932236,-1.905478 -5.633186 -0.2813744,-1.981562 -5.180866 -0.1197695,-2.066489 -4.77025 0.01062429,-8.206738 -8.994421 -0.7238422,-7.688906 -8.442961 -0.4072653,-7.369067 -7.593214 -0.2017022,-7.266307 -6.770063 0.03970176,-7.281593 -6.09258 0.2449986,-7.58636 -6.498334 -0.7790496,-7.498062 -5.545896 -0.5718111,-7.421794 -5.025806 -0.4127159,-7.382722 -4.540153 -0.3195669,-7.895543 -6.460017 -0.7080731,-7.841084 -5.532128 -0.2246918,-7.740675 -6.291294 0.1183997,-7.756797 -6.929258 0.1754814,-8.208661 -6.53086 -0.5642834,-8.181983 -5.635776 -0.09661818,-8.069704 -6.345354 0.1694198,-8.066278 -6.982339 0.1884017,-8.557188 -6.725194 -0.4018804,-8.582654 -5.930779 -0.0400511,-8.457476 -6.196489 0.1342942,-8.394314 -6.6434 0.149093,2.610,
-1.934193 -8.615383 -0.7270886,-2.486371 -8.333876 -0.5276523,-2.905895 -7.72174 -0.4441092,-3.135656 -7.058639 -0.3211704,-3.369604 -6.506403 -0.1648763,-2.728743 -6.422285 -0.7701981,-2.959305 -5.610914 -0.6422521,-3.101479 -5.100585 -0.535252,-3.215427 -4.615539 -0.4422353,-2.435701 -6.226198 -0.7187737,-2.599173 -5.310556 -0.6327332,-2.736218 -4.745861 -0.5041016,-2.83789 -4.24064 -0.3982192,-2.141146 -6.232261 -0.5970282,-2.233577 -5.360063 -0.4892028,-2.342848 -4.818737 -0.3206189,-2.435163 -4.34534 -0.180661,-1.82422 -6.406145 -0.444602,-1.844366 -5.692838 -0.3163443,-1.910748 -5.235115 -0.1466925,-1.98077 -4.811216 -0.01317888,-8.237767 -8.814528 -1.466033,-7.767373 -8.296621 -1.193004,-7.480691 -7.474433 -1.007646,-7.420807 -6.736256 -0.7962525,-7.428468 -6.056606 -0.6041571,-7.70822 -6.472815 -1.490324,-7.616298 -5.571509 -1.215878,-7.545392 -5.05129 -0.9902583,-7.487458 -4.577611 -0.852122,-7.997829 -6.485821 -1.42332,-7.896242 -5.775674 -0.9082009,-7.801435 -6.562372 -0.5846732,-7.813638 -7.177495 -0.5510818,-8.287875 -6.60684 -1.284616,-8.20052 -5.994138 -0.8081776,-8.101053 -6.758861 -0.6114769,-8.097626 -7.324394 -0.6551842,-8.619611 -6.85104 -1.120065,-8.588138 -6.187725 -0.7331886,-8.459082 -6.58966 -0.5650228,-8.404555 -7.053987 -0.5724988,2.710,
-1.934109 -8.593611 -0.7953175,-2.481023 -8.348166 -0.5870915,-2.901114 -7.717172 -0.5056406,-3.130853 -7.058795 -0.3858856,-3.360175 -6.528395 -0.2423654,-2.718911 -6.418278 -0.7929168,-2.955046 -5.596567 -0.6504325,-3.093708 -5.085104 -0.5437442,-3.202843 -4.60781 -0.4539275,-2.419669 -6.221595 -0.7433074,-2.587186 -5.298907 -0.6322235,-2.724687 -4.736335 -0.5091705,-2.828768 -4.260624 -0.4153148,-2.121411 -6.227396 -0.6233504,-2.21517 -5.340404 -0.4868816,-2.322591 -4.791148 -0.3233717,-2.418271 -4.323903 -0.1906321,-1.802989 -6.409639 -0.4755446,-1.815624 -5.692195 -0.3283426,-1.878572 -5.226684 -0.1619968,-1.949215 -4.802387 -0.03380996,-8.2446 -8.496237 -1.994369,-7.798363 -8.04085 -1.678846,-7.514552 -7.243886 -1.482924,-7.481451 -6.535047 -1.272527,-7.575004 -5.914114 -1.102759,-7.760096 -6.289014 -1.935712,-7.657664 -5.401282 -1.600041,-7.582429 -4.838243 -1.328015,-7.528241 -4.329533 -1.162776,-8.051604 -6.317466 -1.875629,-7.952627 -5.612926 -1.335225,-7.851433 -6.380858 -1.050802,-7.84968 -6.996648 -1.03614,-8.34103 -6.458682 -1.729883,-8.244942 -5.898357 -1.216111,-8.135326 -6.652715 -1.070229,-8.123533 -7.195507 -1.15004,-8.660497 -6.71507 -1.556588,-8.590802 -6.096767 -1.1669,-8.456829 -6.532521 -1.041448,-8.409001 -6.977885 -1.073582,2.810,
-1.942538 -8.600191 -0.7639899,-2.484192 -8.354034 -0.5598726,-2.904663 -7.718993 -0.4823159,-3.133759 -7.055819 -0.3658058,-3.368782 -6.529424 -0.2270277,-2.721963 -6.412606 -0.790374,-2.950753 -5.596553 -0.6501803,-3.090622 -5.083608 -0.5403125,-3.201233 -4.597024 -0.4479851,-2.423303 -6.217626 -0.7381134,-2.587957 -5.304683 -0.6339759,-2.727065 -4.744304 -0.5127187,-2.830434 -4.268125 -0.4199108,-2.124784 -6.224903 -0.6148372,-2.215159 -5.346553 -0.4841969,-2.327035 -4.801187 -0.3251162,-2.426064 -4.338806 -0.1935748,-1.806676 -6.408666 -0.4611977,-1.825431 -5.699312 -0.3202696,-1.89313 -5.238171 -0.1557457,-1.969205 -4.816327 -0.02763993,-8.228768 -8.33008 -2.014097,-7.797471 -7.892654 -1.667228,-7.515334 -7.09156 -1.452848,-7.499659 -6.391748 -1.235151,-7.621348 -5.809071 -1.057393,-7.768911 -6.125726 -1.883235,-7.665972 -5.254802 -1.5247,-7.590454 -4.684886 -1.237153,-7.541011 -4.161094 -1.06083,-8.064609 -6.158533 -1.83742,-7.964871 -5.502686 -1.277037,-7.867096 -6.280757 -1.007911,-7.872366 -6.852186 -1.013324,-8.357038 -6.313192 -1.703718,-8.262136 -5.78693 -1.186248,-8.150479 -6.546017 -1.058415,-8.14199 -7.051668 -1.145913,-8.676808 -6.580465 -1.541013,-8.59904 -6.010034 -1.159752,-8.461162 -6.470233 -1.051713,-8.419149 -6.891325 -1.090763,2.910,
-1.941292 -8.633087 -0.7939366,-2.484383 -8.363251 -0.591391,-2.901351 -7.746633 -0.509037,-3.12685 -7.083946 -0.3883134,-3.359932 -6.548996 -0.2377367,-2.704579 -6.446874 -0.8117445,-2.927901 -5.633007 -0.6683801,-3.069941 -5.119276 -0.5475596,-3.185927 -4.625291 -0.4427614,-2.407438 -6.256431 -0.7590126,-2.561621 -5.346847 -0.651031,-2.697181 -4.779886 -0.5082945,-2.800724 -4.2802 -0.3931269,-2.109989 -6.270862 -0.638044,-2.193806 -5.404832 -0.5145045,-2.305453 -4.869989 -0.3438603,-2.403776 -4.411865 -0.2011856,-1.795445 -6.456836 -0.4873729,-1.807387 -5.751487 -0.3475169,-1.875187 -5.290047 -0.1761044,-1.954725 -4.867115 -0.04232508,-8.257766 -7.866619 -2.016285,-7.822166 -7.409881 -1.700777,-7.518082 -6.666227 -1.480539,-7.484632 -5.975561 -1.243631,-7.656974 -5.4673 -1.044549,-7.784891 -5.699358 -1.926684,-7.645731 -4.836265 -1.578883,-7.557825 -4.222335 -1.277587,-7.527205 -3.651515 -1.088185,-8.076002 -5.695282 -1.86312,-7.957302 -5.042604 -1.320612,-7.866722 -5.807367 -1.094167,-7.888846 -6.374876 -1.127549,-8.374162 -5.834451 -1.716473,-8.264614 -5.316511 -1.196918,-8.162436 -6.097923 -1.092076,-8.172287 -6.622396 -1.196577,-8.698839 -6.083753 -1.543323,-8.614517 -5.508617 -1.14692,-8.472917 -5.987487 -1.074861,-8.432976 -6.451267 -1.148601,3.010,
-1.926063 -8.648777 -0.7627348,-2.467918 -8.393888 -0.5730177,-2.884287 -7.768754 -0.5004929,-3.11229 -7.101737 -0.3827054,-3.34912 -6.571153 -0.2405431,-2.688884 -6.456665 -0.814542,-2.919489 -5.648622 -0.6905683,-3.058943 -5.143304 -0.5926306,-3.171629 -4.660573 -0.5089052,-2.388759 -6.262114 -0.7602717,-2.537917 -5.360817 -0.6780584,-2.668934 -4.796096 -0.5655727,-2.770431 -4.301354 -0.4731399,-2.090507 -6.279806 -0.6375149,-2.16633 -5.423664 -0.5332825,-2.276108 -4.904283 -0.3883072,-2.37361 -4.462959 -0.2668534,-1.777549 -6.474071 -0.4832084,-1.789428 -5.782369 -0.3560892,-1.854492 -5.330402 -0.1984416,-1.933522 -4.913835 -0.07826132,-8.231016 -7.558149 -1.699265,-7.815431 -7.1693 -1.324332,-7.472092 -6.420419 -1.059626,-7.412132 -5.739391 -0.7830861,-7.599694 -5.285545 -0.5397716,-7.742749 -5.31092 -1.541502,-7.607404 -4.522645 -1.143622,-7.51499 -4.001861 -0.8452697,-7.422456 -3.501489 -0.6881752,-8.062026 -5.298888 -1.494591,-7.883995 -4.876721 -0.8888411,-7.843237 -5.703128 -0.6895691,-7.893494 -6.16872 -0.7895722,-8.375718 -5.439027 -1.343929,-8.204652 -5.14178 -0.8053104,-8.156534 -5.959491 -0.7311704,-8.196769 -6.380816 -0.8763548,-8.712212 -5.680706 -1.161197,-8.566323 -5.304593 -0.8096894,-8.448372 -5.835092 -0.7446992,-8.451738 -6.207176 -0.8307341,3.110,
-1.934524 -8.64456 -0.817037,-2.479819 -8.401119 -0.6253257,-2.895947 -7.752853 -0.5522937,-3.117732 -7.084931 -0.4376029,-3.350095 -6.576782 -0.2997617,-2.69627 -6.453945 -0.826836,-2.925859 -5.631151 -0.6840866,-3.06739 -5.118145 -0.5766887,-3.182566 -4.639114 -0.4915469,-2.394668 -6.273763 -0.7669641,-2.551905 -5.363161 -0.6486827,-2.690689 -4.800439 -0.5215856,-2.798828 -4.332142 -0.4226654,-2.095879 -6.300009 -0.6381105,-2.18254 -5.430044 -0.4928741,-2.297437 -4.891765 -0.3353641,-2.402295 -4.445453 -0.2065333,-1.783662 -6.506414 -0.4831451,-1.795415 -5.816103 -0.328742,-1.862397 -5.351635 -0.1625535,-1.941926 -4.925193 -0.03577173,-8.235353 -7.445031 -1.692913,-7.80827 -7.045595 -1.323757,-7.456508 -6.31508 -1.063725,-7.394407 -5.639966 -0.7895706,-7.587478 -5.198454 -0.5563091,-7.72732 -5.19712 -1.547933,-7.584705 -4.392045 -1.161614,-7.489636 -3.895089 -0.8731784,-7.390423 -3.419203 -0.7244099,-8.049568 -5.184469 -1.497593,-7.868216 -4.782736 -0.8821574,-7.843053 -5.612105 -0.6677155,-7.89944 -6.075732 -0.7611813,-8.365744 -5.313283 -1.344967,-8.19858 -5.018339 -0.8010651,-8.158134 -5.833995 -0.7095442,-8.198112 -6.263896 -0.848429,-8.705344 -5.542493 -1.161424,-8.571335 -5.154535 -0.8089376,-8.454523 -5.684254 -0.7277677,-8.4532 -6.06847 -0.8033354,3.210,
-1.946447 -8.683969 -0.7591214,-2.503079 -8.425606 -0.5677657,-2.92101 -7.779224 -0.4898623,-3.144587 -7.114122 -0.3696508,-3.378583 -6.596298 -0.2220148,-2.713417 -6.473322 -0.7877169,-2.939069 -5.659769 -0.6541033,-3.081443 -5.152751 -0.5436265,-3.201471 -4.680339 -0.4535483,-2.40689 -6.296031 -0.7283205,-2.561181 -5.39116 -0.622265,-2.699198 -4.836723 -0.4940536,-2.810059 -4.373735 -0.3952836,-2.108143 -6.327234 -0.6011092,-2.191928 -5.459581 -0.4689822,-2.312222 -4.923627 -0.3109482,-2.425249 -4.484889 -0.1795631,-1.79884 -6.537921 -0.44664,-1.808219 -5.851897 -0.3071152,-1.878349 -5.39091 -0.1467745,-1.963517 -4.973053 -0.02430135,-8.252151 -7.096159 -1.505162,-7.823517 -6.680394 -1.092075,-7.445653 -5.984227 -0.775794,-7.35889 -5.319205 -0.4547857,-7.589898 -4.895024 -0.1760429,-7.704285 -4.827227 -1.257978,-7.562645 -4.079631 -0.791934,-7.470222 -3.588609 -0.4320455,-7.379281 -3.102239 -0.2275416,-8.03231 -4.795724 -1.205941,-7.87429 -4.463887 -0.5435011,-7.854192 -5.319553 -0.3299708,-7.907493 -5.751494 -0.4073832,-8.352447 -4.916894 -1.048563,-8.198312 -4.67912 -0.4582869,-8.151494 -5.497888 -0.3551967,-8.188487 -5.885059 -0.4783891,-8.696956 -5.153119 -0.8509099,-8.568493 -4.817997 -0.4615666,-8.440213 -5.362721 -0.3571336,-8.422276 -5.709341 -0.412836,3.310,
-1.949067 -8.698061 -0.7324234,-2.493631 -8.434818 -0.5398006,-2.911259 -7.801591 -0.4663633,-3.141653 -7.132204 -0.3490898,-3.375012 -6.602994 -0.2036824,-2.706727 -6.490875 -0.7918801,-2.929558 -5.67758 -0.6702984,-3.069876 -5.170408 -0.5727467,-3.187917 -4.692617 -0.4939717,-2.405888 -6.301441 -0.7375905,-2.552001 -5.396007 -0.6575185,-2.689009 -4.831935 -0.5442822,-2.800943 -4.344862 -0.4493767,-2.107487 -6.32482 -0.6140555,-2.180236 -5.464107 -0.5116165,-2.293821 -4.941191 -0.3695492,-2.401472 -4.505906 -0.2468848,-1.795691 -6.524096 -0.4583647,-1.808622 -5.831328 -0.3372437,-1.877085 -5.375602 -0.1827881,-1.964416 -4.962064 -0.06516248,-8.279773 -6.953517 -1.560135,-7.837098 -6.555479 -1.154255,-7.442647 -5.869981 -0.8392968,-7.354475 -5.203451 -0.5201243,-7.609612 -4.816921 -0.245541,-7.719709 -4.708547 -1.318048,-7.571571 -3.969598 -0.8425306,-7.473839 -3.496616 -0.4802727,-7.372305 -3.030043 -0.2822796,-8.050705 -4.669509 -1.264144,-7.881236 -4.380397 -0.6055419,-7.8695 -5.236274 -0.4061505,-7.925489 -5.669672 -0.4963841,-8.371351 -4.78914 -1.104357,-8.207407 -4.582601 -0.5225452,-8.169168 -5.397371 -0.4215467,-8.208986 -5.792781 -0.5449667,-8.715363 -5.027914 -0.9020173,-8.573849 -4.736644 -0.5224104,-8.450564 -5.283119 -0.4152168,-8.435463 -5.626526 -0.4641836,3.410,
-1.955068 -8.695156 -0.7491965,-2.498545 -8.434242 -0.5482983,-2.912921 -7.797126 -0.4649591,-3.138331 -7.130977 -0.3403727,-3.372455 -6.600717 -0.1851617,-2.706366 -6.484607 -0.7755618,-2.928946 -5.672487 -0.6400725,-3.06992 -5.167718 -0.530154,-3.190874 -4.69197 -0.4409894,-2.402703 -6.301883 -0.718965,-2.547845 -5.399555 -0.6120991,-2.686467 -4.840055 -0.4834016,-2.800189 -4.358257 -0.3793418,-2.102658 -6.33188 -0.5943061,-2.169418 -5.472481 -0.4669273,-2.282052 -4.945232 -0.3079312,-2.389691 -4.502944 -0.1718873,-1.792019 -6.539359 -0.4397643,-1.798156 -5.85003 -0.2992551,-1.864113 -5.39116 -0.1318037,-1.950648 -4.973401 -0.00349474,-8.27619 -6.737874 -1.497772,-7.849307 -6.391586 -1.051248,-7.460575 -5.732605 -0.7107037,-7.375857 -5.076428 -0.3759614,-7.620743 -4.65817 -0.08312142,-7.71429 -4.497278 -1.218935,-7.57642 -3.771781 -0.7223953,-7.490748 -3.291593 -0.3472127,-7.40156 -2.815151 -0.1374574,-8.049931 -4.439038 -1.175502,-7.901907 -4.19823 -0.5056294,-7.895527 -5.069059 -0.3089213,-7.942398 -5.492826 -0.4030823,-8.378895 -4.560185 -1.019814,-8.235343 -4.374881 -0.4230505,-8.191263 -5.197474 -0.3218457,-8.217293 -5.584369 -0.4546881,-8.73407 -4.809125 -0.8202148,-8.604655 -4.531107 -0.4313097,-8.477245 -5.083569 -0.3311657,-8.450843 -5.421056 -0.3918844,3.510,
-1.935705 -8.717396 -0.7625021,-2.483711 -8.451225 -0.5675665,-2.896725 -7.821872 -0.4820441,-3.121472 -7.160103 -0.3525208,-3.36067 -6.638721 -0.1902046,-2.692126 -6.506725 -0.7782426,-2.912063 -5.69678 -0.6443325,-3.050137 -5.192964 -0.539377,-3.165909 -4.717995 -0.4524759,-2.388077 -6.329029 -0.7221113,-2.528402 -5.427177 -0.6189258,-2.660522 -4.870077 -0.4973856,-2.767222 -4.388959 -0.3996071,-2.089609 -6.365771 -0.5991439,-2.153738 -5.50867 -0.4784292,-2.262656 -4.986387 -0.3273155,-2.365564 -4.547819 -0.1992856,-1.781407 -6.580822 -0.4476482,-1.78101 -5.894283 -0.3117653,-1.841654 -5.433378 -0.1491299,-1.921505 -5.010128 -0.02662313,-8.327455 -6.442375 -1.381675,-7.915777 -6.119939 -0.9569261,-7.516545 -5.463777 -0.6204035,-7.441768 -4.807791 -0.2906828,-7.718784 -4.455279 0.006195903,-7.784411 -4.19606 -1.070853,-7.655701 -3.490549 -0.5797166,-7.567218 -3.024662 -0.2268945,-7.473477 -2.572201 -0.03576183,-8.134356 -4.112958 -1.018287,-7.975658 -3.949768 -0.3634421,-7.966091 -4.801062 -0.1735388,-8.023973 -5.210617 -0.2624611,-8.470747 -4.23687 -0.8656968,-8.32033 -4.18614 -0.2858067,-8.279593 -4.993383 -0.2119499,-8.316724 -5.343685 -0.3560851,-8.824121 -4.506326 -0.6701879,-8.697751 -4.336893 -0.2979219,-8.574512 -4.892597 -0.2257349,-8.555605 -5.182406 -0.3031518,3.610,
-1.944873 -8.724932 -0.765258,-2.484128 -8.456476 -0.578632,-2.891942 -7.824413 -0.5000957,-3.113016 -7.160146 -0.3752797,-3.355715 -6.63985 -0.2171965,-2.683166 -6.511143 -0.7849134,-2.900389 -5.698979 -0.6418107,-3.04007 -5.193876 -0.5322481,-3.158931 -4.712493 -0.4405918,-2.380618 -6.334398 -0.7179796,-2.515805 -5.432267 -0.5986283,-2.647476 -4.874282 -0.4682286,-2.756167 -4.389717 -0.3605193,-2.08193 -6.372825 -0.5843059,-2.142356 -5.51456 -0.4472006,-2.251799 -4.991085 -0.2883072,-2.357132 -4.551513 -0.1547452,-1.772438 -6.590411 -0.4222173,-1.769899 -5.902854 -0.2693881,-1.833762 -5.440586 -0.0993371,-1.919054 -5.017528 0.03069884,-8.353089 -6.37238 -1.431102,-7.938806 -6.073652 -0.9900506,-7.53561 -5.40555 -0.6433865,-7.462978 -4.736911 -0.3107041,-7.751164 -4.389932 -0.03105283,-7.810344 -4.127135 -1.131165,-7.671596 -3.409925 -0.6248783,-7.591018 -2.938958 -0.2720625,-7.50552 -2.451458 -0.08660221,-8.163712 -4.053737 -1.089162,-8.003197 -3.883061 -0.4155712,-7.990594 -4.776901 -0.2726803,-8.044516 -5.168972 -0.4235541,-8.502911 -4.188199 -0.9320885,-8.362761 -4.095762 -0.3305486,-8.307635 -4.938015 -0.2663031,-8.339346 -5.288064 -0.4364316,-8.85836 -4.464459 -0.7374339,-8.742507 -4.270415 -0.3592048,-8.606532 -4.83559 -0.2884084,-8.583062 -5.126815 -0.3778584,3.710,
-1.945029 -8.748602 -0.7289457,-2.477596 -8.481281 -0.5288035,-2.886667 -7.845769 -0.4420037,-3.111628 -7.180152 -0.3105702,-3.352488 -6.653121 -0.1487998,-2.680554 -6.525968 -0.7614091,-2.901059 -5.713727 -0.6238042,-3.04043 -5.204473 -0.5119824,-3.158154 -4.725675 -0.4221004,-2.377867 -6.346653 -0.7037391,-2.512945 -5.446092 -0.604946,-2.644851 -4.88264 -0.4794878,-2.753829 -4.403775 -0.3750031,-2.080887 -6.384336 -0.5786743,-2.137378 -5.52959 -0.4611962,-2.246516 -5.00658 -0.3088859,-2.352221 -4.575596 -0.1785395,-1.775992 -6.600368 -0.4228167,-1.773877 -5.912883 -0.2870839,-1.834736 -5.451538 -0.1241494,-1.918355 -5.034917 -0.0007331967,-8.436825 -6.191046 -1.144794,-8.024358 -5.881277 -0.7153483,-7.634379 -5.235425 -0.3520302,-7.578663 -4.59168 -0.003082871,-7.868796 -4.254749 0.3370852,-7.899169 -3.909332 -0.7619109,-7.78168 -3.222604 -0.260818,-7.714278 -2.764995 0.09305167,-7.641068 -2.314317 0.2870332,-8.262538 -3.803263 -0.7107496,-8.108397 -3.748985 -0.06075346,-8.092602 -4.621438 0.1022686,-8.14381 -5.012873 0.0120095,-8.608062 -3.940391 -0.5598015,-8.46666 -3.990508 -0.00565207,-8.409362 -4.791591 0.05535853,-8.431555 -5.108032 -0.07875669,-8.960277 -4.233756 -0.3695218,-8.843743 -4.19663 -0.01337016,-8.709594 -4.750953 0.05611062,-8.677884 -4.982419 -0.01024365,3.810,
-1.937387 -8.744682 -0.7698796,-2.475898 -8.476936 -0.5663463,-2.887558 -7.845932 -0.4794857,-3.114103 -7.190097 -0.3492619,-3.348783 -6.674083 -0.1929411,-2.678136 -6.532337 -0.7766426,-2.898908 -5.711111 -0.6404741,-3.035891 -5.199509 -0.5359945,-3.151155 -4.720933 -0.4500721,-2.37333 -6.35559 -0.7195471,-2.515193 -5.447442 -0.6084637,-2.64714 -4.887121 -0.4823672,-2.755199 -4.414967 -0.3810885,-2.074761 -6.389885 -0.5943489,-2.138526 -5.526419 -0.4644469,-2.250069 -4.992798 -0.3107249,-2.35981 -4.549196 -0.1803714,-1.768113 -6.602659 -0.4416868,-1.770202 -5.91509 -0.3051078,-1.834277 -5.455366 -0.1466185,-1.920539 -5.039619 -0.02674329,-8.483191 -6.15479 -0.899396,-8.065436 -5.872232 -0.4901624,-7.647702 -5.194826 -0.1408073,-7.571388 -4.554098 0.1760161,-7.873329 -4.286676 0.4759753,-7.951001 -3.827047 -0.4981093,-7.803688 -3.209738 0.06137562,-7.712616 -2.768713 0.4416798,-7.61159 -2.296623 0.6519824,-8.324559 -3.696041 -0.457027,-8.121668 -3.830621 0.247767,-8.100824 -4.682474 0.3766166,-8.160389 -4.977527 0.2362051,-8.67109 -3.840147 -0.3052464,-8.495483 -4.094994 0.267256,-8.424544 -4.859008 0.2617049,-8.447851 -5.075733 0.08404905,-9.012949 -4.143975 -0.1064109,-8.864938 -4.319528 0.2436287,-8.722946 -4.86601 0.2735828,-8.701197 -5.027158 0.1672344,3.910,
-1.908748 -8.769463 -0.7646294,-2.455727 -8.503136 -0.5474,-2.873674 -7.876924 -0.4526139,-3.099966 -7.21532 -0.320149,-3.336899 -6.679998 -0.1568559,-2.656874 -6.557495 -0.7606911,-2.873061 -5.736495 -0.626439,-3.009254 -5.228715 -0.5215036,-3.127281 -4.753094 -0.4322834,-2.349043 -6.379562 -0.717054,-2.483975 -5.476194 -0.6106997,-2.612319 -4.917606 -0.4801356,-2.719149 -4.43851 -0.3694756,-2.048872 -6.417685 -0.6080399,-2.110936 -5.56179 -0.4870281,-2.218983 -5.038967 -0.3296488,-2.321939 -4.604508 -0.1916828,-1.741533 -6.632655 -0.4678458,-1.741524 -5.947021 -0.3358715,-1.800821 -5.487148 -0.1737861,-1.877975 -5.06808 -0.04718673,-8.510718 -6.097781 -0.5882762,-8.095739 -5.811422 -0.1606412,-7.671845 -5.139331 0.2291718,-7.596896 -4.512645 0.5571522,-7.916408 -4.288877 0.8576355,-8.035418 -3.717628 -0.05023599,-7.855261 -3.222824 0.5501345,-7.749529 -2.842252 0.9427001,-7.630237 -2.39665 1.171587,-8.425961 -3.569132 -0.02432698,-8.141009 -3.873147 0.6870055,-8.114119 -4.724466 0.734283,-8.191268 -4.964203 0.5659095,-8.76602 -3.746205 0.1149401,-8.525162 -4.146698 0.6687995,-8.443659 -4.877992 0.5976692,-8.479167 -5.035312 0.4083048,-9.08811 -4.094432 0.3124784,-8.895741 -4.395464 0.6338123,-8.742826 -4.911663 0.6292754,-8.730313 -5.022581 0.5240715,4.010,
-1.915752 -8.776098 -0.7392985,-2.461992 -8.526638 -0.5370094,-2.876835 -7.87956 -0.4599125,-3.096988 -7.216034 -0.3401167,-3.333387 -6.699479 -0.1895973,-2.662906 -6.54853 -0.7729562,-2.879708 -5.729563 -0.6433117,-3.016575 -5.216308 -0.5359628,-3.132821 -4.734812 -0.4504296,-2.355941 -6.378456 -0.7194032,-2.498033 -5.476995 -0.6178055,-2.630878 -4.922 -0.4905772,-2.739535 -4.455636 -0.3889601,-2.056461 -6.418983 -0.5978588,-2.121608 -5.55631 -0.4716157,-2.231302 -5.025391 -0.3148182,-2.337298 -4.58546 -0.1808221,-1.748563 -6.639742 -0.447208,-1.749119 -5.956205 -0.3105167,-1.80967 -5.495015 -0.1503962,-1.888353 -5.072639 -0.03006619,-8.52652 -6.006112 -0.3687473,-8.113451 -5.751386 0.09096843,-7.674935 -5.086145 0.5039858,-7.59862 -4.487744 0.8324034,-7.95357 -4.316579 1.114293,-8.066676 -3.606575 0.2827294,-7.872964 -3.239925 0.9271957,-7.77192 -2.899595 1.334385,-7.651049 -2.468672 1.594532,-8.473776 -3.437517 0.3006002,-8.174211 -3.894882 1.031579,-8.150454 -4.739286 1.027826,-8.228979 -4.960287 0.8587679,-8.821159 -3.636326 0.434516,-8.561974 -4.168936 0.9934078,-8.479657 -4.896677 0.855682,-8.516583 -5.043833 0.6467578,-9.138391 -4.02914 0.638175,-8.935289 -4.402246 0.9770366,-8.780359 -4.913145 0.9436511,-8.759109 -5.020342 0.8335086,4.110,
-1.91992 -8.786299 -0.7273305,-2.46677 -8.523848 -0.5325372,-2.879782 -7.885975 -0.454022,-3.101972 -7.220718 -0.3296849,-3.343484 -6.697893 -0.1739593,-2.667019 -6.560318 -0.7887245,-2.885976 -5.746846 -0.6585259,-3.023918 -5.237728 -0.5465897,-3.141405 -4.757761 -0.4572515,-2.36144 -6.385316 -0.7296988,-2.497683 -5.486763 -0.6351516,-2.627058 -4.929293 -0.5037565,-2.734607 -4.454898 -0.3950964,-2.061672 -6.42057 -0.6017578,-2.123576 -5.566509 -0.4832242,-2.230067 -5.039955 -0.322762,-2.332947 -4.604096 -0.1884119,-1.753063 -6.633138 -0.4449109,-1.75803 -5.951013 -0.3124608,-1.82067 -5.494144 -0.152369,-1.902027 -5.077011 -0.03286254,-8.545975 -5.975646 -0.4539001,-8.13541 -5.739107 0.001814872,-7.690121 -5.093437 0.415045,-7.596708 -4.513713 0.7496761,-7.950783 -4.335983 1.03421,-8.064089 -3.611448 0.1925742,-7.880913 -3.248633 0.8443338,-7.790817 -2.919895 1.248731,-7.674688 -2.494054 1.505781,-8.472529 -3.431995 0.2125735,-8.177444 -3.891143 0.9427668,-8.158597 -4.737831 0.9215358,-8.2309 -4.966238 0.7382798,-8.823151 -3.63091 0.3542498,-8.563436 -4.147456 0.92418,-8.491459 -4.886392 0.7837392,-8.525089 -5.050767 0.571555,-9.144913 -4.022378 0.5595888,-8.940381 -4.371267 0.9155456,-8.787407 -4.888271 0.8849146,-8.759403 -5.020627 0.780847,4.210,
-1.913218 -8.798525 -0.7081863,-2.458786 -8.535942 -0.4971614,-2.878651 -7.899568 -0.4079215,-3.107299 -7.23319 -0.2766856,-3.347152 -6.702856 -0.1183481,-2.664665 -6.570963 -0.7223925,-2.881903 -5.758426 -0.5934939,-3.019544 -5.256486 -0.495959,-3.137071 -4.786762 -0.4153236,-2.358536 -6.392958 -0.6743999,-2.495542 -5.497373 -0.5766108,-2.627227 -4.946586 -0.4544609,-2.735456 -4.475917 -0.3540619,-2.05818 -6.430343 -0.5589516,-2.12207 -5.58009 -0.4428416,-2.234499 -5.063918 -0.2934709,-2.343032 -4.636198 -0.1634251,-1.749148 -6.647668 -0.4118994,-1.751303 -5.965002 -0.2798231,-1.815487 -5.509245 -0.1192115,-1.901465 -5.094438 0.003970981,-8.563287 -5.848558 -0.7313564,-8.138453 -5.649076 -0.2398416,-7.701627 -5.005477 0.1791152,-7.640547 -4.418369 0.5076271,-8.012803 -4.257583 0.7858914,-8.082774 -3.584234 -0.0159592,-7.921525 -3.177576 0.6528791,-7.854461 -2.817901 1.058081,-7.768362 -2.364193 1.310504,-8.49262 -3.4038 -0.005245268,-8.234565 -3.790107 0.7775252,-8.193682 -4.63601 0.7955651,-8.24769 -4.850566 0.6176038,-8.853729 -3.573175 0.1175286,-8.629235 -4.044129 0.7088789,-8.527534 -4.782554 0.5785342,-8.543634 -4.924579 0.3531173,-9.179852 -3.939413 0.3057822,-9.022528 -4.27626 0.6715248,-8.847034 -4.790486 0.6412408,-8.799775 -4.906168 0.5214918,4.310,
-1.911743 -8.811857 -0.7328557,-2.454288 -8.540951 -0.5296215,-2.872211 -7.903865 -0.4401307,-3.105953 -7.243611 -0.3054451,-3.348434 -6.711957 -0.1367264,-2.660013 -6.585414 -0.7531533,-2.878925 -5.771275 -0.6139752,-3.018757 -5.266811 -0.5070149,-3.139215 -4.793091 -0.4182382,-2.354925 -6.413126 -0.6937135,-2.49417 -5.512067 -0.5861361,-2.627494 -4.954595 -0.454747,-2.739095 -4.477365 -0.3488072,-2.054591 -6.454159 -0.5680348,-2.119255 -5.595382 -0.4414244,-2.231064 -5.068645 -0.2829083,-2.338964 -4.631074 -0.1470761,-1.745332 -6.67362 -0.4126044,-1.746801 -5.983986 -0.2700618,-1.808452 -5.516332 -0.1025695,-1.891342 -5.088605 0.02537137,-8.561822 -5.790703 -0.7417881,-8.153177 -5.607017 -0.2302229,-7.724042 -4.983319 0.2104038,-7.657785 -4.421499 0.5506659,-8.015906 -4.237578 0.8437693,-8.096243 -3.546083 0.01096183,-7.935726 -3.145754 0.6839076,-7.882282 -2.78013 1.102895,-7.808326 -2.330171 1.377416,-8.507509 -3.3594 0.01965022,-8.262618 -3.735271 0.8101946,-8.218882 -4.589185 0.8156883,-8.262906 -4.83638 0.6450838,-8.871996 -3.5404 0.141028,-8.666189 -3.993671 0.7377492,-8.556882 -4.740179 0.5934079,-8.558157 -4.908847 0.3678212,-9.196361 -3.926128 0.3240681,-9.049428 -4.262161 0.6980807,-8.876314 -4.782232 0.6547343,-8.824094 -4.905375 0.5391067,4.410,
-1.908298 -8.829189 -0.6849972,-2.452608 -8.566391 -0.5010086,-2.866375 -7.914623 -0.4314975,-3.097223 -7.248695 -0.3132642,-3.342398 -6.734647 -0.1648732,-2.652852 -6.588891 -0.7599688,-2.873928 -5.775524 -0.6464605,-3.013138 -5.266629 -0.551955,-3.129573 -4.79367 -0.4757838,-2.349588 -6.415954 -0.7033523,-2.488834 -5.516581 -0.6292433,-2.622576 -4.958456 -0.5217022,-2.731624 -4.492319 -0.4332983,-2.052077 -6.454144 -0.5768765,-2.113831 -5.592348 -0.4775612,-2.225354 -5.060096 -0.3355789,-2.332624 -4.623897 -0.2137077,-1.745205 -6.675294 -0.4189302,-1.746764 -5.987884 -0.3026594,-1.808705 -5.523601 -0.1504408,-1.891211 -5.101467 -0.0348317,-8.610659 -5.722033 -0.8818927,-8.189855 -5.553026 -0.3612696,-7.762129 -4.915166 0.07601452,-7.701087 -4.356466 0.4152516,-8.051001 -4.184765 0.7249137,-8.127875 -3.515048 -0.1370839,-7.991759 -3.066482 0.5251038,-7.945413 -2.700546 0.9498063,-7.876856 -2.278521 1.22216,-8.535639 -3.33034 -0.1296928,-8.319161 -3.642976 0.6784158,-8.274561 -4.475568 0.7500107,-8.311586 -4.768776 0.6190066,-8.904945 -3.50475 -0.01411283,-8.72146 -3.911571 0.5915645,-8.611064 -4.644424 0.5028424,-8.603288 -4.852269 0.3090217,-9.235823 -3.886367 0.1577319,-9.106156 -4.184305 0.5482333,-8.935369 -4.699818 0.5384722,-8.874655 -4.853458 0.4424328,4.510,
-1.906455 -8.856476 -0.6936899,-2.450813 -8.587992 -0.4909952,-2.868999 -7.947311 -0.4095604,-3.095437 -7.280893 -0.2805928,-3.337709 -6.747755 -0.1209307,-2.661527 -6.621936 -0.7538607,-2.878323 -5.804107 -0.632281,-3.0161 -5.291841 -0.525511,-3.135122 -4.816488 -0.4365445,-2.353128 -6.446702 -0.7011393,-2.485946 -5.544406 -0.6202588,-2.615591 -4.98269 -0.4949308,-2.725414 -4.512252 -0.3906519,-2.053985 -6.481609 -0.5784887,-2.110764 -5.625268 -0.4747493,-2.217183 -5.096273 -0.321324,-2.322056 -4.664413 -0.1891422,-1.747316 -6.691419 -0.4252263,-1.751996 -6.004894 -0.3053004,-1.813931 -5.545919 -0.1523501,-1.897001 -5.13148 -0.03520238,-8.642939 -5.683308 -0.5209554,-8.223714 -5.504568 -0.0002639294,-7.805167 -4.86282 0.449737,-7.756143 -4.297605 0.7852679,-8.106003 -4.161054 1.10083,-8.186392 -3.411425 0.2870301,-8.055198 -3.066143 0.9899242,-8.022202 -2.74349 1.418712,-7.974304 -2.319815 1.69196,-8.599485 -3.1985 0.2811965,-8.362448 -3.728765 1.086728,-8.317221 -4.544166 1.106017,-8.371291 -4.715935 0.9518749,-8.963104 -3.372838 0.3794928,-8.76103 -3.980863 0.9704176,-8.639831 -4.684904 0.8209026,-8.649644 -4.782711 0.5979488,-9.280972 -3.773313 0.5506716,-9.129683 -4.242776 0.924054,-8.954273 -4.735674 0.8891833,-8.912925 -4.801757 0.7850095,4.610,
-1.909254 -8.85404 -0.6931489,-2.455035 -8.589836 -0.5013278,-2.871245 -7.954601 -0.4209048,-3.098183 -7.292324 -0.2929934,-3.340647 -6.763862 -0.1337058,-2.658017 -6.617176 -0.7409412,-2.878083 -5.801052 -0.6122273,-3.016834 -5.296903 -0.5137507,-3.135685 -4.825578 -0.4352059,-2.354615 -6.443884 -0.6784817,-2.49043 -5.540813 -0.583387,-2.622959 -4.984378 -0.4679836,-2.732869 -4.516983 -0.3756689,-2.057507 -6.485712 -0.5473738,-2.116527 -5.621614 -0.4291731,-2.227219 -5.093627 -0.2804434,-2.335609 -4.658794 -0.1536465,-1.75049 -6.710208 -0.3867126,-1.749856 -6.02027 -0.2525384,-1.812796 -5.556361 -0.09354508,-1.898097 -5.136953 0.02696884,-8.655997 -5.649471 -0.468902,-8.234357 -5.468806 0.07611191,-7.828816 -4.820916 0.5417725,-7.793948 -4.267913 0.8782756,-8.148427 -4.120748 1.204608,-8.203981 -3.392405 0.4459455,-8.080035 -3.049167 1.158668,-8.05472 -2.725709 1.606794,-8.008069 -2.314774 1.909844,-8.628653 -3.181492 0.4288303,-8.416019 -3.672118 1.239833,-8.356635 -4.481966 1.291224,-8.379734 -4.724123 1.196669,-9.00285 -3.372824 0.5081335,-8.817781 -3.958637 1.106393,-8.688356 -4.655946 0.9970124,-8.667848 -4.802858 0.823213,-9.325033 -3.776398 0.6504942,-9.202312 -4.204652 1.053561,-9.01455 -4.699556 1.032343,-8.937724 -4.805521 0.9540673,4.710,
-1.898456 -8.881926 -0.7331582,-2.438945 -8.614836 -0.51255,-2.857817 -7.983367 -0.4193693,-3.095233 -7.325637 -0.2834291,-3.341288 -6.799186 -0.1201359,-2.650731 -6.65835 -0.7446232,-2.864811 -5.843393 -0.6023644,-3.001688 -5.340177 -0.4943486,-3.12023 -4.865224 -0.4034213,-2.346719 -6.484157 -0.6971369,-2.483508 -5.575319 -0.5869722,-2.611455 -5.021682 -0.4494277,-2.718877 -4.543527 -0.3393901,-2.047262 -6.521748 -0.5807961,-2.110173 -5.663892 -0.455851,-2.219084 -5.144956 -0.2925493,-2.323882 -4.710515 -0.1553313,-1.73785 -6.734645 -0.4308848,-1.737436 -6.051389 -0.2909642,-1.798001 -5.594242 -0.123918,-1.876792 -5.173907 0.003339112,-8.658496 -5.632747 -0.389692,-8.233557 -5.419894 0.1366467,-7.825304 -4.797115 0.5979892,-7.797628 -4.257973 0.9350646,-8.162088 -4.122592 1.263839,-8.197112 -3.370324 0.5664777,-8.073012 -3.046609 1.280515,-8.048221 -2.743207 1.722154,-8.004435 -2.361815 2.022881,-8.631858 -3.154223 0.5446566,-8.419029 -3.654139 1.333305,-8.359853 -4.457317 1.379508,-8.381186 -4.694952 1.296775,-9.01021 -3.337809 0.6101654,-8.825439 -3.929614 1.193474,-8.697935 -4.624067 1.080119,-8.678991 -4.765546 0.9184662,-9.331579 -3.725127 0.738178,-9.212751 -4.153517 1.133162,-9.022137 -4.653678 1.111764,-8.940511 -4.759284 1.037219,4.810,
-1.90745 -8.866365 -0.7433143,-2.44845 -8.600943 -0.5411448,-2.861368 -7.974052 -0.4592842,-3.095699 -7.320049 -0.3321502,-3.340275 -6.802463 -0.1764823,-2.648566 -6.642904 -0.7778484,-2.86379 -5.827612 -0.6527885,-3.000128 -5.324815 -0.5569174,-3.115695 -4.849731 -0.4748374,-2.34613 -6.46957 -0.7266952,-2.483075 -5.563192 -0.6366634,-2.613166 -5.010538 -0.5158949,-2.719576 -4.531993 -0.4145358,-2.048381 -6.50963 -0.6071405,-2.110512 -5.650169 -0.495344,-2.220946 -5.132356 -0.3432555,-2.325575 -4.696117 -0.213703,-1.739775 -6.729816 -0.4545106,-1.73928 -6.048931 -0.3248166,-1.801208 -5.592296 -0.160339,-1.881834 -5.171569 -0.03601784,-8.667048 -5.611806 -0.323802,-8.239599 -5.408489 0.2032951,-7.826166 -4.795911 0.6677375,-7.788642 -4.247234 1.002812,-8.157331 -4.104012 1.329766,-8.200308 -3.340007 0.6325737,-8.074891 -3.032489 1.334799,-8.052811 -2.736802 1.771581,-8.009561 -2.366149 2.073172,-8.63311 -3.112029 0.607249,-8.419284 -3.648826 1.383786,-8.364754 -4.450939 1.435375,-8.386665 -4.690488 1.363624,-9.010305 -3.293091 0.6672307,-8.826774 -3.91303 1.235454,-8.70214 -4.599221 1.125217,-8.681135 -4.738437 0.9705987,-9.33205 -3.68433 0.7916657,-9.219834 -4.142193 1.187979,-9.029382 -4.639696 1.171534,-8.945211 -4.739282 1.105518,4.910,
-1.901447 -8.88142 -0.7229946,-2.437963 -8.624912 -0.5245789,-2.854201 -7.983422 -0.4466412,-3.083488 -7.317944 -0.3232957,-3.335588 -6.79903 -0.1736279,-2.643988 -6.65467 -0.7568372,-2.855536 -5.846578 -0.6181567,-2.992038 -5.344646 -0.5086604,-3.112875 -4.867766 -0.4164873,-2.342907 -6.479289 -0.7002835,-2.469633 -5.585917 -0.5918497,-2.593825 -5.035166 -0.4526324,-2.699301 -4.556564 -0.3360705,-2.044862 -6.520099 -0.5777339,-2.098462 -5.680342 -0.4536814,-2.205766 -5.173677 -0.2913304,-2.308126 -4.750286 -0.1529988,-1.737855 -6.739797 -0.4221243,-1.73105 -6.069661 -0.2803419,-1.788853 -5.619798 -0.1133066,-1.865151 -5.206913 0.01437032,-8.677299 -5.571559 -0.3037333,-8.236717 -5.375623 0.2225961,-7.823837 -4.756191 0.7049586,-7.809217 -4.234472 1.056992,-8.181513 -4.094213 1.40612,-8.204191 -3.308167 0.6899122,-8.092798 -2.980566 1.419469,-8.075491 -2.693691 1.866424,-8.041424 -2.339734 2.163053,-8.643383 -3.082675 0.6719356,-8.43407 -3.635351 1.473603,-8.371044 -4.428994 1.52299,-8.388677 -4.64833 1.448114,-9.021932 -3.268945 0.7365009,-8.840474 -3.940515 1.320002,-8.709268 -4.608909 1.195886,-8.685762 -4.709005 1.028041,-9.342556 -3.665205 0.8669399,-9.231782 -4.159367 1.258498,-9.039059 -4.637096 1.232766,-8.955046 -4.704956 1.164255,5.010,
-1.893476 -8.87101 -0.7658643,-2.43295 -8.616497 -0.5524872,-2.847953 -7.992458 -0.4683778,-3.074375 -7.33568 -0.3429614,-3.319856 -6.817631 -0.1905239,-2.640475 -6.652444 -0.7844424,-2.851921 -5.844102 -0.6527281,-2.987635 -5.344556 -0.5509398,-3.105483 -4.871046 -0.4633131,-2.33321 -6.48106 -0.7387059,-2.469851 -5.587692 -0.639895,-2.597538 -5.044188 -0.5085435,-2.702764 -4.573184 -0.3981669,-2.031229 -6.522249 -0.6264024,-2.092986 -5.676778 -0.5094,-2.201553 -5.167247 -0.3519787,-2.304468 -4.738878 -0.2170625,-1.720193 -6.738456 -0.481227,-1.721263 -6.061803 -0.3495132,-1.783128 -5.610769 -0.1865336,-1.864012 -5.19197 -0.06138271,-8.712877 -5.539663 -0.1950033,-8.272936 -5.348873 0.3615705,-7.851638 -4.743362 0.8630871,-7.829267 -4.230709 1.230312,-8.195384 -4.076747 1.599577,-8.222505 -3.271014 0.8370463,-8.133708 -2.965944 1.583057,-8.127303 -2.687824 2.043853,-8.09789 -2.352418 2.344555,-8.660522 -3.026746 0.8036714,-8.469489 -3.618807 1.611205,-8.416677 -4.404607 1.682997,-8.436804 -4.629716 1.62753,-9.044881 -3.202763 0.8515108,-8.872414 -3.92332 1.431808,-8.743014 -4.588504 1.324542,-8.719151 -4.694458 1.169231,-9.369969 -3.605937 0.9685011,-9.253684 -4.138032 1.364157,-9.06614 -4.621131 1.362182,-8.987287 -4.690574 1.305098,5.110,
-1.886246 -8.890436 -0.7491136,-2.423086 -8.637188 -0.5374272,-2.837775 -8.005152 -0.4487025,-3.067523 -7.344945 -0.3174129,-3.313021 -6.819953 -0.1573943,-2.63204 -6.674488 -0.7773122,-2.850885 -5.862253 -0.6546363,-2.987524 -5.356545 -0.5579464,-3.104736 -4.888228 -0.4769595,-2.327501 -6.495773 -0.7333491,-2.464223 -5.601463 -0.6562982,-2.593324 -5.046525 -0.5425962,-2.701416 -4.57846 -0.443947,-2.029268 -6.532463 -0.6227411,-2.088213 -5.686483 -0.5267249,-2.195419 -5.168178 -0.382419,-2.299232 -4.74361 -0.2539859,-1.722798 -6.747819 -0.4788397,-1.722115 -6.068408 -0.3645085,-1.782282 -5.613338 -0.2135672,-1.863394 -5.202888 -0.09597856,-8.713207 -5.506954 -0.1251864,-8.282677 -5.301356 0.4483924,-7.876202 -4.685536 0.9577422,-7.87691 -4.198284 1.322317,-8.25649 -4.063429 1.690852,-8.243424 -3.235178 0.9574679,-8.158237 -2.937624 1.73575,-8.155506 -2.690497 2.201091,-8.129865 -2.37578 2.50492,-8.689104 -2.988311 0.9136031,-8.495692 -3.596488 1.748913,-8.436753 -4.403304 1.786099,-8.449529 -4.614564 1.703822,-9.075448 -3.168719 0.9544467,-8.897002 -3.911571 1.565958,-8.763494 -4.594753 1.429939,-8.736471 -4.684206 1.249703,-9.399083 -3.572523 1.067492,-9.280305 -4.115718 1.490054,-9.085479 -4.6056 1.470499,-9.001848 -4.666915 1.394801,5.210,
-1.888536 -8.887936 -0.7235844,-2.427403 -8.634842 -0.5244255,-2.842335 -7.999568 -0.4454299,-3.070782 -7.338188 -0.3189572,-3.319769 -6.823253 -0.1644372,-2.636339 -6.663797 -0.7687725,-2.855151 -5.856494 -0.6395942,-2.991115 -5.356733 -0.5406533,-3.107185 -4.886411 -0.4599398,-2.33115 -6.486109 -0.7099047,-2.472633 -5.592725 -0.6177464,-2.604835 -5.045425 -0.4984452,-2.713811 -4.580053 -0.4007059,-2.030844 -6.524622 -0.5823042,-2.092918 -5.672824 -0.4663619,-2.203466 -5.156119 -0.3151031,-2.309144 -4.727033 -0.186408,-1.720173 -6.745874 -0.4225462,-1.722759 -6.067219 -0.2898375,-1.784834 -5.612852 -0.1283936,-1.867656 -5.19548 -0.007002473,-8.729124 -5.495496 -0.05232139,-8.305802 -5.295508 0.525407,-7.903178 -4.68755 1.055553,-7.891266 -4.205551 1.441028,-8.262919 -4.048007 1.838526,-8.27919 -3.210919 1.057375,-8.198793 -2.909965 1.813672,-8.20937 -2.669612 2.268431,-8.197635 -2.381021 2.571324,-8.727299 -2.963583 1.009085,-8.541904 -3.589021 1.82809,-8.470908 -4.400095 1.86568,-8.469919 -4.643342 1.78959,-9.115881 -3.152189 1.038402,-8.940561 -3.915482 1.630886,-8.798795 -4.597633 1.503337,-8.760007 -4.708953 1.33101,-9.437156 -3.567795 1.13758,-9.318209 -4.137254 1.556156,-9.121647 -4.625644 1.535911,-9.037129 -4.692018 1.462765,5.310,
-1.89406 -8.897505 -0.7002805,-2.430917 -8.643347 -0.5082613,-2.84607 -8.0005 -0.4326666,-3.074144 -7.335083 -0.3096806,-3.322491 -6.829296 -0.1587788,-2.640798 -6.665238 -0.7529641,-2.855229 -5.853404 -0.6233674,-2.99013 -5.351551 -0.524068,-3.106464 -4.879738 -0.4443676,-2.336399 -6.488824 -0.6935492,-2.469668 -5.594432 -0.6018195,-2.596513 -5.044496 -0.4812923,-2.704275 -4.573114 -0.3799096,-2.037064 -6.529203 -0.5674337,-2.092934 -5.680358 -0.4519041,-2.196789 -5.167542 -0.3035944,-2.299461 -4.743288 -0.1783414,-1.728658 -6.750028 -0.4089121,-1.725032 -6.071496 -0.2767802,-1.782357 -5.621006 -0.1204742,-1.860137 -5.211044 -0.002314031,-8.73899 -5.506279 0.02526446,-8.316641 -5.305439 0.6395675,-7.909433 -4.680592 1.195856,-7.899303 -4.20963 1.607647,-8.273964 -4.089527 2.020017,-8.296052 -3.198555 1.162866,-8.22463 -2.927967 1.937224,-8.241501 -2.724517 2.395053,-8.2387 -2.464255 2.688756,-8.741507 -2.959598 1.108685,-8.552971 -3.594409 1.952779,-8.485476 -4.411291 1.984377,-8.488194 -4.652551 1.894022,-9.128139 -3.161479 1.138339,-8.951429 -3.916575 1.765587,-8.809633 -4.603748 1.64547,-8.769806 -4.722487 1.475928,-9.452 -3.592315 1.241664,-9.336522 -4.122303 1.678499,-9.139172 -4.610054 1.674656,-9.055022 -4.692686 1.616716,5.410,
-1.888449 -8.905519 -0.7316203,-2.42653 -8.651878 -0.520707,-2.845512 -8.01683 -0.4360599,-3.075336 -7.35761 -0.3092076,-3.321335 -6.845172 -0.1558495,-2.638036 -6.680695 -0.7444168,-2.844895 -5.864759 -0.6059773,-2.977869 -5.361787 -0.5038346,-3.09619 -4.894156 -0.4180966,-2.333001 -6.506595 -0.6971581,-2.463557 -5.607311 -0.5868161,-2.586672 -5.055112 -0.4583941,-2.69243 -4.583484 -0.3514054,-2.033887 -6.545379 -0.5824327,-2.090654 -5.699468 -0.4576077,-2.194652 -5.188299 -0.3051521,-2.296612 -4.764057 -0.1756308,-1.726495 -6.762029 -0.4346385,-1.723781 -6.084381 -0.299027,-1.780708 -5.633657 -0.1412424,-1.857862 -5.220814 -0.01994836,-8.804928 -5.506414 0.1062736,-8.360347 -5.288715 0.6951786,-7.949596 -4.662791 1.242364,-7.981236 -4.208413 1.648565,-8.36966 -4.124982 2.044523,-8.368517 -3.162603 1.239669,-8.312063 -2.901498 2.023117,-8.33173 -2.718198 2.481393,-8.335962 -2.491765 2.760221,-8.816456 -2.932734 1.185215,-8.619295 -3.591693 2.007824,-8.552689 -4.383166 2.057806,-8.564913 -4.583431 1.981209,-9.200025 -3.125068 1.209844,-9.01521 -3.91521 1.812528,-8.864727 -4.585372 1.690392,-8.832769 -4.678722 1.515653,-9.51883 -3.559851 1.312443,-9.385786 -4.140876 1.717122,-9.182036 -4.609085 1.70769,-9.102328 -4.657001 1.629792,5.510,
-1.879056 -8.88233 -0.7941647,-2.41931 -8.634565 -0.5738401,-2.84093 -8.009369 -0.4855201,-3.075986 -7.358923 -0.3580419,-3.324968 -6.852981 -0.2041966,-2.638181 -6.678909 -0.782488,-2.849252 -5.865386 -0.6386414,-2.983567 -5.361781 -0.5318937,-3.101757 -4.889862 -0.4416435,-2.33099 -6.503328 -0.7405013,-2.468935 -5.611064 -0.6226897,-2.594297 -5.06447 -0.489477,-2.699053 -4.59431 -0.3783228,-2.027915 -6.540739 -0.6311507,-2.09231 -5.698093 -0.5014658,-2.197971 -5.187385 -0.3428116,-2.299647 -4.760959 -0.2085611,-1.715999 -6.753236 -0.4896874,-1.716702 -6.080764 -0.3523718,-1.773095 -5.629817 -0.1866872,-1.850272 -5.211948 -0.06150645,-8.854392 -5.487439 -0.01208893,-8.40872 -5.248864 0.5990937,-7.993717 -4.652673 1.160214,-8.000095 -4.186706 1.577657,-8.384161 -4.068452 1.995518,-8.385229 -3.191549 1.154227,-8.335246 -2.902677 1.951666,-8.358948 -2.67773 2.425041,-8.364 -2.38731 2.716482,-8.844224 -2.961271 1.091864,-8.669716 -3.580819 1.940149,-8.602877 -4.382234 2.008342,-8.606379 -4.580036 1.94206,-9.23917 -3.13936 1.105232,-9.070472 -3.884227 1.729808,-8.926783 -4.555694 1.627869,-8.889526 -4.642364 1.465814,-9.566355 -3.537941 1.192443,-9.425698 -4.124773 1.606909,-9.223623 -4.606526 1.606876,-9.134842 -4.665957 1.543103,5.610,
-1.901658 -8.880878 -0.7713892,-2.436272 -8.642317 -0.543138,-2.848403 -8.013432 -0.4510595,-3.073125 -7.357943 -0.3189607,-3.31768 -6.845129 -0.1625494,-2.641051 -6.665013 -0.7717205,-2.850549 -5.855051 -0.6221168,-2.985303 -5.35423 -0.5073503,-3.103966 -4.883044 -0.4104803,-2.332686 -6.491144 -0.7299906,-2.466731 -5.598337 -0.6096895,-2.590632 -5.054208 -0.4697383,-2.696102 -4.58391 -0.3558071,-2.031031 -6.531106 -0.6198481,-2.090678 -5.693231 -0.4852931,-2.197321 -5.184049 -0.322363,-2.301018 -4.757888 -0.187302,-1.723125 -6.748462 -0.4756402,-1.7214 -6.080846 -0.3324707,-1.780406 -5.63367 -0.169058,-1.859262 -5.217916 -0.04338634,-8.858299 -5.472719 0.04744775,-8.418571 -5.242786 0.6687387,-8.002492 -4.643197 1.23517,-8.006912 -4.188066 1.656871,-8.393462 -4.066061 2.082014,-8.398666 -3.17605 1.235245,-8.339187 -2.899316 2.034123,-8.370116 -2.683944 2.508564,-8.382015 -2.417607 2.803554,-8.859127 -2.936844 1.171619,-8.679055 -3.569667 2.027062,-8.615313 -4.365247 2.092491,-8.617746 -4.584177 2.026393,-9.252358 -3.120222 1.185666,-9.085279 -3.880618 1.809162,-8.946012 -4.550121 1.709801,-8.904725 -4.653156 1.553387,-9.577254 -3.52828 1.274152,-9.473082 -4.097723 1.702952,-9.271751 -4.578117 1.716021,-9.174736 -4.645446 1.661348,5.710,
-1.899457 -8.899357 -0.7607754,-2.437381 -8.646233 -0.545025,-2.853068 -8.013105 -0.4532041,-3.082396 -7.355314 -0.3179258,-3.336201 -6.840881 -0.1524993,-2.650931 -6.682786 -0.7756858,-2.862976 -5.864566 -0.6299771,-2.995348 -5.358008 -0.5166855,-3.11173 -4.883803 -0.4244598,-2.342716 -6.508689 -0.7240657,-2.476568 -5.608053 -0.6109509,-2.603793 -5.060947 -0.4743299,-2.714358 -4.598196 -0.3629861,-2.040933 -6.547296 -0.6052727,-2.099314 -5.697076 -0.4760114,-2.207939 -5.184014 -0.3160718,-2.316286 -4.762392 -0.1814148,-1.732398 -6.761713 -0.4539458,-1.726418 -6.088697 -0.3148817,-1.784668 -5.637821 -0.1544293,-1.86414 -5.227712 -0.03191757,-8.879649 -5.43062 0.160965,-8.443456 -5.175582 0.7740918,-8.03669 -4.55833 1.343558,-8.052007 -4.111607 1.771142,-8.434251 -4.016254 2.206568,-8.437491 -3.084516 1.361095,-8.395599 -2.821514 2.165635,-8.421668 -2.613567 2.635037,-8.423475 -2.342618 2.929768,-8.907744 -2.866406 1.30084,-8.723573 -3.506299 2.165476,-8.63971 -4.305166 2.227864,-8.631576 -4.508995 2.160813,-9.304856 -3.066553 1.316619,-9.127171 -3.851183 1.950204,-8.96805 -4.516267 1.830096,-8.923805 -4.597506 1.661969,-9.629882 -3.489994 1.408451,-9.514192 -4.102991 1.841272,-9.298319 -4.572181 1.83695,-9.202766 -4.605064 1.769254,5.810,
-1.904349 -8.912333 -0.7451896,-2.445067 -8.658983 -0.5167041,-2.857867 -8.03145 -0.4209287,-3.085232 -7.370229 -0.2848635,-3.339572 -6.84959 -0.1200384,-2.6532 -6.692548 -0.7608936,-2.865179 -5.872581 -0.616174,-2.999606 -5.367996 -0.5022533,-3.116509 -4.895279 -0.4106458,-2.346894 -6.516859 -0.7187064,-2.484521 -5.617068 -0.6031355,-2.609273 -5.07366 -0.4645562,-2.71546 -4.608173 -0.3506834,-2.047541 -6.551897 -0.6074405,-2.112908 -5.700246 -0.4743321,-2.219027 -5.186271 -0.310018,-2.322539 -4.758522 -0.1744614,-1.738739 -6.762544 -0.4623911,-1.743641 -6.081565 -0.3191916,-1.805135 -5.63431 -0.156401,-1.88448 -5.223477 -0.03108877,-8.872708 -5.428899 0.3390036,-8.43993 -5.166323 0.988153,-8.035748 -4.539602 1.5921,-8.059131 -4.108804 2.049776,-8.450242 -4.005477 2.517312,-8.436089 -3.056879 1.574879,-8.383896 -2.800712 2.396486,-8.42489 -2.604159 2.871049,-8.447131 -2.338104 3.173584,-8.911598 -2.823149 1.510331,-8.725159 -3.501968 2.426492,-8.64315 -4.318878 2.495899,-8.627728 -4.54289 2.429305,-9.316932 -3.018369 1.524241,-9.138803 -3.833737 2.190296,-8.974643 -4.529088 2.051083,-8.916906 -4.631368 1.858072,-9.643375 -3.454527 1.615982,-9.52567 -4.080303 2.070274,-9.30932 -4.573195 2.059844,-9.205441 -4.627113 1.981183,5.910,
-1.90428 -8.929998 -0.7581626,-2.433708 -8.683767 -0.4967432,-2.855043 -8.072098 -0.3785065,-3.092426 -7.41578 -0.2247998,-3.341623 -6.878897 -0.0433203,-2.657373 -6.720268 -0.7211379,-2.865216 -5.896682 -0.5670357,-2.999783 -5.394378 -0.4482271,-3.121915 -4.924566 -0.3512736,-2.350705 -6.539814 -0.6920294,-2.483952 -5.640779 -0.5704784,-2.607959 -5.095064 -0.4222118,-2.715744 -4.627724 -0.3007905,-2.05072 -6.575653 -0.5948206,-2.109847 -5.73233 -0.4598282,-2.218637 -5.226654 -0.2863608,-2.324996 -4.808301 -0.1441932,-1.742848 -6.785558 -0.4613305,-1.742774 -6.113685 -0.3144754,-1.802397 -5.669881 -0.1447229,-1.8805 -5.266302 -0.01507783,-8.89711 -5.388303 0.4181617,-8.458225 -5.101285 1.091506,-8.058745 -4.478528 1.709315,-8.104793 -4.058172 2.178871,-8.503371 -3.97602 2.641247,-8.476776 -2.982852 1.703686,-8.443233 -2.729614 2.572082,-8.482395 -2.541776 3.077833,-8.499931 -2.312736 3.388773,-8.960528 -2.77293 1.621961,-8.774772 -3.41893 2.539358,-8.692924 -4.244754 2.609759,-8.6803 -4.455657 2.548515,-9.364075 -2.972908 1.622846,-9.179597 -3.746665 2.298175,-9.016109 -4.460028 2.162741,-8.965472 -4.555396 1.969913,-9.690823 -3.404855 1.699414,-9.573296 -3.971117 2.157435,-9.355593 -4.470796 2.143068,-9.252379 -4.526806 2.049695,6.010,
-1.908085 -8.932684 -0.7568903,-2.44015 -8.696104 -0.510829,-2.863561 -8.07082 -0.4098018,-3.093987 -7.41032 -0.2714348,-3.339108 -6.886642 -0.1101254,-2.661987 -6.721136 -0.7401274,-2.865137 -5.900741 -0.5894542,-2.997285 -5.401837 -0.4756824,-3.118772 -4.93543 -0.3843044,-2.355461 -6.541958 -0.7037971,-2.48632 -5.64538 -0.5817153,-2.608007 -5.101728 -0.4396378,-2.715297 -4.633541 -0.3222939,-2.054733 -6.581626 -0.6003594,-2.111182 -5.744259 -0.46421,-2.215108 -5.245742 -0.2975422,-2.317621 -4.832334 -0.1609555,-1.746297 -6.795808 -0.4610498,-1.74161 -6.127513 -0.3120352,-1.796967 -5.689682 -0.1466067,-1.870941 -5.290905 -0.02081925,-8.902166 -5.370748 0.3694039,-8.469316 -5.085701 1.043309,-8.077401 -4.432786 1.645674,-8.133751 -4.011709 2.102516,-8.527632 -3.933256 2.542842,-8.50878 -2.950079 1.615479,-8.472769 -2.703069 2.454575,-8.512397 -2.52283 2.945972,-8.529644 -2.297569 3.243339,-8.982244 -2.752585 1.532264,-8.800137 -3.382183 2.426833,-8.719956 -4.218174 2.496952,-8.706907 -4.45174 2.42836,-9.379992 -2.967051 1.534351,-9.200759 -3.71129 2.194197,-9.037091 -4.431554 2.077008,-8.981995 -4.551349 1.900902,-9.703218 -3.414128 1.616303,-9.595866 -3.940548 2.058781,-9.380291 -4.441799 2.059099,-9.275012 -4.518728 1.981607,6.110,
-1.895676 -8.94533 -0.7733783,-2.427173 -8.699984 -0.5164199,-2.848616 -8.090757 -0.4012694,-3.082393 -7.441289 -0.2473947,-3.331451 -6.902689 -0.06670576,-2.64835 -6.73204 -0.7590762,-2.851318 -5.914882 -0.6081592,-2.986473 -5.416667 -0.4868408,-3.110077 -4.942146 -0.3862092,-2.343234 -6.559343 -0.7234551,-2.472233 -5.664327 -0.6034555,-2.591359 -5.128171 -0.4495379,-2.695075 -4.659263 -0.3211069,-2.044102 -6.601339 -0.6207994,-2.10287 -5.762905 -0.4865462,-2.208072 -5.264176 -0.3085692,-2.31031 -4.846509 -0.162671,-1.735488 -6.813386 -0.4802544,-1.733597 -6.146549 -0.3331466,-1.79023 -5.709667 -0.1631335,-1.86265 -5.31055 -0.03256863,-8.932898 -5.359764 0.4718055,-8.497353 -5.067485 1.146005,-8.100625 -4.429761 1.756612,-8.158355 -4.000631 2.217982,-8.558034 -3.901839 2.668847,-8.539952 -2.925882 1.71602,-8.504024 -2.682929 2.553713,-8.545919 -2.498409 3.048522,-8.563694 -2.264598 3.348484,-9.01753 -2.710105 1.635422,-8.829838 -3.363119 2.533437,-8.745672 -4.188754 2.608505,-8.73285 -4.418054 2.547879,-9.419322 -2.913982 1.636357,-9.234268 -3.715718 2.29997,-9.061818 -4.431879 2.173541,-9.005153 -4.541073 1.986411,-9.74328 -3.368192 1.719989,-9.621893 -3.948566 2.167043,-9.403848 -4.445428 2.162979,-9.300835 -4.506045 2.077207,6.210,
-1.88845 -8.960514 -0.7713594,-2.419491 -8.725866 -0.5106773,-2.838133 -8.115641 -0.3943034,-3.069542 -7.471831 -0.2403443,-3.317904 -6.939396 -0.06097859,-2.638021 -6.745759 -0.7443591,-2.84118 -5.931365 -0.5878749,-2.975375 -5.435579 -0.4651248,-3.096026 -4.967067 -0.3642721,-2.332083 -6.573355 -0.7154608,-2.462986 -5.686267 -0.5901608,-2.580573 -5.155519 -0.4406013,-2.680696 -4.695689 -0.3222421,-2.032866 -6.616388 -0.6184428,-2.092418 -5.784963 -0.4812768,-2.196784 -5.291983 -0.3081086,-2.296568 -4.882282 -0.1696401,-1.725129 -6.830978 -0.4835753,-1.717762 -6.16977 -0.3396068,-1.771019 -5.737787 -0.1740926,-1.838453 -5.348037 -0.04967541,-8.969242 -5.344654 0.5610161,-8.529973 -5.040203 1.251813,-8.137489 -4.407306 1.871137,-8.20848 -3.974349 2.343637,-8.607816 -3.867806 2.796263,-8.569676 -2.889216 1.831719,-8.544204 -2.638995 2.69324,-8.594003 -2.465215 3.195757,-8.623298 -2.228265 3.496345,-9.051895 -2.676625 1.746413,-8.876956 -3.335851 2.672848,-8.788971 -4.17694 2.752764,-8.769856 -4.384346 2.686072,-9.458991 -2.879288 1.745521,-9.280619 -3.686862 2.441576,-9.102979 -4.416156 2.305701,-9.045504 -4.506638 2.094852,-9.785275 -3.331592 1.824871,-9.676851 -3.919569 2.281682,-9.452226 -4.426794 2.265652,-9.342403 -4.479457 2.155238,6.310,
-1.875653 -8.987736 -0.7716868,-2.403457 -8.760277 -0.5206397,-2.826077 -8.12859 -0.4163041,-3.057855 -7.471582 -0.2729152,-3.30636 -6.931662 -0.1024455,-2.624349 -6.774338 -0.7777534,-2.824282 -5.953212 -0.6339021,-2.959159 -5.44564 -0.5133749,-3.080858 -4.96931 -0.415406,-2.32103 -6.600468 -0.7453828,-2.445833 -5.708234 -0.6411213,-2.56291 -5.164848 -0.492375,-2.662439 -4.697046 -0.3681961,-2.022093 -6.640508 -0.6454131,-2.077588 -5.808191 -0.5246985,-2.1796 -5.306915 -0.3512953,-2.276975 -4.890277 -0.2063156,-1.714403 -6.852081 -0.5070928,-1.709722 -6.193752 -0.3720087,-1.763099 -5.757083 -0.2080747,-1.829359 -5.359061 -0.08047372,-8.984589 -5.359778 0.5925819,-8.541312 -5.077227 1.263062,-8.133183 -4.404781 1.875897,-8.194062 -3.964643 2.342109,-8.606655 -3.853963 2.804212,-8.563409 -2.917962 1.841388,-8.522133 -2.646449 2.669557,-8.580188 -2.455459 3.14548,-8.622642 -2.208869 3.448727,-9.046554 -2.678507 1.771559,-8.873862 -3.376002 2.698269,-8.78745 -4.201912 2.777615,-8.762222 -4.418052 2.719145,-9.457659 -2.873189 1.781765,-9.287458 -3.726848 2.466401,-9.110619 -4.435276 2.334081,-9.046422 -4.523138 2.140538,-9.784515 -3.321273 1.874164,-9.67491 -3.977705 2.330072,-9.452193 -4.477102 2.319613,-9.344926 -4.514383 2.234054,6.410,
-1.867602 -9.009733 -0.7781581,-2.394636 -8.773193 -0.5084385,-2.810414 -8.158819 -0.3878319,-3.037594 -7.507146 -0.2344433,-3.285868 -6.971069 -0.05869073,-2.604687 -6.796415 -0.7353186,-2.804409 -5.979551 -0.580512,-2.939685 -5.479593 -0.4625243,-3.063482 -5.014806 -0.3680426,-2.297925 -6.622386 -0.7119128,-2.427924 -5.729561 -0.5936046,-2.54668 -5.193533 -0.4440611,-2.647438 -4.727461 -0.3230479,-1.99804 -6.667433 -0.6204225,-2.060031 -5.834673 -0.4845553,-2.167974 -5.333375 -0.3133205,-2.270621 -4.912416 -0.1703926,-1.689299 -6.883482 -0.4911757,-1.689567 -6.222847 -0.3477336,-1.748293 -5.786357 -0.1844137,-1.819751 -5.386603 -0.05683988,-8.9811 -5.385007 0.5342713,-8.540051 -5.107103 1.193371,-8.127206 -4.436291 1.808012,-8.165537 -3.993526 2.278953,-8.572903 -3.896457 2.749995,-8.565654 -2.952001 1.77147,-8.517581 -2.661714 2.585206,-8.562502 -2.450119 3.054559,-8.596259 -2.190929 3.355122,-9.04512 -2.720934 1.710777,-8.863281 -3.419214 2.620564,-8.774199 -4.236383 2.68719,-8.755664 -4.458036 2.623878,-9.449387 -2.935634 1.729869,-9.277697 -3.770757 2.401382,-9.105867 -4.46075 2.277949,-9.045263 -4.555022 2.107883,-9.776239 -3.389459 1.829487,-9.663734 -4.02156 2.271828,-9.444299 -4.502246 2.268696,-9.340224 -4.54774 2.20893,6.510,
-1.862413 -9.014023 -0.7933689,-2.394902 -8.794331 -0.5200872,-2.814676 -8.169615 -0.410408,-3.038036 -7.513734 -0.2684502,-3.281616 -6.986679 -0.1024485,-2.605188 -6.808286 -0.7423711,-2.805737 -5.989423 -0.5831381,-2.939197 -5.484441 -0.4595999,-3.061375 -5.014446 -0.3564271,-2.295225 -6.631803 -0.7181275,-2.422623 -5.737869 -0.5836298,-2.540594 -5.192991 -0.4286641,-2.642505 -4.725877 -0.3063891,-1.993243 -6.674493 -0.6246527,-2.051082 -5.842563 -0.4779859,-2.153 -5.336318 -0.2998926,-2.250577 -4.91613 -0.1552968,-1.684353 -6.890578 -0.4948214,-1.680641 -6.23367 -0.3395725,-1.735069 -5.792388 -0.1668524,-1.805277 -5.387628 -0.0360114,-8.962597 -5.383667 0.6299952,-8.530926 -5.061662 1.31163,-8.138288 -4.391197 1.946894,-8.212367 -3.996023 2.440077,-8.620642 -3.926029 2.918449,-8.595819 -2.902612 1.894247,-8.547129 -2.645426 2.748284,-8.594903 -2.4738 3.232307,-8.627014 -2.242414 3.52555,-9.086366 -2.697081 1.818601,-8.893603 -3.36242 2.756554,-8.79356 -4.204313 2.819038,-8.770946 -4.412429 2.734449,-9.492272 -2.915452 1.828115,-9.299951 -3.7291 2.524345,-9.108574 -4.45578 2.377197,-9.048547 -4.541676 2.162959,-9.809051 -3.387471 1.920247,-9.684976 -3.981305 2.374369,-9.450594 -4.476911 2.355368,-9.348264 -4.518873 2.248406,6.610,
-1.876162 -9.007833 -0.7614345,-2.407039 -8.78323 -0.490493,-2.824676 -8.169868 -0.3708569,-3.05065 -7.519076 -0.2164158,-3.295996 -6.986258 -0.03575778,-2.628416 -6.798166 -0.7289408,-2.830272 -5.988107 -0.5736259,-2.960662 -5.487256 -0.4467668,-3.079084 -5.020522 -0.3424652,-2.319211 -6.617822 -0.7001872,-2.45346 -5.730937 -0.574188,-2.575068 -5.19314 -0.4212989,-2.680977 -4.735716 -0.2982975,-2.017187 -6.661268 -0.6008853,-2.077296 -5.826784 -0.4559067,-2.181163 -5.323287 -0.2818291,-2.283238 -4.913482 -0.1384161,-1.705635 -6.881687 -0.4644938,-1.701491 -6.216983 -0.309507,-1.756038 -5.779721 -0.1369389,-1.827879 -5.390314 -0.005626321,-9.004495 -5.32984 0.4937329,-8.558512 -5.018738 1.155846,-8.163308 -4.344455 1.769449,-8.234024 -3.938625 2.247471,-8.629448 -3.891287 2.718546,-8.628114 -2.872945 1.73698,-8.592717 -2.59645 2.579044,-8.639779 -2.422075 3.071107,-8.665092 -2.245481 3.368894,-9.107121 -2.678307 1.667279,-8.916435 -3.325943 2.586605,-8.831297 -4.146318 2.679681,-8.811787 -4.392267 2.628286,-9.508655 -2.89395 1.681237,-9.319153 -3.687319 2.362159,-9.144305 -4.400721 2.241507,-9.08076 -4.518329 2.056565,-9.832788 -3.346961 1.772826,-9.705913 -3.930857 2.214879,-9.485435 -4.417425 2.216349,-9.373949 -4.468711 2.132188,6.710,
-1.881712 -9.012135 -0.7691439,-2.415723 -8.789213 -0.4842307,-2.835482 -8.174522 -0.3644575,-3.057304 -7.519716 -0.212141,-3.303564 -6.983768 -0.03681207,-2.631665 -6.801266 -0.7165349,-2.83413 -5.985784 -0.5610052,-2.966377 -5.484954 -0.4338083,-3.084241 -5.015077 -0.3247525,-2.320546 -6.623809 -0.6992818,-2.45368 -5.734857 -0.5730214,-2.57062 -5.197515 -0.4152198,-2.670626 -4.734441 -0.2872449,-2.018659 -6.665222 -0.6134037,-2.077359 -5.840145 -0.4713861,-2.179276 -5.341588 -0.2911356,-2.275377 -4.931558 -0.1448026,-1.709834 -6.879919 -0.4878832,-1.708009 -6.222508 -0.3364815,-1.762933 -5.791581 -0.1645817,-1.830952 -5.402601 -0.03304905,-9.011086 -5.306535 0.6915464,-8.579827 -4.978492 1.388215,-8.17994 -4.286336 2.032314,-8.279293 -3.922328 2.530479,-8.687428 -3.909482 3.019629,-8.670279 -2.831963 2.046563,-8.647694 -2.584277 2.907307,-8.677011 -2.444889 3.387571,-8.688869 -2.290787 3.672343,-9.159264 -2.642187 1.967845,-8.952435 -3.304271 2.907203,-8.849936 -4.105165 3.014165,-8.834827 -4.353149 2.982399,-9.562474 -2.865582 1.960499,-9.354432 -3.703563 2.657245,-9.161375 -4.396296 2.521534,-9.10737 -4.499984 2.323517,-9.879744 -3.342942 2.03544,-9.744362 -3.956093 2.485121,-9.515594 -4.421052 2.477859,-9.411505 -4.45828 2.376417,6.810,
-1.896503 -9.018686 -0.7556407,-2.425491 -8.789831 -0.4956738,-2.839311 -8.175774 -0.3804927,-3.065701 -7.524002 -0.2266537,-3.316868 -6.99258 -0.04681396,-2.636898 -6.803684 -0.7211075,-2.844492 -5.991544 -0.5648135,-2.977699 -5.494949 -0.4435512,-3.09618 -5.028518 -0.3466489,-2.329548 -6.625375 -0.6860331,-2.466613 -5.736331 -0.5576715,-2.590511 -5.199744 -0.4100468,-2.697313 -4.738062 -0.2929953,-2.028319 -6.668615 -0.5823874,-2.089209 -5.835552 -0.4364696,-2.195693 -5.33398 -0.2688169,-2.298273 -4.922117 -0.1315021,-1.718676 -6.887071 -0.4423924,-1.715541 -6.222515 -0.284919,-1.772583 -5.782943 -0.1160399,-1.847186 -5.391008 0.01238269,-9.099325 -5.300112 0.7307458,-8.628326 -4.994573 1.405987,-8.219896 -4.281894 2.045236,-8.347691 -3.915142 2.539178,-8.760032 -3.86514 3.017872,-8.705616 -2.806196 2.047761,-8.709472 -2.498191 2.905307,-8.758973 -2.369798 3.396664,-8.80027 -2.267337 3.679231,-9.19859 -2.607578 1.978454,-9.040022 -3.250797 2.918863,-8.926188 -4.029647 3.063996,-8.890218 -4.266727 3.06971,-9.612579 -2.817901 1.973496,-9.436506 -3.675195 2.674335,-9.236485 -4.355058 2.553662,-9.167921 -4.439961 2.364236,-9.937557 -3.28795 2.052462,-9.809601 -3.949855 2.49824,-9.587093 -4.419696 2.490607,-9.485627 -4.436241 2.380184,6.910,
-1.86246 -9.063206 -0.8084712,-2.393177 -8.828201 -0.5093267,-2.817404 -8.228529 -0.3663855,-3.045523 -7.585346 -0.1991649,-3.293941 -7.044508 -0.006148636,-2.627472 -6.872188 -0.7050654,-2.828202 -6.0423 -0.5338377,-2.962052 -5.531802 -0.3964318,-3.083469 -5.057678 -0.2821448,-2.316348 -6.690984 -0.6921045,-2.454726 -5.791452 -0.5512912,-2.577747 -5.250844 -0.3872781,-2.687361 -4.791831 -0.2549686,-2.013443 -6.729063 -0.6101257,-2.082473 -5.897308 -0.458156,-2.191402 -5.390022 -0.2785497,-2.29633 -4.977819 -0.1264601,-1.703455 -6.936763 -0.4914356,-1.708055 -6.275192 -0.3330384,-1.766495 -5.836643 -0.162306,-1.83803 -5.443613 -0.02615678,-9.159943 -5.290757 0.9949093,-8.6889 -4.952681 1.703961,-8.281903 -4.230583 2.367594,-8.430057 -3.847326 2.872403,-8.85274 -3.808747 3.383475,-8.790037 -2.715954 2.365516,-8.815356 -2.462079 3.250045,-8.865322 -2.3614 3.741796,-8.899544 -2.23482 4.017665,-9.277645 -2.533521 2.280975,-9.113799 -3.219838 3.250411,-8.997065 -4.004186 3.396358,-8.977781 -4.23623 3.401867,-9.695815 -2.750646 2.254258,-9.506539 -3.665931 2.963289,-9.297903 -4.365377 2.831697,-9.236462 -4.45927 2.619004,-10.02817 -3.243704 2.314726,-9.867638 -3.958334 2.761066,-9.633859 -4.454017 2.737677,-9.539602 -4.471934 2.598255,7.010,
-1.854225 -9.104668 -0.7597554,-2.382535 -8.879698 -0.4754158,-2.802115 -8.265661 -0.3521166,-3.028822 -7.608665 -0.1944543,-3.279428 -7.068258 -0.01250905,-2.604279 -6.895841 -0.7115037,-2.806741 -6.071474 -0.5547101,-2.939088 -5.566869 -0.4319717,-3.05772 -5.090158 -0.3310346,-2.295247 -6.713994 -0.6906873,-2.424235 -5.821498 -0.5722789,-2.539095 -5.283996 -0.4223515,-2.63737 -4.816389 -0.3004546,-1.994022 -6.754589 -0.5994792,-2.049721 -5.92967 -0.4636517,-2.151573 -5.435152 -0.2838151,-2.248497 -5.023542 -0.1361604,-1.6851 -6.967895 -0.4685479,-1.68217 -6.310699 -0.3173501,-1.736691 -5.880303 -0.1475113,-1.805669 -5.486051 -0.01645184,-9.236131 -5.345897 1.032357,-8.771424 -5.018774 1.764054,-8.357735 -4.256633 2.450077,-8.545903 -3.998954 2.982075,-8.975199 -4.004669 3.479779,-8.889907 -2.774827 2.459802,-8.934258 -2.524776 3.363321,-8.985058 -2.422744 3.829116,-9.023917 -2.304968 4.096214,-9.389805 -2.607668 2.379214,-9.243827 -3.334877 3.371041,-9.122429 -4.132998 3.485037,-9.097414 -4.317806 3.470243,-9.807944 -2.843165 2.363916,-9.642355 -3.751088 3.1143,-9.430252 -4.440111 2.975123,-9.366162 -4.484626 2.768144,-10.13431 -3.329125 2.437962,-10.0117 -4.006078 2.899658,-9.77802 -4.487153 2.870313,-9.680015 -4.484363 2.729288,7.110,
-1.850205 -9.094854 -0.7889042,-2.383908 -8.876459 -0.4919779,-2.808329 -8.263571 -0.3596445,-3.037327 -7.611984 -0.1967505,-3.28356 -7.068637 -0.008248925,-2.60965 -6.898699 -0.6984603,-2.80858 -6.071949 -0.5217154,-2.938877 -5.569818 -0.3900509,-3.060545 -5.102489 -0.2818341,-2.296834 -6.715219 -0.6790268,-2.42773 -5.820942 -0.5251048,-2.543953 -5.283675 -0.3580814,-2.648139 -4.825363 -0.2291516,-1.993222 -6.752213 -0.5904425,-2.053423 -5.926275 -0.4253039,-2.156424 -5.431401 -0.2371075,-2.258818 -5.025632 -0.08700341,-1.684405 -6.961645 -0.463229,-1.681919 -6.301644 -0.2939721,-1.736354 -5.874018 -0.1181702,-1.808577 -5.49446 0.01446009,-9.24173 -5.382762 0.9700974,-8.806472 -5.070547 1.717815,-8.419724 -4.353146 2.386784,-8.561758 -4.096176 2.912104,-8.966654 -4.067743 3.389928,-8.915544 -2.783069 2.338588,-8.956553 -2.53631 3.205852,-9.038096 -2.433308 3.689435,-9.103671 -2.325975 3.977242,-9.42284 -2.630988 2.243639,-9.323622 -3.295902 3.19339,-9.179052 -4.124973 3.322679,-9.099702 -4.3484 3.312423,-9.841172 -2.885417 2.224077,-9.709197 -3.731617 2.97133,-9.481224 -4.441716 2.860185,-9.374857 -4.520593 2.674671,-10.16341 -3.374808 2.294236,-10.10022 -3.964535 2.753664,-9.856684 -4.453452 2.74389,-9.719611 -4.488365 2.622766,7.210,
-1.853796 -9.108706 -0.7317512,-2.382815 -8.893333 -0.4459598,-2.805717 -8.277487 -0.3240152,-3.030045 -7.624689 -0.1693689,-3.274603 -7.081151 0.005638182,-2.603186 -6.894268 -0.6942663,-2.798203 -6.078466 -0.5481675,-2.927922 -5.582744 -0.4279501,-3.049523 -5.117326 -0.3252802,-2.292454 -6.709062 -0.678328,-2.41388 -5.827784 -0.5686482,-2.525143 -5.295606 -0.4223148,-2.62231 -4.834011 -0.2976909,-1.990623 -6.746681 -0.5949231,-2.045434 -5.932864 -0.467865,-2.146451 -5.445965 -0.2952851,-2.242932 -5.047119 -0.1511213,-1.68235 -6.95718 -0.4696349,-1.68013 -6.30747 -0.3284048,-1.73435 -5.887233 -0.1673295,-1.802752 -5.508003 -0.04223138,-9.252368 -5.371101 0.9970652,-8.81252 -5.054423 1.746292,-8.421499 -4.361974 2.429679,-8.545954 -4.074436 2.964043,-8.974894 -4.008136 3.472356,-8.906799 -2.815466 2.416579,-8.93514 -2.561561 3.304601,-9.0139 -2.464159 3.797627,-9.085155 -2.345067 4.087534,-9.42659 -2.636799 2.326323,-9.288568 -3.299634 3.309533,-9.151305 -4.119246 3.458726,-9.089644 -4.350009 3.4695,-9.853383 -2.871963 2.301599,-9.685686 -3.781026 3.059717,-9.456951 -4.484817 2.925733,-9.370425 -4.541133 2.711113,-10.17626 -3.372261 2.366264,-10.07264 -4.034708 2.842171,-9.823792 -4.518503 2.822291,-9.703035 -4.53074 2.682717,7.310,
-1.842012 -9.132832 -0.7574629,-2.372797 -8.913605 -0.4665053,-2.795644 -8.301006 -0.3425439,-3.021579 -7.652795 -0.1834376,-3.267374 -7.108949 -0.002508879,-2.591682 -6.916954 -0.7215224,-2.78774 -6.097969 -0.5671377,-2.919772 -5.598712 -0.4382073,-3.039249 -5.126335 -0.3301849,-2.283389 -6.741173 -0.7037179,-2.408544 -5.858926 -0.5852718,-2.518476 -5.328811 -0.4287485,-2.612863 -4.867416 -0.301935,-1.982929 -6.786922 -0.6158746,-2.038781 -5.973045 -0.4794657,-2.138504 -5.485306 -0.2994941,-2.233745 -5.085597 -0.1544933,-1.674854 -7.002608 -0.4872995,-1.67033 -6.349954 -0.3377163,-1.724273 -5.92538 -0.1710152,-1.791183 -5.54475 -0.04516089,-9.237514 -5.386045 1.008911,-8.803712 -5.04389 1.71744,-8.40613 -4.345501 2.397952,-8.542815 -4.082756 2.925892,-8.997987 -4.041376 3.408216,-8.907002 -2.82289 2.392323,-8.927933 -2.557996 3.256889,-9.007004 -2.443026 3.733212,-9.07374 -2.323043 4.027833,-9.426492 -2.633613 2.306139,-9.295256 -3.372515 3.245712,-9.162034 -4.206515 3.347414,-9.093731 -4.414304 3.333055,-9.847592 -2.873397 2.287459,-9.689489 -3.770641 3.002922,-9.466925 -4.483865 2.864941,-9.375546 -4.551599 2.675721,-10.16387 -3.365627 2.355615,-10.05957 -4.035779 2.798631,-9.815833 -4.531919 2.771795,-9.694126 -4.551639 2.652923,7.410,
-1.838978 -9.152411 -0.7721983,-2.371284 -8.938572 -0.4895257,-2.791882 -8.320759 -0.3668208,-3.017176 -7.666715 -0.2107047,-3.263625 -7.123643 -0.0346669,-2.582187 -6.940685 -0.7260327,-2.782029 -6.121265 -0.5748037,-2.91519 -5.618981 -0.4514148,-3.034286 -5.141984 -0.3478928,-2.273813 -6.764188 -0.7037895,-2.401227 -5.877286 -0.583737,-2.514405 -5.346901 -0.4300945,-2.609862 -4.885068 -0.3052774,-1.974343 -6.809474 -0.6129937,-2.034285 -5.989536 -0.475798,-2.138986 -5.498062 -0.2981474,-2.237954 -5.090797 -0.1521649,-1.667843 -7.02535 -0.4822996,-1.664199 -6.37008 -0.3318406,-1.719042 -5.941547 -0.1639822,-1.788365 -5.552991 -0.0342226,-9.203436 -5.449183 0.8386823,-8.770742 -5.094151 1.515308,-8.380931 -4.409799 2.165655,-8.50012 -4.119812 2.685945,-8.94716 -4.049463 3.167403,-8.852711 -2.906204 2.134241,-8.88035 -2.605064 2.962118,-8.947292 -2.466978 3.412698,-9.010015 -2.343769 3.689234,-9.359786 -2.722097 2.079073,-9.262041 -3.388484 3.01181,-9.127985 -4.196634 3.157038,-9.060637 -4.441724 3.165531,-9.774712 -2.961408 2.085388,-9.651048 -3.813048 2.805816,-9.425364 -4.503696 2.668088,-9.331779 -4.58496 2.466648,-10.09484 -3.446916 2.17278,-10.01322 -4.091633 2.628842,-9.764948 -4.572055 2.610313,-9.635986 -4.60099 2.483556,7.510,
-1.794587 -9.171164 -0.7931088,-2.325752 -8.967302 -0.4839496,-2.755585 -8.35346 -0.348958,-2.98996 -7.696466 -0.1862265,-3.236168 -7.152845 -0.01085579,-2.551563 -6.980808 -0.7124079,-2.753755 -6.1534 -0.5694327,-2.884074 -5.644046 -0.4608789,-2.997297 -5.174694 -0.3682628,-2.242294 -6.791507 -0.7220294,-2.383834 -5.904224 -0.6238788,-2.49778 -5.368181 -0.4914884,-2.589644 -4.908451 -0.3886006,-1.937922 -6.824525 -0.6614697,-2.009098 -6.008468 -0.5489644,-2.116948 -5.52464 -0.4006776,-2.215009 -5.124607 -0.2722863,-1.626211 -7.02597 -0.5592157,-1.628417 -6.378269 -0.4358107,-1.684249 -5.963798 -0.2936884,-1.750369 -5.592983 -0.1818549,-9.058676 -5.539453 -0.2530453,-8.637687 -5.273925 0.2755345,-8.262241 -4.631498 0.7763702,-8.314067 -4.225524 1.189325,-8.710965 -4.052317 1.592305,-8.674731 -3.181929 0.624468,-8.675367 -2.74604 1.305927,-8.720518 -2.509799 1.715352,-8.765661 -2.369846 1.953325,-9.1219 -2.999684 0.6253267,-9.04325 -3.377917 1.440288,-8.951573 -4.134558 1.631615,-8.911153 -4.564829 1.639146,-9.517437 -3.226704 0.6981697,-9.427673 -3.849239 1.347806,-9.25758 -4.535102 1.321293,-9.169927 -4.806868 1.166546,-9.855505 -3.679374 0.830253,-9.785533 -4.124554 1.289788,-9.57409 -4.598686 1.351576,-9.45055 -4.762643 1.283624,7.610,
-1.762707 -9.208651 -0.8673961,-2.295001 -8.985033 -0.5429971,-2.708542 -8.379602 -0.4023431,-2.922422 -7.720681 -0.2302068,-3.162277 -7.143709 -0.0343855,-2.532048 -7.017272 -0.8271235,-2.723785 -6.194707 -0.6774167,-2.854391 -5.694902 -0.5260079,-2.974095 -5.206452 -0.3976516,-2.217605 -6.851267 -0.8248588,-2.348701 -6.015529 -0.7087455,-2.453003 -5.528649 -0.5247213,-2.546672 -5.121912 -0.3828689,-1.910218 -6.891536 -0.7498402,-1.975551 -6.12207 -0.6104699,-2.077585 -5.668843 -0.3931194,-2.178364 -5.317269 -0.2227005,-1.595452 -7.089719 -0.627762,-1.605775 -6.455789 -0.4677539,-1.666006 -6.063241 -0.2869083,-1.732656 -5.729366 -0.1412197,-8.828155 -5.916803 -0.8604033,-8.419419 -5.682511 -0.389802,-8.055232 -5.077053 0.04714984,-7.993564 -4.611322 0.438235,-8.315678 -4.407941 0.8122519,-8.409766 -3.645388 -0.1754925,-8.322218 -3.178534 0.4279164,-8.305775 -2.869068 0.7941041,-8.288235 -2.564109 1.024881,-8.82332 -3.505806 -0.1465005,-8.651896 -3.730143 0.5973591,-8.567135 -4.491954 0.7524217,-8.575554 -4.896635 0.7080857,-9.197216 -3.745291 -0.0292694,-9.033977 -4.112203 0.6360619,-8.890144 -4.831537 0.6483102,-8.854508 -5.15752 0.5107216,-9.526508 -4.189991 0.1276232,-9.407681 -4.374096 0.6123686,-9.213124 -4.868646 0.6795784,-9.130195 -5.114502 0.6322143,7.710,
-1.73228 -9.249578 -0.8904625,-2.279109 -9.009655 -0.5886589,-2.679883 -8.369297 -0.461693,-2.874508 -7.697225 -0.2997447,-3.102831 -7.075981 -0.1193216,-2.523355 -7.069396 -0.960076,-2.711348 -6.234822 -0.8549179,-2.834211 -5.721256 -0.712705,-2.944618 -5.224842 -0.5790986,-2.215619 -6.904616 -0.9354575,-2.339361 -6.089912 -0.787461,-2.421111 -5.663023 -0.535622,-2.484621 -5.431655 -0.349854,-1.910168 -6.929014 -0.8389869,-1.992449 -6.161359 -0.669348,-2.069197 -5.761438 -0.3664179,-2.147922 -5.596817 -0.1515477,-1.584764 -7.095161 -0.6973866,-1.608287 -6.432756 -0.5123444,-1.671566 -6.079103 -0.2928501,-1.737505 -5.900959 -0.1283275,-8.711441 -6.04268 -0.6572443,-8.32371 -5.813273 -0.1391557,-7.956459 -5.16543 0.3400857,-7.906302 -4.690009 0.7459505,-8.261617 -4.496271 1.112572,-8.352866 -3.735457 0.08278376,-8.246655 -3.295287 0.7561029,-8.214212 -2.972441 1.155853,-8.178038 -2.579139 1.414861,-8.778262 -3.587967 0.1093118,-8.549829 -3.935451 0.9051048,-8.455753 -4.74662 0.9663265,-8.484986 -5.046867 0.8323742,-9.149569 -3.842109 0.2303758,-8.941603 -4.278028 0.8894386,-8.784717 -5.015992 0.7920274,-8.769547 -5.23995 0.5871456,-9.464187 -4.301767 0.4081343,-9.3016 -4.567224 0.8667514,-9.09407 -5.074602 0.8452193,-9.035387 -5.252595 0.7421746,7.810,
-1.775772 -9.305496 -1.216814,-2.253677 -9.071556 -0.8270426,-2.625325 -8.444725 -0.5776898,-2.817783 -7.769161 -0.3361658,-3.00922 -7.115032 -0.09623015,-2.610128 -7.205308 -1.040075,-2.76474 -6.396533 -0.878749,-2.89221 -5.815315 -0.7006675,-3.017527 -5.282628 -0.5342371,-2.286534 -7.071165 -1.009389,-2.397097 -6.102729 -0.4684091,-2.481898 -6.522926 -0.1358582,-2.491999 -7.09303 -0.01956201,-1.970131 -7.093352 -0.9258113,-2.053169 -6.276721 -0.3911682,-2.180302 -6.884285 -0.1130253,-2.211932 -7.511191 -0.06288016,-1.628956 -7.230939 -0.8140422,-1.717457 -6.556364 -0.3904279,-1.864825 -6.870096 -0.1788226,-1.92295 -7.332475 -0.09722924,-8.616893 -6.316864 -0.9246206,-8.25478 -6.14022 -0.4136794,-7.862574 -5.412727 0.01281691,-7.805318 -4.861439 0.37686,-8.152308 -4.660303 0.6929646,-8.280513 -4.017984 -0.365463,-8.168188 -3.492274 0.2272029,-8.139687 -3.117467 0.6050022,-8.104233 -2.684572 0.8746976,-8.685959 -3.8928 -0.3333387,-8.47433 -4.159967 0.435609,-8.375669 -5.024452 0.4991817,-8.383815 -5.431547 0.3335969,-9.040852 -4.151234 -0.1937839,-8.854844 -4.49574 0.4767753,-8.694026 -5.28977 0.4502037,-8.656365 -5.632987 0.2706233,-9.350709 -4.616279 -0.005011559,-9.18944 -4.829842 0.4929256,-8.976214 -5.384226 0.5348996,-8.89962 -5.636768 0.4704281,7.910,
-1.833724 -9.388428 -1.055874,-2.31579 -9.132715 -0.7905647,-2.693858 -8.435869 -0.612767,-2.829273 -7.804447 -0.3983385,-2.965827 -7.244125 -0.1475101,-2.64086 -7.280189 -0.7619162,-2.876341 -6.657241 -0.3867878,-3.014015 -6.193555 -0.1344281,-3.16728 -5.760557 0.07346308,-2.303046 -7.123767 -0.6552267,-2.493546 -6.917064 -0.02880335,-2.489879 -7.754149 0.1860497,-2.471747 -8.40481 0.235129,-1.960879 -7.199879 -0.5026594,-2.140901 -7.198282 0.1351503,-2.199393 -8.053352 0.2139661,-2.214705 -8.657709 0.1581608,-1.62245 -7.436615 -0.3197423,-1.803946 -7.336065 0.1603016,-1.952791 -7.914331 0.2288119,-2.036364 -8.373133 0.214854,-8.592225 -6.718196 -1.093244,-8.216606 -6.57685 -0.620332,-7.790709 -5.805 -0.2538525,-7.712395 -5.206037 0.06531143,-8.06144 -5.019366 0.3379321,-8.228871 -4.446086 -0.6396081,-8.089933 -3.839013 -0.07180798,-8.041548 -3.421283 0.316399,-7.998106 -2.983678 0.5995889,-8.619957 -4.32088 -0.5992076,-8.406954 -4.521042 0.1251856,-8.328996 -5.378211 0.1967944,-8.349117 -5.842134 0.03650188,-8.963833 -4.558311 -0.44318,-8.771722 -4.858219 0.2353699,-8.628732 -5.644537 0.2264234,-8.596295 -6.038047 0.06221437,-9.265917 -5.008002 -0.2447814,-9.084053 -5.200548 0.2727578,-8.876329 -5.761983 0.3476365,-8.798466 -6.043231 0.3023944,8.010,
