TiagoOliveira98/HandTracking/DataLogging/JointData/Logs(1635027310)_Tiago.csv
WRIST,THUMB_CMC,THUMB_MCP,THUMB_IP,THUMB_TIP,INDEX_FINGER_MCP,INDEX_FINGER_PIP,INDEX_FINGER_DIP,INDEX_FINGER_TIP,MIDDLE_FINGER_MCP,MIDDLE_FINGER_PIP,MIDDLE_FINGER_DIP,MIDDLE_FINGER_TIP,RING_FINGER_MCP,RING_FINGER_PIP,RING_FINGER_DIP,RING_FINGER_TIP,PINKY_MCP,PINKY_PIP,PINKY_DIP,PINKY_TIP,WRIST2,THUMB_CMC2,THUMB_MCP2,THUMB_IP2,THUMB_TIP2,INDEX_FINGER_MCP2,INDEX_FINGER_PIP2,INDEX_FINGER_DIP2,INDEX_FINGER_TIP2,MIDDLE_FINGER_MCP2,MIDDLE_FINGER_PIP2,MIDDLE_FINGER_DIP2,MIDDLE_FINGER_TIP2,RING_FINGER_MCP2,RING_FINGER_PIP2,RING_FINGER_DIP2,RING_FINGER_TIP2,PINKY_MCP2,PINKY_PIP2,PINKY_DIP2,PINKY_TIP2,Timestamp,Event
10 0 0,10 7.47 0,10 7.47 0,10 7.47 0,10 7.47 0,10 7.47 0,10 7.47 0,10 7.47 0,10 7.47 0,10 7.47 0,10 7.47 0,10 7.47 0,10 7.47 0,10 7.47 0,10 7.47 0,10 7.47 0,10 7.47 0,10 7.47 0,10 7.47 0,10 7.47 0,10 7.47 0,10 0 0,10 7.47 0,10 7.47 0,10 7.47 0,10 7.47 0,10 7.47 0,10 7.47 0,10 7.47 0,10 7.47 0,10 7.47 0,10 7.47 0,10 7.47 0,10 7.47 0,10 7.47 0,10 7.47 0,10 7.47 0,10 7.47 0,10 7.47 0,10 7.47 0,10 7.47 0,10 7.47 0,0.020,Dnf
2 0 -9.048269,2 0 -9.048269,2 0 -9.048269,2 0 -9.048269,2 0 -9.048269,2 0 -9.048269,2 0 -9.048269,2 0 -9.048269,2 0 -9.048269,2 0 -9.048269,2 0 -9.048269,2 0 -9.048269,2 0 -9.048269,2 0 -9.048269,2 0 -9.048269,2 0 -9.048269,2 0 -9.048269,2 0 -9.048269,2 0 -9.048269,2 0 -9.048269,2 0 -9.048269,2 0 -9.61035,2 0 -9.61035,2 0 -9.61035,2 0 -9.61035,2 0 -9.61035,2 0 -9.61035,2 0 -9.61035,2 0 -9.61035,2 0 -9.61035,2 0 -9.61035,2 0 -9.61035,2 0 -9.61035,2 0 -9.61035,2 0 -9.61035,2 0 -9.61035,2 0 -9.61035,2 0 -9.61035,2 0 -9.61035,2 0 -9.61035,2 0 -9.61035,2 0 -9.61035,0.040,DnF
2 0 -9.048269,2 0 -9.048269,2 0 -9.048269,2 0 -9.048269,2 0 -9.048269,2 0 -9.048269,2 0 -9.048269,2 0 -9.048269,2 0 -9.048269,2 0 -9.048269,2 0 -9.048269,2 0 -9.048269,2 0 -9.048269,2 0 -9.048269,2 0 -9.048269,2 0 -9.048269,2 0 -9.048269,2 0 -9.048269,2 0 -9.048269,2 0 -9.048269,2 0 -9.048269,2 0 -9.61035,2 0 -9.61035,2 0 -9.61035,2 0 -9.61035,2 0 -9.61035,2 0 -9.61035,2 0 -9.61035,2 0 -9.61035,2 0 -9.61035,2 0 -9.61035,2 0 -9.61035,2 0 -9.61035,2 0 -9.61035,2 0 -9.61035,2 0 -9.61035,2 0 -9.61035,2 0 -9.61035,2 0 -9.61035,2 0 -9.61035,2 0 -9.61035,2 0 -9.61035,0.060,DnF
-3.334276 -6.025011 1.132231,-3.997633 -5.937981 1.400562,-4.644987 -5.236593 1.631886,-5.111282 -4.660087 1.893539,-5.597467 -4.282102 2.252196,-4.518651 -3.584716 1.70337,-4.849445 -2.554928 2.187555,-5.105798 -2.068601 2.540077,-5.408207 -1.694423 2.84129,-4.15941 -3.362027 1.961987,-4.45673 -2.208482 2.590078,-4.717676 -1.620922 3.058697,-5.022556 -1.174295 3.423869,-3.732321 -3.446637 2.24363,-3.966278 -2.417408 2.869269,-4.231358 -1.869808 3.335972,-4.540073 -1.468474 3.677556,-3.251891 -3.781047 2.546217,-3.287802 -2.968524 3.222366,-3.433531 -2.537767 3.670274,-3.651073 -2.252594 4.016605,-9.49178 -7.885671 0.2779363,-8.910596 -7.554452 0.5599777,-8.45398 -6.871694 0.7711122,-8.185436 -6.190371 1.022045,-7.922892 -5.753244 1.250697,-8.873196 -5.247197 0.5150831,-8.744559 -4.123871 0.7478937,-8.660542 -3.453291 0.9596257,-8.592999 -2.876331 1.095559,-9.210635 -5.095127 0.6166391,-9.12583 -3.785244 0.8261109,-9.056326 -2.967304 1.088405,-9.00436 -2.260618 1.278563,-9.536641 -5.191376 0.7490832,-9.494986 -3.974996 0.9631125,-9.438948 -3.195533 1.191803,-9.374816 -2.521594 1.359541,-9.875908 -5.48633 0.9152515,-9.980656 -4.55196 1.137806,-10.01239 -3.945708 1.327258,-10.01113 -3.351488 1.458601,0.080,DnF
-3.334276 -6.025011 1.132231,-3.997633 -5.937981 1.400562,-4.644987 -5.236593 1.631886,-5.111282 -4.660087 1.893539,-5.597467 -4.282102 2.252196,-4.518651 -3.584716 1.70337,-4.849445 -2.554928 2.187555,-5.105798 -2.068601 2.540077,-5.408207 -1.694423 2.84129,-4.15941 -3.362027 1.961987,-4.45673 -2.208482 2.590078,-4.717676 -1.620922 3.058697,-5.022556 -1.174295 3.423869,-3.732321 -3.446637 2.24363,-3.966278 -2.417408 2.869269,-4.231358 -1.869808 3.335972,-4.540073 -1.468474 3.677556,-3.251891 -3.781047 2.546217,-3.287802 -2.968524 3.222366,-3.433531 -2.537767 3.670274,-3.651073 -2.252594 4.016605,-9.49178 -7.885671 0.2779363,-8.910596 -7.554452 0.5599777,-8.45398 -6.871694 0.7711122,-8.185436 -6.190371 1.022045,-7.922892 -5.753244 1.250697,-8.873196 -5.247197 0.5150831,-8.744559 -4.123871 0.7478937,-8.660542 -3.453291 0.9596257,-8.592999 -2.876331 1.095559,-9.210635 -5.095127 0.6166391,-9.12583 -3.785244 0.8261109,-9.056326 -2.967304 1.088405,-9.00436 -2.260618 1.278563,-9.536641 -5.191376 0.7490832,-9.494986 -3.974996 0.9631125,-9.438948 -3.195533 1.191803,-9.374816 -2.521594 1.359541,-9.875908 -5.48633 0.9152515,-9.980656 -4.55196 1.137806,-10.01239 -3.945708 1.327258,-10.01113 -3.351488 1.458601,0.100,DnF
-3.334276 -6.025011 1.132231,-3.997633 -5.937981 1.400562,-4.644987 -5.236593 1.631886,-5.111282 -4.660087 1.893539,-5.597467 -4.282102 2.252196,-4.518651 -3.584716 1.70337,-4.849445 -2.554928 2.187555,-5.105798 -2.068601 2.540077,-5.408207 -1.694423 2.84129,-4.15941 -3.362027 1.961987,-4.45673 -2.208482 2.590078,-4.717676 -1.620922 3.058697,-5.022556 -1.174295 3.423869,-3.732321 -3.446637 2.24363,-3.966278 -2.417408 2.869269,-4.231358 -1.869808 3.335972,-4.540073 -1.468474 3.677556,-3.251891 -3.781047 2.546217,-3.287802 -2.968524 3.222366,-3.433531 -2.537767 3.670274,-3.651073 -2.252594 4.016605,-9.49178 -7.885671 0.2779363,-8.910596 -7.554452 0.5599777,-8.45398 -6.871694 0.7711122,-8.185436 -6.190371 1.022045,-7.922892 -5.753244 1.250697,-8.873196 -5.247197 0.5150831,-8.744559 -4.123871 0.7478937,-8.660542 -3.453291 0.9596257,-8.592999 -2.876331 1.095559,-9.210635 -5.095127 0.6166391,-9.12583 -3.785244 0.8261109,-9.056326 -2.967304 1.088405,-9.00436 -2.260618 1.278563,-9.536641 -5.191376 0.7490832,-9.494986 -3.974996 0.9631125,-9.438948 -3.195533 1.191803,-9.374816 -2.521594 1.359541,-9.875908 -5.48633 0.9152515,-9.980656 -4.55196 1.137806,-10.01239 -3.945708 1.327258,-10.01113 -3.351488 1.458601,0.120,DnF
-3.019547 -6.19959 1.036374,-3.678553 -6.147155 1.406923,-4.325401 -5.452043 1.670699,-4.806049 -4.846391 1.939541,-5.28483 -4.490588 2.290942,-4.170357 -3.821244 1.726181,-4.461994 -2.743278 2.196634,-4.686913 -2.199253 2.531557,-4.958088 -1.745594 2.82419,-3.78881 -3.566 1.916589,-4.047704 -2.353385 2.517211,-4.283158 -1.723238 2.971052,-4.564435 -1.192001 3.327163,-3.358793 -3.626241 2.13644,-3.569528 -2.534429 2.737787,-3.813437 -1.941068 3.179994,-4.086656 -1.448577 3.513156,-2.88056 -3.949051 2.381675,-2.888218 -3.104841 3.021569,-3.003499 -2.643337 3.432084,-3.184871 -2.29492 3.762075,-9.478575 -7.888172 0.2661085,-8.895585 -7.568746 0.566257,-8.437964 -6.888404 0.7928196,-8.162604 -6.220155 1.054742,-7.891947 -5.781211 1.304476,-8.857863 -5.252552 0.5311201,-8.724486 -4.131719 0.7687384,-8.638876 -3.461661 0.981758,-8.57445 -2.880114 1.120273,-9.194722 -5.104397 0.6291471,-9.114262 -3.790264 0.8531336,-9.046607 -2.962346 1.119507,-8.99634 -2.243634 1.314861,-9.519907 -5.201543 0.7597558,-9.479162 -3.984941 0.9841534,-9.421602 -3.19435 1.218803,-9.357017 -2.510751 1.395158,-9.85796 -5.496035 0.923871,-9.963335 -4.549646 1.155938,-9.996212 -3.934677 1.353627,-9.996318 -3.331361 1.488335,0.140,DnF
-3.019547 -6.19959 1.036374,-3.678553 -6.147155 1.406923,-4.325401 -5.452043 1.670699,-4.806049 -4.846391 1.939541,-5.28483 -4.490588 2.290942,-4.170357 -3.821244 1.726181,-4.461994 -2.743278 2.196634,-4.686913 -2.199253 2.531557,-4.958088 -1.745594 2.82419,-3.78881 -3.566 1.916589,-4.047704 -2.353385 2.517211,-4.283158 -1.723238 2.971052,-4.564435 -1.192001 3.327163,-3.358793 -3.626241 2.13644,-3.569528 -2.534429 2.737787,-3.813437 -1.941068 3.179994,-4.086656 -1.448577 3.513156,-2.88056 -3.949051 2.381675,-2.888218 -3.104841 3.021569,-3.003499 -2.643337 3.432084,-3.184871 -2.29492 3.762075,-9.478575 -7.888172 0.2661085,-8.895585 -7.568746 0.566257,-8.437964 -6.888404 0.7928196,-8.162604 -6.220155 1.054742,-7.891947 -5.781211 1.304476,-8.857863 -5.252552 0.5311201,-8.724486 -4.131719 0.7687384,-8.638876 -3.461661 0.981758,-8.57445 -2.880114 1.120273,-9.194722 -5.104397 0.6291471,-9.114262 -3.790264 0.8531336,-9.046607 -2.962346 1.119507,-8.99634 -2.243634 1.314861,-9.519907 -5.201543 0.7597558,-9.479162 -3.984941 0.9841534,-9.421602 -3.19435 1.218803,-9.357017 -2.510751 1.395158,-9.85796 -5.496035 0.923871,-9.963335 -4.549646 1.155938,-9.996212 -3.934677 1.353627,-9.996318 -3.331361 1.488335,0.160,DnF
-3.019547 -6.19959 1.036374,-3.678553 -6.147155 1.406923,-4.325401 -5.452043 1.670699,-4.806049 -4.846391 1.939541,-5.28483 -4.490588 2.290942,-4.170357 -3.821244 1.726181,-4.461994 -2.743278 2.196634,-4.686913 -2.199253 2.531557,-4.958088 -1.745594 2.82419,-3.78881 -3.566 1.916589,-4.047704 -2.353385 2.517211,-4.283158 -1.723238 2.971052,-4.564435 -1.192001 3.327163,-3.358793 -3.626241 2.13644,-3.569528 -2.534429 2.737787,-3.813437 -1.941068 3.179994,-4.086656 -1.448577 3.513156,-2.88056 -3.949051 2.381675,-2.888218 -3.104841 3.021569,-3.003499 -2.643337 3.432084,-3.184871 -2.29492 3.762075,-9.478575 -7.888172 0.2661085,-8.895585 -7.568746 0.566257,-8.437964 -6.888404 0.7928196,-8.162604 -6.220155 1.054742,-7.891947 -5.781211 1.304476,-8.857863 -5.252552 0.5311201,-8.724486 -4.131719 0.7687384,-8.638876 -3.461661 0.981758,-8.57445 -2.880114 1.120273,-9.194722 -5.104397 0.6291471,-9.114262 -3.790264 0.8531336,-9.046607 -2.962346 1.119507,-8.99634 -2.243634 1.314861,-9.519907 -5.201543 0.7597558,-9.479162 -3.984941 0.9841534,-9.421602 -3.19435 1.218803,-9.357017 -2.510751 1.395158,-9.85796 -5.496035 0.923871,-9.963335 -4.549646 1.155938,-9.996212 -3.934677 1.353627,-9.996318 -3.331361 1.488335,0.180,DnF
-2.814445 -6.522526 0.9009177,-3.457262 -6.400976 1.322408,-4.058439 -5.691243 1.576157,-4.501129 -5.040824 1.80314,-4.965057 -4.688306 2.092643,-3.767984 -4.061845 1.564634,-4.079758 -3.008474 1.97613,-4.291395 -2.443146 2.268972,-4.525209 -1.937453 2.528839,-3.392395 -3.84249 1.651864,-3.610834 -2.598944 2.177408,-3.80319 -1.939554 2.581795,-4.025519 -1.356377 2.879447,-2.993084 -3.94074 1.772583,-3.13647 -2.78618 2.299231,-3.326908 -2.157034 2.714404,-3.547979 -1.606037 3.006401,-2.577664 -4.274911 1.912356,-2.57541 -3.39759 2.452905,-2.64093 -2.873879 2.822325,-2.771122 -2.400119 3.115426,-9.442336 -7.889893 0.292681,-8.857988 -7.584593 0.6256925,-8.396469 -6.889231 0.8636128,-8.120397 -6.203367 1.133087,-7.862349 -5.748725 1.389214,-8.815349 -5.254121 0.5843911,-8.673635 -4.13603 0.8510535,-8.588322 -3.470771 1.076803,-8.531464 -2.883151 1.210949,-9.151681 -5.101526 0.6740276,-9.068486 -3.776642 0.9183531,-9.000117 -2.943636 1.194174,-8.953733 -2.220795 1.382818,-9.479772 -5.207567 0.7980058,-9.444991 -3.970129 1.049471,-9.392624 -3.174917 1.306287,-9.334442 -2.487165 1.492959,-9.82433 -5.516622 0.9610254,-9.928908 -4.57817 1.220541,-9.960936 -3.962738 1.437258,-9.963182 -3.364218 1.583954,0.200,DnF
-2.814445 -6.522526 0.9009177,-3.457262 -6.400976 1.322408,-4.058439 -5.691243 1.576157,-4.501129 -5.040824 1.80314,-4.965057 -4.688306 2.092643,-3.767984 -4.061845 1.564634,-4.079758 -3.008474 1.97613,-4.291395 -2.443146 2.268972,-4.525209 -1.937453 2.528839,-3.392395 -3.84249 1.651864,-3.610834 -2.598944 2.177408,-3.80319 -1.939554 2.581795,-4.025519 -1.356377 2.879447,-2.993084 -3.94074 1.772583,-3.13647 -2.78618 2.299231,-3.326908 -2.157034 2.714404,-3.547979 -1.606037 3.006401,-2.577664 -4.274911 1.912356,-2.57541 -3.39759 2.452905,-2.64093 -2.873879 2.822325,-2.771122 -2.400119 3.115426,-9.442336 -7.889893 0.292681,-8.857988 -7.584593 0.6256925,-8.396469 -6.889231 0.8636128,-8.120397 -6.203367 1.133087,-7.862349 -5.748725 1.389214,-8.815349 -5.254121 0.5843911,-8.673635 -4.13603 0.8510535,-8.588322 -3.470771 1.076803,-8.531464 -2.883151 1.210949,-9.151681 -5.101526 0.6740276,-9.068486 -3.776642 0.9183531,-9.000117 -2.943636 1.194174,-8.953733 -2.220795 1.382818,-9.479772 -5.207567 0.7980058,-9.444991 -3.970129 1.049471,-9.392624 -3.174917 1.306287,-9.334442 -2.487165 1.492959,-9.82433 -5.516622 0.9610254,-9.928908 -4.57817 1.220541,-9.960936 -3.962738 1.437258,-9.963182 -3.364218 1.583954,0.220,DnF
-2.814445 -6.522526 0.9009177,-3.457262 -6.400976 1.322408,-4.058439 -5.691243 1.576157,-4.501129 -5.040824 1.80314,-4.965057 -4.688306 2.092643,-3.767984 -4.061845 1.564634,-4.079758 -3.008474 1.97613,-4.291395 -2.443146 2.268972,-4.525209 -1.937453 2.528839,-3.392395 -3.84249 1.651864,-3.610834 -2.598944 2.177408,-3.80319 -1.939554 2.581795,-4.025519 -1.356377 2.879447,-2.993084 -3.94074 1.772583,-3.13647 -2.78618 2.299231,-3.326908 -2.157034 2.714404,-3.547979 -1.606037 3.006401,-2.577664 -4.274911 1.912356,-2.57541 -3.39759 2.452905,-2.64093 -2.873879 2.822325,-2.771122 -2.400119 3.115426,-9.442336 -7.889893 0.292681,-8.857988 -7.584593 0.6256925,-8.396469 -6.889231 0.8636128,-8.120397 -6.203367 1.133087,-7.862349 -5.748725 1.389214,-8.815349 -5.254121 0.5843911,-8.673635 -4.13603 0.8510535,-8.588322 -3.470771 1.076803,-8.531464 -2.883151 1.210949,-9.151681 -5.101526 0.6740276,-9.068486 -3.776642 0.9183531,-9.000117 -2.943636 1.194174,-8.953733 -2.220795 1.382818,-9.479772 -5.207567 0.7980058,-9.444991 -3.970129 1.049471,-9.392624 -3.174917 1.306287,-9.334442 -2.487165 1.492959,-9.82433 -5.516622 0.9610254,-9.928908 -4.57817 1.220541,-9.960936 -3.962738 1.437258,-9.963182 -3.364218 1.583954,0.240,DnF
-2.557467 -6.769242 0.542906,-3.216455 -6.64105 0.9436986,-3.813999 -5.995393 1.161419,-4.248814 -5.373707 1.353663,-4.679644 -4.965785 1.582251,-3.487346 -4.372049 1.128765,-3.762102 -3.290721 1.46701,-3.940392 -2.671981 1.740135,-4.117375 -2.087175 1.988901,-3.11432 -4.16851 1.202908,-3.328105 -2.901754 1.659038,-3.488431 -2.201289 2.027998,-3.659128 -1.526582 2.338085,-2.719629 -4.248872 1.304598,-2.861263 -3.084506 1.749402,-3.018935 -2.426398 2.140219,-3.188585 -1.829712 2.432223,-2.309561 -4.536085 1.439189,-2.31046 -3.634616 1.889981,-2.373995 -3.078044 2.204206,-2.478526 -2.556558 2.476232,-9.442336 -7.889893 0.292681,-8.857988 -7.584593 0.6256925,-8.396469 -6.889231 0.8636128,-8.120397 -6.203367 1.133087,-7.862349 -5.748725 1.389214,-8.815349 -5.254121 0.5843911,-8.673635 -4.13603 0.8510535,-8.588322 -3.470771 1.076803,-8.531464 -2.883151 1.210949,-9.151681 -5.101526 0.6740276,-9.068486 -3.776642 0.9183531,-9.000117 -2.943636 1.194174,-8.953733 -2.220795 1.382818,-9.479772 -5.207567 0.7980058,-9.444991 -3.970129 1.049471,-9.392624 -3.174917 1.306287,-9.334442 -2.487165 1.492959,-9.82433 -5.516622 0.9610254,-9.928908 -4.57817 1.220541,-9.960936 -3.962738 1.437258,-9.963182 -3.364218 1.583954,0.260,DnF
-2.557467 -6.769242 0.542906,-3.216455 -6.64105 0.9436986,-3.813999 -5.995393 1.161419,-4.248814 -5.373707 1.353663,-4.679644 -4.965785 1.582251,-3.487346 -4.372049 1.128765,-3.762102 -3.290721 1.46701,-3.940392 -2.671981 1.740135,-4.117375 -2.087175 1.988901,-3.11432 -4.16851 1.202908,-3.328105 -2.901754 1.659038,-3.488431 -2.201289 2.027998,-3.659128 -1.526582 2.338085,-2.719629 -4.248872 1.304598,-2.861263 -3.084506 1.749402,-3.018935 -2.426398 2.140219,-3.188585 -1.829712 2.432223,-2.309561 -4.536085 1.439189,-2.31046 -3.634616 1.889981,-2.373995 -3.078044 2.204206,-2.478526 -2.556558 2.476232,-9.397951 -7.942093 0.4413183,-8.804762 -7.633678 0.7880288,-8.334167 -6.933963 1.031728,-8.047154 -6.231861 1.304842,-7.76806 -5.767522 1.566612,-8.745964 -5.279537 0.7337284,-8.604804 -4.169861 0.9933713,-8.522817 -3.493455 1.217661,-8.467011 -2.897945 1.353271,-9.087566 -5.111243 0.8112926,-9.001858 -3.808628 1.04581,-8.931329 -2.965213 1.326206,-8.878175 -2.242587 1.52389,-9.420052 -5.209341 0.9229357,-9.383517 -3.987018 1.157474,-9.331164 -3.183757 1.418898,-9.265304 -2.496504 1.612589,-9.771946 -5.512743 1.076065,-9.872109 -4.579015 1.33021,-9.900833 -3.954371 1.547544,-9.893986 -3.352703 1.693765,0.280,DnF
-2.557467 -6.769242 0.542906,-3.216455 -6.64105 0.9436986,-3.813999 -5.995393 1.161419,-4.248814 -5.373707 1.353663,-4.679644 -4.965785 1.582251,-3.487346 -4.372049 1.128765,-3.762102 -3.290721 1.46701,-3.940392 -2.671981 1.740135,-4.117375 -2.087175 1.988901,-3.11432 -4.16851 1.202908,-3.328105 -2.901754 1.659038,-3.488431 -2.201289 2.027998,-3.659128 -1.526582 2.338085,-2.719629 -4.248872 1.304598,-2.861263 -3.084506 1.749402,-3.018935 -2.426398 2.140219,-3.188585 -1.829712 2.432223,-2.309561 -4.536085 1.439189,-2.31046 -3.634616 1.889981,-2.373995 -3.078044 2.204206,-2.478526 -2.556558 2.476232,-9.397951 -7.942093 0.4413183,-8.804762 -7.633678 0.7880288,-8.334167 -6.933963 1.031728,-8.047154 -6.231861 1.304842,-7.76806 -5.767522 1.566612,-8.745964 -5.279537 0.7337284,-8.604804 -4.169861 0.9933713,-8.522817 -3.493455 1.217661,-8.467011 -2.897945 1.353271,-9.087566 -5.111243 0.8112926,-9.001858 -3.808628 1.04581,-8.931329 -2.965213 1.326206,-8.878175 -2.242587 1.52389,-9.420052 -5.209341 0.9229357,-9.383517 -3.987018 1.157474,-9.331164 -3.183757 1.418898,-9.265304 -2.496504 1.612589,-9.771946 -5.512743 1.076065,-9.872109 -4.579015 1.33021,-9.900833 -3.954371 1.547544,-9.893986 -3.352703 1.693765,0.300,DnF
-2.557467 -6.769242 0.542906,-3.216455 -6.64105 0.9436986,-3.813999 -5.995393 1.161419,-4.248814 -5.373707 1.353663,-4.679644 -4.965785 1.582251,-3.487346 -4.372049 1.128765,-3.762102 -3.290721 1.46701,-3.940392 -2.671981 1.740135,-4.117375 -2.087175 1.988901,-3.11432 -4.16851 1.202908,-3.328105 -2.901754 1.659038,-3.488431 -2.201289 2.027998,-3.659128 -1.526582 2.338085,-2.719629 -4.248872 1.304598,-2.861263 -3.084506 1.749402,-3.018935 -2.426398 2.140219,-3.188585 -1.829712 2.432223,-2.309561 -4.536085 1.439189,-2.31046 -3.634616 1.889981,-2.373995 -3.078044 2.204206,-2.478526 -2.556558 2.476232,-9.397951 -7.942093 0.4413183,-8.804762 -7.633678 0.7880288,-8.334167 -6.933963 1.031728,-8.047154 -6.231861 1.304842,-7.76806 -5.767522 1.566612,-8.745964 -5.279537 0.7337284,-8.604804 -4.169861 0.9933713,-8.522817 -3.493455 1.217661,-8.467011 -2.897945 1.353271,-9.087566 -5.111243 0.8112926,-9.001858 -3.808628 1.04581,-8.931329 -2.965213 1.326206,-8.878175 -2.242587 1.52389,-9.420052 -5.209341 0.9229357,-9.383517 -3.987018 1.157474,-9.331164 -3.183757 1.418898,-9.265304 -2.496504 1.612589,-9.771946 -5.512743 1.076065,-9.872109 -4.579015 1.33021,-9.900833 -3.954371 1.547544,-9.893986 -3.352703 1.693765,0.320,DnF
-2.341498 -7.017019 0.3651844,-2.95316 -6.875881 0.8122008,-3.510172 -6.343669 1.064869,-3.92265 -5.84753 1.274769,-4.296928 -5.48911 1.498897,-3.139681 -4.619343 1.017189,-3.389814 -3.556005 1.320041,-3.508466 -2.978469 1.553451,-3.596069 -2.417243 1.753433,-2.77295 -4.442579 1.013137,-2.954561 -3.189024 1.370594,-3.03779 -2.518478 1.686757,-3.110264 -1.856342 1.915598,-2.40485 -4.538596 1.031864,-2.49958 -3.383495 1.409147,-2.57285 -2.747915 1.731642,-2.659626 -2.140484 1.962936,-2.026423 -4.838075 1.07903,-1.997426 -3.945686 1.479051,-1.988973 -3.393217 1.740576,-2.019455 -2.844498 1.949134,-9.286124 -7.980112 0.3800941,-8.674594 -7.675559 0.7291499,-8.170886 -7.019367 0.9876902,-7.869444 -6.34213 1.272878,-7.604879 -5.862012 1.558978,-8.596543 -5.350442 0.6741808,-8.446279 -4.232401 0.944212,-8.374374 -3.544617 1.175277,-8.325607 -2.934432 1.312828,-8.936107 -5.170789 0.7431469,-8.825401 -3.853979 0.9928678,-8.7609 -3.017308 1.279439,-8.709259 -2.298563 1.48253,-9.273104 -5.261373 0.8417231,-9.215772 -4.011034 1.099743,-9.177219 -3.204376 1.366646,-9.111748 -2.51864 1.561179,-9.634925 -5.563428 0.9861006,-9.71685 -4.610498 1.255748,-9.745145 -3.989419 1.47971,-9.726537 -3.415377 1.630515,0.340,DnF
-2.341498 -7.017019 0.3651844,-2.95316 -6.875881 0.8122008,-3.510172 -6.343669 1.064869,-3.92265 -5.84753 1.274769,-4.296928 -5.48911 1.498897,-3.139681 -4.619343 1.017189,-3.389814 -3.556005 1.320041,-3.508466 -2.978469 1.553451,-3.596069 -2.417243 1.753433,-2.77295 -4.442579 1.013137,-2.954561 -3.189024 1.370594,-3.03779 -2.518478 1.686757,-3.110264 -1.856342 1.915598,-2.40485 -4.538596 1.031864,-2.49958 -3.383495 1.409147,-2.57285 -2.747915 1.731642,-2.659626 -2.140484 1.962936,-2.026423 -4.838075 1.07903,-1.997426 -3.945686 1.479051,-1.988973 -3.393217 1.740576,-2.019455 -2.844498 1.949134,-9.286124 -7.980112 0.3800941,-8.674594 -7.675559 0.7291499,-8.170886 -7.019367 0.9876902,-7.869444 -6.34213 1.272878,-7.604879 -5.862012 1.558978,-8.596543 -5.350442 0.6741808,-8.446279 -4.232401 0.944212,-8.374374 -3.544617 1.175277,-8.325607 -2.934432 1.312828,-8.936107 -5.170789 0.7431469,-8.825401 -3.853979 0.9928678,-8.7609 -3.017308 1.279439,-8.709259 -2.298563 1.48253,-9.273104 -5.261373 0.8417231,-9.215772 -4.011034 1.099743,-9.177219 -3.204376 1.366646,-9.111748 -2.51864 1.561179,-9.634925 -5.563428 0.9861006,-9.71685 -4.610498 1.255748,-9.745145 -3.989419 1.47971,-9.726537 -3.415377 1.630515,0.360,DnF
-2.341498 -7.017019 0.3651844,-2.95316 -6.875881 0.8122008,-3.510172 -6.343669 1.064869,-3.92265 -5.84753 1.274769,-4.296928 -5.48911 1.498897,-3.139681 -4.619343 1.017189,-3.389814 -3.556005 1.320041,-3.508466 -2.978469 1.553451,-3.596069 -2.417243 1.753433,-2.77295 -4.442579 1.013137,-2.954561 -3.189024 1.370594,-3.03779 -2.518478 1.686757,-3.110264 -1.856342 1.915598,-2.40485 -4.538596 1.031864,-2.49958 -3.383495 1.409147,-2.57285 -2.747915 1.731642,-2.659626 -2.140484 1.962936,-2.026423 -4.838075 1.07903,-1.997426 -3.945686 1.479051,-1.988973 -3.393217 1.740576,-2.019455 -2.844498 1.949134,-9.286124 -7.980112 0.3800941,-8.674594 -7.675559 0.7291499,-8.170886 -7.019367 0.9876902,-7.869444 -6.34213 1.272878,-7.604879 -5.862012 1.558978,-8.596543 -5.350442 0.6741808,-8.446279 -4.232401 0.944212,-8.374374 -3.544617 1.175277,-8.325607 -2.934432 1.312828,-8.936107 -5.170789 0.7431469,-8.825401 -3.853979 0.9928678,-8.7609 -3.017308 1.279439,-8.709259 -2.298563 1.48253,-9.273104 -5.261373 0.8417231,-9.215772 -4.011034 1.099743,-9.177219 -3.204376 1.366646,-9.111748 -2.51864 1.561179,-9.634925 -5.563428 0.9861006,-9.71685 -4.610498 1.255748,-9.745145 -3.989419 1.47971,-9.726537 -3.415377 1.630515,0.380,DnF
-2.244197 -7.139356 0.556024,-2.861035 -6.936617 1.023932,-3.411762 -6.441916 1.282439,-3.810781 -5.921827 1.493005,-4.164225 -5.540926 1.710873,-3.027582 -4.725122 1.205744,-3.261133 -3.734545 1.556877,-3.380632 -3.126009 1.846051,-3.473027 -2.515999 2.085809,-2.659106 -4.506379 1.207678,-2.820947 -3.380838 1.623434,-2.905377 -2.666811 1.934265,-2.971667 -1.982852 2.177149,-2.295352 -4.592268 1.249422,-2.357823 -3.54734 1.655311,-2.427479 -2.896789 2.018794,-2.493863 -2.322181 2.282889,-1.919816 -4.891631 1.324308,-1.858004 -4.072547 1.698487,-1.848337 -3.541749 1.978822,-1.870911 -3.023285 2.20866,-9.195701 -8.044668 0.5140259,-8.601589 -7.720954 0.8837578,-8.108476 -7.025841 1.161496,-7.793722 -6.355262 1.465432,-7.512531 -5.86935 1.767758,-8.50786 -5.372036 0.88512,-8.370619 -4.236709 1.17037,-8.286462 -3.547375 1.409155,-8.224746 -2.944904 1.552441,-8.851197 -5.207595 0.9599496,-8.759814 -3.875378 1.225942,-8.677778 -3.022174 1.525766,-8.610168 -2.297207 1.726862,-9.191706 -5.304847 1.071908,-9.148521 -4.053197 1.329668,-9.08718 -3.247191 1.614866,-9.006086 -2.559612 1.826056,-9.550521 -5.608874 1.222796,-9.647331 -4.643879 1.49593,-9.670172 -4.004175 1.734363,-9.650843 -3.403974 1.898616,0.400,DnF
-2.244197 -7.139356 0.556024,-2.861035 -6.936617 1.023932,-3.411762 -6.441916 1.282439,-3.810781 -5.921827 1.493005,-4.164225 -5.540926 1.710873,-3.027582 -4.725122 1.205744,-3.261133 -3.734545 1.556877,-3.380632 -3.126009 1.846051,-3.473027 -2.515999 2.085809,-2.659106 -4.506379 1.207678,-2.820947 -3.380838 1.623434,-2.905377 -2.666811 1.934265,-2.971667 -1.982852 2.177149,-2.295352 -4.592268 1.249422,-2.357823 -3.54734 1.655311,-2.427479 -2.896789 2.018794,-2.493863 -2.322181 2.282889,-1.919816 -4.891631 1.324308,-1.858004 -4.072547 1.698487,-1.848337 -3.541749 1.978822,-1.870911 -3.023285 2.20866,-9.195701 -8.044668 0.5140259,-8.601589 -7.720954 0.8837578,-8.108476 -7.025841 1.161496,-7.793722 -6.355262 1.465432,-7.512531 -5.86935 1.767758,-8.50786 -5.372036 0.88512,-8.370619 -4.236709 1.17037,-8.286462 -3.547375 1.409155,-8.224746 -2.944904 1.552441,-8.851197 -5.207595 0.9599496,-8.759814 -3.875378 1.225942,-8.677778 -3.022174 1.525766,-8.610168 -2.297207 1.726862,-9.191706 -5.304847 1.071908,-9.148521 -4.053197 1.329668,-9.08718 -3.247191 1.614866,-9.006086 -2.559612 1.826056,-9.550521 -5.608874 1.222796,-9.647331 -4.643879 1.49593,-9.670172 -4.004175 1.734363,-9.650843 -3.403974 1.898616,0.420,DnF
-2.244197 -7.139356 0.556024,-2.861035 -6.936617 1.023932,-3.411762 -6.441916 1.282439,-3.810781 -5.921827 1.493005,-4.164225 -5.540926 1.710873,-3.027582 -4.725122 1.205744,-3.261133 -3.734545 1.556877,-3.380632 -3.126009 1.846051,-3.473027 -2.515999 2.085809,-2.659106 -4.506379 1.207678,-2.820947 -3.380838 1.623434,-2.905377 -2.666811 1.934265,-2.971667 -1.982852 2.177149,-2.295352 -4.592268 1.249422,-2.357823 -3.54734 1.655311,-2.427479 -2.896789 2.018794,-2.493863 -2.322181 2.282889,-1.919816 -4.891631 1.324308,-1.858004 -4.072547 1.698487,-1.848337 -3.541749 1.978822,-1.870911 -3.023285 2.20866,-9.195701 -8.044668 0.5140259,-8.601589 -7.720954 0.8837578,-8.108476 -7.025841 1.161496,-7.793722 -6.355262 1.465432,-7.512531 -5.86935 1.767758,-8.50786 -5.372036 0.88512,-8.370619 -4.236709 1.17037,-8.286462 -3.547375 1.409155,-8.224746 -2.944904 1.552441,-8.851197 -5.207595 0.9599496,-8.759814 -3.875378 1.225942,-8.677778 -3.022174 1.525766,-8.610168 -2.297207 1.726862,-9.191706 -5.304847 1.071908,-9.148521 -4.053197 1.329668,-9.08718 -3.247191 1.614866,-9.006086 -2.559612 1.826056,-9.550521 -5.608874 1.222796,-9.647331 -4.643879 1.49593,-9.670172 -4.004175 1.734363,-9.650843 -3.403974 1.898616,0.440,DnF
-2.203782 -7.12652 0.4217066,-2.812074 -6.92471 0.9027433,-3.338192 -6.468897 1.180638,-3.712766 -5.995331 1.420622,-4.046239 -5.643899 1.674707,-2.974013 -4.727628 1.041678,-3.183402 -3.768763 1.389051,-3.279392 -3.173497 1.672312,-3.352034 -2.569466 1.912871,-2.599696 -4.524653 1.049337,-2.732446 -3.422055 1.44765,-2.790048 -2.710671 1.756819,-2.834756 -2.052916 2.000522,-2.236281 -4.622203 1.103864,-2.272298 -3.587268 1.483424,-2.32222 -2.935816 1.829715,-2.375571 -2.370004 2.080425,-1.85871 -4.934905 1.197521,-1.778775 -4.12041 1.534513,-1.752838 -3.584182 1.80838,-1.760119 -3.056817 2.023346,-9.116446 -8.055086 0.5841852,-8.526291 -7.739364 0.9837235,-8.035488 -7.041374 1.27642,-7.735687 -6.355609 1.589182,-7.452001 -5.85649 1.899899,-8.416068 -5.378643 0.9919114,-8.277968 -4.240036 1.293604,-8.196103 -3.557914 1.550772,-8.13286 -2.961135 1.708412,-8.770323 -5.202217 1.057846,-8.680411 -3.870803 1.346614,-8.597747 -3.03116 1.66615,-8.526174 -2.310549 1.883167,-9.116385 -5.292417 1.163074,-9.06792 -4.040285 1.444065,-9.005081 -3.244938 1.745295,-8.918293 -2.560417 1.96534,-9.478868 -5.591152 1.306282,-9.565555 -4.63396 1.59637,-9.584989 -3.998422 1.845965,-9.558392 -3.392909 2.01589,0.460,DnF
-2.203782 -7.12652 0.4217066,-2.812074 -6.92471 0.9027433,-3.338192 -6.468897 1.180638,-3.712766 -5.995331 1.420622,-4.046239 -5.643899 1.674707,-2.974013 -4.727628 1.041678,-3.183402 -3.768763 1.389051,-3.279392 -3.173497 1.672312,-3.352034 -2.569466 1.912871,-2.599696 -4.524653 1.049337,-2.732446 -3.422055 1.44765,-2.790048 -2.710671 1.756819,-2.834756 -2.052916 2.000522,-2.236281 -4.622203 1.103864,-2.272298 -3.587268 1.483424,-2.32222 -2.935816 1.829715,-2.375571 -2.370004 2.080425,-1.85871 -4.934905 1.197521,-1.778775 -4.12041 1.534513,-1.752838 -3.584182 1.80838,-1.760119 -3.056817 2.023346,-9.116446 -8.055086 0.5841852,-8.526291 -7.739364 0.9837235,-8.035488 -7.041374 1.27642,-7.735687 -6.355609 1.589182,-7.452001 -5.85649 1.899899,-8.416068 -5.378643 0.9919114,-8.277968 -4.240036 1.293604,-8.196103 -3.557914 1.550772,-8.13286 -2.961135 1.708412,-8.770323 -5.202217 1.057846,-8.680411 -3.870803 1.346614,-8.597747 -3.03116 1.66615,-8.526174 -2.310549 1.883167,-9.116385 -5.292417 1.163074,-9.06792 -4.040285 1.444065,-9.005081 -3.244938 1.745295,-8.918293 -2.560417 1.96534,-9.478868 -5.591152 1.306282,-9.565555 -4.63396 1.59637,-9.584989 -3.998422 1.845965,-9.558392 -3.392909 2.01589,0.480,DnF
-2.203782 -7.12652 0.4217066,-2.812074 -6.92471 0.9027433,-3.338192 -6.468897 1.180638,-3.712766 -5.995331 1.420622,-4.046239 -5.643899 1.674707,-2.974013 -4.727628 1.041678,-3.183402 -3.768763 1.389051,-3.279392 -3.173497 1.672312,-3.352034 -2.569466 1.912871,-2.599696 -4.524653 1.049337,-2.732446 -3.422055 1.44765,-2.790048 -2.710671 1.756819,-2.834756 -2.052916 2.000522,-2.236281 -4.622203 1.103864,-2.272298 -3.587268 1.483424,-2.32222 -2.935816 1.829715,-2.375571 -2.370004 2.080425,-1.85871 -4.934905 1.197521,-1.778775 -4.12041 1.534513,-1.752838 -3.584182 1.80838,-1.760119 -3.056817 2.023346,-9.116446 -8.055086 0.5841852,-8.526291 -7.739364 0.9837235,-8.035488 -7.041374 1.27642,-7.735687 -6.355609 1.589182,-7.452001 -5.85649 1.899899,-8.416068 -5.378643 0.9919114,-8.277968 -4.240036 1.293604,-8.196103 -3.557914 1.550772,-8.13286 -2.961135 1.708412,-8.770323 -5.202217 1.057846,-8.680411 -3.870803 1.346614,-8.597747 -3.03116 1.66615,-8.526174 -2.310549 1.883167,-9.116385 -5.292417 1.163074,-9.06792 -4.040285 1.444065,-9.005081 -3.244938 1.745295,-8.918293 -2.560417 1.96534,-9.478868 -5.591152 1.306282,-9.565555 -4.63396 1.59637,-9.584989 -3.998422 1.845965,-9.558392 -3.392909 2.01589,0.500,DnF
-2.161456 -7.12153 0.4277364,-2.759616 -6.965993 0.9075103,-3.261618 -6.515396 1.154136,-3.595045 -6.023341 1.362238,-3.916136 -5.665876 1.560716,-2.894645 -4.761539 0.9829628,-3.09367 -3.805349 1.310812,-3.181261 -3.221096 1.583009,-3.246642 -2.627202 1.814466,-2.599696 -4.524653 1.055509,-2.732446 -3.422055 1.453822,-2.790048 -2.710671 1.762991,-2.834756 -2.052916 2.006695,-2.236281 -4.622203 1.110036,-2.272298 -3.587268 1.489596,-2.32222 -2.935816 1.835887,-2.375571 -2.370004 2.086597,-1.85871 -4.934905 1.203693,-1.778775 -4.12041 1.540685,-1.752838 -3.584182 1.814553,-1.760119 -3.056817 2.029519,-9.116446 -8.055086 0.5841852,-8.526291 -7.739364 0.9837235,-8.035488 -7.041374 1.27642,-7.735687 -6.355609 1.589182,-7.452001 -5.85649 1.899899,-8.416068 -5.378643 0.9919114,-8.277968 -4.240036 1.293604,-8.196103 -3.557914 1.550772,-8.13286 -2.961135 1.708412,-8.770323 -5.202217 1.057846,-8.680411 -3.870803 1.346614,-8.597747 -3.03116 1.66615,-8.526174 -2.310549 1.883167,-9.116385 -5.292417 1.163074,-9.06792 -4.040285 1.444065,-9.005081 -3.244938 1.745295,-8.918293 -2.560417 1.96534,-9.478868 -5.591152 1.306282,-9.565555 -4.63396 1.59637,-9.584989 -3.998422 1.845965,-9.558392 -3.392909 2.01589,0.520,DnF
-2.161456 -7.12153 0.2516142,-2.759616 -6.965993 0.7313881,-3.261618 -6.515396 0.9780134,-3.595045 -6.023341 1.186115,-3.916136 -5.665876 1.384594,-2.894645 -4.761539 0.8068406,-3.09367 -3.805349 1.13469,-3.181261 -3.221096 1.406887,-3.246642 -2.627202 1.638344,-2.523887 -4.54647 0.7972279,-2.642959 -3.45268 1.168701,-2.685671 -2.754508 1.468562,-2.721044 -2.103177 1.70525,-2.168231 -4.62796 0.8428043,-2.201916 -3.59334 1.202238,-2.24014 -2.946138 1.520145,-2.284941 -2.370534 1.756492,-1.797781 -4.925298 0.9279157,-1.701744 -4.106534 1.238868,-1.656574 -3.577698 1.488901,-1.644788 -3.054019 1.686979,-9.055582 -8.032791 0.5827157,-8.466349 -7.720351 0.9676759,-7.973182 -7.01917 1.25437,-7.668097 -6.335493 1.568297,-7.384415 -5.823871 1.88449,-8.358881 -5.341622 0.9428058,-8.224403 -4.203034 1.221179,-8.142539 -3.520944 1.463805,-8.076664 -2.939485 1.609324,-8.712397 -5.173695 1.017001,-8.619336 -3.837642 1.275195,-8.538223 -2.995663 1.570115,-8.467211 -2.277525 1.769947,-9.056193 -5.269215 1.133664,-9.009452 -4.011983 1.396142,-8.945591 -3.215345 1.676179,-8.858976 -2.526173 1.880892,-9.417549 -5.570334 1.287883,-9.510869 -4.615966 1.559772,-9.532511 -3.984772 1.791926,-9.508785 -3.37481 1.954375,0.540,DnF
-2.161456 -7.12153 0.2516142,-2.759616 -6.965993 0.7313881,-3.261618 -6.515396 0.9780134,-3.595045 -6.023341 1.186115,-3.916136 -5.665876 1.384594,-2.894645 -4.761539 0.8068406,-3.09367 -3.805349 1.13469,-3.181261 -3.221096 1.406887,-3.246642 -2.627202 1.638344,-2.523887 -4.54647 0.7972279,-2.642959 -3.45268 1.168701,-2.685671 -2.754508 1.468562,-2.721044 -2.103177 1.70525,-2.168231 -4.62796 0.8428043,-2.201916 -3.59334 1.202238,-2.24014 -2.946138 1.520145,-2.284941 -2.370534 1.756492,-1.797781 -4.925298 0.9279157,-1.701744 -4.106534 1.238868,-1.656574 -3.577698 1.488901,-1.644788 -3.054019 1.686979,-9.055582 -8.032791 0.5827157,-8.466349 -7.720351 0.9676759,-7.973182 -7.01917 1.25437,-7.668097 -6.335493 1.568297,-7.384415 -5.823871 1.88449,-8.358881 -5.341622 0.9428058,-8.224403 -4.203034 1.221179,-8.142539 -3.520944 1.463805,-8.076664 -2.939485 1.609324,-8.712397 -5.173695 1.017001,-8.619336 -3.837642 1.275195,-8.538223 -2.995663 1.570115,-8.467211 -2.277525 1.769947,-9.056193 -5.269215 1.133664,-9.009452 -4.011983 1.396142,-8.945591 -3.215345 1.676179,-8.858976 -2.526173 1.880892,-9.417549 -5.570334 1.287883,-9.510869 -4.615966 1.559772,-9.532511 -3.984772 1.791926,-9.508785 -3.37481 1.954375,0.560,DnF
-2.161456 -7.12153 0.2516142,-2.759616 -6.965993 0.7313881,-3.261618 -6.515396 0.9780134,-3.595045 -6.023341 1.186115,-3.916136 -5.665876 1.384594,-2.894645 -4.761539 0.8068406,-3.09367 -3.805349 1.13469,-3.181261 -3.221096 1.406887,-3.246642 -2.627202 1.638344,-2.523887 -4.54647 0.7972279,-2.642959 -3.45268 1.168701,-2.685671 -2.754508 1.468562,-2.721044 -2.103177 1.70525,-2.168231 -4.62796 0.8428043,-2.201916 -3.59334 1.202238,-2.24014 -2.946138 1.520145,-2.284941 -2.370534 1.756492,-1.797781 -4.925298 0.9279157,-1.701744 -4.106534 1.238868,-1.656574 -3.577698 1.488901,-1.644788 -3.054019 1.686979,-9.055582 -8.032791 0.5827157,-8.466349 -7.720351 0.9676759,-7.973182 -7.01917 1.25437,-7.668097 -6.335493 1.568297,-7.384415 -5.823871 1.88449,-8.358881 -5.341622 0.9428058,-8.224403 -4.203034 1.221179,-8.142539 -3.520944 1.463805,-8.076664 -2.939485 1.609324,-8.712397 -5.173695 1.017001,-8.619336 -3.837642 1.275195,-8.538223 -2.995663 1.570115,-8.467211 -2.277525 1.769947,-9.056193 -5.269215 1.133664,-9.009452 -4.011983 1.396142,-8.945591 -3.215345 1.676179,-8.858976 -2.526173 1.880892,-9.417549 -5.570334 1.287883,-9.510869 -4.615966 1.559772,-9.532511 -3.984772 1.791926,-9.508785 -3.37481 1.954375,0.580,DnF
-2.10026 -7.139482 0.1579313,-2.692126 -6.996633 0.621058,-3.168055 -6.536075 0.8446259,-3.473683 -6.032739 1.027619,-3.781696 -5.68758 1.202312,-2.782316 -4.806064 0.7162883,-2.987021 -3.860837 1.02487,-3.080217 -3.273632 1.287497,-3.136744 -2.675189 1.519349,-2.418304 -4.586063 0.7032511,-2.536995 -3.496418 1.051851,-2.576664 -2.804455 1.348426,-2.597073 -2.157105 1.583532,-2.072811 -4.664078 0.7404501,-2.100522 -3.62129 1.081201,-2.135891 -2.97837 1.383631,-2.1682 -2.404363 1.619936,-1.716758 -4.960031 0.8132423,-1.604301 -4.135168 1.114662,-1.542935 -3.608137 1.351076,-1.507584 -3.088863 1.544921,-9.022578 -7.997682 0.6201026,-8.43434 -7.689769 1.011071,-7.948588 -7.00469 1.307186,-7.641716 -6.328902 1.625599,-7.356383 -5.832407 1.944382,-8.317349 -5.304458 0.9884951,-8.171759 -4.182888 1.263833,-8.090832 -3.509501 1.518316,-8.031355 -2.938382 1.669533,-8.669115 -5.130416 1.06375,-8.572045 -3.80471 1.30764,-8.489039 -2.980285 1.603872,-8.421227 -2.256946 1.813083,-9.012559 -5.223255 1.180303,-8.967607 -3.976114 1.426789,-8.900826 -3.200884 1.705384,-8.815908 -2.510209 1.908107,-9.369774 -5.528322 1.332052,-9.469465 -4.577779 1.59464,-9.496273 -3.95933 1.821425,-9.479286 -3.33465 1.987608,0.600,DnF
-2.10026 -7.139482 0.1579313,-2.692126 -6.996633 0.621058,-3.168055 -6.536075 0.8446259,-3.473683 -6.032739 1.027619,-3.781696 -5.68758 1.202312,-2.782316 -4.806064 0.7162883,-2.987021 -3.860837 1.02487,-3.080217 -3.273632 1.287497,-3.136744 -2.675189 1.519349,-2.418304 -4.586063 0.7032511,-2.536995 -3.496418 1.051851,-2.576664 -2.804455 1.348426,-2.597073 -2.157105 1.583532,-2.072811 -4.664078 0.7404501,-2.100522 -3.62129 1.081201,-2.135891 -2.97837 1.383631,-2.1682 -2.404363 1.619936,-1.716758 -4.960031 0.8132423,-1.604301 -4.135168 1.114662,-1.542935 -3.608137 1.351076,-1.507584 -3.088863 1.544921,-9.022578 -7.997682 0.6201026,-8.43434 -7.689769 1.011071,-7.948588 -7.00469 1.307186,-7.641716 -6.328902 1.625599,-7.356383 -5.832407 1.944382,-8.317349 -5.304458 0.9884951,-8.171759 -4.182888 1.263833,-8.090832 -3.509501 1.518316,-8.031355 -2.938382 1.669533,-8.669115 -5.130416 1.06375,-8.572045 -3.80471 1.30764,-8.489039 -2.980285 1.603872,-8.421227 -2.256946 1.813083,-9.012559 -5.223255 1.180303,-8.967607 -3.976114 1.426789,-8.900826 -3.200884 1.705384,-8.815908 -2.510209 1.908107,-9.369774 -5.528322 1.332052,-9.469465 -4.577779 1.59464,-9.496273 -3.95933 1.821425,-9.479286 -3.33465 1.987608,0.620,DnF
-2.10026 -7.139482 0.1579313,-2.692126 -6.996633 0.621058,-3.168055 -6.536075 0.8446259,-3.473683 -6.032739 1.027619,-3.781696 -5.68758 1.202312,-2.782316 -4.806064 0.7162883,-2.987021 -3.860837 1.02487,-3.080217 -3.273632 1.287497,-3.136744 -2.675189 1.519349,-2.418304 -4.586063 0.7032511,-2.536995 -3.496418 1.051851,-2.576664 -2.804455 1.348426,-2.597073 -2.157105 1.583532,-2.072811 -4.664078 0.7404501,-2.100522 -3.62129 1.081201,-2.135891 -2.97837 1.383631,-2.1682 -2.404363 1.619936,-1.716758 -4.960031 0.8132423,-1.604301 -4.135168 1.114662,-1.542935 -3.608137 1.351076,-1.507584 -3.088863 1.544921,-9.022578 -7.997682 0.6201026,-8.43434 -7.689769 1.011071,-7.948588 -7.00469 1.307186,-7.641716 -6.328902 1.625599,-7.356383 -5.832407 1.944382,-8.317349 -5.304458 0.9884951,-8.171759 -4.182888 1.263833,-8.090832 -3.509501 1.518316,-8.031355 -2.938382 1.669533,-8.669115 -5.130416 1.06375,-8.572045 -3.80471 1.30764,-8.489039 -2.980285 1.603872,-8.421227 -2.256946 1.813083,-9.012559 -5.223255 1.180303,-8.967607 -3.976114 1.426789,-8.900826 -3.200884 1.705384,-8.815908 -2.510209 1.908107,-9.369774 -5.528322 1.332052,-9.469465 -4.577779 1.59464,-9.496273 -3.95933 1.821425,-9.479286 -3.33465 1.987608,0.640,DnF
-2.018199 -7.171215 0.1476356,-2.596512 -7.028648 0.6384509,-3.05076 -6.579669 0.8977119,-3.329299 -6.091326 1.111532,-3.619396 -5.739473 1.317882,-2.682499 -4.842723 0.7790073,-2.871898 -3.902896 1.095311,-2.948934 -3.318753 1.361607,-2.989291 -2.735462 1.590108,-2.307738 -4.629827 0.7481344,-2.413303 -3.54347 1.085682,-2.441866 -2.864582 1.371953,-2.451481 -2.238824 1.599254,-1.957515 -4.706182 0.7680501,-1.978487 -3.673643 1.081567,-1.996334 -3.041904 1.371102,-2.005562 -2.481987 1.611255,-1.604583 -4.996583 0.8222221,-1.487827 -4.184204 1.095954,-1.416501 -3.667938 1.322112,-1.364601 -3.170367 1.512193,-9.011638 -7.985702 0.6720742,-8.427565 -7.665044 1.057826,-7.938745 -6.974834 1.360182,-7.618738 -6.327222 1.693592,-7.312739 -5.831291 2.037313,-8.308067 -5.267854 1.037266,-8.162461 -4.144985 1.312836,-8.069291 -3.463441 1.566043,-7.993739 -2.884958 1.72249,-8.656435 -5.104963 1.124866,-8.549898 -3.794326 1.371234,-8.459229 -2.973053 1.661443,-8.388093 -2.254427 1.870804,-8.996865 -5.206126 1.255122,-8.938931 -3.974513 1.50278,-8.857116 -3.190286 1.77512,-8.763705 -2.500959 1.971703,-9.354093 -5.519119 1.423686,-9.451991 -4.555271 1.684924,-9.470689 -3.921583 1.907405,-9.450143 -3.286067 2.065759,0.660,DnF
-2.018199 -7.171215 0.1476356,-2.596512 -7.028648 0.6384509,-3.05076 -6.579669 0.8977119,-3.329299 -6.091326 1.111532,-3.619396 -5.739473 1.317882,-2.682499 -4.842723 0.7790073,-2.871898 -3.902896 1.095311,-2.948934 -3.318753 1.361607,-2.989291 -2.735462 1.590108,-2.307738 -4.629827 0.7481344,-2.413303 -3.54347 1.085682,-2.441866 -2.864582 1.371953,-2.451481 -2.238824 1.599254,-1.957515 -4.706182 0.7680501,-1.978487 -3.673643 1.081567,-1.996334 -3.041904 1.371102,-2.005562 -2.481987 1.611255,-1.604583 -4.996583 0.8222221,-1.487827 -4.184204 1.095954,-1.416501 -3.667938 1.322112,-1.364601 -3.170367 1.512193,-9.011638 -7.985702 0.6720742,-8.427565 -7.665044 1.057826,-7.938745 -6.974834 1.360182,-7.618738 -6.327222 1.693592,-7.312739 -5.831291 2.037313,-8.308067 -5.267854 1.037266,-8.162461 -4.144985 1.312836,-8.069291 -3.463441 1.566043,-7.993739 -2.884958 1.72249,-8.656435 -5.104963 1.124866,-8.549898 -3.794326 1.371234,-8.459229 -2.973053 1.661443,-8.388093 -2.254427 1.870804,-8.996865 -5.206126 1.255122,-8.938931 -3.974513 1.50278,-8.857116 -3.190286 1.77512,-8.763705 -2.500959 1.971703,-9.354093 -5.519119 1.423686,-9.451991 -4.555271 1.684924,-9.470689 -3.921583 1.907405,-9.450143 -3.286067 2.065759,0.680,DnF
-2.018199 -7.171215 0.1476356,-2.596512 -7.028648 0.6384509,-3.05076 -6.579669 0.8977119,-3.329299 -6.091326 1.111532,-3.619396 -5.739473 1.317882,-2.682499 -4.842723 0.7790073,-2.871898 -3.902896 1.095311,-2.948934 -3.318753 1.361607,-2.989291 -2.735462 1.590108,-2.307738 -4.629827 0.7481344,-2.413303 -3.54347 1.085682,-2.441866 -2.864582 1.371953,-2.451481 -2.238824 1.599254,-1.957515 -4.706182 0.7680501,-1.978487 -3.673643 1.081567,-1.996334 -3.041904 1.371102,-2.005562 -2.481987 1.611255,-1.604583 -4.996583 0.8222221,-1.487827 -4.184204 1.095954,-1.416501 -3.667938 1.322112,-1.364601 -3.170367 1.512193,-9.011638 -7.985702 0.6720742,-8.427565 -7.665044 1.057826,-7.938745 -6.974834 1.360182,-7.618738 -6.327222 1.693592,-7.312739 -5.831291 2.037313,-8.308067 -5.267854 1.037266,-8.162461 -4.144985 1.312836,-8.069291 -3.463441 1.566043,-7.993739 -2.884958 1.72249,-8.656435 -5.104963 1.124866,-8.549898 -3.794326 1.371234,-8.459229 -2.973053 1.661443,-8.388093 -2.254427 1.870804,-8.996865 -5.206126 1.255122,-8.938931 -3.974513 1.50278,-8.857116 -3.190286 1.77512,-8.763705 -2.500959 1.971703,-9.354093 -5.519119 1.423686,-9.451991 -4.555271 1.684924,-9.470689 -3.921583 1.907405,-9.450143 -3.286067 2.065759,0.700,DnF
-1.894579 -7.250738 0.1744511,-2.463718 -7.142715 0.742754,-2.895546 -6.699026 1.034352,-3.142782 -6.21841 1.266893,-3.399686 -5.86486 1.476915,-2.521993 -4.9274 0.9865499,-2.682253 -3.985325 1.298405,-2.743526 -3.426239 1.560059,-2.785767 -2.867882 1.779531,-2.125451 -4.728213 0.9003906,-2.195784 -3.669275 1.255877,-2.215787 -3.049562 1.536111,-2.22469 -2.472907 1.751246,-1.769467 -4.821782 0.8556445,-1.761647 -3.811939 1.200065,-1.765462 -3.214334 1.513263,-1.771198 -2.670695 1.772284,-1.423076 -5.135622 0.84477,-1.297379 -4.355197 1.154397,-1.219142 -3.86257 1.409284,-1.17095 -3.381383 1.626365,-9.028838 -7.981317 0.6914663,-8.431875 -7.661035 1.057511,-7.94135 -6.954902 1.349976,-7.620913 -6.302333 1.676863,-7.31242 -5.809833 2.016912,-8.301671 -5.261281 1.037198,-8.155904 -4.151151 1.307591,-8.06651 -3.47093 1.552817,-7.994167 -2.887713 1.703087,-8.65001 -5.096212 1.133124,-8.545204 -3.790243 1.366854,-8.455091 -2.973348 1.650953,-8.384943 -2.262181 1.854521,-8.995563 -5.193662 1.273548,-8.933475 -3.957153 1.509801,-8.849993 -3.169263 1.780418,-8.756401 -2.480551 1.974995,-9.359008 -5.501626 1.447801,-9.451602 -4.526256 1.706242,-9.4666 -3.883689 1.926367,-9.445955 -3.245472 2.082162,0.720,DnF
-1.894579 -7.250738 0.1744511,-2.463718 -7.142715 0.742754,-2.895546 -6.699026 1.034352,-3.142782 -6.21841 1.266893,-3.399686 -5.86486 1.476915,-2.521993 -4.9274 0.9865499,-2.682253 -3.985325 1.298405,-2.743526 -3.426239 1.560059,-2.785767 -2.867882 1.779531,-2.125451 -4.728213 0.9003906,-2.195784 -3.669275 1.255877,-2.215787 -3.049562 1.536111,-2.22469 -2.472907 1.751246,-1.769467 -4.821782 0.8556445,-1.761647 -3.811939 1.200065,-1.765462 -3.214334 1.513263,-1.771198 -2.670695 1.772284,-1.423076 -5.135622 0.84477,-1.297379 -4.355197 1.154397,-1.219142 -3.86257 1.409284,-1.17095 -3.381383 1.626365,-9.028838 -7.981317 0.6914663,-8.431875 -7.661035 1.057511,-7.94135 -6.954902 1.349976,-7.620913 -6.302333 1.676863,-7.31242 -5.809833 2.016912,-8.301671 -5.261281 1.037198,-8.155904 -4.151151 1.307591,-8.06651 -3.47093 1.552817,-7.994167 -2.887713 1.703087,-8.65001 -5.096212 1.133124,-8.545204 -3.790243 1.366854,-8.455091 -2.973348 1.650953,-8.384943 -2.262181 1.854521,-8.995563 -5.193662 1.273548,-8.933475 -3.957153 1.509801,-8.849993 -3.169263 1.780418,-8.756401 -2.480551 1.974995,-9.359008 -5.501626 1.447801,-9.451602 -4.526256 1.706242,-9.4666 -3.883689 1.926367,-9.445955 -3.245472 2.082162,0.740,DnF
-1.894579 -7.250738 0.1744511,-2.463718 -7.142715 0.742754,-2.895546 -6.699026 1.034352,-3.142782 -6.21841 1.266893,-3.399686 -5.86486 1.476915,-2.521993 -4.9274 0.9865499,-2.682253 -3.985325 1.298405,-2.743526 -3.426239 1.560059,-2.785767 -2.867882 1.779531,-2.125451 -4.728213 0.9003906,-2.195784 -3.669275 1.255877,-2.215787 -3.049562 1.536111,-2.22469 -2.472907 1.751246,-1.769467 -4.821782 0.8556445,-1.761647 -3.811939 1.200065,-1.765462 -3.214334 1.513263,-1.771198 -2.670695 1.772284,-1.423076 -5.135622 0.84477,-1.297379 -4.355197 1.154397,-1.219142 -3.86257 1.409284,-1.17095 -3.381383 1.626365,-9.028838 -7.981317 0.6914663,-8.431875 -7.661035 1.057511,-7.94135 -6.954902 1.349976,-7.620913 -6.302333 1.676863,-7.31242 -5.809833 2.016912,-8.301671 -5.261281 1.037198,-8.155904 -4.151151 1.307591,-8.06651 -3.47093 1.552817,-7.994167 -2.887713 1.703087,-8.65001 -5.096212 1.133124,-8.545204 -3.790243 1.366854,-8.455091 -2.973348 1.650953,-8.384943 -2.262181 1.854521,-8.995563 -5.193662 1.273548,-8.933475 -3.957153 1.509801,-8.849993 -3.169263 1.780418,-8.756401 -2.480551 1.974995,-9.359008 -5.501626 1.447801,-9.451602 -4.526256 1.706242,-9.4666 -3.883689 1.926367,-9.445955 -3.245472 2.082162,0.760,DnF
-1.894579 -7.250738 0.1744511,-2.463718 -7.142715 0.742754,-2.895546 -6.699026 1.034352,-3.142782 -6.21841 1.266893,-3.399686 -5.86486 1.476915,-2.521993 -4.9274 0.9865499,-2.682253 -3.985325 1.298405,-2.743526 -3.426239 1.560059,-2.785767 -2.867882 1.779531,-2.125451 -4.728213 0.9003906,-2.195784 -3.669275 1.255877,-2.215787 -3.049562 1.536111,-2.22469 -2.472907 1.751246,-1.769467 -4.821782 0.8556445,-1.761647 -3.811939 1.200065,-1.765462 -3.214334 1.513263,-1.771198 -2.670695 1.772284,-1.423076 -5.135622 0.84477,-1.297379 -4.355197 1.154397,-1.219142 -3.86257 1.409284,-1.17095 -3.381383 1.626365,-9.028838 -7.981317 0.6914663,-8.431875 -7.661035 1.057511,-7.94135 -6.954902 1.349976,-7.620913 -6.302333 1.676863,-7.31242 -5.809833 2.016912,-8.301671 -5.261281 1.037198,-8.155904 -4.151151 1.307591,-8.06651 -3.47093 1.552817,-7.994167 -2.887713 1.703087,-8.65001 -5.096212 1.133124,-8.545204 -3.790243 1.366854,-8.455091 -2.973348 1.650953,-8.384943 -2.262181 1.854521,-8.995563 -5.193662 1.273548,-8.933475 -3.957153 1.509801,-8.849993 -3.169263 1.780418,-8.756401 -2.480551 1.974995,-9.359008 -5.501626 1.447801,-9.451602 -4.526256 1.706242,-9.4666 -3.883689 1.926367,-9.445955 -3.245472 2.082162,0.780,DnF
-1.754373 -7.424402 0.1220522,-2.30608 -7.334894 0.6469476,-2.67517 -6.861143 0.9420798,-2.890301 -6.426517 1.19135,-3.148991 -6.083625 1.435823,-2.321808 -5.06326 0.8621119,-2.438787 -4.111 1.133694,-2.479609 -3.554895 1.36954,-2.505931 -3.097563 1.581566,-1.909955 -4.897718 0.7977943,-1.94422 -3.841172 1.116472,-1.953157 -3.222948 1.382781,-1.967961 -2.745406 1.581831,-1.553073 -5.01498 0.7698905,-1.502638 -3.990215 1.08916,-1.489622 -3.381458 1.391574,-1.489019 -2.882869 1.637783,-1.227762 -5.343114 0.7685275,-1.057412 -4.575973 1.084266,-0.9418774 -4.073861 1.329219,-0.8672724 -3.598855 1.530154,-9.043616 -8.012066 0.7065896,-8.451419 -7.676246 1.061699,-7.961123 -6.972429 1.353539,-7.634195 -6.324286 1.679785,-7.330374 -5.831811 2.019008,-8.320493 -5.28379 1.062392,-8.174487 -4.175089 1.331474,-8.081101 -3.492874 1.57036,-8.007824 -2.91613 1.723483,-8.66914 -5.122725 1.152892,-8.560943 -3.822055 1.386749,-8.46811 -2.994045 1.674258,-8.404764 -2.275074 1.886495,-9.013343 -5.227438 1.288693,-8.956004 -4.018447 1.520015,-8.869239 -3.23712 1.781488,-8.778053 -2.560916 1.97588,-9.371846 -5.541926 1.455435,-9.466501 -4.578607 1.707421,-9.479042 -3.944914 1.924401,-9.456333 -3.322068 2.080636,0.800,DnF
-1.754373 -7.424402 0.1220522,-2.30608 -7.334894 0.6469476,-2.67517 -6.861143 0.9420798,-2.890301 -6.426517 1.19135,-3.148991 -6.083625 1.435823,-2.321808 -5.06326 0.8621119,-2.438787 -4.111 1.133694,-2.479609 -3.554895 1.36954,-2.505931 -3.097563 1.581566,-1.909955 -4.897718 0.7977943,-1.94422 -3.841172 1.116472,-1.953157 -3.222948 1.382781,-1.967961 -2.745406 1.581831,-1.553073 -5.01498 0.7698905,-1.502638 -3.990215 1.08916,-1.489622 -3.381458 1.391574,-1.489019 -2.882869 1.637783,-1.227762 -5.343114 0.7685275,-1.057412 -4.575973 1.084266,-0.9418774 -4.073861 1.329219,-0.8672724 -3.598855 1.530154,-9.043616 -8.012066 0.7065896,-8.451419 -7.676246 1.061699,-7.961123 -6.972429 1.353539,-7.634195 -6.324286 1.679785,-7.330374 -5.831811 2.019008,-8.320493 -5.28379 1.062392,-8.174487 -4.175089 1.331474,-8.081101 -3.492874 1.57036,-8.007824 -2.91613 1.723483,-8.66914 -5.122725 1.152892,-8.560943 -3.822055 1.386749,-8.46811 -2.994045 1.674258,-8.404764 -2.275074 1.886495,-9.013343 -5.227438 1.288693,-8.956004 -4.018447 1.520015,-8.869239 -3.23712 1.781488,-8.778053 -2.560916 1.97588,-9.371846 -5.541926 1.455435,-9.466501 -4.578607 1.707421,-9.479042 -3.944914 1.924401,-9.456333 -3.322068 2.080636,0.820,DnF
-1.754373 -7.424402 0.1220522,-2.30608 -7.334894 0.6469476,-2.67517 -6.861143 0.9420798,-2.890301 -6.426517 1.19135,-3.148991 -6.083625 1.435823,-2.321808 -5.06326 0.8621119,-2.438787 -4.111 1.133694,-2.479609 -3.554895 1.36954,-2.505931 -3.097563 1.581566,-1.909955 -4.897718 0.7977943,-1.94422 -3.841172 1.116472,-1.953157 -3.222948 1.382781,-1.967961 -2.745406 1.581831,-1.553073 -5.01498 0.7698905,-1.502638 -3.990215 1.08916,-1.489622 -3.381458 1.391574,-1.489019 -2.882869 1.637783,-1.227762 -5.343114 0.7685275,-1.057412 -4.575973 1.084266,-0.9418774 -4.073861 1.329219,-0.8672724 -3.598855 1.530154,-9.043616 -8.012066 0.7065896,-8.451419 -7.676246 1.061699,-7.961123 -6.972429 1.353539,-7.634195 -6.324286 1.679785,-7.330374 -5.831811 2.019008,-8.320493 -5.28379 1.062392,-8.174487 -4.175089 1.331474,-8.081101 -3.492874 1.57036,-8.007824 -2.91613 1.723483,-8.66914 -5.122725 1.152892,-8.560943 -3.822055 1.386749,-8.46811 -2.994045 1.674258,-8.404764 -2.275074 1.886495,-9.013343 -5.227438 1.288693,-8.956004 -4.018447 1.520015,-8.869239 -3.23712 1.781488,-8.778053 -2.560916 1.97588,-9.371846 -5.541926 1.455435,-9.466501 -4.578607 1.707421,-9.479042 -3.944914 1.924401,-9.456333 -3.322068 2.080636,0.840,DnF
-1.524694 -6.91441 -1.334779,-2.018985 -6.756682 -0.9020138,-2.267715 -6.503053 -0.6212443,-2.375738 -6.290322 -0.4388574,-2.518217 -6.176466 -0.2973946,-2.099649 -4.960104 -0.743711,-2.215299 -4.017244 -0.3928162,-2.191656 -3.632244 -0.05922902,-2.106771 -3.543551 0.1774145,-1.667887 -4.780338 -0.8036739,-1.660738 -3.819122 -0.4725828,-1.580454 -3.37869 -0.1263644,-1.473604 -3.34898 0.1687683,-1.277761 -4.911634 -0.8175308,-1.192292 -4.008152 -0.5474889,-1.117867 -3.602598 -0.1948657,-1.064638 -3.46055 0.06137288,-0.9247727 -5.27283 -0.8069932,-0.7042956 -4.544102 -0.530523,-0.6035414 -4.234737 -0.255813,-0.568469 -4.090517 -0.03090417,-9.068406 -8.018703 0.7367495,-8.481413 -7.687967 1.095243,-7.988378 -6.979243 1.387819,-7.663458 -6.330633 1.711825,-7.363506 -5.844804 2.050236,-8.348598 -5.287136 1.116424,-8.204885 -4.185894 1.382577,-8.125063 -3.501542 1.616099,-8.060808 -2.920329 1.762414,-8.698035 -5.122894 1.201333,-8.591547 -3.819378 1.437387,-8.505024 -2.993352 1.714995,-8.441839 -2.274528 1.925978,-9.042656 -5.225845 1.33069,-8.987138 -4.014607 1.561638,-8.905401 -3.230791 1.81741,-8.816484 -2.552305 2.005614,-9.40222 -5.543683 1.489262,-9.492908 -4.587715 1.735438,-9.505341 -3.961475 1.944369,-9.481109 -3.348825 2.09848,0.860,DnF
-1.524694 -6.91441 -1.334779,-2.018985 -6.756682 -0.9020138,-2.267715 -6.503053 -0.6212443,-2.375738 -6.290322 -0.4388574,-2.518217 -6.176466 -0.2973946,-2.099649 -4.960104 -0.743711,-2.215299 -4.017244 -0.3928162,-2.191656 -3.632244 -0.05922902,-2.106771 -3.543551 0.1774145,-1.667887 -4.780338 -0.8036739,-1.660738 -3.819122 -0.4725828,-1.580454 -3.37869 -0.1263644,-1.473604 -3.34898 0.1687683,-1.277761 -4.911634 -0.8175308,-1.192292 -4.008152 -0.5474889,-1.117867 -3.602598 -0.1948657,-1.064638 -3.46055 0.06137288,-0.9247727 -5.27283 -0.8069932,-0.7042956 -4.544102 -0.530523,-0.6035414 -4.234737 -0.255813,-0.568469 -4.090517 -0.03090417,-9.068406 -8.018703 0.7367495,-8.481413 -7.687967 1.095243,-7.988378 -6.979243 1.387819,-7.663458 -6.330633 1.711825,-7.363506 -5.844804 2.050236,-8.348598 -5.287136 1.116424,-8.204885 -4.185894 1.382577,-8.125063 -3.501542 1.616099,-8.060808 -2.920329 1.762414,-8.698035 -5.122894 1.201333,-8.591547 -3.819378 1.437387,-8.505024 -2.993352 1.714995,-8.441839 -2.274528 1.925978,-9.042656 -5.225845 1.33069,-8.987138 -4.014607 1.561638,-8.905401 -3.230791 1.81741,-8.816484 -2.552305 2.005614,-9.40222 -5.543683 1.489262,-9.492908 -4.587715 1.735438,-9.505341 -3.961475 1.944369,-9.481109 -3.348825 2.09848,0.880,DnF
-1.524694 -6.91441 -1.334779,-2.018985 -6.756682 -0.9020138,-2.267715 -6.503053 -0.6212443,-2.375738 -6.290322 -0.4388574,-2.518217 -6.176466 -0.2973946,-2.099649 -4.960104 -0.743711,-2.215299 -4.017244 -0.3928162,-2.191656 -3.632244 -0.05922902,-2.106771 -3.543551 0.1774145,-1.667887 -4.780338 -0.8036739,-1.660738 -3.819122 -0.4725828,-1.580454 -3.37869 -0.1263644,-1.473604 -3.34898 0.1687683,-1.277761 -4.911634 -0.8175308,-1.192292 -4.008152 -0.5474889,-1.117867 -3.602598 -0.1948657,-1.064638 -3.46055 0.06137288,-0.9247727 -5.27283 -0.8069932,-0.7042956 -4.544102 -0.530523,-0.6035414 -4.234737 -0.255813,-0.568469 -4.090517 -0.03090417,-9.068406 -8.018703 0.7367495,-8.481413 -7.687967 1.095243,-7.988378 -6.979243 1.387819,-7.663458 -6.330633 1.711825,-7.363506 -5.844804 2.050236,-8.348598 -5.287136 1.116424,-8.204885 -4.185894 1.382577,-8.125063 -3.501542 1.616099,-8.060808 -2.920329 1.762414,-8.698035 -5.122894 1.201333,-8.591547 -3.819378 1.437387,-8.505024 -2.993352 1.714995,-8.441839 -2.274528 1.925978,-9.042656 -5.225845 1.33069,-8.987138 -4.014607 1.561638,-8.905401 -3.230791 1.81741,-8.816484 -2.552305 2.005614,-9.40222 -5.543683 1.489262,-9.492908 -4.587715 1.735438,-9.505341 -3.961475 1.944369,-9.481109 -3.348825 2.09848,0.900,DnF
-1.345692 -7.079694 -1.499809,-1.808089 -7.16809 -0.8069342,-2.070915 -7.083969 -0.3382653,-2.206353 -6.982084 0.02305532,-2.321635 -6.894043 0.398294,-1.908586 -5.293479 -0.5541079,-2.001053 -4.3392 -0.2015682,-1.926567 -3.94973 0.1440256,-1.792032 -3.865604 0.3958843,-1.471927 -5.064165 -0.7422337,-1.493403 -4.130819 -0.391767,-1.38926 -3.69314 -0.04880702,-1.24245 -3.642624 0.2367979,-1.097373 -5.171999 -0.8805702,-1.021415 -4.264192 -0.6428134,-0.9001708 -3.892133 -0.3026402,-0.748271 -3.77843 -0.02959013,-0.7753658 -5.506097 -0.9814018,-0.595355 -4.84859 -0.7438853,-0.4378724 -4.580886 -0.4396714,-0.2936535 -4.447961 -0.1914144,-9.095531 -8.058565 0.7244985,-8.511236 -7.71043 1.059978,-8.020887 -7.009073 1.337831,-7.69737 -6.367408 1.655089,-7.406034 -5.885255 1.984919,-8.390917 -5.319085 1.066528,-8.252468 -4.210338 1.317435,-8.171943 -3.517122 1.544227,-8.105268 -2.921872 1.689359,-8.733073 -5.160131 1.155107,-8.636196 -3.852977 1.382426,-8.551148 -3.019441 1.6607,-8.486608 -2.301462 1.870183,-9.070116 -5.259523 1.288146,-9.019365 -4.047264 1.506736,-8.939396 -3.256455 1.756346,-8.850966 -2.584688 1.944832,-9.422912 -5.570302 1.446581,-9.523478 -4.602567 1.683555,-9.537937 -3.96957 1.890999,-9.516788 -3.359863 2.037477,0.920,DnF
-1.345692 -7.079694 -1.499809,-1.808089 -7.16809 -0.8069342,-2.070915 -7.083969 -0.3382653,-2.206353 -6.982084 0.02305532,-2.321635 -6.894043 0.398294,-1.908586 -5.293479 -0.5541079,-2.001053 -4.3392 -0.2015682,-1.926567 -3.94973 0.1440256,-1.792032 -3.865604 0.3958843,-1.471927 -5.064165 -0.7422337,-1.493403 -4.130819 -0.391767,-1.38926 -3.69314 -0.04880702,-1.24245 -3.642624 0.2367979,-1.097373 -5.171999 -0.8805702,-1.021415 -4.264192 -0.6428134,-0.9001708 -3.892133 -0.3026402,-0.748271 -3.77843 -0.02959013,-0.7753658 -5.506097 -0.9814018,-0.595355 -4.84859 -0.7438853,-0.4378724 -4.580886 -0.4396714,-0.2936535 -4.447961 -0.1914144,-9.095531 -8.058565 0.7244985,-8.511236 -7.71043 1.059978,-8.020887 -7.009073 1.337831,-7.69737 -6.367408 1.655089,-7.406034 -5.885255 1.984919,-8.390917 -5.319085 1.066528,-8.252468 -4.210338 1.317435,-8.171943 -3.517122 1.544227,-8.105268 -2.921872 1.689359,-8.733073 -5.160131 1.155107,-8.636196 -3.852977 1.382426,-8.551148 -3.019441 1.6607,-8.486608 -2.301462 1.870183,-9.070116 -5.259523 1.288146,-9.019365 -4.047264 1.506736,-8.939396 -3.256455 1.756346,-8.850966 -2.584688 1.944832,-9.422912 -5.570302 1.446581,-9.523478 -4.602567 1.683555,-9.537937 -3.96957 1.890999,-9.516788 -3.359863 2.037477,0.940,DnF
-1.345692 -7.079694 -1.499809,-1.808089 -7.16809 -0.8069342,-2.070915 -7.083969 -0.3382653,-2.206353 -6.982084 0.02305532,-2.321635 -6.894043 0.398294,-1.908586 -5.293479 -0.5541079,-2.001053 -4.3392 -0.2015682,-1.926567 -3.94973 0.1440256,-1.792032 -3.865604 0.3958843,-1.471927 -5.064165 -0.7422337,-1.493403 -4.130819 -0.391767,-1.38926 -3.69314 -0.04880702,-1.24245 -3.642624 0.2367979,-1.097373 -5.171999 -0.8805702,-1.021415 -4.264192 -0.6428134,-0.9001708 -3.892133 -0.3026402,-0.748271 -3.77843 -0.02959013,-0.7753658 -5.506097 -0.9814018,-0.595355 -4.84859 -0.7438853,-0.4378724 -4.580886 -0.4396714,-0.2936535 -4.447961 -0.1914144,-9.095531 -8.058565 0.7244985,-8.511236 -7.71043 1.059978,-8.020887 -7.009073 1.337831,-7.69737 -6.367408 1.655089,-7.406034 -5.885255 1.984919,-8.390917 -5.319085 1.066528,-8.252468 -4.210338 1.317435,-8.171943 -3.517122 1.544227,-8.105268 -2.921872 1.689359,-8.733073 -5.160131 1.155107,-8.636196 -3.852977 1.382426,-8.551148 -3.019441 1.6607,-8.486608 -2.301462 1.870183,-9.070116 -5.259523 1.288146,-9.019365 -4.047264 1.506736,-8.939396 -3.256455 1.756346,-8.850966 -2.584688 1.944832,-9.422912 -5.570302 1.446581,-9.523478 -4.602567 1.683555,-9.537937 -3.96957 1.890999,-9.516788 -3.359863 2.037477,0.960,DnF
-1.274311 -7.356857 -1.454536,-1.71164 -7.414566 -0.9416344,-1.944247 -7.289075 -0.5752091,-2.034632 -7.144757 -0.324126,-2.118639 -7.018878 -0.08074379,-1.78594 -5.563049 -0.5773149,-1.871929 -4.614822 -0.3248785,-1.741807 -4.221564 -0.1571085,-1.566288 -4.176797 -0.03451955,-1.359148 -5.308538 -0.7436075,-1.363241 -4.316211 -0.4533414,-1.232529 -3.915174 -0.2752097,-1.092508 -3.922503 -0.1405098,-0.9816675 -5.411123 -0.8829216,-0.8793554 -4.432416 -0.6858306,-0.7186308 -4.077421 -0.4735016,-0.5687175 -4.004417 -0.3059521,-0.6578841 -5.757645 -1.012175,-0.4366169 -5.026056 -0.8276557,-0.235538 -4.735982 -0.6081823,-0.08109856 -4.596514 -0.4344997,-9.103946 -8.069174 0.7373903,-8.52814 -7.715204 1.059255,-8.03935 -7.002102 1.325686,-7.71703 -6.353205 1.634117,-7.421909 -5.891963 1.956685,-8.426949 -5.31087 1.06874,-8.286624 -4.203557 1.31472,-8.20151 -3.509497 1.54215,-8.13285 -2.913842 1.694776,-8.762935 -5.164155 1.166544,-8.661649 -3.856058 1.394258,-8.576141 -3.018959 1.681296,-8.514994 -2.299806 1.900126,-9.095759 -5.274627 1.305483,-9.039819 -4.059347 1.52793,-8.961432 -3.264664 1.782967,-8.879733 -2.582315 1.974873,-9.44733 -5.596918 1.469171,-9.542736 -4.638662 1.707985,-9.554229 -4.003 1.91956,-9.534946 -3.383665 2.073526,0.980,DnF
-1.274311 -7.356857 -1.454536,-1.71164 -7.414566 -0.9416344,-1.944247 -7.289075 -0.5752091,-2.034632 -7.144757 -0.324126,-2.118639 -7.018878 -0.08074379,-1.78594 -5.563049 -0.5773149,-1.871929 -4.614822 -0.3248785,-1.741807 -4.221564 -0.1571085,-1.566288 -4.176797 -0.03451955,-1.359148 -5.308538 -0.7436075,-1.363241 -4.316211 -0.4533414,-1.232529 -3.915174 -0.2752097,-1.092508 -3.922503 -0.1405098,-0.9816675 -5.411123 -0.8829216,-0.8793554 -4.432416 -0.6858306,-0.7186308 -4.077421 -0.4735016,-0.5687175 -4.004417 -0.3059521,-0.6578841 -5.757645 -1.012175,-0.4366169 -5.026056 -0.8276557,-0.235538 -4.735982 -0.6081823,-0.08109856 -4.596514 -0.4344997,-9.103946 -8.069174 0.7373903,-8.52814 -7.715204 1.059255,-8.03935 -7.002102 1.325686,-7.71703 -6.353205 1.634117,-7.421909 -5.891963 1.956685,-8.426949 -5.31087 1.06874,-8.286624 -4.203557 1.31472,-8.20151 -3.509497 1.54215,-8.13285 -2.913842 1.694776,-8.762935 -5.164155 1.166544,-8.661649 -3.856058 1.394258,-8.576141 -3.018959 1.681296,-8.514994 -2.299806 1.900126,-9.095759 -5.274627 1.305483,-9.039819 -4.059347 1.52793,-8.961432 -3.264664 1.782967,-8.879733 -2.582315 1.974873,-9.44733 -5.596918 1.469171,-9.542736 -4.638662 1.707985,-9.554229 -4.003 1.91956,-9.534946 -3.383665 2.073526,1.000,DnF
-1.274311 -7.356857 -1.454536,-1.71164 -7.414566 -0.9416344,-1.944247 -7.289075 -0.5752091,-2.034632 -7.144757 -0.324126,-2.118639 -7.018878 -0.08074379,-1.78594 -5.563049 -0.5773149,-1.871929 -4.614822 -0.3248785,-1.741807 -4.221564 -0.1571085,-1.566288 -4.176797 -0.03451955,-1.359148 -5.308538 -0.7436075,-1.363241 -4.316211 -0.4533414,-1.232529 -3.915174 -0.2752097,-1.092508 -3.922503 -0.1405098,-0.9816675 -5.411123 -0.8829216,-0.8793554 -4.432416 -0.6858306,-0.7186308 -4.077421 -0.4735016,-0.5687175 -4.004417 -0.3059521,-0.6578841 -5.757645 -1.012175,-0.4366169 -5.026056 -0.8276557,-0.235538 -4.735982 -0.6081823,-0.08109856 -4.596514 -0.4344997,-9.103946 -8.069174 0.7373903,-8.52814 -7.715204 1.059255,-8.03935 -7.002102 1.325686,-7.71703 -6.353205 1.634117,-7.421909 -5.891963 1.956685,-8.426949 -5.31087 1.06874,-8.286624 -4.203557 1.31472,-8.20151 -3.509497 1.54215,-8.13285 -2.913842 1.694776,-8.762935 -5.164155 1.166544,-8.661649 -3.856058 1.394258,-8.576141 -3.018959 1.681296,-8.514994 -2.299806 1.900126,-9.095759 -5.274627 1.305483,-9.039819 -4.059347 1.52793,-8.961432 -3.264664 1.782967,-8.879733 -2.582315 1.974873,-9.44733 -5.596918 1.469171,-9.542736 -4.638662 1.707985,-9.554229 -4.003 1.91956,-9.534946 -3.383665 2.073526,1.020,DnF
-1.274311 -7.356857 -1.454536,-1.71164 -7.414566 -0.9416344,-1.944247 -7.289075 -0.5752091,-2.034632 -7.144757 -0.324126,-2.118639 -7.018878 -0.08074379,-1.78594 -5.563049 -0.5773149,-1.871929 -4.614822 -0.3248785,-1.741807 -4.221564 -0.1571085,-1.566288 -4.176797 -0.03451955,-1.359148 -5.308538 -0.7436075,-1.363241 -4.316211 -0.4533414,-1.232529 -3.915174 -0.2752097,-1.092508 -3.922503 -0.1405098,-0.9816675 -5.411123 -0.8829216,-0.8793554 -4.432416 -0.6858306,-0.7186308 -4.077421 -0.4735016,-0.5687175 -4.004417 -0.3059521,-0.6578841 -5.757645 -1.012175,-0.4366169 -5.026056 -0.8276557,-0.235538 -4.735982 -0.6081823,-0.08109856 -4.596514 -0.4344997,-9.103946 -8.069174 0.7373903,-8.52814 -7.715204 1.059255,-8.03935 -7.002102 1.325686,-7.71703 -6.353205 1.634117,-7.421909 -5.891963 1.956685,-8.426949 -5.31087 1.06874,-8.286624 -4.203557 1.31472,-8.20151 -3.509497 1.54215,-8.13285 -2.913842 1.694776,-8.762935 -5.164155 1.166544,-8.661649 -3.856058 1.394258,-8.576141 -3.018959 1.681296,-8.514994 -2.299806 1.900126,-9.095759 -5.274627 1.305483,-9.039819 -4.059347 1.52793,-8.961432 -3.264664 1.782967,-8.879733 -2.582315 1.974873,-9.44733 -5.596918 1.469171,-9.542736 -4.638662 1.707985,-9.554229 -4.003 1.91956,-9.534946 -3.383665 2.073526,1.040,DnF
-1.143766 -7.390647 -2.108836,-1.54897 -7.22186 -1.970787,-1.727897 -7.034578 -1.864839,-1.795121 -6.97887 -1.829974,-1.801237 -7.025094 -1.804545,-1.566016 -5.661192 -1.632779,-1.604238 -4.738872 -1.583178,-1.44281 -4.69553 -1.61976,-1.293134 -5.026585 -1.62062,-1.161018 -5.452894 -1.689251,-1.095735 -4.430686 -1.543063,-0.9111104 -4.258797 -1.543474,-0.8042321 -4.511128 -1.573378,-0.80445 -5.55258 -1.759589,-0.6402206 -4.603764 -1.625985,-0.4284444 -4.391187 -1.545776,-0.301065 -4.469653 -1.540152,-0.5192986 -5.881907 -1.855804,-0.2471609 -5.202333 -1.689453,0.01962137 -4.970737 -1.558578,0.2017212 -4.866823 -1.481642,-9.147601 -8.122711 0.7430464,-8.558333 -7.766164 1.059135,-8.061869 -7.054323 1.323598,-7.740022 -6.414866 1.631943,-7.448712 -5.944923 1.948528,-8.439844 -5.36725 1.060096,-8.303778 -4.255395 1.303193,-8.21763 -3.569686 1.53177,-8.147128 -2.984514 1.681539,-8.77773 -5.217955 1.160845,-8.685232 -3.9197 1.379608,-8.598521 -3.089338 1.66322,-8.53315 -2.38002 1.871713,-9.111754 -5.321917 1.304054,-9.062392 -4.123857 1.516881,-8.977077 -3.331426 1.773959,-8.883722 -2.656625 1.970119,-9.4643 -5.63167 1.472337,-9.568005 -4.675418 1.704755,-9.581115 -4.034959 1.916348,-9.560026 -3.411928 2.068703,1.060,DnF
-1.143766 -7.390647 -2.108836,-1.54897 -7.22186 -1.970787,-1.727897 -7.034578 -1.864839,-1.795121 -6.97887 -1.829974,-1.801237 -7.025094 -1.804545,-1.566016 -5.661192 -1.632779,-1.604238 -4.738872 -1.583178,-1.44281 -4.69553 -1.61976,-1.293134 -5.026585 -1.62062,-1.161018 -5.452894 -1.689251,-1.095735 -4.430686 -1.543063,-0.9111104 -4.258797 -1.543474,-0.8042321 -4.511128 -1.573378,-0.80445 -5.55258 -1.759589,-0.6402206 -4.603764 -1.625985,-0.4284444 -4.391187 -1.545776,-0.301065 -4.469653 -1.540152,-0.5192986 -5.881907 -1.855804,-0.2471609 -5.202333 -1.689453,0.01962137 -4.970737 -1.558578,0.2017212 -4.866823 -1.481642,-9.147601 -8.122711 0.7430464,-8.558333 -7.766164 1.059135,-8.061869 -7.054323 1.323598,-7.740022 -6.414866 1.631943,-7.448712 -5.944923 1.948528,-8.439844 -5.36725 1.060096,-8.303778 -4.255395 1.303193,-8.21763 -3.569686 1.53177,-8.147128 -2.984514 1.681539,-8.77773 -5.217955 1.160845,-8.685232 -3.9197 1.379608,-8.598521 -3.089338 1.66322,-8.53315 -2.38002 1.871713,-9.111754 -5.321917 1.304054,-9.062392 -4.123857 1.516881,-8.977077 -3.331426 1.773959,-8.883722 -2.656625 1.970119,-9.4643 -5.63167 1.472337,-9.568005 -4.675418 1.704755,-9.581115 -4.034959 1.916348,-9.560026 -3.411928 2.068703,1.080,DnF
-1.143766 -7.390647 -2.108836,-1.54897 -7.22186 -1.970787,-1.727897 -7.034578 -1.864839,-1.795121 -6.97887 -1.829974,-1.801237 -7.025094 -1.804545,-1.566016 -5.661192 -1.632779,-1.604238 -4.738872 -1.583178,-1.44281 -4.69553 -1.61976,-1.293134 -5.026585 -1.62062,-1.161018 -5.452894 -1.689251,-1.095735 -4.430686 -1.543063,-0.9111104 -4.258797 -1.543474,-0.8042321 -4.511128 -1.573378,-0.80445 -5.55258 -1.759589,-0.6402206 -4.603764 -1.625985,-0.4284444 -4.391187 -1.545776,-0.301065 -4.469653 -1.540152,-0.5192986 -5.881907 -1.855804,-0.2471609 -5.202333 -1.689453,0.01962137 -4.970737 -1.558578,0.2017212 -4.866823 -1.481642,-9.147601 -8.122711 0.7430464,-8.558333 -7.766164 1.059135,-8.061869 -7.054323 1.323598,-7.740022 -6.414866 1.631943,-7.448712 -5.944923 1.948528,-8.439844 -5.36725 1.060096,-8.303778 -4.255395 1.303193,-8.21763 -3.569686 1.53177,-8.147128 -2.984514 1.681539,-8.77773 -5.217955 1.160845,-8.685232 -3.9197 1.379608,-8.598521 -3.089338 1.66322,-8.53315 -2.38002 1.871713,-9.111754 -5.321917 1.304054,-9.062392 -4.123857 1.516881,-8.977077 -3.331426 1.773959,-8.883722 -2.656625 1.970119,-9.4643 -5.63167 1.472337,-9.568005 -4.675418 1.704755,-9.581115 -4.034959 1.916348,-9.560026 -3.411928 2.068703,1.100,DnF
-1.006629 -7.419336 -1.929113,-1.395995 -7.226333 -1.489672,-1.5746 -7.04581 -1.165313,-1.618638 -7.020347 -0.9458078,-1.619865 -7.134006 -0.6981026,-1.413081 -5.658134 -1.157585,-1.445678 -4.885153 -0.9114192,-1.274627 -4.827968 -0.6906213,-1.097832 -5.176303 -0.5230043,-0.9971447 -5.489279 -1.287182,-0.9216785 -4.543986 -1.009805,-0.7214861 -4.430427 -0.8600688,-0.5732613 -4.738945 -0.7550154,-0.6538935 -5.621063 -1.397019,-0.4719863 -4.748046 -1.154955,-0.2327924 -4.654302 -0.9287947,-0.06246471 -4.819108 -0.7815148,-0.3944793 -5.969082 -1.502298,-0.1228371 -5.368568 -1.241486,0.1301556 -5.19391 -0.9999434,0.3137922 -5.144201 -0.8181897,-9.161934 -8.140375 0.6895339,-8.582601 -7.791938 1.031043,-8.088283 -7.078754 1.310325,-7.770612 -6.433759 1.629212,-7.48262 -5.974308 1.961338,-8.464814 -5.406238 1.054452,-8.321645 -4.294405 1.314968,-8.237421 -3.605505 1.548582,-8.168148 -3.011697 1.704616,-8.805122 -5.254867 1.142768,-8.706367 -3.93454 1.384577,-8.619372 -3.100763 1.67622,-8.552586 -2.377559 1.896892,-9.141223 -5.356823 1.272285,-9.085634 -4.131861 1.506089,-9.00569 -3.342881 1.765942,-8.920776 -2.66543 1.960825,-9.494867 -5.664444 1.428751,-9.588017 -4.700658 1.673525,-9.600495 -4.06731 1.887009,-9.582689 -3.45338 2.04057,1.120,DnF
-1.006629 -7.419336 -1.929113,-1.395995 -7.226333 -1.489672,-1.5746 -7.04581 -1.165313,-1.618638 -7.020347 -0.9458078,-1.619865 -7.134006 -0.6981026,-1.413081 -5.658134 -1.157585,-1.445678 -4.885153 -0.9114192,-1.274627 -4.827968 -0.6906213,-1.097832 -5.176303 -0.5230043,-0.9971447 -5.489279 -1.287182,-0.9216785 -4.543986 -1.009805,-0.7214861 -4.430427 -0.8600688,-0.5732613 -4.738945 -0.7550154,-0.6538935 -5.621063 -1.397019,-0.4719863 -4.748046 -1.154955,-0.2327924 -4.654302 -0.9287947,-0.06246471 -4.819108 -0.7815148,-0.3944793 -5.969082 -1.502298,-0.1228371 -5.368568 -1.241486,0.1301556 -5.19391 -0.9999434,0.3137922 -5.144201 -0.8181897,-9.161934 -8.140375 0.6895339,-8.582601 -7.791938 1.031043,-8.088283 -7.078754 1.310325,-7.770612 -6.433759 1.629212,-7.48262 -5.974308 1.961338,-8.464814 -5.406238 1.054452,-8.321645 -4.294405 1.314968,-8.237421 -3.605505 1.548582,-8.168148 -3.011697 1.704616,-8.805122 -5.254867 1.142768,-8.706367 -3.93454 1.384577,-8.619372 -3.100763 1.67622,-8.552586 -2.377559 1.896892,-9.141223 -5.356823 1.272285,-9.085634 -4.131861 1.506089,-9.00569 -3.342881 1.765942,-8.920776 -2.66543 1.960825,-9.494867 -5.664444 1.428751,-9.588017 -4.700658 1.673525,-9.600495 -4.06731 1.887009,-9.582689 -3.45338 2.04057,1.140,DnF
-1.006629 -7.419336 -1.929113,-1.395995 -7.226333 -1.489672,-1.5746 -7.04581 -1.165313,-1.618638 -7.020347 -0.9458078,-1.619865 -7.134006 -0.6981026,-1.413081 -5.658134 -1.157585,-1.445678 -4.885153 -0.9114192,-1.274627 -4.827968 -0.6906213,-1.097832 -5.176303 -0.5230043,-0.9971447 -5.489279 -1.287182,-0.9216785 -4.543986 -1.009805,-0.7214861 -4.430427 -0.8600688,-0.5732613 -4.738945 -0.7550154,-0.6538935 -5.621063 -1.397019,-0.4719863 -4.748046 -1.154955,-0.2327924 -4.654302 -0.9287947,-0.06246471 -4.819108 -0.7815148,-0.3944793 -5.969082 -1.502298,-0.1228371 -5.368568 -1.241486,0.1301556 -5.19391 -0.9999434,0.3137922 -5.144201 -0.8181897,-9.161934 -8.140375 0.6895339,-8.582601 -7.791938 1.031043,-8.088283 -7.078754 1.310325,-7.770612 -6.433759 1.629212,-7.48262 -5.974308 1.961338,-8.464814 -5.406238 1.054452,-8.321645 -4.294405 1.314968,-8.237421 -3.605505 1.548582,-8.168148 -3.011697 1.704616,-8.805122 -5.254867 1.142768,-8.706367 -3.93454 1.384577,-8.619372 -3.100763 1.67622,-8.552586 -2.377559 1.896892,-9.141223 -5.356823 1.272285,-9.085634 -4.131861 1.506089,-9.00569 -3.342881 1.765942,-8.920776 -2.66543 1.960825,-9.494867 -5.664444 1.428751,-9.588017 -4.700658 1.673525,-9.600495 -4.06731 1.887009,-9.582689 -3.45338 2.04057,1.160,DnF
-0.8716993 -7.480956 -2.210983,-1.275693 -7.30558 -2.151583,-1.432352 -7.162924 -2.03786,-1.460169 -7.143936 -1.970358,-1.434841 -7.250268 -1.8614,-1.312724 -5.76709 -1.962822,-1.403246 -5.008373 -1.982275,-1.272557 -4.973478 -1.963971,-1.133049 -5.333249 -1.901921,-0.925446 -5.538933 -2.007097,-0.9156818 -4.599306 -2.029163,-0.7890372 -4.541778 -2.074704,-0.7037849 -4.9207 -2.075329,-0.5793171 -5.637879 -2.058353,-0.4479485 -4.783786 -2.063838,-0.2927957 -4.761651 -2.05384,-0.2047281 -5.024442 -2.025951,-0.3068948 -5.963094 -2.126344,-0.02795362 -5.393836 -2.056208,0.1913447 -5.252286 -1.980962,0.3103909 -5.282894 -1.916672,-9.198264 -8.147392 0.6635705,-8.615117 -7.801137 0.9809172,-8.119741 -7.084522 1.249474,-7.798638 -6.448299 1.561509,-7.50767 -5.99434 1.886815,-8.494385 -5.411542 0.988423,-8.359814 -4.291187 1.243811,-8.273535 -3.604112 1.476478,-8.199589 -3.015686 1.632626,-8.833102 -5.266807 1.092684,-8.744807 -3.942405 1.331908,-8.657563 -3.106925 1.619357,-8.588394 -2.388802 1.832737,-9.169355 -5.372077 1.238914,-9.121232 -4.146728 1.470249,-9.040251 -3.35876 1.720513,-8.953155 -2.684915 1.906865,-9.521538 -5.684318 1.410145,-9.620008 -4.720344 1.654115,-9.63379 -4.08544 1.859769,-9.617227 -3.473205 2.004831,1.180,DnF
-0.8716993 -7.480956 -2.210983,-1.275693 -7.30558 -2.151583,-1.432352 -7.162924 -2.03786,-1.460169 -7.143936 -1.970358,-1.434841 -7.250268 -1.8614,-1.312724 -5.76709 -1.962822,-1.403246 -5.008373 -1.982275,-1.272557 -4.973478 -1.963971,-1.133049 -5.333249 -1.901921,-0.925446 -5.538933 -2.007097,-0.9156818 -4.599306 -2.029163,-0.7890372 -4.541778 -2.074704,-0.7037849 -4.9207 -2.075329,-0.5793171 -5.637879 -2.058353,-0.4479485 -4.783786 -2.063838,-0.2927957 -4.761651 -2.05384,-0.2047281 -5.024442 -2.025951,-0.3068948 -5.963094 -2.126344,-0.02795362 -5.393836 -2.056208,0.1913447 -5.252286 -1.980962,0.3103909 -5.282894 -1.916672,-9.198264 -8.147392 0.6635705,-8.615117 -7.801137 0.9809172,-8.119741 -7.084522 1.249474,-7.798638 -6.448299 1.561509,-7.50767 -5.99434 1.886815,-8.494385 -5.411542 0.988423,-8.359814 -4.291187 1.243811,-8.273535 -3.604112 1.476478,-8.199589 -3.015686 1.632626,-8.833102 -5.266807 1.092684,-8.744807 -3.942405 1.331908,-8.657563 -3.106925 1.619357,-8.588394 -2.388802 1.832737,-9.169355 -5.372077 1.238914,-9.121232 -4.146728 1.470249,-9.040251 -3.35876 1.720513,-8.953155 -2.684915 1.906865,-9.521538 -5.684318 1.410145,-9.620008 -4.720344 1.654115,-9.63379 -4.08544 1.859769,-9.617227 -3.473205 2.004831,1.200,DnF
-0.8716993 -7.480956 -2.210983,-1.275693 -7.30558 -2.151583,-1.432352 -7.162924 -2.03786,-1.460169 -7.143936 -1.970358,-1.434841 -7.250268 -1.8614,-1.312724 -5.76709 -1.962822,-1.403246 -5.008373 -1.982275,-1.272557 -4.973478 -1.963971,-1.133049 -5.333249 -1.901921,-0.925446 -5.538933 -2.007097,-0.9156818 -4.599306 -2.029163,-0.7890372 -4.541778 -2.074704,-0.7037849 -4.9207 -2.075329,-0.5793171 -5.637879 -2.058353,-0.4479485 -4.783786 -2.063838,-0.2927957 -4.761651 -2.05384,-0.2047281 -5.024442 -2.025951,-0.3068948 -5.963094 -2.126344,-0.02795362 -5.393836 -2.056208,0.1913447 -5.252286 -1.980962,0.3103909 -5.282894 -1.916672,-9.198264 -8.147392 0.6635705,-8.615117 -7.801137 0.9809172,-8.119741 -7.084522 1.249474,-7.798638 -6.448299 1.561509,-7.50767 -5.99434 1.886815,-8.494385 -5.411542 0.988423,-8.359814 -4.291187 1.243811,-8.273535 -3.604112 1.476478,-8.199589 -3.015686 1.632626,-8.833102 -5.266807 1.092684,-8.744807 -3.942405 1.331908,-8.657563 -3.106925 1.619357,-8.588394 -2.388802 1.832737,-9.169355 -5.372077 1.238914,-9.121232 -4.146728 1.470249,-9.040251 -3.35876 1.720513,-8.953155 -2.684915 1.906865,-9.521538 -5.684318 1.410145,-9.620008 -4.720344 1.654115,-9.63379 -4.08544 1.859769,-9.617227 -3.473205 2.004831,1.220,DnF
-0.8716993 -7.480956 -2.210983,-1.275693 -7.30558 -2.151583,-1.432352 -7.162924 -2.03786,-1.460169 -7.143936 -1.970358,-1.434841 -7.250268 -1.8614,-1.312724 -5.76709 -1.962822,-1.403246 -5.008373 -1.982275,-1.272557 -4.973478 -1.963971,-1.133049 -5.333249 -1.901921,-0.925446 -5.538933 -2.007097,-0.9156818 -4.599306 -2.029163,-0.7890372 -4.541778 -2.074704,-0.7037849 -4.9207 -2.075329,-0.5793171 -5.637879 -2.058353,-0.4479485 -4.783786 -2.063838,-0.2927957 -4.761651 -2.05384,-0.2047281 -5.024442 -2.025951,-0.3068948 -5.963094 -2.126344,-0.02795362 -5.393836 -2.056208,0.1913447 -5.252286 -1.980962,0.3103909 -5.282894 -1.916672,-9.198264 -8.147392 0.6635705,-8.615117 -7.801137 0.9809172,-8.119741 -7.084522 1.249474,-7.798638 -6.448299 1.561509,-7.50767 -5.99434 1.886815,-8.494385 -5.411542 0.988423,-8.359814 -4.291187 1.243811,-8.273535 -3.604112 1.476478,-8.199589 -3.015686 1.632626,-8.833102 -5.266807 1.092684,-8.744807 -3.942405 1.331908,-8.657563 -3.106925 1.619357,-8.588394 -2.388802 1.832737,-9.169355 -5.372077 1.238914,-9.121232 -4.146728 1.470249,-9.040251 -3.35876 1.720513,-8.953155 -2.684915 1.906865,-9.521538 -5.684318 1.410145,-9.620008 -4.720344 1.654115,-9.63379 -4.08544 1.859769,-9.617227 -3.473205 2.004831,1.240,DnF
-0.7159615 -7.501765 -1.672794,-1.05715 -7.49147 -0.7589922,-1.282416 -7.441957 -0.0925324,-1.336727 -7.482444 0.470934,-1.31377 -7.585418 1.060871,-1.260081 -5.827363 -0.5289751,-1.316893 -4.972493 0.1376451,-1.037168 -5.126506 0.6135148,-0.7940221 -5.624223 0.817469,-0.8394074 -5.616506 -0.739912,-0.8757496 -4.576639 -0.004532337,-0.6182761 -4.795318 0.4652549,-0.4779601 -5.313971 0.6901156,-0.48771 -5.683622 -0.867985,-0.4535537 -4.765055 -0.1998556,-0.2513275 -5.059062 0.1807262,-0.1526804 -5.5784 0.3172883,-0.2119617 -5.917772 -0.9590569,0.009036541 -5.296114 -0.4160825,0.2151613 -5.410138 -0.06990087,0.3102684 -5.728385 0.09697437,-9.200302 -8.153807 0.6622466,-8.62202 -7.811115 1.021971,-8.129611 -7.084735 1.311535,-7.813926 -6.444866 1.640962,-7.532687 -5.987688 1.982383,-8.51534 -5.41101 1.029627,-8.388795 -4.285173 1.301504,-8.307347 -3.595195 1.545629,-8.234447 -3.002347 1.709212,-8.858863 -5.27457 1.116685,-8.775017 -3.940756 1.367515,-8.689385 -3.103045 1.66332,-8.618865 -2.374992 1.88599,-9.194374 -5.382176 1.247893,-9.148971 -4.143323 1.487116,-9.070354 -3.353709 1.744142,-8.985938 -2.677211 1.936152,-9.54514 -5.693267 1.409206,-9.647931 -4.720134 1.649341,-9.664927 -4.088469 1.852163,-9.653569 -3.477474 1.995685,1.260,Right Hand Closed
-0.7159615 -7.501765 -1.672794,-1.05715 -7.49147 -0.7589922,-1.282416 -7.441957 -0.0925324,-1.336727 -7.482444 0.470934,-1.31377 -7.585418 1.060871,-1.260081 -5.827363 -0.5289751,-1.316893 -4.972493 0.1376451,-1.037168 -5.126506 0.6135148,-0.7940221 -5.624223 0.817469,-0.8394074 -5.616506 -0.739912,-0.8757496 -4.576639 -0.004532337,-0.6182761 -4.795318 0.4652549,-0.4779601 -5.313971 0.6901156,-0.48771 -5.683622 -0.867985,-0.4535537 -4.765055 -0.1998556,-0.2513275 -5.059062 0.1807262,-0.1526804 -5.5784 0.3172883,-0.2119617 -5.917772 -0.9590569,0.009036541 -5.296114 -0.4160825,0.2151613 -5.410138 -0.06990087,0.3102684 -5.728385 0.09697437,-9.200302 -8.153807 0.6622466,-8.62202 -7.811115 1.021971,-8.129611 -7.084735 1.311535,-7.813926 -6.444866 1.640962,-7.532687 -5.987688 1.982383,-8.51534 -5.41101 1.029627,-8.388795 -4.285173 1.301504,-8.307347 -3.595195 1.545629,-8.234447 -3.002347 1.709212,-8.858863 -5.27457 1.116685,-8.775017 -3.940756 1.367515,-8.689385 -3.103045 1.66332,-8.618865 -2.374992 1.88599,-9.194374 -5.382176 1.247893,-9.148971 -4.143323 1.487116,-9.070354 -3.353709 1.744142,-8.985938 -2.677211 1.936152,-9.54514 -5.693267 1.409206,-9.647931 -4.720134 1.649341,-9.664927 -4.088469 1.852163,-9.653569 -3.477474 1.995685,1.280,Object Grabbed
-0.7159615 -7.501765 -1.672794,-1.05715 -7.49147 -0.7589922,-1.282416 -7.441957 -0.0925324,-1.336727 -7.482444 0.470934,-1.31377 -7.585418 1.060871,-1.260081 -5.827363 -0.5289751,-1.316893 -4.972493 0.1376451,-1.037168 -5.126506 0.6135148,-0.7940221 -5.624223 0.817469,-0.8394074 -5.616506 -0.739912,-0.8757496 -4.576639 -0.004532337,-0.6182761 -4.795318 0.4652549,-0.4779601 -5.313971 0.6901156,-0.48771 -5.683622 -0.867985,-0.4535537 -4.765055 -0.1998556,-0.2513275 -5.059062 0.1807262,-0.1526804 -5.5784 0.3172883,-0.2119617 -5.917772 -0.9590569,0.009036541 -5.296114 -0.4160825,0.2151613 -5.410138 -0.06990087,0.3102684 -5.728385 0.09697437,-9.200302 -8.153807 0.6622466,-8.62202 -7.811115 1.021971,-8.129611 -7.084735 1.311535,-7.813926 -6.444866 1.640962,-7.532687 -5.987688 1.982383,-8.51534 -5.41101 1.029627,-8.388795 -4.285173 1.301504,-8.307347 -3.595195 1.545629,-8.234447 -3.002347 1.709212,-8.858863 -5.27457 1.116685,-8.775017 -3.940756 1.367515,-8.689385 -3.103045 1.66332,-8.618865 -2.374992 1.88599,-9.194374 -5.382176 1.247893,-9.148971 -4.143323 1.487116,-9.070354 -3.353709 1.744142,-8.985938 -2.677211 1.936152,-9.54514 -5.693267 1.409206,-9.647931 -4.720134 1.649341,-9.664927 -4.088469 1.852163,-9.653569 -3.477474 1.995685,1.300,Object Dropped
-0.6838479 -7.150327 -1.684849,-1.041188 -7.335753 -0.613592,-1.29296 -7.378248 0.1790135,-1.285508 -7.469551 0.809055,-1.199108 -7.534125 1.433221,-1.258762 -5.947956 0.105583,-1.229021 -5.183473 0.9126686,-1.048102 -5.41344 1.468626,-0.8855391 -5.882149 1.764207,-0.8287354 -5.740592 -0.1303523,-0.7775912 -4.746053 0.7619759,-0.5439997 -5.174736 1.31089,-0.4356022 -5.758651 1.612125,-0.446641 -5.761634 -0.3132074,-0.3294287 -4.975127 0.4836375,-0.1228991 -5.460002 0.9811503,-0.04385948 -6.063337 1.233399,-0.1418495 -5.941154 -0.4612315,0.08101845 -5.504978 0.2305559,0.2548285 -5.805841 0.6582199,0.2897482 -6.258 0.9298562,-9.208179 -8.160526 0.6917889,-8.63703 -7.822003 1.037818,-8.148838 -7.106031 1.320261,-7.830616 -6.467292 1.642375,-7.534939 -6.022922 1.973552,-8.533884 -5.418122 1.041683,-8.398663 -4.303325 1.31146,-8.314466 -3.62191 1.557895,-8.24612 -3.029361 1.723816,-8.869125 -5.27139 1.139763,-8.775988 -3.958037 1.390047,-8.687483 -3.12908 1.686502,-8.616442 -2.410815 1.902294,-9.202728 -5.375912 1.28143,-9.151459 -4.142393 1.524508,-9.069576 -3.345605 1.793866,-8.980452 -2.663666 1.991666,-9.557258 -5.687173 1.453486,-9.657828 -4.711671 1.707335,-9.673595 -4.06621 1.924826,-9.657598 -3.439594 2.075162,1.320,DnF
-0.6838479 -7.150327 -1.684849,-1.041188 -7.335753 -0.613592,-1.29296 -7.378248 0.1790135,-1.285508 -7.469551 0.809055,-1.199108 -7.534125 1.433221,-1.258762 -5.947956 0.105583,-1.229021 -5.183473 0.9126686,-1.048102 -5.41344 1.468626,-0.8855391 -5.882149 1.764207,-0.8287354 -5.740592 -0.1303523,-0.7775912 -4.746053 0.7619759,-0.5439997 -5.174736 1.31089,-0.4356022 -5.758651 1.612125,-0.446641 -5.761634 -0.3132074,-0.3294287 -4.975127 0.4836375,-0.1228991 -5.460002 0.9811503,-0.04385948 -6.063337 1.233399,-0.1418495 -5.941154 -0.4612315,0.08101845 -5.504978 0.2305559,0.2548285 -5.805841 0.6582199,0.2897482 -6.258 0.9298562,-9.208179 -8.160526 0.6917889,-8.63703 -7.822003 1.037818,-8.148838 -7.106031 1.320261,-7.830616 -6.467292 1.642375,-7.534939 -6.022922 1.973552,-8.533884 -5.418122 1.041683,-8.398663 -4.303325 1.31146,-8.314466 -3.62191 1.557895,-8.24612 -3.029361 1.723816,-8.869125 -5.27139 1.139763,-8.775988 -3.958037 1.390047,-8.687483 -3.12908 1.686502,-8.616442 -2.410815 1.902294,-9.202728 -5.375912 1.28143,-9.151459 -4.142393 1.524508,-9.069576 -3.345605 1.793866,-8.980452 -2.663666 1.991666,-9.557258 -5.687173 1.453486,-9.657828 -4.711671 1.707335,-9.673595 -4.06621 1.924826,-9.657598 -3.439594 2.075162,1.340,DnF
-0.6838479 -7.150327 -1.684849,-1.041188 -7.335753 -0.613592,-1.29296 -7.378248 0.1790135,-1.285508 -7.469551 0.809055,-1.199108 -7.534125 1.433221,-1.258762 -5.947956 0.105583,-1.229021 -5.183473 0.9126686,-1.048102 -5.41344 1.468626,-0.8855391 -5.882149 1.764207,-0.8287354 -5.740592 -0.1303523,-0.7775912 -4.746053 0.7619759,-0.5439997 -5.174736 1.31089,-0.4356022 -5.758651 1.612125,-0.446641 -5.761634 -0.3132074,-0.3294287 -4.975127 0.4836375,-0.1228991 -5.460002 0.9811503,-0.04385948 -6.063337 1.233399,-0.1418495 -5.941154 -0.4612315,0.08101845 -5.504978 0.2305559,0.2548285 -5.805841 0.6582199,0.2897482 -6.258 0.9298562,-9.208179 -8.160526 0.6917889,-8.63703 -7.822003 1.037818,-8.148838 -7.106031 1.320261,-7.830616 -6.467292 1.642375,-7.534939 -6.022922 1.973552,-8.533884 -5.418122 1.041683,-8.398663 -4.303325 1.31146,-8.314466 -3.62191 1.557895,-8.24612 -3.029361 1.723816,-8.869125 -5.27139 1.139763,-8.775988 -3.958037 1.390047,-8.687483 -3.12908 1.686502,-8.616442 -2.410815 1.902294,-9.202728 -5.375912 1.28143,-9.151459 -4.142393 1.524508,-9.069576 -3.345605 1.793866,-8.980452 -2.663666 1.991666,-9.557258 -5.687173 1.453486,-9.657828 -4.711671 1.707335,-9.673595 -4.06621 1.924826,-9.657598 -3.439594 2.075162,1.360,DnF
-0.6838479 -7.150327 -1.684849,-1.041188 -7.335753 -0.613592,-1.29296 -7.378248 0.1790135,-1.285508 -7.469551 0.809055,-1.199108 -7.534125 1.433221,-1.258762 -5.947956 0.105583,-1.229021 -5.183473 0.9126686,-1.048102 -5.41344 1.468626,-0.8855391 -5.882149 1.764207,-0.8287354 -5.740592 -0.1303523,-0.7775912 -4.746053 0.7619759,-0.5439997 -5.174736 1.31089,-0.4356022 -5.758651 1.612125,-0.446641 -5.761634 -0.3132074,-0.3294287 -4.975127 0.4836375,-0.1228991 -5.460002 0.9811503,-0.04385948 -6.063337 1.233399,-0.1418495 -5.941154 -0.4612315,0.08101845 -5.504978 0.2305559,0.2548285 -5.805841 0.6582199,0.2897482 -6.258 0.9298562,-9.208179 -8.160526 0.6917889,-8.63703 -7.822003 1.037818,-8.148838 -7.106031 1.320261,-7.830616 -6.467292 1.642375,-7.534939 -6.022922 1.973552,-8.533884 -5.418122 1.041683,-8.398663 -4.303325 1.31146,-8.314466 -3.62191 1.557895,-8.24612 -3.029361 1.723816,-8.869125 -5.27139 1.139763,-8.775988 -3.958037 1.390047,-8.687483 -3.12908 1.686502,-8.616442 -2.410815 1.902294,-9.202728 -5.375912 1.28143,-9.151459 -4.142393 1.524508,-9.069576 -3.345605 1.793866,-8.980452 -2.663666 1.991666,-9.557258 -5.687173 1.453486,-9.657828 -4.711671 1.707335,-9.673595 -4.06621 1.924826,-9.657598 -3.439594 2.075162,1.380,DnF
-0.5371819 -6.388643 -1.840743,-0.865695 -6.76378 -0.843648,-1.195109 -6.985231 -0.03651094,-1.208847 -7.293531 0.626765,-0.9970117 -7.511999 1.259702,-1.242497 -5.67773 0.09572721,-1.189658 -5.49911 0.9835579,-1.085899 -5.982931 1.449512,-1.045326 -6.38875 1.636479,-0.8251638 -5.370316 -0.07439673,-0.7352705 -4.948431 0.9288511,-0.6055784 -5.636981 1.363744,-0.615952 -6.072463 1.524735,-0.4281235 -5.340045 -0.1856874,-0.2517486 -5.103033 0.6649785,-0.1770673 -5.894528 0.9382269,-0.2344923 -6.321399 0.9746089,-0.114656 -5.510637 -0.271637,0.1253757 -5.596427 0.3919585,0.167501 -6.170437 0.6381686,0.07948589 -6.561252 0.7417817,-9.224259 -8.177307 0.6772095,-8.642862 -7.848997 1.043041,-8.143812 -7.137599 1.3236,-7.82718 -6.491997 1.640921,-7.542705 -6.03502 1.956604,-8.532663 -5.440544 1.019377,-8.406825 -4.30881 1.292683,-8.325697 -3.610662 1.539838,-8.25645 -3.005928 1.703571,-8.870335 -5.29125 1.10589,-8.784202 -3.976137 1.35734,-8.701624 -3.146074 1.655839,-8.631802 -2.428797 1.869297,-9.205971 -5.389858 1.237632,-9.155952 -4.151168 1.482243,-9.083108 -3.359742 1.754146,-8.998604 -2.681745 1.951554,-9.562324 -5.690264 1.403244,-9.660313 -4.7244 1.654386,-9.681427 -4.080888 1.868996,-9.669104 -3.451512 2.019084,1.400,DnF
-0.5371819 -6.388643 -1.840743,-0.865695 -6.76378 -0.843648,-1.195109 -6.985231 -0.03651094,-1.208847 -7.293531 0.626765,-0.9970117 -7.511999 1.259702,-1.242497 -5.67773 0.09572721,-1.189658 -5.49911 0.9835579,-1.085899 -5.982931 1.449512,-1.045326 -6.38875 1.636479,-0.8251638 -5.370316 -0.07439673,-0.7352705 -4.948431 0.9288511,-0.6055784 -5.636981 1.363744,-0.615952 -6.072463 1.524735,-0.4281235 -5.340045 -0.1856874,-0.2517486 -5.103033 0.6649785,-0.1770673 -5.894528 0.9382269,-0.2344923 -6.321399 0.9746089,-0.114656 -5.510637 -0.271637,0.1253757 -5.596427 0.3919585,0.167501 -6.170437 0.6381686,0.07948589 -6.561252 0.7417817,-9.224259 -8.177307 0.6772095,-8.642862 -7.848997 1.043041,-8.143812 -7.137599 1.3236,-7.82718 -6.491997 1.640921,-7.542705 -6.03502 1.956604,-8.532663 -5.440544 1.019377,-8.406825 -4.30881 1.292683,-8.325697 -3.610662 1.539838,-8.25645 -3.005928 1.703571,-8.870335 -5.29125 1.10589,-8.784202 -3.976137 1.35734,-8.701624 -3.146074 1.655839,-8.631802 -2.428797 1.869297,-9.205971 -5.389858 1.237632,-9.155952 -4.151168 1.482243,-9.083108 -3.359742 1.754146,-8.998604 -2.681745 1.951554,-9.562324 -5.690264 1.403244,-9.660313 -4.7244 1.654386,-9.681427 -4.080888 1.868996,-9.669104 -3.451512 2.019084,1.420,Object Grabbed
-0.5371819 -6.388643 -1.840743,-0.865695 -6.76378 -0.843648,-1.195109 -6.985231 -0.03651094,-1.208847 -7.293531 0.626765,-0.9970117 -7.511999 1.259702,-1.242497 -5.67773 0.09572721,-1.189658 -5.49911 0.9835579,-1.085899 -5.982931 1.449512,-1.045326 -6.38875 1.636479,-0.8251638 -5.370316 -0.07439673,-0.7352705 -4.948431 0.9288511,-0.6055784 -5.636981 1.363744,-0.615952 -6.072463 1.524735,-0.4281235 -5.340045 -0.1856874,-0.2517486 -5.103033 0.6649785,-0.1770673 -5.894528 0.9382269,-0.2344923 -6.321399 0.9746089,-0.114656 -5.510637 -0.271637,0.1253757 -5.596427 0.3919585,0.167501 -6.170437 0.6381686,0.07948589 -6.561252 0.7417817,-9.224259 -8.177307 0.6772095,-8.642862 -7.848997 1.043041,-8.143812 -7.137599 1.3236,-7.82718 -6.491997 1.640921,-7.542705 -6.03502 1.956604,-8.532663 -5.440544 1.019377,-8.406825 -4.30881 1.292683,-8.325697 -3.610662 1.539838,-8.25645 -3.005928 1.703571,-8.870335 -5.29125 1.10589,-8.784202 -3.976137 1.35734,-8.701624 -3.146074 1.655839,-8.631802 -2.428797 1.869297,-9.205971 -5.389858 1.237632,-9.155952 -4.151168 1.482243,-9.083108 -3.359742 1.754146,-8.998604 -2.681745 1.951554,-9.562324 -5.690264 1.403244,-9.660313 -4.7244 1.654386,-9.681427 -4.080888 1.868996,-9.669104 -3.451512 2.019084,1.440,DnF
-0.6736679 -8.018467 -0.01041258,-1.037453 -8.008026 1.070951,-1.283715 -7.78003 1.840473,-1.182944 -7.611124 2.452466,-0.938684 -7.431159 3.054475,-1.108583 -5.92584 1.543065,-1.046765 -5.106082 2.371605,-0.8594041 -5.689115 2.862866,-0.750771 -6.345268 3.045683,-0.6621075 -5.805832 1.320248,-0.5301285 -4.842176 2.262127,-0.3854218 -5.632614 2.844952,-0.3928223 -6.254529 3.07339,-0.2933965 -5.957963 1.131711,-0.08497429 -5.151786 1.933522,0.0172081 -5.830934 2.383506,-0.01881218 -6.343793 2.529119,0.006551743 -6.259025 1.002725,0.2148795 -5.827676 1.576374,0.2599554 -6.202836 1.917783,0.213583 -6.490118 2.040996,-9.232055 -8.193136 0.6630393,-8.654367 -7.857215 1.018919,-8.155559 -7.151185 1.305839,-7.826126 -6.519424 1.632297,-7.527284 -6.073183 1.968318,-8.536965 -5.465591 1.018511,-8.405504 -4.342599 1.290849,-8.321062 -3.652405 1.539133,-8.250863 -3.059034 1.704907,-8.877681 -5.31392 1.109101,-8.783248 -3.997436 1.353133,-8.69374 -3.160952 1.651935,-8.62394 -2.437926 1.874038,-9.215393 -5.414041 1.24347,-9.160668 -4.192411 1.478531,-9.078514 -3.396418 1.745248,-8.990183 -2.714042 1.943855,-9.572116 -5.719657 1.411136,-9.674481 -4.750385 1.654696,-9.692402 -4.109867 1.868323,-9.677961 -3.487596 2.017907,1.460,Right Hand Closed
-0.6736679 -8.018467 -0.01041258,-1.037453 -8.008026 1.070951,-1.283715 -7.78003 1.840473,-1.182944 -7.611124 2.452466,-0.938684 -7.431159 3.054475,-1.108583 -5.92584 1.543065,-1.046765 -5.106082 2.371605,-0.8594041 -5.689115 2.862866,-0.750771 -6.345268 3.045683,-0.6621075 -5.805832 1.320248,-0.5301285 -4.842176 2.262127,-0.3854218 -5.632614 2.844952,-0.3928223 -6.254529 3.07339,-0.2933965 -5.957963 1.131711,-0.08497429 -5.151786 1.933522,0.0172081 -5.830934 2.383506,-0.01881218 -6.343793 2.529119,0.006551743 -6.259025 1.002725,0.2148795 -5.827676 1.576374,0.2599554 -6.202836 1.917783,0.213583 -6.490118 2.040996,-9.232055 -8.193136 0.6630393,-8.654367 -7.857215 1.018919,-8.155559 -7.151185 1.305839,-7.826126 -6.519424 1.632297,-7.527284 -6.073183 1.968318,-8.536965 -5.465591 1.018511,-8.405504 -4.342599 1.290849,-8.321062 -3.652405 1.539133,-8.250863 -3.059034 1.704907,-8.877681 -5.31392 1.109101,-8.783248 -3.997436 1.353133,-8.69374 -3.160952 1.651935,-8.62394 -2.437926 1.874038,-9.215393 -5.414041 1.24347,-9.160668 -4.192411 1.478531,-9.078514 -3.396418 1.745248,-8.990183 -2.714042 1.943855,-9.572116 -5.719657 1.411136,-9.674481 -4.750385 1.654696,-9.692402 -4.109867 1.868323,-9.677961 -3.487596 2.017907,1.480,DnF
-0.6736679 -8.018467 -0.01041258,-1.037453 -8.008026 1.070951,-1.283715 -7.78003 1.840473,-1.182944 -7.611124 2.452466,-0.938684 -7.431159 3.054475,-1.108583 -5.92584 1.543065,-1.046765 -5.106082 2.371605,-0.8594041 -5.689115 2.862866,-0.750771 -6.345268 3.045683,-0.6621075 -5.805832 1.320248,-0.5301285 -4.842176 2.262127,-0.3854218 -5.632614 2.844952,-0.3928223 -6.254529 3.07339,-0.2933965 -5.957963 1.131711,-0.08497429 -5.151786 1.933522,0.0172081 -5.830934 2.383506,-0.01881218 -6.343793 2.529119,0.006551743 -6.259025 1.002725,0.2148795 -5.827676 1.576374,0.2599554 -6.202836 1.917783,0.213583 -6.490118 2.040996,-9.232055 -8.193136 0.6630393,-8.654367 -7.857215 1.018919,-8.155559 -7.151185 1.305839,-7.826126 -6.519424 1.632297,-7.527284 -6.073183 1.968318,-8.536965 -5.465591 1.018511,-8.405504 -4.342599 1.290849,-8.321062 -3.652405 1.539133,-8.250863 -3.059034 1.704907,-8.877681 -5.31392 1.109101,-8.783248 -3.997436 1.353133,-8.69374 -3.160952 1.651935,-8.62394 -2.437926 1.874038,-9.215393 -5.414041 1.24347,-9.160668 -4.192411 1.478531,-9.078514 -3.396418 1.745248,-8.990183 -2.714042 1.943855,-9.572116 -5.719657 1.411136,-9.674481 -4.750385 1.654696,-9.692402 -4.109867 1.868323,-9.677961 -3.487596 2.017907,1.500,Object Dropped
-0.6736679 -8.018467 -0.01041258,-1.037453 -8.008026 1.070951,-1.283715 -7.78003 1.840473,-1.182944 -7.611124 2.452466,-0.938684 -7.431159 3.054475,-1.108583 -5.92584 1.543065,-1.046765 -5.106082 2.371605,-0.8594041 -5.689115 2.862866,-0.750771 -6.345268 3.045683,-0.6621075 -5.805832 1.320248,-0.5301285 -4.842176 2.262127,-0.3854218 -5.632614 2.844952,-0.3928223 -6.254529 3.07339,-0.2933965 -5.957963 1.131711,-0.08497429 -5.151786 1.933522,0.0172081 -5.830934 2.383506,-0.01881218 -6.343793 2.529119,0.006551743 -6.259025 1.002725,0.2148795 -5.827676 1.576374,0.2599554 -6.202836 1.917783,0.213583 -6.490118 2.040996,-9.232055 -8.193136 0.6630393,-8.654367 -7.857215 1.018919,-8.155559 -7.151185 1.305839,-7.826126 -6.519424 1.632297,-7.527284 -6.073183 1.968318,-8.536965 -5.465591 1.018511,-8.405504 -4.342599 1.290849,-8.321062 -3.652405 1.539133,-8.250863 -3.059034 1.704907,-8.877681 -5.31392 1.109101,-8.783248 -3.997436 1.353133,-8.69374 -3.160952 1.651935,-8.62394 -2.437926 1.874038,-9.215393 -5.414041 1.24347,-9.160668 -4.192411 1.478531,-9.078514 -3.396418 1.745248,-8.990183 -2.714042 1.943855,-9.572116 -5.719657 1.411136,-9.674481 -4.750385 1.654696,-9.692402 -4.109867 1.868323,-9.677961 -3.487596 2.017907,1.520,DnF
-0.6455255 -8.04772 -0.5254079,-0.9973688 -8.064196 0.5848465,-1.230803 -7.720872 1.319857,-1.080222 -7.47689 1.922092,-0.7343526 -7.24834 2.410902,-1.025554 -5.954286 0.7980577,-0.8508778 -5.275838 1.77996,-0.7325749 -5.978954 2.255073,-0.7190132 -6.645696 2.34412,-0.5905609 -5.891654 0.6053267,-0.2380018 -4.99402 1.6995,-0.2054577 -5.895206 2.175833,-0.3667622 -6.481859 2.253555,-0.2317338 -6.034687 0.5278776,0.1327991 -5.409935 1.485076,0.0677228 -6.264268 1.80299,-0.120389 -6.731288 1.770938,0.03757477 -6.304745 0.5210614,0.3544536 -5.951017 1.202714,0.3096094 -6.434223 1.474206,0.146678 -6.704332 1.480726,-9.262563 -8.238541 0.6519912,-8.680836 -7.899457 0.9748448,-8.191795 -7.167587 1.236418,-7.871546 -6.525928 1.541081,-7.574281 -6.107824 1.850632,-8.569489 -5.499549 0.9746292,-8.44521 -4.385011 1.216023,-8.366343 -3.702431 1.441643,-8.29692 -3.1176 1.595395,-8.917299 -5.35628 1.063489,-8.834184 -4.03021 1.295534,-8.750553 -3.191832 1.582282,-8.680676 -2.452281 1.802508,-9.254675 -5.456872 1.189214,-9.214155 -4.229762 1.4073,-9.136146 -3.439525 1.647977,-9.048507 -2.760014 1.823733,-9.603234 -5.759328 1.339475,-9.718295 -4.803293 1.565096,-9.741751 -4.181991 1.74823,-9.734017 -3.57635 1.870358,1.540,DnF
-0.6455255 -8.04772 -0.5254079,-0.9973688 -8.064196 0.5848465,-1.230803 -7.720872 1.319857,-1.080222 -7.47689 1.922092,-0.7343526 -7.24834 2.410902,-1.025554 -5.954286 0.7980577,-0.8508778 -5.275838 1.77996,-0.7325749 -5.978954 2.255073,-0.7190132 -6.645696 2.34412,-0.5905609 -5.891654 0.6053267,-0.2380018 -4.99402 1.6995,-0.2054577 -5.895206 2.175833,-0.3667622 -6.481859 2.253555,-0.2317338 -6.034687 0.5278776,0.1327991 -5.409935 1.485076,0.0677228 -6.264268 1.80299,-0.120389 -6.731288 1.770938,0.03757477 -6.304745 0.5210614,0.3544536 -5.951017 1.202714,0.3096094 -6.434223 1.474206,0.146678 -6.704332 1.480726,-9.262563 -8.238541 0.6519912,-8.680836 -7.899457 0.9748448,-8.191795 -7.167587 1.236418,-7.871546 -6.525928 1.541081,-7.574281 -6.107824 1.850632,-8.569489 -5.499549 0.9746292,-8.44521 -4.385011 1.216023,-8.366343 -3.702431 1.441643,-8.29692 -3.1176 1.595395,-8.917299 -5.35628 1.063489,-8.834184 -4.03021 1.295534,-8.750553 -3.191832 1.582282,-8.680676 -2.452281 1.802508,-9.254675 -5.456872 1.189214,-9.214155 -4.229762 1.4073,-9.136146 -3.439525 1.647977,-9.048507 -2.760014 1.823733,-9.603234 -5.759328 1.339475,-9.718295 -4.803293 1.565096,-9.741751 -4.181991 1.74823,-9.734017 -3.57635 1.870358,1.560,DnF
-0.6455255 -8.04772 -0.5254079,-0.9973688 -8.064196 0.5848465,-1.230803 -7.720872 1.319857,-1.080222 -7.47689 1.922092,-0.7343526 -7.24834 2.410902,-1.025554 -5.954286 0.7980577,-0.8508778 -5.275838 1.77996,-0.7325749 -5.978954 2.255073,-0.7190132 -6.645696 2.34412,-0.5905609 -5.891654 0.6053267,-0.2380018 -4.99402 1.6995,-0.2054577 -5.895206 2.175833,-0.3667622 -6.481859 2.253555,-0.2317338 -6.034687 0.5278776,0.1327991 -5.409935 1.485076,0.0677228 -6.264268 1.80299,-0.120389 -6.731288 1.770938,0.03757477 -6.304745 0.5210614,0.3544536 -5.951017 1.202714,0.3096094 -6.434223 1.474206,0.146678 -6.704332 1.480726,-9.262563 -8.238541 0.6519912,-8.680836 -7.899457 0.9748448,-8.191795 -7.167587 1.236418,-7.871546 -6.525928 1.541081,-7.574281 -6.107824 1.850632,-8.569489 -5.499549 0.9746292,-8.44521 -4.385011 1.216023,-8.366343 -3.702431 1.441643,-8.29692 -3.1176 1.595395,-8.917299 -5.35628 1.063489,-8.834184 -4.03021 1.295534,-8.750553 -3.191832 1.582282,-8.680676 -2.452281 1.802508,-9.254675 -5.456872 1.189214,-9.214155 -4.229762 1.4073,-9.136146 -3.439525 1.647977,-9.048507 -2.760014 1.823733,-9.603234 -5.759328 1.339475,-9.718295 -4.803293 1.565096,-9.741751 -4.181991 1.74823,-9.734017 -3.57635 1.870358,1.580,DnF
-0.5801778 -8.014708 -0.6850889,-0.9214697 -8.080982 0.3852268,-1.143207 -7.757659 1.111467,-1.015361 -7.492344 1.689808,-0.6965346 -7.204877 2.182718,-0.9998493 -5.941555 0.607685,-0.8669662 -5.207798 1.586601,-0.7429752 -5.899804 2.078503,-0.7039781 -6.580313 2.185909,-0.5704288 -5.888282 0.4048998,-0.2333174 -4.937595 1.486922,-0.1739249 -5.846499 1.956779,-0.3138142 -6.46861 2.017044,-0.2067494 -6.025467 0.3129135,0.1414452 -5.391487 1.249084,0.1064177 -6.247886 1.59841,-0.06213474 -6.747173 1.588444,0.07855177 -6.281147 0.283226,0.3885527 -5.915176 0.96289,0.3628979 -6.396259 1.271447,0.2093344 -6.689385 1.30669,-9.288901 -8.257717 0.6714166,-8.716997 -7.923653 0.9992476,-8.226404 -7.185666 1.259413,-7.906415 -6.529209 1.560184,-7.614398 -6.079635 1.857813,-8.615743 -5.513198 0.9925067,-8.485457 -4.393187 1.230679,-8.401628 -3.700279 1.45195,-8.332073 -3.109901 1.606741,-8.954415 -5.367407 1.074859,-8.868701 -4.036111 1.293447,-8.784433 -3.203212 1.570824,-8.715577 -2.483337 1.78487,-9.288293 -5.47016 1.197287,-9.244564 -4.235204 1.407109,-9.172855 -3.451294 1.647787,-9.096419 -2.78251 1.829558,-9.634789 -5.777788 1.34501,-9.745924 -4.813865 1.564807,-9.772817 -4.192913 1.755339,-9.769744 -3.594506 1.885204,1.600,DnF
-0.5801778 -8.014708 -0.6850889,-0.9214697 -8.080982 0.3852268,-1.143207 -7.757659 1.111467,-1.015361 -7.492344 1.689808,-0.6965346 -7.204877 2.182718,-0.9998493 -5.941555 0.607685,-0.8669662 -5.207798 1.586601,-0.7429752 -5.899804 2.078503,-0.7039781 -6.580313 2.185909,-0.5704288 -5.888282 0.4048998,-0.2333174 -4.937595 1.486922,-0.1739249 -5.846499 1.956779,-0.3138142 -6.46861 2.017044,-0.2067494 -6.025467 0.3129135,0.1414452 -5.391487 1.249084,0.1064177 -6.247886 1.59841,-0.06213474 -6.747173 1.588444,0.07855177 -6.281147 0.283226,0.3885527 -5.915176 0.96289,0.3628979 -6.396259 1.271447,0.2093344 -6.689385 1.30669,-9.288901 -8.257717 0.6714166,-8.716997 -7.923653 0.9992476,-8.226404 -7.185666 1.259413,-7.906415 -6.529209 1.560184,-7.614398 -6.079635 1.857813,-8.615743 -5.513198 0.9925067,-8.485457 -4.393187 1.230679,-8.401628 -3.700279 1.45195,-8.332073 -3.109901 1.606741,-8.954415 -5.367407 1.074859,-8.868701 -4.036111 1.293447,-8.784433 -3.203212 1.570824,-8.715577 -2.483337 1.78487,-9.288293 -5.47016 1.197287,-9.244564 -4.235204 1.407109,-9.172855 -3.451294 1.647787,-9.096419 -2.78251 1.829558,-9.634789 -5.777788 1.34501,-9.745924 -4.813865 1.564807,-9.772817 -4.192913 1.755339,-9.769744 -3.594506 1.885204,1.620,DnF
-0.5801778 -8.014708 -0.6850889,-0.9214697 -8.080982 0.3852268,-1.143207 -7.757659 1.111467,-1.015361 -7.492344 1.689808,-0.6965346 -7.204877 2.182718,-0.9998493 -5.941555 0.607685,-0.8669662 -5.207798 1.586601,-0.7429752 -5.899804 2.078503,-0.7039781 -6.580313 2.185909,-0.5704288 -5.888282 0.4048998,-0.2333174 -4.937595 1.486922,-0.1739249 -5.846499 1.956779,-0.3138142 -6.46861 2.017044,-0.2067494 -6.025467 0.3129135,0.1414452 -5.391487 1.249084,0.1064177 -6.247886 1.59841,-0.06213474 -6.747173 1.588444,0.07855177 -6.281147 0.283226,0.3885527 -5.915176 0.96289,0.3628979 -6.396259 1.271447,0.2093344 -6.689385 1.30669,-9.288901 -8.257717 0.6714166,-8.716997 -7.923653 0.9992476,-8.226404 -7.185666 1.259413,-7.906415 -6.529209 1.560184,-7.614398 -6.079635 1.857813,-8.615743 -5.513198 0.9925067,-8.485457 -4.393187 1.230679,-8.401628 -3.700279 1.45195,-8.332073 -3.109901 1.606741,-8.954415 -5.367407 1.074859,-8.868701 -4.036111 1.293447,-8.784433 -3.203212 1.570824,-8.715577 -2.483337 1.78487,-9.288293 -5.47016 1.197287,-9.244564 -4.235204 1.407109,-9.172855 -3.451294 1.647787,-9.096419 -2.78251 1.829558,-9.634789 -5.777788 1.34501,-9.745924 -4.813865 1.564807,-9.772817 -4.192913 1.755339,-9.769744 -3.594506 1.885204,1.640,DnF
