TiagoOliveira98/HandTracking/DataLogging/JointData/Logs(1642643938)_Tooo_Calculator.csv
WRIST,THUMB_CMC,THUMB_MCP,THUMB_IP,THUMB_TIP,INDEX_FINGER_MCP,INDEX_FINGER_PIP,INDEX_FINGER_DIP,INDEX_FINGER_TIP,MIDDLE_FINGER_MCP,MIDDLE_FINGER_PIP,MIDDLE_FINGER_DIP,MIDDLE_FINGER_TIP,RING_FINGER_MCP,RING_FINGER_PIP,RING_FINGER_DIP,RING_FINGER_TIP,PINKY_MCP,PINKY_PIP,PINKY_DIP,PINKY_TIP,WRIST2,THUMB_CMC2,THUMB_MCP2,THUMB_IP2,THUMB_TIP2,INDEX_FINGER_MCP2,INDEX_FINGER_PIP2,INDEX_FINGER_DIP2,INDEX_FINGER_TIP2,MIDDLE_FINGER_MCP2,MIDDLE_FINGER_PIP2,MIDDLE_FINGER_DIP2,MIDDLE_FINGER_TIP2,RING_FINGER_MCP2,RING_FINGER_PIP2,RING_FINGER_DIP2,RING_FINGER_TIP2,PINKY_MCP2,PINKY_PIP2,PINKY_DIP2,PINKY_TIP2,Timestamp,Event
10 0 0,10 7.47 0,10 7.47 0,10 7.47 0,10 7.47 0,10 7.47 0,10 7.47 0,10 7.47 0,10 7.47 0,10 7.47 0,10 7.47 0,10 7.47 0,10 7.47 0,10 7.47 0,10 7.47 0,10 7.47 0,10 7.47 0,10 7.47 0,10 7.47 0,10 7.47 0,10 7.47 0,10 0 0,10 7.47 0,10 7.47 0,10 7.47 0,10 7.47 0,10 7.47 0,10 7.47 0,10 7.47 0,10 7.47 0,10 7.47 0,10 7.47 0,10 7.47 0,10 7.47 0,10 7.47 0,10 7.47 0,10 7.47 0,10 7.47 0,10 7.47 0,10 7.47 0,10 7.47 0,10 7.47 0,0.010,
2 0 -9.576748,2 0 -9.576748,2 0 -9.576748,2 0 -9.576748,2 0 -9.576748,2 0 -9.576748,2 0 -9.576748,2 0 -9.576748,2 0 -9.576748,2 0 -9.576748,2 0 -9.576748,2 0 -9.576748,2 0 -9.576748,2 0 -9.576748,2 0 -9.576748,2 0 -9.576748,2 0 -9.576748,2 0 -9.576748,2 0 -9.576748,2 0 -9.576748,2 0 -9.576748,2 0 -11.69374,2 0 -11.69374,2 0 -11.69374,2 0 -11.69374,2 0 -11.69374,2 0 -11.69374,2 0 -11.69374,2 0 -11.69374,2 0 -11.69374,2 0 -11.69374,2 0 -11.69374,2 0 -11.69374,2 0 -11.69374,2 0 -11.69374,2 0 -11.69374,2 0 -11.69374,2 0 -11.69374,2 0 -11.69374,2 0 -11.69374,2 0 -11.69374,2 0 -11.69374,0.110,
2 0 -9.576748,2 0 -9.576748,2 0 -9.576748,2 0 -9.576748,2 0 -9.576748,2 0 -9.576748,2 0 -9.576748,2 0 -9.576748,2 0 -9.576748,2 0 -9.576748,2 0 -9.576748,2 0 -9.576748,2 0 -9.576748,2 0 -9.576748,2 0 -9.576748,2 0 -9.576748,2 0 -9.576748,2 0 -9.576748,2 0 -9.576748,2 0 -9.576748,2 0 -9.576748,2 0 -11.69374,2 0 -11.69374,2 0 -11.69374,2 0 -11.69374,2 0 -11.69374,2 0 -11.69374,2 0 -11.69374,2 0 -11.69374,2 0 -11.69374,2 0 -11.69374,2 0 -11.69374,2 0 -11.69374,2 0 -11.69374,2 0 -11.69374,2 0 -11.69374,2 0 -11.69374,2 0 -11.69374,2 0 -11.69374,2 0 -11.69374,2 0 -11.69374,2 0 -11.69374,0.210,
2 0 -9.576748,2 0 -9.576748,2 0 -9.576748,2 0 -9.576748,2 0 -9.576748,2 0 -9.576748,2 0 -9.576748,2 0 -9.576748,2 0 -9.576748,2 0 -9.576748,2 0 -9.576748,2 0 -9.576748,2 0 -9.576748,2 0 -9.576748,2 0 -9.576748,2 0 -9.576748,2 0 -9.576748,2 0 -9.576748,2 0 -9.576748,2 0 -9.576748,2 0 -9.576748,2 0 -11.69374,2 0 -11.69374,2 0 -11.69374,2 0 -11.69374,2 0 -11.69374,2 0 -11.69374,2 0 -11.69374,2 0 -11.69374,2 0 -11.69374,2 0 -11.69374,2 0 -11.69374,2 0 -11.69374,2 0 -11.69374,2 0 -11.69374,2 0 -11.69374,2 0 -11.69374,2 0 -11.69374,2 0 -11.69374,2 0 -11.69374,2 0 -11.69374,2 0 -11.69374,0.310,
2 0 -9.576748,2 0 -9.576748,2 0 -9.576748,2 0 -9.576748,2 0 -9.576748,2 0 -9.576748,2 0 -9.576748,2 0 -9.576748,2 0 -9.576748,2 0 -9.576748,2 0 -9.576748,2 0 -9.576748,2 0 -9.576748,2 0 -9.576748,2 0 -9.576748,2 0 -9.576748,2 0 -9.576748,2 0 -9.576748,2 0 -9.576748,2 0 -9.576748,2 0 -9.576748,2 0 -11.69374,2 0 -11.69374,2 0 -11.69374,2 0 -11.69374,2 0 -11.69374,2 0 -11.69374,2 0 -11.69374,2 0 -11.69374,2 0 -11.69374,2 0 -11.69374,2 0 -11.69374,2 0 -11.69374,2 0 -11.69374,2 0 -11.69374,2 0 -11.69374,2 0 -11.69374,2 0 -11.69374,2 0 -11.69374,2 0 -11.69374,2 0 -11.69374,2 0 -11.69374,0.410,
2 0 -9.576748,2 0 -9.576748,2 0 -9.576748,2 0 -9.576748,2 0 -9.576748,2 0 -9.576748,2 0 -9.576748,2 0 -9.576748,2 0 -9.576748,2 0 -9.576748,2 0 -9.576748,2 0 -9.576748,2 0 -9.576748,2 0 -9.576748,2 0 -9.576748,2 0 -9.576748,2 0 -9.576748,2 0 -9.576748,2 0 -9.576748,2 0 -9.576748,2 0 -9.576748,2 0 -11.69374,2 0 -11.69374,2 0 -11.69374,2 0 -11.69374,2 0 -11.69374,2 0 -11.69374,2 0 -11.69374,2 0 -11.69374,2 0 -11.69374,2 0 -11.69374,2 0 -11.69374,2 0 -11.69374,2 0 -11.69374,2 0 -11.69374,2 0 -11.69374,2 0 -11.69374,2 0 -11.69374,2 0 -11.69374,2 0 -11.69374,2 0 -11.69374,2 0 -11.69374,0.510,
2 0 -9.576748,2 0 -9.576748,2 0 -9.576748,2 0 -9.576748,2 0 -9.576748,2 0 -9.576748,2 0 -9.576748,2 0 -9.576748,2 0 -9.576748,2 0 -9.576748,2 0 -9.576748,2 0 -9.576748,2 0 -9.576748,2 0 -9.576748,2 0 -9.576748,2 0 -9.576748,2 0 -9.576748,2 0 -9.576748,2 0 -9.576748,2 0 -9.576748,2 0 -9.576748,2 0 -11.69374,2 0 -11.69374,2 0 -11.69374,2 0 -11.69374,2 0 -11.69374,2 0 -11.69374,2 0 -11.69374,2 0 -11.69374,2 0 -11.69374,2 0 -11.69374,2 0 -11.69374,2 0 -11.69374,2 0 -11.69374,2 0 -11.69374,2 0 -11.69374,2 0 -11.69374,2 0 -11.69374,2 0 -11.69374,2 0 -11.69374,2 0 -11.69374,2 0 -11.69374,0.610,
2 0 -9.576748,2 0 -9.576748,2 0 -9.576748,2 0 -9.576748,2 0 -9.576748,2 0 -9.576748,2 0 -9.576748,2 0 -9.576748,2 0 -9.576748,2 0 -9.576748,2 0 -9.576748,2 0 -9.576748,2 0 -9.576748,2 0 -9.576748,2 0 -9.576748,2 0 -9.576748,2 0 -9.576748,2 0 -9.576748,2 0 -9.576748,2 0 -9.576748,2 0 -9.576748,2 0 -11.69374,2 0 -11.69374,2 0 -11.69374,2 0 -11.69374,2 0 -11.69374,2 0 -11.69374,2 0 -11.69374,2 0 -11.69374,2 0 -11.69374,2 0 -11.69374,2 0 -11.69374,2 0 -11.69374,2 0 -11.69374,2 0 -11.69374,2 0 -11.69374,2 0 -11.69374,2 0 -11.69374,2 0 -11.69374,2 0 -11.69374,2 0 -11.69374,2 0 -11.69374,0.710,
2 0 -9.576748,2 0 -9.576748,2 0 -9.576748,2 0 -9.576748,2 0 -9.576748,2 0 -9.576748,2 0 -9.576748,2 0 -9.576748,2 0 -9.576748,2 0 -9.576748,2 0 -9.576748,2 0 -9.576748,2 0 -9.576748,2 0 -9.576748,2 0 -9.576748,2 0 -9.576748,2 0 -9.576748,2 0 -9.576748,2 0 -9.576748,2 0 -9.576748,2 0 -9.576748,2 0 -11.69374,2 0 -11.69374,2 0 -11.69374,2 0 -11.69374,2 0 -11.69374,2 0 -11.69374,2 0 -11.69374,2 0 -11.69374,2 0 -11.69374,2 0 -11.69374,2 0 -11.69374,2 0 -11.69374,2 0 -11.69374,2 0 -11.69374,2 0 -11.69374,2 0 -11.69374,2 0 -11.69374,2 0 -11.69374,2 0 -11.69374,2 0 -11.69374,2 0 -11.69374,0.810,
2 0 -9.576748,2 0 -9.576748,2 0 -9.576748,2 0 -9.576748,2 0 -9.576748,2 0 -9.576748,2 0 -9.576748,2 0 -9.576748,2 0 -9.576748,2 0 -9.576748,2 0 -9.576748,2 0 -9.576748,2 0 -9.576748,2 0 -9.576748,2 0 -9.576748,2 0 -9.576748,2 0 -9.576748,2 0 -9.576748,2 0 -9.576748,2 0 -9.576748,2 0 -9.576748,2 0 -11.69374,2 0 -11.69374,2 0 -11.69374,2 0 -11.69374,2 0 -11.69374,2 0 -11.69374,2 0 -11.69374,2 0 -11.69374,2 0 -11.69374,2 0 -11.69374,2 0 -11.69374,2 0 -11.69374,2 0 -11.69374,2 0 -11.69374,2 0 -11.69374,2 0 -11.69374,2 0 -11.69374,2 0 -11.69374,2 0 -11.69374,2 0 -11.69374,2 0 -11.69374,0.910,
2 0 -9.576748,2 0 -9.576748,2 0 -9.576748,2 0 -9.576748,2 0 -9.576748,2 0 -9.576748,2 0 -9.576748,2 0 -9.576748,2 0 -9.576748,2 0 -9.576748,2 0 -9.576748,2 0 -9.576748,2 0 -9.576748,2 0 -9.576748,2 0 -9.576748,2 0 -9.576748,2 0 -9.576748,2 0 -9.576748,2 0 -9.576748,2 0 -9.576748,2 0 -9.576748,2 0 -11.69374,2 0 -11.69374,2 0 -11.69374,2 0 -11.69374,2 0 -11.69374,2 0 -11.69374,2 0 -11.69374,2 0 -11.69374,2 0 -11.69374,2 0 -11.69374,2 0 -11.69374,2 0 -11.69374,2 0 -11.69374,2 0 -11.69374,2 0 -11.69374,2 0 -11.69374,2 0 -11.69374,2 0 -11.69374,2 0 -11.69374,2 0 -11.69374,2 0 -11.69374,1.010,
2 0 -9.576748,2 0 -9.576748,2 0 -9.576748,2 0 -9.576748,2 0 -9.576748,2 0 -9.576748,2 0 -9.576748,2 0 -9.576748,2 0 -9.576748,2 0 -9.576748,2 0 -9.576748,2 0 -9.576748,2 0 -9.576748,2 0 -9.576748,2 0 -9.576748,2 0 -9.576748,2 0 -9.576748,2 0 -9.576748,2 0 -9.576748,2 0 -9.576748,2 0 -9.576748,2 0 -11.69374,2 0 -11.69374,2 0 -11.69374,2 0 -11.69374,2 0 -11.69374,2 0 -11.69374,2 0 -11.69374,2 0 -11.69374,2 0 -11.69374,2 0 -11.69374,2 0 -11.69374,2 0 -11.69374,2 0 -11.69374,2 0 -11.69374,2 0 -11.69374,2 0 -11.69374,2 0 -11.69374,2 0 -11.69374,2 0 -11.69374,2 0 -11.69374,2 0 -11.69374,1.110,
2 0 -9.576748,2 0 -9.576748,2 0 -9.576748,2 0 -9.576748,2 0 -9.576748,2 0 -9.576748,2 0 -9.576748,2 0 -9.576748,2 0 -9.576748,2 0 -9.576748,2 0 -9.576748,2 0 -9.576748,2 0 -9.576748,2 0 -9.576748,2 0 -9.576748,2 0 -9.576748,2 0 -9.576748,2 0 -9.576748,2 0 -9.576748,2 0 -9.576748,2 0 -9.576748,2 0 -11.69374,2 0 -11.69374,2 0 -11.69374,2 0 -11.69374,2 0 -11.69374,2 0 -11.69374,2 0 -11.69374,2 0 -11.69374,2 0 -11.69374,2 0 -11.69374,2 0 -11.69374,2 0 -11.69374,2 0 -11.69374,2 0 -11.69374,2 0 -11.69374,2 0 -11.69374,2 0 -11.69374,2 0 -11.69374,2 0 -11.69374,2 0 -11.69374,2 0 -11.69374,1.210,
2 0 -9.576748,2 0 -9.576748,2 0 -9.576748,2 0 -9.576748,2 0 -9.576748,2 0 -9.576748,2 0 -9.576748,2 0 -9.576748,2 0 -9.576748,2 0 -9.576748,2 0 -9.576748,2 0 -9.576748,2 0 -9.576748,2 0 -9.576748,2 0 -9.576748,2 0 -9.576748,2 0 -9.576748,2 0 -9.576748,2 0 -9.576748,2 0 -9.576748,2 0 -9.576748,2 0 -11.69374,2 0 -11.69374,2 0 -11.69374,2 0 -11.69374,2 0 -11.69374,2 0 -11.69374,2 0 -11.69374,2 0 -11.69374,2 0 -11.69374,2 0 -11.69374,2 0 -11.69374,2 0 -11.69374,2 0 -11.69374,2 0 -11.69374,2 0 -11.69374,2 0 -11.69374,2 0 -11.69374,2 0 -11.69374,2 0 -11.69374,2 0 -11.69374,2 0 -11.69374,1.310,
2 0 -9.576748,2 0 -9.576748,2 0 -9.576748,2 0 -9.576748,2 0 -9.576748,2 0 -9.576748,2 0 -9.576748,2 0 -9.576748,2 0 -9.576748,2 0 -9.576748,2 0 -9.576748,2 0 -9.576748,2 0 -9.576748,2 0 -9.576748,2 0 -9.576748,2 0 -9.576748,2 0 -9.576748,2 0 -9.576748,2 0 -9.576748,2 0 -9.576748,2 0 -9.576748,2 0 -11.69374,2 0 -11.69374,2 0 -11.69374,2 0 -11.69374,2 0 -11.69374,2 0 -11.69374,2 0 -11.69374,2 0 -11.69374,2 0 -11.69374,2 0 -11.69374,2 0 -11.69374,2 0 -11.69374,2 0 -11.69374,2 0 -11.69374,2 0 -11.69374,2 0 -11.69374,2 0 -11.69374,2 0 -11.69374,2 0 -11.69374,2 0 -11.69374,2 0 -11.69374,1.410,
2 0 -9.576748,2 0 -9.576748,2 0 -9.576748,2 0 -9.576748,2 0 -9.576748,2 0 -9.576748,2 0 -9.576748,2 0 -9.576748,2 0 -9.576748,2 0 -9.576748,2 0 -9.576748,2 0 -9.576748,2 0 -9.576748,2 0 -9.576748,2 0 -9.576748,2 0 -9.576748,2 0 -9.576748,2 0 -9.576748,2 0 -9.576748,2 0 -9.576748,2 0 -9.576748,2 0 -11.69374,2 0 -11.69374,2 0 -11.69374,2 0 -11.69374,2 0 -11.69374,2 0 -11.69374,2 0 -11.69374,2 0 -11.69374,2 0 -11.69374,2 0 -11.69374,2 0 -11.69374,2 0 -11.69374,2 0 -11.69374,2 0 -11.69374,2 0 -11.69374,2 0 -11.69374,2 0 -11.69374,2 0 -11.69374,2 0 -11.69374,2 0 -11.69374,2 0 -11.69374,1.510,
2 0 -9.576748,2 0 -9.576748,2 0 -9.576748,2 0 -9.576748,2 0 -9.576748,2 0 -9.576748,2 0 -9.576748,2 0 -9.576748,2 0 -9.576748,2 0 -9.576748,2 0 -9.576748,2 0 -9.576748,2 0 -9.576748,2 0 -9.576748,2 0 -9.576748,2 0 -9.576748,2 0 -9.576748,2 0 -9.576748,2 0 -9.576748,2 0 -9.576748,2 0 -9.576748,2 0 -11.69374,2 0 -11.69374,2 0 -11.69374,2 0 -11.69374,2 0 -11.69374,2 0 -11.69374,2 0 -11.69374,2 0 -11.69374,2 0 -11.69374,2 0 -11.69374,2 0 -11.69374,2 0 -11.69374,2 0 -11.69374,2 0 -11.69374,2 0 -11.69374,2 0 -11.69374,2 0 -11.69374,2 0 -11.69374,2 0 -11.69374,2 0 -11.69374,2 0 -11.69374,1.610,
2 0 -9.576748,2 0 -9.576748,2 0 -9.576748,2 0 -9.576748,2 0 -9.576748,2 0 -9.576748,2 0 -9.576748,2 0 -9.576748,2 0 -9.576748,2 0 -9.576748,2 0 -9.576748,2 0 -9.576748,2 0 -9.576748,2 0 -9.576748,2 0 -9.576748,2 0 -9.576748,2 0 -9.576748,2 0 -9.576748,2 0 -9.576748,2 0 -9.576748,2 0 -9.576748,2 0 -11.69374,2 0 -11.69374,2 0 -11.69374,2 0 -11.69374,2 0 -11.69374,2 0 -11.69374,2 0 -11.69374,2 0 -11.69374,2 0 -11.69374,2 0 -11.69374,2 0 -11.69374,2 0 -11.69374,2 0 -11.69374,2 0 -11.69374,2 0 -11.69374,2 0 -11.69374,2 0 -11.69374,2 0 -11.69374,2 0 -11.69374,2 0 -11.69374,2 0 -11.69374,1.710,
2 0 -9.576748,2 0 -9.576748,2 0 -9.576748,2 0 -9.576748,2 0 -9.576748,2 0 -9.576748,2 0 -9.576748,2 0 -9.576748,2 0 -9.576748,2 0 -9.576748,2 0 -9.576748,2 0 -9.576748,2 0 -9.576748,2 0 -9.576748,2 0 -9.576748,2 0 -9.576748,2 0 -9.576748,2 0 -9.576748,2 0 -9.576748,2 0 -9.576748,2 0 -9.576748,2 0 -11.69374,2 0 -11.69374,2 0 -11.69374,2 0 -11.69374,2 0 -11.69374,2 0 -11.69374,2 0 -11.69374,2 0 -11.69374,2 0 -11.69374,2 0 -11.69374,2 0 -11.69374,2 0 -11.69374,2 0 -11.69374,2 0 -11.69374,2 0 -11.69374,2 0 -11.69374,2 0 -11.69374,2 0 -11.69374,2 0 -11.69374,2 0 -11.69374,2 0 -11.69374,1.810,
2 0 -9.576748,2 0 -9.576748,2 0 -9.576748,2 0 -9.576748,2 0 -9.576748,2 0 -9.576748,2 0 -9.576748,2 0 -9.576748,2 0 -9.576748,2 0 -9.576748,2 0 -9.576748,2 0 -9.576748,2 0 -9.576748,2 0 -9.576748,2 0 -9.576748,2 0 -9.576748,2 0 -9.576748,2 0 -9.576748,2 0 -9.576748,2 0 -9.576748,2 0 -9.576748,2 0 -11.69374,2 0 -11.69374,2 0 -11.69374,2 0 -11.69374,2 0 -11.69374,2 0 -11.69374,2 0 -11.69374,2 0 -11.69374,2 0 -11.69374,2 0 -11.69374,2 0 -11.69374,2 0 -11.69374,2 0 -11.69374,2 0 -11.69374,2 0 -11.69374,2 0 -11.69374,2 0 -11.69374,2 0 -11.69374,2 0 -11.69374,2 0 -11.69374,2 0 -11.69374,1.910,
2 0 -9.576748,2 0 -9.576748,2 0 -9.576748,2 0 -9.576748,2 0 -9.576748,2 0 -9.576748,2 0 -9.576748,2 0 -9.576748,2 0 -9.576748,2 0 -9.576748,2 0 -9.576748,2 0 -9.576748,2 0 -9.576748,2 0 -9.576748,2 0 -9.576748,2 0 -9.576748,2 0 -9.576748,2 0 -9.576748,2 0 -9.576748,2 0 -9.576748,2 0 -9.576748,2 0 -11.69374,2 0 -11.69374,2 0 -11.69374,2 0 -11.69374,2 0 -11.69374,2 0 -11.69374,2 0 -11.69374,2 0 -11.69374,2 0 -11.69374,2 0 -11.69374,2 0 -11.69374,2 0 -11.69374,2 0 -11.69374,2 0 -11.69374,2 0 -11.69374,2 0 -11.69374,2 0 -11.69374,2 0 -11.69374,2 0 -11.69374,2 0 -11.69374,2 0 -11.69374,2.010,
2 0 -9.576748,2 0 -9.576748,2 0 -9.576748,2 0 -9.576748,2 0 -9.576748,2 0 -9.576748,2 0 -9.576748,2 0 -9.576748,2 0 -9.576748,2 0 -9.576748,2 0 -9.576748,2 0 -9.576748,2 0 -9.576748,2 0 -9.576748,2 0 -9.576748,2 0 -9.576748,2 0 -9.576748,2 0 -9.576748,2 0 -9.576748,2 0 -9.576748,2 0 -9.576748,2 0 -11.69374,2 0 -11.69374,2 0 -11.69374,2 0 -11.69374,2 0 -11.69374,2 0 -11.69374,2 0 -11.69374,2 0 -11.69374,2 0 -11.69374,2 0 -11.69374,2 0 -11.69374,2 0 -11.69374,2 0 -11.69374,2 0 -11.69374,2 0 -11.69374,2 0 -11.69374,2 0 -11.69374,2 0 -11.69374,2 0 -11.69374,2 0 -11.69374,2 0 -11.69374,2.110,
2 0 -9.576748,2 0 -9.576748,2 0 -9.576748,2 0 -9.576748,2 0 -9.576748,2 0 -9.576748,2 0 -9.576748,2 0 -9.576748,2 0 -9.576748,2 0 -9.576748,2 0 -9.576748,2 0 -9.576748,2 0 -9.576748,2 0 -9.576748,2 0 -9.576748,2 0 -9.576748,2 0 -9.576748,2 0 -9.576748,2 0 -9.576748,2 0 -9.576748,2 0 -9.576748,2 0 -11.69374,2 0 -11.69374,2 0 -11.69374,2 0 -11.69374,2 0 -11.69374,2 0 -11.69374,2 0 -11.69374,2 0 -11.69374,2 0 -11.69374,2 0 -11.69374,2 0 -11.69374,2 0 -11.69374,2 0 -11.69374,2 0 -11.69374,2 0 -11.69374,2 0 -11.69374,2 0 -11.69374,2 0 -11.69374,2 0 -11.69374,2 0 -11.69374,2 0 -11.69374,2.210,
2 0 -9.576748,2 0 -9.576748,2 0 -9.576748,2 0 -9.576748,2 0 -9.576748,2 0 -9.576748,2 0 -9.576748,2 0 -9.576748,2 0 -9.576748,2 0 -9.576748,2 0 -9.576748,2 0 -9.576748,2 0 -9.576748,2 0 -9.576748,2 0 -9.576748,2 0 -9.576748,2 0 -9.576748,2 0 -9.576748,2 0 -9.576748,2 0 -9.576748,2 0 -9.576748,2 0 -11.69374,2 0 -11.69374,2 0 -11.69374,2 0 -11.69374,2 0 -11.69374,2 0 -11.69374,2 0 -11.69374,2 0 -11.69374,2 0 -11.69374,2 0 -11.69374,2 0 -11.69374,2 0 -11.69374,2 0 -11.69374,2 0 -11.69374,2 0 -11.69374,2 0 -11.69374,2 0 -11.69374,2 0 -11.69374,2 0 -11.69374,2 0 -11.69374,2 0 -11.69374,2.310,
2 0 -9.576748,2 0 -9.576748,2 0 -9.576748,2 0 -9.576748,2 0 -9.576748,2 0 -9.576748,2 0 -9.576748,2 0 -9.576748,2 0 -9.576748,2 0 -9.576748,2 0 -9.576748,2 0 -9.576748,2 0 -9.576748,2 0 -9.576748,2 0 -9.576748,2 0 -9.576748,2 0 -9.576748,2 0 -9.576748,2 0 -9.576748,2 0 -9.576748,2 0 -9.576748,2 0 -11.69374,2 0 -11.69374,2 0 -11.69374,2 0 -11.69374,2 0 -11.69374,2 0 -11.69374,2 0 -11.69374,2 0 -11.69374,2 0 -11.69374,2 0 -11.69374,2 0 -11.69374,2 0 -11.69374,2 0 -11.69374,2 0 -11.69374,2 0 -11.69374,2 0 -11.69374,2 0 -11.69374,2 0 -11.69374,2 0 -11.69374,2 0 -11.69374,2 0 -11.69374,2.410,
2 0 -9.576748,2 0 -9.576748,2 0 -9.576748,2 0 -9.576748,2 0 -9.576748,2 0 -9.576748,2 0 -9.576748,2 0 -9.576748,2 0 -9.576748,2 0 -9.576748,2 0 -9.576748,2 0 -9.576748,2 0 -9.576748,2 0 -9.576748,2 0 -9.576748,2 0 -9.576748,2 0 -9.576748,2 0 -9.576748,2 0 -9.576748,2 0 -9.576748,2 0 -9.576748,2 0 -11.69374,2 0 -11.69374,2 0 -11.69374,2 0 -11.69374,2 0 -11.69374,2 0 -11.69374,2 0 -11.69374,2 0 -11.69374,2 0 -11.69374,2 0 -11.69374,2 0 -11.69374,2 0 -11.69374,2 0 -11.69374,2 0 -11.69374,2 0 -11.69374,2 0 -11.69374,2 0 -11.69374,2 0 -11.69374,2 0 -11.69374,2 0 -11.69374,2 0 -11.69374,2.510,
2 0 -9.576748,2 0 -9.576748,2 0 -9.576748,2 0 -9.576748,2 0 -9.576748,2 0 -9.576748,2 0 -9.576748,2 0 -9.576748,2 0 -9.576748,2 0 -9.576748,2 0 -9.576748,2 0 -9.576748,2 0 -9.576748,2 0 -9.576748,2 0 -9.576748,2 0 -9.576748,2 0 -9.576748,2 0 -9.576748,2 0 -9.576748,2 0 -9.576748,2 0 -9.576748,2 0 -11.69374,2 0 -11.69374,2 0 -11.69374,2 0 -11.69374,2 0 -11.69374,2 0 -11.69374,2 0 -11.69374,2 0 -11.69374,2 0 -11.69374,2 0 -11.69374,2 0 -11.69374,2 0 -11.69374,2 0 -11.69374,2 0 -11.69374,2 0 -11.69374,2 0 -11.69374,2 0 -11.69374,2 0 -11.69374,2 0 -11.69374,2 0 -11.69374,2 0 -11.69374,2.610,
2 0 -9.576748,2 0 -9.576748,2 0 -9.576748,2 0 -9.576748,2 0 -9.576748,2 0 -9.576748,2 0 -9.576748,2 0 -9.576748,2 0 -9.576748,2 0 -9.576748,2 0 -9.576748,2 0 -9.576748,2 0 -9.576748,2 0 -9.576748,2 0 -9.576748,2 0 -9.576748,2 0 -9.576748,2 0 -9.576748,2 0 -9.576748,2 0 -9.576748,2 0 -9.576748,2 0 -11.69374,2 0 -11.69374,2 0 -11.69374,2 0 -11.69374,2 0 -11.69374,2 0 -11.69374,2 0 -11.69374,2 0 -11.69374,2 0 -11.69374,2 0 -11.69374,2 0 -11.69374,2 0 -11.69374,2 0 -11.69374,2 0 -11.69374,2 0 -11.69374,2 0 -11.69374,2 0 -11.69374,2 0 -11.69374,2 0 -11.69374,2 0 -11.69374,2 0 -11.69374,2.710,
2 0 -9.576748,2 0 -9.576748,2 0 -9.576748,2 0 -9.576748,2 0 -9.576748,2 0 -9.576748,2 0 -9.576748,2 0 -9.576748,2 0 -9.576748,2 0 -9.576748,2 0 -9.576748,2 0 -9.576748,2 0 -9.576748,2 0 -9.576748,2 0 -9.576748,2 0 -9.576748,2 0 -9.576748,2 0 -9.576748,2 0 -9.576748,2 0 -9.576748,2 0 -9.576748,2 0 -11.69374,2 0 -11.69374,2 0 -11.69374,2 0 -11.69374,2 0 -11.69374,2 0 -11.69374,2 0 -11.69374,2 0 -11.69374,2 0 -11.69374,2 0 -11.69374,2 0 -11.69374,2 0 -11.69374,2 0 -11.69374,2 0 -11.69374,2 0 -11.69374,2 0 -11.69374,2 0 -11.69374,2 0 -11.69374,2 0 -11.69374,2 0 -11.69374,2 0 -11.69374,2.810,
2 0 -9.576748,2 0 -9.576748,2 0 -9.576748,2 0 -9.576748,2 0 -9.576748,2 0 -9.576748,2 0 -9.576748,2 0 -9.576748,2 0 -9.576748,2 0 -9.576748,2 0 -9.576748,2 0 -9.576748,2 0 -9.576748,2 0 -9.576748,2 0 -9.576748,2 0 -9.576748,2 0 -9.576748,2 0 -9.576748,2 0 -9.576748,2 0 -9.576748,2 0 -9.576748,2 0 -11.69374,2 0 -11.69374,2 0 -11.69374,2 0 -11.69374,2 0 -11.69374,2 0 -11.69374,2 0 -11.69374,2 0 -11.69374,2 0 -11.69374,2 0 -11.69374,2 0 -11.69374,2 0 -11.69374,2 0 -11.69374,2 0 -11.69374,2 0 -11.69374,2 0 -11.69374,2 0 -11.69374,2 0 -11.69374,2 0 -11.69374,2 0 -11.69374,2 0 -11.69374,2.910,
2 0 -9.576748,2 0 -9.576748,2 0 -9.576748,2 0 -9.576748,2 0 -9.576748,2 0 -9.576748,2 0 -9.576748,2 0 -9.576748,2 0 -9.576748,2 0 -9.576748,2 0 -9.576748,2 0 -9.576748,2 0 -9.576748,2 0 -9.576748,2 0 -9.576748,2 0 -9.576748,2 0 -9.576748,2 0 -9.576748,2 0 -9.576748,2 0 -9.576748,2 0 -9.576748,2 0 -11.69374,2 0 -11.69374,2 0 -11.69374,2 0 -11.69374,2 0 -11.69374,2 0 -11.69374,2 0 -11.69374,2 0 -11.69374,2 0 -11.69374,2 0 -11.69374,2 0 -11.69374,2 0 -11.69374,2 0 -11.69374,2 0 -11.69374,2 0 -11.69374,2 0 -11.69374,2 0 -11.69374,2 0 -11.69374,2 0 -11.69374,2 0 -11.69374,2 0 -11.69374,3.010,
2 0 -9.576748,2 0 -9.576748,2 0 -9.576748,2 0 -9.576748,2 0 -9.576748,2 0 -9.576748,2 0 -9.576748,2 0 -9.576748,2 0 -9.576748,2 0 -9.576748,2 0 -9.576748,2 0 -9.576748,2 0 -9.576748,2 0 -9.576748,2 0 -9.576748,2 0 -9.576748,2 0 -9.576748,2 0 -9.576748,2 0 -9.576748,2 0 -9.576748,2 0 -9.576748,2 0 -11.69374,2 0 -11.69374,2 0 -11.69374,2 0 -11.69374,2 0 -11.69374,2 0 -11.69374,2 0 -11.69374,2 0 -11.69374,2 0 -11.69374,2 0 -11.69374,2 0 -11.69374,2 0 -11.69374,2 0 -11.69374,2 0 -11.69374,2 0 -11.69374,2 0 -11.69374,2 0 -11.69374,2 0 -11.69374,2 0 -11.69374,2 0 -11.69374,2 0 -11.69374,3.110,
2 0 -9.576748,2 0 -9.576748,2 0 -9.576748,2 0 -9.576748,2 0 -9.576748,2 0 -9.576748,2 0 -9.576748,2 0 -9.576748,2 0 -9.576748,2 0 -9.576748,2 0 -9.576748,2 0 -9.576748,2 0 -9.576748,2 0 -9.576748,2 0 -9.576748,2 0 -9.576748,2 0 -9.576748,2 0 -9.576748,2 0 -9.576748,2 0 -9.576748,2 0 -9.576748,2 0 -11.69374,2 0 -11.69374,2 0 -11.69374,2 0 -11.69374,2 0 -11.69374,2 0 -11.69374,2 0 -11.69374,2 0 -11.69374,2 0 -11.69374,2 0 -11.69374,2 0 -11.69374,2 0 -11.69374,2 0 -11.69374,2 0 -11.69374,2 0 -11.69374,2 0 -11.69374,2 0 -11.69374,2 0 -11.69374,2 0 -11.69374,2 0 -11.69374,2 0 -11.69374,3.210,
2 0 -9.576748,2 0 -9.576748,2 0 -9.576748,2 0 -9.576748,2 0 -9.576748,2 0 -9.576748,2 0 -9.576748,2 0 -9.576748,2 0 -9.576748,2 0 -9.576748,2 0 -9.576748,2 0 -9.576748,2 0 -9.576748,2 0 -9.576748,2 0 -9.576748,2 0 -9.576748,2 0 -9.576748,2 0 -9.576748,2 0 -9.576748,2 0 -9.576748,2 0 -9.576748,2 0 -11.69374,2 0 -11.69374,2 0 -11.69374,2 0 -11.69374,2 0 -11.69374,2 0 -11.69374,2 0 -11.69374,2 0 -11.69374,2 0 -11.69374,2 0 -11.69374,2 0 -11.69374,2 0 -11.69374,2 0 -11.69374,2 0 -11.69374,2 0 -11.69374,2 0 -11.69374,2 0 -11.69374,2 0 -11.69374,2 0 -11.69374,2 0 -11.69374,2 0 -11.69374,3.310,
2 0 -9.576748,2 0 -9.576748,2 0 -9.576748,2 0 -9.576748,2 0 -9.576748,2 0 -9.576748,2 0 -9.576748,2 0 -9.576748,2 0 -9.576748,2 0 -9.576748,2 0 -9.576748,2 0 -9.576748,2 0 -9.576748,2 0 -9.576748,2 0 -9.576748,2 0 -9.576748,2 0 -9.576748,2 0 -9.576748,2 0 -9.576748,2 0 -9.576748,2 0 -9.576748,2 0 -11.69374,2 0 -11.69374,2 0 -11.69374,2 0 -11.69374,2 0 -11.69374,2 0 -11.69374,2 0 -11.69374,2 0 -11.69374,2 0 -11.69374,2 0 -11.69374,2 0 -11.69374,2 0 -11.69374,2 0 -11.69374,2 0 -11.69374,2 0 -11.69374,2 0 -11.69374,2 0 -11.69374,2 0 -11.69374,2 0 -11.69374,2 0 -11.69374,2 0 -11.69374,3.410,
2 0 -9.576748,2 0 -9.576748,2 0 -9.576748,2 0 -9.576748,2 0 -9.576748,2 0 -9.576748,2 0 -9.576748,2 0 -9.576748,2 0 -9.576748,2 0 -9.576748,2 0 -9.576748,2 0 -9.576748,2 0 -9.576748,2 0 -9.576748,2 0 -9.576748,2 0 -9.576748,2 0 -9.576748,2 0 -9.576748,2 0 -9.576748,2 0 -9.576748,2 0 -9.576748,2 0 -11.69374,2 0 -11.69374,2 0 -11.69374,2 0 -11.69374,2 0 -11.69374,2 0 -11.69374,2 0 -11.69374,2 0 -11.69374,2 0 -11.69374,2 0 -11.69374,2 0 -11.69374,2 0 -11.69374,2 0 -11.69374,2 0 -11.69374,2 0 -11.69374,2 0 -11.69374,2 0 -11.69374,2 0 -11.69374,2 0 -11.69374,2 0 -11.69374,2 0 -11.69374,3.510,
2 0 -9.576748,2 0 -9.576748,2 0 -9.576748,2 0 -9.576748,2 0 -9.576748,2 0 -9.576748,2 0 -9.576748,2 0 -9.576748,2 0 -9.576748,2 0 -9.576748,2 0 -9.576748,2 0 -9.576748,2 0 -9.576748,2 0 -9.576748,2 0 -9.576748,2 0 -9.576748,2 0 -9.576748,2 0 -9.576748,2 0 -9.576748,2 0 -9.576748,2 0 -9.576748,2 0 -11.69374,2 0 -11.69374,2 0 -11.69374,2 0 -11.69374,2 0 -11.69374,2 0 -11.69374,2 0 -11.69374,2 0 -11.69374,2 0 -11.69374,2 0 -11.69374,2 0 -11.69374,2 0 -11.69374,2 0 -11.69374,2 0 -11.69374,2 0 -11.69374,2 0 -11.69374,2 0 -11.69374,2 0 -11.69374,2 0 -11.69374,2 0 -11.69374,2 0 -11.69374,3.610,
2 0 -9.576748,2 0 -9.576748,2 0 -9.576748,2 0 -9.576748,2 0 -9.576748,2 0 -9.576748,2 0 -9.576748,2 0 -9.576748,2 0 -9.576748,2 0 -9.576748,2 0 -9.576748,2 0 -9.576748,2 0 -9.576748,2 0 -9.576748,2 0 -9.576748,2 0 -9.576748,2 0 -9.576748,2 0 -9.576748,2 0 -9.576748,2 0 -9.576748,2 0 -9.576748,2 0 -11.69374,2 0 -11.69374,2 0 -11.69374,2 0 -11.69374,2 0 -11.69374,2 0 -11.69374,2 0 -11.69374,2 0 -11.69374,2 0 -11.69374,2 0 -11.69374,2 0 -11.69374,2 0 -11.69374,2 0 -11.69374,2 0 -11.69374,2 0 -11.69374,2 0 -11.69374,2 0 -11.69374,2 0 -11.69374,2 0 -11.69374,2 0 -11.69374,2 0 -11.69374,3.710,
2 0 -9.576748,2 0 -9.576748,2 0 -9.576748,2 0 -9.576748,2 0 -9.576748,2 0 -9.576748,2 0 -9.576748,2 0 -9.576748,2 0 -9.576748,2 0 -9.576748,2 0 -9.576748,2 0 -9.576748,2 0 -9.576748,2 0 -9.576748,2 0 -9.576748,2 0 -9.576748,2 0 -9.576748,2 0 -9.576748,2 0 -9.576748,2 0 -9.576748,2 0 -9.576748,2 0 -11.69374,2 0 -11.69374,2 0 -11.69374,2 0 -11.69374,2 0 -11.69374,2 0 -11.69374,2 0 -11.69374,2 0 -11.69374,2 0 -11.69374,2 0 -11.69374,2 0 -11.69374,2 0 -11.69374,2 0 -11.69374,2 0 -11.69374,2 0 -11.69374,2 0 -11.69374,2 0 -11.69374,2 0 -11.69374,2 0 -11.69374,2 0 -11.69374,2 0 -11.69374,3.810,
2 0 -9.576748,2 0 -9.576748,2 0 -9.576748,2 0 -9.576748,2 0 -9.576748,2 0 -9.576748,2 0 -9.576748,2 0 -9.576748,2 0 -9.576748,2 0 -9.576748,2 0 -9.576748,2 0 -9.576748,2 0 -9.576748,2 0 -9.576748,2 0 -9.576748,2 0 -9.576748,2 0 -9.576748,2 0 -9.576748,2 0 -9.576748,2 0 -9.576748,2 0 -9.576748,2 0 -11.69374,2 0 -11.69374,2 0 -11.69374,2 0 -11.69374,2 0 -11.69374,2 0 -11.69374,2 0 -11.69374,2 0 -11.69374,2 0 -11.69374,2 0 -11.69374,2 0 -11.69374,2 0 -11.69374,2 0 -11.69374,2 0 -11.69374,2 0 -11.69374,2 0 -11.69374,2 0 -11.69374,2 0 -11.69374,2 0 -11.69374,2 0 -11.69374,2 0 -11.69374,3.910,
2 0 -9.576748,2 0 -9.576748,2 0 -9.576748,2 0 -9.576748,2 0 -9.576748,2 0 -9.576748,2 0 -9.576748,2 0 -9.576748,2 0 -9.576748,2 0 -9.576748,2 0 -9.576748,2 0 -9.576748,2 0 -9.576748,2 0 -9.576748,2 0 -9.576748,2 0 -9.576748,2 0 -9.576748,2 0 -9.576748,2 0 -9.576748,2 0 -9.576748,2 0 -9.576748,2 0 -11.69374,2 0 -11.69374,2 0 -11.69374,2 0 -11.69374,2 0 -11.69374,2 0 -11.69374,2 0 -11.69374,2 0 -11.69374,2 0 -11.69374,2 0 -11.69374,2 0 -11.69374,2 0 -11.69374,2 0 -11.69374,2 0 -11.69374,2 0 -11.69374,2 0 -11.69374,2 0 -11.69374,2 0 -11.69374,2 0 -11.69374,2 0 -11.69374,2 0 -11.69374,4.010,
2 0 -9.576748,2 0 -9.576748,2 0 -9.576748,2 0 -9.576748,2 0 -9.576748,2 0 -9.576748,2 0 -9.576748,2 0 -9.576748,2 0 -9.576748,2 0 -9.576748,2 0 -9.576748,2 0 -9.576748,2 0 -9.576748,2 0 -9.576748,2 0 -9.576748,2 0 -9.576748,2 0 -9.576748,2 0 -9.576748,2 0 -9.576748,2 0 -9.576748,2 0 -9.576748,2 0 -11.69374,2 0 -11.69374,2 0 -11.69374,2 0 -11.69374,2 0 -11.69374,2 0 -11.69374,2 0 -11.69374,2 0 -11.69374,2 0 -11.69374,2 0 -11.69374,2 0 -11.69374,2 0 -11.69374,2 0 -11.69374,2 0 -11.69374,2 0 -11.69374,2 0 -11.69374,2 0 -11.69374,2 0 -11.69374,2 0 -11.69374,2 0 -11.69374,2 0 -11.69374,4.110,
2 0 -9.576748,2 0 -9.576748,2 0 -9.576748,2 0 -9.576748,2 0 -9.576748,2 0 -9.576748,2 0 -9.576748,2 0 -9.576748,2 0 -9.576748,2 0 -9.576748,2 0 -9.576748,2 0 -9.576748,2 0 -9.576748,2 0 -9.576748,2 0 -9.576748,2 0 -9.576748,2 0 -9.576748,2 0 -9.576748,2 0 -9.576748,2 0 -9.576748,2 0 -9.576748,2 0 -11.69374,2 0 -11.69374,2 0 -11.69374,2 0 -11.69374,2 0 -11.69374,2 0 -11.69374,2 0 -11.69374,2 0 -11.69374,2 0 -11.69374,2 0 -11.69374,2 0 -11.69374,2 0 -11.69374,2 0 -11.69374,2 0 -11.69374,2 0 -11.69374,2 0 -11.69374,2 0 -11.69374,2 0 -11.69374,2 0 -11.69374,2 0 -11.69374,2 0 -11.69374,4.210,
2 0 -9.576748,2 0 -9.576748,2 0 -9.576748,2 0 -9.576748,2 0 -9.576748,2 0 -9.576748,2 0 -9.576748,2 0 -9.576748,2 0 -9.576748,2 0 -9.576748,2 0 -9.576748,2 0 -9.576748,2 0 -9.576748,2 0 -9.576748,2 0 -9.576748,2 0 -9.576748,2 0 -9.576748,2 0 -9.576748,2 0 -9.576748,2 0 -9.576748,2 0 -9.576748,2 0 -11.69374,2 0 -11.69374,2 0 -11.69374,2 0 -11.69374,2 0 -11.69374,2 0 -11.69374,2 0 -11.69374,2 0 -11.69374,2 0 -11.69374,2 0 -11.69374,2 0 -11.69374,2 0 -11.69374,2 0 -11.69374,2 0 -11.69374,2 0 -11.69374,2 0 -11.69374,2 0 -11.69374,2 0 -11.69374,2 0 -11.69374,2 0 -11.69374,2 0 -11.69374,4.310,
2 0 -9.576748,2 0 -9.576748,2 0 -9.576748,2 0 -9.576748,2 0 -9.576748,2 0 -9.576748,2 0 -9.576748,2 0 -9.576748,2 0 -9.576748,2 0 -9.576748,2 0 -9.576748,2 0 -9.576748,2 0 -9.576748,2 0 -9.576748,2 0 -9.576748,2 0 -9.576748,2 0 -9.576748,2 0 -9.576748,2 0 -9.576748,2 0 -9.576748,2 0 -9.576748,2 0 -11.69374,2 0 -11.69374,2 0 -11.69374,2 0 -11.69374,2 0 -11.69374,2 0 -11.69374,2 0 -11.69374,2 0 -11.69374,2 0 -11.69374,2 0 -11.69374,2 0 -11.69374,2 0 -11.69374,2 0 -11.69374,2 0 -11.69374,2 0 -11.69374,2 0 -11.69374,2 0 -11.69374,2 0 -11.69374,2 0 -11.69374,2 0 -11.69374,2 0 -11.69374,4.410,
2 0 -9.576748,2 0 -9.576748,2 0 -9.576748,2 0 -9.576748,2 0 -9.576748,2 0 -9.576748,2 0 -9.576748,2 0 -9.576748,2 0 -9.576748,2 0 -9.576748,2 0 -9.576748,2 0 -9.576748,2 0 -9.576748,2 0 -9.576748,2 0 -9.576748,2 0 -9.576748,2 0 -9.576748,2 0 -9.576748,2 0 -9.576748,2 0 -9.576748,2 0 -9.576748,2 0 -11.69374,2 0 -11.69374,2 0 -11.69374,2 0 -11.69374,2 0 -11.69374,2 0 -11.69374,2 0 -11.69374,2 0 -11.69374,2 0 -11.69374,2 0 -11.69374,2 0 -11.69374,2 0 -11.69374,2 0 -11.69374,2 0 -11.69374,2 0 -11.69374,2 0 -11.69374,2 0 -11.69374,2 0 -11.69374,2 0 -11.69374,2 0 -11.69374,2 0 -11.69374,4.510,
2 0 -9.576748,2 0 -9.576748,2 0 -9.576748,2 0 -9.576748,2 0 -9.576748,2 0 -9.576748,2 0 -9.576748,2 0 -9.576748,2 0 -9.576748,2 0 -9.576748,2 0 -9.576748,2 0 -9.576748,2 0 -9.576748,2 0 -9.576748,2 0 -9.576748,2 0 -9.576748,2 0 -9.576748,2 0 -9.576748,2 0 -9.576748,2 0 -9.576748,2 0 -9.576748,2 0 -11.69374,2 0 -11.69374,2 0 -11.69374,2 0 -11.69374,2 0 -11.69374,2 0 -11.69374,2 0 -11.69374,2 0 -11.69374,2 0 -11.69374,2 0 -11.69374,2 0 -11.69374,2 0 -11.69374,2 0 -11.69374,2 0 -11.69374,2 0 -11.69374,2 0 -11.69374,2 0 -11.69374,2 0 -11.69374,2 0 -11.69374,2 0 -11.69374,2 0 -11.69374,4.610,
2 0 -9.576748,2 0 -9.576748,2 0 -9.576748,2 0 -9.576748,2 0 -9.576748,2 0 -9.576748,2 0 -9.576748,2 0 -9.576748,2 0 -9.576748,2 0 -9.576748,2 0 -9.576748,2 0 -9.576748,2 0 -9.576748,2 0 -9.576748,2 0 -9.576748,2 0 -9.576748,2 0 -9.576748,2 0 -9.576748,2 0 -9.576748,2 0 -9.576748,2 0 -9.576748,2 0 -11.69374,2 0 -11.69374,2 0 -11.69374,2 0 -11.69374,2 0 -11.69374,2 0 -11.69374,2 0 -11.69374,2 0 -11.69374,2 0 -11.69374,2 0 -11.69374,2 0 -11.69374,2 0 -11.69374,2 0 -11.69374,2 0 -11.69374,2 0 -11.69374,2 0 -11.69374,2 0 -11.69374,2 0 -11.69374,2 0 -11.69374,2 0 -11.69374,2 0 -11.69374,4.710,
2 0 -9.576748,2 0 -9.576748,2 0 -9.576748,2 0 -9.576748,2 0 -9.576748,2 0 -9.576748,2 0 -9.576748,2 0 -9.576748,2 0 -9.576748,2 0 -9.576748,2 0 -9.576748,2 0 -9.576748,2 0 -9.576748,2 0 -9.576748,2 0 -9.576748,2 0 -9.576748,2 0 -9.576748,2 0 -9.576748,2 0 -9.576748,2 0 -9.576748,2 0 -9.576748,2 0 -11.69374,2 0 -11.69374,2 0 -11.69374,2 0 -11.69374,2 0 -11.69374,2 0 -11.69374,2 0 -11.69374,2 0 -11.69374,2 0 -11.69374,2 0 -11.69374,2 0 -11.69374,2 0 -11.69374,2 0 -11.69374,2 0 -11.69374,2 0 -11.69374,2 0 -11.69374,2 0 -11.69374,2 0 -11.69374,2 0 -11.69374,2 0 -11.69374,2 0 -11.69374,4.810,
2 0 -9.576748,2 0 -9.576748,2 0 -9.576748,2 0 -9.576748,2 0 -9.576748,2 0 -9.576748,2 0 -9.576748,2 0 -9.576748,2 0 -9.576748,2 0 -9.576748,2 0 -9.576748,2 0 -9.576748,2 0 -9.576748,2 0 -9.576748,2 0 -9.576748,2 0 -9.576748,2 0 -9.576748,2 0 -9.576748,2 0 -9.576748,2 0 -9.576748,2 0 -9.576748,2 0 -11.69374,2 0 -11.69374,2 0 -11.69374,2 0 -11.69374,2 0 -11.69374,2 0 -11.69374,2 0 -11.69374,2 0 -11.69374,2 0 -11.69374,2 0 -11.69374,2 0 -11.69374,2 0 -11.69374,2 0 -11.69374,2 0 -11.69374,2 0 -11.69374,2 0 -11.69374,2 0 -11.69374,2 0 -11.69374,2 0 -11.69374,2 0 -11.69374,2 0 -11.69374,4.910,
2 0 -9.576748,2 0 -9.576748,2 0 -9.576748,2 0 -9.576748,2 0 -9.576748,2 0 -9.576748,2 0 -9.576748,2 0 -9.576748,2 0 -9.576748,2 0 -9.576748,2 0 -9.576748,2 0 -9.576748,2 0 -9.576748,2 0 -9.576748,2 0 -9.576748,2 0 -9.576748,2 0 -9.576748,2 0 -9.576748,2 0 -9.576748,2 0 -9.576748,2 0 -9.576748,2 0 -11.69374,2 0 -11.69374,2 0 -11.69374,2 0 -11.69374,2 0 -11.69374,2 0 -11.69374,2 0 -11.69374,2 0 -11.69374,2 0 -11.69374,2 0 -11.69374,2 0 -11.69374,2 0 -11.69374,2 0 -11.69374,2 0 -11.69374,2 0 -11.69374,2 0 -11.69374,2 0 -11.69374,2 0 -11.69374,2 0 -11.69374,2 0 -11.69374,2 0 -11.69374,5.010,
2 0 -9.576748,2 0 -9.576748,2 0 -9.576748,2 0 -9.576748,2 0 -9.576748,2 0 -9.576748,2 0 -9.576748,2 0 -9.576748,2 0 -9.576748,2 0 -9.576748,2 0 -9.576748,2 0 -9.576748,2 0 -9.576748,2 0 -9.576748,2 0 -9.576748,2 0 -9.576748,2 0 -9.576748,2 0 -9.576748,2 0 -9.576748,2 0 -9.576748,2 0 -9.576748,2 0 -11.69374,2 0 -11.69374,2 0 -11.69374,2 0 -11.69374,2 0 -11.69374,2 0 -11.69374,2 0 -11.69374,2 0 -11.69374,2 0 -11.69374,2 0 -11.69374,2 0 -11.69374,2 0 -11.69374,2 0 -11.69374,2 0 -11.69374,2 0 -11.69374,2 0 -11.69374,2 0 -11.69374,2 0 -11.69374,2 0 -11.69374,2 0 -11.69374,2 0 -11.69374,5.110,
2 0 -9.576748,2 0 -9.576748,2 0 -9.576748,2 0 -9.576748,2 0 -9.576748,2 0 -9.576748,2 0 -9.576748,2 0 -9.576748,2 0 -9.576748,2 0 -9.576748,2 0 -9.576748,2 0 -9.576748,2 0 -9.576748,2 0 -9.576748,2 0 -9.576748,2 0 -9.576748,2 0 -9.576748,2 0 -9.576748,2 0 -9.576748,2 0 -9.576748,2 0 -9.576748,2 0 -11.69374,2 0 -11.69374,2 0 -11.69374,2 0 -11.69374,2 0 -11.69374,2 0 -11.69374,2 0 -11.69374,2 0 -11.69374,2 0 -11.69374,2 0 -11.69374,2 0 -11.69374,2 0 -11.69374,2 0 -11.69374,2 0 -11.69374,2 0 -11.69374,2 0 -11.69374,2 0 -11.69374,2 0 -11.69374,2 0 -11.69374,2 0 -11.69374,2 0 -11.69374,5.210,
2 0 -9.576748,2 0 -9.576748,2 0 -9.576748,2 0 -9.576748,2 0 -9.576748,2 0 -9.576748,2 0 -9.576748,2 0 -9.576748,2 0 -9.576748,2 0 -9.576748,2 0 -9.576748,2 0 -9.576748,2 0 -9.576748,2 0 -9.576748,2 0 -9.576748,2 0 -9.576748,2 0 -9.576748,2 0 -9.576748,2 0 -9.576748,2 0 -9.576748,2 0 -9.576748,2 0 -11.69374,2 0 -11.69374,2 0 -11.69374,2 0 -11.69374,2 0 -11.69374,2 0 -11.69374,2 0 -11.69374,2 0 -11.69374,2 0 -11.69374,2 0 -11.69374,2 0 -11.69374,2 0 -11.69374,2 0 -11.69374,2 0 -11.69374,2 0 -11.69374,2 0 -11.69374,2 0 -11.69374,2 0 -11.69374,2 0 -11.69374,2 0 -11.69374,2 0 -11.69374,5.310,
2 0 -9.576748,2 0 -9.576748,2 0 -9.576748,2 0 -9.576748,2 0 -9.576748,2 0 -9.576748,2 0 -9.576748,2 0 -9.576748,2 0 -9.576748,2 0 -9.576748,2 0 -9.576748,2 0 -9.576748,2 0 -9.576748,2 0 -9.576748,2 0 -9.576748,2 0 -9.576748,2 0 -9.576748,2 0 -9.576748,2 0 -9.576748,2 0 -9.576748,2 0 -9.576748,2 0 -11.69374,2 0 -11.69374,2 0 -11.69374,2 0 -11.69374,2 0 -11.69374,2 0 -11.69374,2 0 -11.69374,2 0 -11.69374,2 0 -11.69374,2 0 -11.69374,2 0 -11.69374,2 0 -11.69374,2 0 -11.69374,2 0 -11.69374,2 0 -11.69374,2 0 -11.69374,2 0 -11.69374,2 0 -11.69374,2 0 -11.69374,2 0 -11.69374,2 0 -11.69374,5.410,
2 0 -9.576748,2 0 -9.576748,2 0 -9.576748,2 0 -9.576748,2 0 -9.576748,2 0 -9.576748,2 0 -9.576748,2 0 -9.576748,2 0 -9.576748,2 0 -9.576748,2 0 -9.576748,2 0 -9.576748,2 0 -9.576748,2 0 -9.576748,2 0 -9.576748,2 0 -9.576748,2 0 -9.576748,2 0 -9.576748,2 0 -9.576748,2 0 -9.576748,2 0 -9.576748,2 0 -11.69374,2 0 -11.69374,2 0 -11.69374,2 0 -11.69374,2 0 -11.69374,2 0 -11.69374,2 0 -11.69374,2 0 -11.69374,2 0 -11.69374,2 0 -11.69374,2 0 -11.69374,2 0 -11.69374,2 0 -11.69374,2 0 -11.69374,2 0 -11.69374,2 0 -11.69374,2 0 -11.69374,2 0 -11.69374,2 0 -11.69374,2 0 -11.69374,2 0 -11.69374,5.510,
2 0 -9.576748,2 0 -9.576748,2 0 -9.576748,2 0 -9.576748,2 0 -9.576748,2 0 -9.576748,2 0 -9.576748,2 0 -9.576748,2 0 -9.576748,2 0 -9.576748,2 0 -9.576748,2 0 -9.576748,2 0 -9.576748,2 0 -9.576748,2 0 -9.576748,2 0 -9.576748,2 0 -9.576748,2 0 -9.576748,2 0 -9.576748,2 0 -9.576748,2 0 -9.576748,2 0 -11.69374,2 0 -11.69374,2 0 -11.69374,2 0 -11.69374,2 0 -11.69374,2 0 -11.69374,2 0 -11.69374,2 0 -11.69374,2 0 -11.69374,2 0 -11.69374,2 0 -11.69374,2 0 -11.69374,2 0 -11.69374,2 0 -11.69374,2 0 -11.69374,2 0 -11.69374,2 0 -11.69374,2 0 -11.69374,2 0 -11.69374,2 0 -11.69374,2 0 -11.69374,5.610,
2 0 -9.576748,2 0 -9.576748,2 0 -9.576748,2 0 -9.576748,2 0 -9.576748,2 0 -9.576748,2 0 -9.576748,2 0 -9.576748,2 0 -9.576748,2 0 -9.576748,2 0 -9.576748,2 0 -9.576748,2 0 -9.576748,2 0 -9.576748,2 0 -9.576748,2 0 -9.576748,2 0 -9.576748,2 0 -9.576748,2 0 -9.576748,2 0 -9.576748,2 0 -9.576748,2 0 -11.69374,2 0 -11.69374,2 0 -11.69374,2 0 -11.69374,2 0 -11.69374,2 0 -11.69374,2 0 -11.69374,2 0 -11.69374,2 0 -11.69374,2 0 -11.69374,2 0 -11.69374,2 0 -11.69374,2 0 -11.69374,2 0 -11.69374,2 0 -11.69374,2 0 -11.69374,2 0 -11.69374,2 0 -11.69374,2 0 -11.69374,2 0 -11.69374,2 0 -11.69374,5.710,
2 0 -9.576748,2 0 -9.576748,2 0 -9.576748,2 0 -9.576748,2 0 -9.576748,2 0 -9.576748,2 0 -9.576748,2 0 -9.576748,2 0 -9.576748,2 0 -9.576748,2 0 -9.576748,2 0 -9.576748,2 0 -9.576748,2 0 -9.576748,2 0 -9.576748,2 0 -9.576748,2 0 -9.576748,2 0 -9.576748,2 0 -9.576748,2 0 -9.576748,2 0 -9.576748,2 0 -11.69374,2 0 -11.69374,2 0 -11.69374,2 0 -11.69374,2 0 -11.69374,2 0 -11.69374,2 0 -11.69374,2 0 -11.69374,2 0 -11.69374,2 0 -11.69374,2 0 -11.69374,2 0 -11.69374,2 0 -11.69374,2 0 -11.69374,2 0 -11.69374,2 0 -11.69374,2 0 -11.69374,2 0 -11.69374,2 0 -11.69374,2 0 -11.69374,2 0 -11.69374,5.810,
2 0 -9.576748,2 0 -9.576748,2 0 -9.576748,2 0 -9.576748,2 0 -9.576748,2 0 -9.576748,2 0 -9.576748,2 0 -9.576748,2 0 -9.576748,2 0 -9.576748,2 0 -9.576748,2 0 -9.576748,2 0 -9.576748,2 0 -9.576748,2 0 -9.576748,2 0 -9.576748,2 0 -9.576748,2 0 -9.576748,2 0 -9.576748,2 0 -9.576748,2 0 -9.576748,2 0 -11.69374,2 0 -11.69374,2 0 -11.69374,2 0 -11.69374,2 0 -11.69374,2 0 -11.69374,2 0 -11.69374,2 0 -11.69374,2 0 -11.69374,2 0 -11.69374,2 0 -11.69374,2 0 -11.69374,2 0 -11.69374,2 0 -11.69374,2 0 -11.69374,2 0 -11.69374,2 0 -11.69374,2 0 -11.69374,2 0 -11.69374,2 0 -11.69374,2 0 -11.69374,5.910,
2 0 -9.576748,2 0 -9.576748,2 0 -9.576748,2 0 -9.576748,2 0 -9.576748,2 0 -9.576748,2 0 -9.576748,2 0 -9.576748,2 0 -9.576748,2 0 -9.576748,2 0 -9.576748,2 0 -9.576748,2 0 -9.576748,2 0 -9.576748,2 0 -9.576748,2 0 -9.576748,2 0 -9.576748,2 0 -9.576748,2 0 -9.576748,2 0 -9.576748,2 0 -9.576748,2 0 -11.69374,2 0 -11.69374,2 0 -11.69374,2 0 -11.69374,2 0 -11.69374,2 0 -11.69374,2 0 -11.69374,2 0 -11.69374,2 0 -11.69374,2 0 -11.69374,2 0 -11.69374,2 0 -11.69374,2 0 -11.69374,2 0 -11.69374,2 0 -11.69374,2 0 -11.69374,2 0 -11.69374,2 0 -11.69374,2 0 -11.69374,2 0 -11.69374,2 0 -11.69374,6.010,
2 0 -9.576748,2 0 -9.576748,2 0 -9.576748,2 0 -9.576748,2 0 -9.576748,2 0 -9.576748,2 0 -9.576748,2 0 -9.576748,2 0 -9.576748,2 0 -9.576748,2 0 -9.576748,2 0 -9.576748,2 0 -9.576748,2 0 -9.576748,2 0 -9.576748,2 0 -9.576748,2 0 -9.576748,2 0 -9.576748,2 0 -9.576748,2 0 -9.576748,2 0 -9.576748,2 0 -11.69374,2 0 -11.69374,2 0 -11.69374,2 0 -11.69374,2 0 -11.69374,2 0 -11.69374,2 0 -11.69374,2 0 -11.69374,2 0 -11.69374,2 0 -11.69374,2 0 -11.69374,2 0 -11.69374,2 0 -11.69374,2 0 -11.69374,2 0 -11.69374,2 0 -11.69374,2 0 -11.69374,2 0 -11.69374,2 0 -11.69374,2 0 -11.69374,2 0 -11.69374,6.110,
2 0 -9.576748,2 0 -9.576748,2 0 -9.576748,2 0 -9.576748,2 0 -9.576748,2 0 -9.576748,2 0 -9.576748,2 0 -9.576748,2 0 -9.576748,2 0 -9.576748,2 0 -9.576748,2 0 -9.576748,2 0 -9.576748,2 0 -9.576748,2 0 -9.576748,2 0 -9.576748,2 0 -9.576748,2 0 -9.576748,2 0 -9.576748,2 0 -9.576748,2 0 -9.576748,2 0 -11.69374,2 0 -11.69374,2 0 -11.69374,2 0 -11.69374,2 0 -11.69374,2 0 -11.69374,2 0 -11.69374,2 0 -11.69374,2 0 -11.69374,2 0 -11.69374,2 0 -11.69374,2 0 -11.69374,2 0 -11.69374,2 0 -11.69374,2 0 -11.69374,2 0 -11.69374,2 0 -11.69374,2 0 -11.69374,2 0 -11.69374,2 0 -11.69374,2 0 -11.69374,6.210,
2 0 -9.576748,2 0 -9.576748,2 0 -9.576748,2 0 -9.576748,2 0 -9.576748,2 0 -9.576748,2 0 -9.576748,2 0 -9.576748,2 0 -9.576748,2 0 -9.576748,2 0 -9.576748,2 0 -9.576748,2 0 -9.576748,2 0 -9.576748,2 0 -9.576748,2 0 -9.576748,2 0 -9.576748,2 0 -9.576748,2 0 -9.576748,2 0 -9.576748,2 0 -9.576748,2 0 -11.69374,2 0 -11.69374,2 0 -11.69374,2 0 -11.69374,2 0 -11.69374,2 0 -11.69374,2 0 -11.69374,2 0 -11.69374,2 0 -11.69374,2 0 -11.69374,2 0 -11.69374,2 0 -11.69374,2 0 -11.69374,2 0 -11.69374,2 0 -11.69374,2 0 -11.69374,2 0 -11.69374,2 0 -11.69374,2 0 -11.69374,2 0 -11.69374,2 0 -11.69374,6.310,
2 0 -9.576748,2 0 -9.576748,2 0 -9.576748,2 0 -9.576748,2 0 -9.576748,2 0 -9.576748,2 0 -9.576748,2 0 -9.576748,2 0 -9.576748,2 0 -9.576748,2 0 -9.576748,2 0 -9.576748,2 0 -9.576748,2 0 -9.576748,2 0 -9.576748,2 0 -9.576748,2 0 -9.576748,2 0 -9.576748,2 0 -9.576748,2 0 -9.576748,2 0 -9.576748,2 0 -11.69374,2 0 -11.69374,2 0 -11.69374,2 0 -11.69374,2 0 -11.69374,2 0 -11.69374,2 0 -11.69374,2 0 -11.69374,2 0 -11.69374,2 0 -11.69374,2 0 -11.69374,2 0 -11.69374,2 0 -11.69374,2 0 -11.69374,2 0 -11.69374,2 0 -11.69374,2 0 -11.69374,2 0 -11.69374,2 0 -11.69374,2 0 -11.69374,2 0 -11.69374,6.410,
2 0 -9.576748,2 0 -9.576748,2 0 -9.576748,2 0 -9.576748,2 0 -9.576748,2 0 -9.576748,2 0 -9.576748,2 0 -9.576748,2 0 -9.576748,2 0 -9.576748,2 0 -9.576748,2 0 -9.576748,2 0 -9.576748,2 0 -9.576748,2 0 -9.576748,2 0 -9.576748,2 0 -9.576748,2 0 -9.576748,2 0 -9.576748,2 0 -9.576748,2 0 -9.576748,2 0 -11.69374,2 0 -11.69374,2 0 -11.69374,2 0 -11.69374,2 0 -11.69374,2 0 -11.69374,2 0 -11.69374,2 0 -11.69374,2 0 -11.69374,2 0 -11.69374,2 0 -11.69374,2 0 -11.69374,2 0 -11.69374,2 0 -11.69374,2 0 -11.69374,2 0 -11.69374,2 0 -11.69374,2 0 -11.69374,2 0 -11.69374,2 0 -11.69374,2 0 -11.69374,6.510,
2 0 -9.576748,2 0 -9.576748,2 0 -9.576748,2 0 -9.576748,2 0 -9.576748,2 0 -9.576748,2 0 -9.576748,2 0 -9.576748,2 0 -9.576748,2 0 -9.576748,2 0 -9.576748,2 0 -9.576748,2 0 -9.576748,2 0 -9.576748,2 0 -9.576748,2 0 -9.576748,2 0 -9.576748,2 0 -9.576748,2 0 -9.576748,2 0 -9.576748,2 0 -9.576748,2 0 -11.69374,2 0 -11.69374,2 0 -11.69374,2 0 -11.69374,2 0 -11.69374,2 0 -11.69374,2 0 -11.69374,2 0 -11.69374,2 0 -11.69374,2 0 -11.69374,2 0 -11.69374,2 0 -11.69374,2 0 -11.69374,2 0 -11.69374,2 0 -11.69374,2 0 -11.69374,2 0 -11.69374,2 0 -11.69374,2 0 -11.69374,2 0 -11.69374,2 0 -11.69374,6.610,
2 0 -9.576748,2 0 -9.576748,2 0 -9.576748,2 0 -9.576748,2 0 -9.576748,2 0 -9.576748,2 0 -9.576748,2 0 -9.576748,2 0 -9.576748,2 0 -9.576748,2 0 -9.576748,2 0 -9.576748,2 0 -9.576748,2 0 -9.576748,2 0 -9.576748,2 0 -9.576748,2 0 -9.576748,2 0 -9.576748,2 0 -9.576748,2 0 -9.576748,2 0 -9.576748,2 0 -11.69374,2 0 -11.69374,2 0 -11.69374,2 0 -11.69374,2 0 -11.69374,2 0 -11.69374,2 0 -11.69374,2 0 -11.69374,2 0 -11.69374,2 0 -11.69374,2 0 -11.69374,2 0 -11.69374,2 0 -11.69374,2 0 -11.69374,2 0 -11.69374,2 0 -11.69374,2 0 -11.69374,2 0 -11.69374,2 0 -11.69374,2 0 -11.69374,2 0 -11.69374,6.710,
2 0 -9.576748,2 0 -9.576748,2 0 -9.576748,2 0 -9.576748,2 0 -9.576748,2 0 -9.576748,2 0 -9.576748,2 0 -9.576748,2 0 -9.576748,2 0 -9.576748,2 0 -9.576748,2 0 -9.576748,2 0 -9.576748,2 0 -9.576748,2 0 -9.576748,2 0 -9.576748,2 0 -9.576748,2 0 -9.576748,2 0 -9.576748,2 0 -9.576748,2 0 -9.576748,2 0 -11.69374,2 0 -11.69374,2 0 -11.69374,2 0 -11.69374,2 0 -11.69374,2 0 -11.69374,2 0 -11.69374,2 0 -11.69374,2 0 -11.69374,2 0 -11.69374,2 0 -11.69374,2 0 -11.69374,2 0 -11.69374,2 0 -11.69374,2 0 -11.69374,2 0 -11.69374,2 0 -11.69374,2 0 -11.69374,2 0 -11.69374,2 0 -11.69374,2 0 -11.69374,6.810,
2 0 -9.576748,2 0 -9.576748,2 0 -9.576748,2 0 -9.576748,2 0 -9.576748,2 0 -9.576748,2 0 -9.576748,2 0 -9.576748,2 0 -9.576748,2 0 -9.576748,2 0 -9.576748,2 0 -9.576748,2 0 -9.576748,2 0 -9.576748,2 0 -9.576748,2 0 -9.576748,2 0 -9.576748,2 0 -9.576748,2 0 -9.576748,2 0 -9.576748,2 0 -9.576748,2 0 -11.69374,2 0 -11.69374,2 0 -11.69374,2 0 -11.69374,2 0 -11.69374,2 0 -11.69374,2 0 -11.69374,2 0 -11.69374,2 0 -11.69374,2 0 -11.69374,2 0 -11.69374,2 0 -11.69374,2 0 -11.69374,2 0 -11.69374,2 0 -11.69374,2 0 -11.69374,2 0 -11.69374,2 0 -11.69374,2 0 -11.69374,2 0 -11.69374,2 0 -11.69374,6.910,
2 0 -9.576748,2 0 -9.576748,2 0 -9.576748,2 0 -9.576748,2 0 -9.576748,2 0 -9.576748,2 0 -9.576748,2 0 -9.576748,2 0 -9.576748,2 0 -9.576748,2 0 -9.576748,2 0 -9.576748,2 0 -9.576748,2 0 -9.576748,2 0 -9.576748,2 0 -9.576748,2 0 -9.576748,2 0 -9.576748,2 0 -9.576748,2 0 -9.576748,2 0 -9.576748,2 0 -11.69374,2 0 -11.69374,2 0 -11.69374,2 0 -11.69374,2 0 -11.69374,2 0 -11.69374,2 0 -11.69374,2 0 -11.69374,2 0 -11.69374,2 0 -11.69374,2 0 -11.69374,2 0 -11.69374,2 0 -11.69374,2 0 -11.69374,2 0 -11.69374,2 0 -11.69374,2 0 -11.69374,2 0 -11.69374,2 0 -11.69374,2 0 -11.69374,2 0 -11.69374,7.010,
2 0 -9.576748,2 0 -9.576748,2 0 -9.576748,2 0 -9.576748,2 0 -9.576748,2 0 -9.576748,2 0 -9.576748,2 0 -9.576748,2 0 -9.576748,2 0 -9.576748,2 0 -9.576748,2 0 -9.576748,2 0 -9.576748,2 0 -9.576748,2 0 -9.576748,2 0 -9.576748,2 0 -9.576748,2 0 -9.576748,2 0 -9.576748,2 0 -9.576748,2 0 -9.576748,2 0 -11.69374,2 0 -11.69374,2 0 -11.69374,2 0 -11.69374,2 0 -11.69374,2 0 -11.69374,2 0 -11.69374,2 0 -11.69374,2 0 -11.69374,2 0 -11.69374,2 0 -11.69374,2 0 -11.69374,2 0 -11.69374,2 0 -11.69374,2 0 -11.69374,2 0 -11.69374,2 0 -11.69374,2 0 -11.69374,2 0 -11.69374,2 0 -11.69374,2 0 -11.69374,7.110,
2 0 -9.576748,2 0 -9.576748,2 0 -9.576748,2 0 -9.576748,2 0 -9.576748,2 0 -9.576748,2 0 -9.576748,2 0 -9.576748,2 0 -9.576748,2 0 -9.576748,2 0 -9.576748,2 0 -9.576748,2 0 -9.576748,2 0 -9.576748,2 0 -9.576748,2 0 -9.576748,2 0 -9.576748,2 0 -9.576748,2 0 -9.576748,2 0 -9.576748,2 0 -9.576748,2 0 -11.69374,2 0 -11.69374,2 0 -11.69374,2 0 -11.69374,2 0 -11.69374,2 0 -11.69374,2 0 -11.69374,2 0 -11.69374,2 0 -11.69374,2 0 -11.69374,2 0 -11.69374,2 0 -11.69374,2 0 -11.69374,2 0 -11.69374,2 0 -11.69374,2 0 -11.69374,2 0 -11.69374,2 0 -11.69374,2 0 -11.69374,2 0 -11.69374,2 0 -11.69374,7.210,
2 0 -9.576748,2 0 -9.576748,2 0 -9.576748,2 0 -9.576748,2 0 -9.576748,2 0 -9.576748,2 0 -9.576748,2 0 -9.576748,2 0 -9.576748,2 0 -9.576748,2 0 -9.576748,2 0 -9.576748,2 0 -9.576748,2 0 -9.576748,2 0 -9.576748,2 0 -9.576748,2 0 -9.576748,2 0 -9.576748,2 0 -9.576748,2 0 -9.576748,2 0 -9.576748,2 0 -11.69374,2 0 -11.69374,2 0 -11.69374,2 0 -11.69374,2 0 -11.69374,2 0 -11.69374,2 0 -11.69374,2 0 -11.69374,2 0 -11.69374,2 0 -11.69374,2 0 -11.69374,2 0 -11.69374,2 0 -11.69374,2 0 -11.69374,2 0 -11.69374,2 0 -11.69374,2 0 -11.69374,2 0 -11.69374,2 0 -11.69374,2 0 -11.69374,2 0 -11.69374,7.310,
2 0 -9.576748,2 0 -9.576748,2 0 -9.576748,2 0 -9.576748,2 0 -9.576748,2 0 -9.576748,2 0 -9.576748,2 0 -9.576748,2 0 -9.576748,2 0 -9.576748,2 0 -9.576748,2 0 -9.576748,2 0 -9.576748,2 0 -9.576748,2 0 -9.576748,2 0 -9.576748,2 0 -9.576748,2 0 -9.576748,2 0 -9.576748,2 0 -9.576748,2 0 -9.576748,2 0 -11.69374,2 0 -11.69374,2 0 -11.69374,2 0 -11.69374,2 0 -11.69374,2 0 -11.69374,2 0 -11.69374,2 0 -11.69374,2 0 -11.69374,2 0 -11.69374,2 0 -11.69374,2 0 -11.69374,2 0 -11.69374,2 0 -11.69374,2 0 -11.69374,2 0 -11.69374,2 0 -11.69374,2 0 -11.69374,2 0 -11.69374,2 0 -11.69374,2 0 -11.69374,7.410,
2 0 -9.576748,2 0 -9.576748,2 0 -9.576748,2 0 -9.576748,2 0 -9.576748,2 0 -9.576748,2 0 -9.576748,2 0 -9.576748,2 0 -9.576748,2 0 -9.576748,2 0 -9.576748,2 0 -9.576748,2 0 -9.576748,2 0 -9.576748,2 0 -9.576748,2 0 -9.576748,2 0 -9.576748,2 0 -9.576748,2 0 -9.576748,2 0 -9.576748,2 0 -9.576748,2 0 -11.69374,2 0 -11.69374,2 0 -11.69374,2 0 -11.69374,2 0 -11.69374,2 0 -11.69374,2 0 -11.69374,2 0 -11.69374,2 0 -11.69374,2 0 -11.69374,2 0 -11.69374,2 0 -11.69374,2 0 -11.69374,2 0 -11.69374,2 0 -11.69374,2 0 -11.69374,2 0 -11.69374,2 0 -11.69374,2 0 -11.69374,2 0 -11.69374,2 0 -11.69374,7.510,
2 0 -9.576748,2 0 -9.576748,2 0 -9.576748,2 0 -9.576748,2 0 -9.576748,2 0 -9.576748,2 0 -9.576748,2 0 -9.576748,2 0 -9.576748,2 0 -9.576748,2 0 -9.576748,2 0 -9.576748,2 0 -9.576748,2 0 -9.576748,2 0 -9.576748,2 0 -9.576748,2 0 -9.576748,2 0 -9.576748,2 0 -9.576748,2 0 -9.576748,2 0 -9.576748,2 0 -11.69374,2 0 -11.69374,2 0 -11.69374,2 0 -11.69374,2 0 -11.69374,2 0 -11.69374,2 0 -11.69374,2 0 -11.69374,2 0 -11.69374,2 0 -11.69374,2 0 -11.69374,2 0 -11.69374,2 0 -11.69374,2 0 -11.69374,2 0 -11.69374,2 0 -11.69374,2 0 -11.69374,2 0 -11.69374,2 0 -11.69374,2 0 -11.69374,2 0 -11.69374,7.610,
2 0 -9.576748,2 0 -9.576748,2 0 -9.576748,2 0 -9.576748,2 0 -9.576748,2 0 -9.576748,2 0 -9.576748,2 0 -9.576748,2 0 -9.576748,2 0 -9.576748,2 0 -9.576748,2 0 -9.576748,2 0 -9.576748,2 0 -9.576748,2 0 -9.576748,2 0 -9.576748,2 0 -9.576748,2 0 -9.576748,2 0 -9.576748,2 0 -9.576748,2 0 -9.576748,2 0 -11.69374,2 0 -11.69374,2 0 -11.69374,2 0 -11.69374,2 0 -11.69374,2 0 -11.69374,2 0 -11.69374,2 0 -11.69374,2 0 -11.69374,2 0 -11.69374,2 0 -11.69374,2 0 -11.69374,2 0 -11.69374,2 0 -11.69374,2 0 -11.69374,2 0 -11.69374,2 0 -11.69374,2 0 -11.69374,2 0 -11.69374,2 0 -11.69374,2 0 -11.69374,7.710,
2 0 -9.576748,2 0 -9.576748,2 0 -9.576748,2 0 -9.576748,2 0 -9.576748,2 0 -9.576748,2 0 -9.576748,2 0 -9.576748,2 0 -9.576748,2 0 -9.576748,2 0 -9.576748,2 0 -9.576748,2 0 -9.576748,2 0 -9.576748,2 0 -9.576748,2 0 -9.576748,2 0 -9.576748,2 0 -9.576748,2 0 -9.576748,2 0 -9.576748,2 0 -9.576748,2 0 -11.69374,2 0 -11.69374,2 0 -11.69374,2 0 -11.69374,2 0 -11.69374,2 0 -11.69374,2 0 -11.69374,2 0 -11.69374,2 0 -11.69374,2 0 -11.69374,2 0 -11.69374,2 0 -11.69374,2 0 -11.69374,2 0 -11.69374,2 0 -11.69374,2 0 -11.69374,2 0 -11.69374,2 0 -11.69374,2 0 -11.69374,2 0 -11.69374,2 0 -11.69374,7.810,
2 0 -9.576748,2 0 -9.576748,2 0 -9.576748,2 0 -9.576748,2 0 -9.576748,2 0 -9.576748,2 0 -9.576748,2 0 -9.576748,2 0 -9.576748,2 0 -9.576748,2 0 -9.576748,2 0 -9.576748,2 0 -9.576748,2 0 -9.576748,2 0 -9.576748,2 0 -9.576748,2 0 -9.576748,2 0 -9.576748,2 0 -9.576748,2 0 -9.576748,2 0 -9.576748,2 0 -11.69374,2 0 -11.69374,2 0 -11.69374,2 0 -11.69374,2 0 -11.69374,2 0 -11.69374,2 0 -11.69374,2 0 -11.69374,2 0 -11.69374,2 0 -11.69374,2 0 -11.69374,2 0 -11.69374,2 0 -11.69374,2 0 -11.69374,2 0 -11.69374,2 0 -11.69374,2 0 -11.69374,2 0 -11.69374,2 0 -11.69374,2 0 -11.69374,2 0 -11.69374,7.910,
2 0 -9.576748,2 0 -9.576748,2 0 -9.576748,2 0 -9.576748,2 0 -9.576748,2 0 -9.576748,2 0 -9.576748,2 0 -9.576748,2 0 -9.576748,2 0 -9.576748,2 0 -9.576748,2 0 -9.576748,2 0 -9.576748,2 0 -9.576748,2 0 -9.576748,2 0 -9.576748,2 0 -9.576748,2 0 -9.576748,2 0 -9.576748,2 0 -9.576748,2 0 -9.576748,2 0 -11.69374,2 0 -11.69374,2 0 -11.69374,2 0 -11.69374,2 0 -11.69374,2 0 -11.69374,2 0 -11.69374,2 0 -11.69374,2 0 -11.69374,2 0 -11.69374,2 0 -11.69374,2 0 -11.69374,2 0 -11.69374,2 0 -11.69374,2 0 -11.69374,2 0 -11.69374,2 0 -11.69374,2 0 -11.69374,2 0 -11.69374,2 0 -11.69374,2 0 -11.69374,8.010,
2 0 -9.576748,2 0 -9.576748,2 0 -9.576748,2 0 -9.576748,2 0 -9.576748,2 0 -9.576748,2 0 -9.576748,2 0 -9.576748,2 0 -9.576748,2 0 -9.576748,2 0 -9.576748,2 0 -9.576748,2 0 -9.576748,2 0 -9.576748,2 0 -9.576748,2 0 -9.576748,2 0 -9.576748,2 0 -9.576748,2 0 -9.576748,2 0 -9.576748,2 0 -9.576748,2 0 -11.69374,2 0 -11.69374,2 0 -11.69374,2 0 -11.69374,2 0 -11.69374,2 0 -11.69374,2 0 -11.69374,2 0 -11.69374,2 0 -11.69374,2 0 -11.69374,2 0 -11.69374,2 0 -11.69374,2 0 -11.69374,2 0 -11.69374,2 0 -11.69374,2 0 -11.69374,2 0 -11.69374,2 0 -11.69374,2 0 -11.69374,2 0 -11.69374,2 0 -11.69374,8.110,
2 0 -9.576748,2 0 -9.576748,2 0 -9.576748,2 0 -9.576748,2 0 -9.576748,2 0 -9.576748,2 0 -9.576748,2 0 -9.576748,2 0 -9.576748,2 0 -9.576748,2 0 -9.576748,2 0 -9.576748,2 0 -9.576748,2 0 -9.576748,2 0 -9.576748,2 0 -9.576748,2 0 -9.576748,2 0 -9.576748,2 0 -9.576748,2 0 -9.576748,2 0 -9.576748,2 0 -11.69374,2 0 -11.69374,2 0 -11.69374,2 0 -11.69374,2 0 -11.69374,2 0 -11.69374,2 0 -11.69374,2 0 -11.69374,2 0 -11.69374,2 0 -11.69374,2 0 -11.69374,2 0 -11.69374,2 0 -11.69374,2 0 -11.69374,2 0 -11.69374,2 0 -11.69374,2 0 -11.69374,2 0 -11.69374,2 0 -11.69374,2 0 -11.69374,2 0 -11.69374,8.210,
2 0 -9.576748,2 0 -9.576748,2 0 -9.576748,2 0 -9.576748,2 0 -9.576748,2 0 -9.576748,2 0 -9.576748,2 0 -9.576748,2 0 -9.576748,2 0 -9.576748,2 0 -9.576748,2 0 -9.576748,2 0 -9.576748,2 0 -9.576748,2 0 -9.576748,2 0 -9.576748,2 0 -9.576748,2 0 -9.576748,2 0 -9.576748,2 0 -9.576748,2 0 -9.576748,2 0 -11.69374,2 0 -11.69374,2 0 -11.69374,2 0 -11.69374,2 0 -11.69374,2 0 -11.69374,2 0 -11.69374,2 0 -11.69374,2 0 -11.69374,2 0 -11.69374,2 0 -11.69374,2 0 -11.69374,2 0 -11.69374,2 0 -11.69374,2 0 -11.69374,2 0 -11.69374,2 0 -11.69374,2 0 -11.69374,2 0 -11.69374,2 0 -11.69374,2 0 -11.69374,8.310,
2 0 -9.576748,2 0 -9.576748,2 0 -9.576748,2 0 -9.576748,2 0 -9.576748,2 0 -9.576748,2 0 -9.576748,2 0 -9.576748,2 0 -9.576748,2 0 -9.576748,2 0 -9.576748,2 0 -9.576748,2 0 -9.576748,2 0 -9.576748,2 0 -9.576748,2 0 -9.576748,2 0 -9.576748,2 0 -9.576748,2 0 -9.576748,2 0 -9.576748,2 0 -9.576748,2 0 -11.69374,2 0 -11.69374,2 0 -11.69374,2 0 -11.69374,2 0 -11.69374,2 0 -11.69374,2 0 -11.69374,2 0 -11.69374,2 0 -11.69374,2 0 -11.69374,2 0 -11.69374,2 0 -11.69374,2 0 -11.69374,2 0 -11.69374,2 0 -11.69374,2 0 -11.69374,2 0 -11.69374,2 0 -11.69374,2 0 -11.69374,2 0 -11.69374,2 0 -11.69374,8.410,
2 0 -9.576748,2 0 -9.576748,2 0 -9.576748,2 0 -9.576748,2 0 -9.576748,2 0 -9.576748,2 0 -9.576748,2 0 -9.576748,2 0 -9.576748,2 0 -9.576748,2 0 -9.576748,2 0 -9.576748,2 0 -9.576748,2 0 -9.576748,2 0 -9.576748,2 0 -9.576748,2 0 -9.576748,2 0 -9.576748,2 0 -9.576748,2 0 -9.576748,2 0 -9.576748,2 0 -11.69374,2 0 -11.69374,2 0 -11.69374,2 0 -11.69374,2 0 -11.69374,2 0 -11.69374,2 0 -11.69374,2 0 -11.69374,2 0 -11.69374,2 0 -11.69374,2 0 -11.69374,2 0 -11.69374,2 0 -11.69374,2 0 -11.69374,2 0 -11.69374,2 0 -11.69374,2 0 -11.69374,2 0 -11.69374,2 0 -11.69374,2 0 -11.69374,2 0 -11.69374,8.510,
2 0 -9.576748,2 0 -9.576748,2 0 -9.576748,2 0 -9.576748,2 0 -9.576748,2 0 -9.576748,2 0 -9.576748,2 0 -9.576748,2 0 -9.576748,2 0 -9.576748,2 0 -9.576748,2 0 -9.576748,2 0 -9.576748,2 0 -9.576748,2 0 -9.576748,2 0 -9.576748,2 0 -9.576748,2 0 -9.576748,2 0 -9.576748,2 0 -9.576748,2 0 -9.576748,2 0 -11.69374,2 0 -11.69374,2 0 -11.69374,2 0 -11.69374,2 0 -11.69374,2 0 -11.69374,2 0 -11.69374,2 0 -11.69374,2 0 -11.69374,2 0 -11.69374,2 0 -11.69374,2 0 -11.69374,2 0 -11.69374,2 0 -11.69374,2 0 -11.69374,2 0 -11.69374,2 0 -11.69374,2 0 -11.69374,2 0 -11.69374,2 0 -11.69374,2 0 -11.69374,8.610,
2 0 -9.576748,2 0 -9.576748,2 0 -9.576748,2 0 -9.576748,2 0 -9.576748,2 0 -9.576748,2 0 -9.576748,2 0 -9.576748,2 0 -9.576748,2 0 -9.576748,2 0 -9.576748,2 0 -9.576748,2 0 -9.576748,2 0 -9.576748,2 0 -9.576748,2 0 -9.576748,2 0 -9.576748,2 0 -9.576748,2 0 -9.576748,2 0 -9.576748,2 0 -9.576748,2 0 -11.69374,2 0 -11.69374,2 0 -11.69374,2 0 -11.69374,2 0 -11.69374,2 0 -11.69374,2 0 -11.69374,2 0 -11.69374,2 0 -11.69374,2 0 -11.69374,2 0 -11.69374,2 0 -11.69374,2 0 -11.69374,2 0 -11.69374,2 0 -11.69374,2 0 -11.69374,2 0 -11.69374,2 0 -11.69374,2 0 -11.69374,2 0 -11.69374,2 0 -11.69374,8.710,
2 0 -9.576748,2 0 -9.576748,2 0 -9.576748,2 0 -9.576748,2 0 -9.576748,2 0 -9.576748,2 0 -9.576748,2 0 -9.576748,2 0 -9.576748,2 0 -9.576748,2 0 -9.576748,2 0 -9.576748,2 0 -9.576748,2 0 -9.576748,2 0 -9.576748,2 0 -9.576748,2 0 -9.576748,2 0 -9.576748,2 0 -9.576748,2 0 -9.576748,2 0 -9.576748,2 0 -11.69374,2 0 -11.69374,2 0 -11.69374,2 0 -11.69374,2 0 -11.69374,2 0 -11.69374,2 0 -11.69374,2 0 -11.69374,2 0 -11.69374,2 0 -11.69374,2 0 -11.69374,2 0 -11.69374,2 0 -11.69374,2 0 -11.69374,2 0 -11.69374,2 0 -11.69374,2 0 -11.69374,2 0 -11.69374,2 0 -11.69374,2 0 -11.69374,2 0 -11.69374,8.810,
2 0 -9.576748,2 0 -9.576748,2 0 -9.576748,2 0 -9.576748,2 0 -9.576748,2 0 -9.576748,2 0 -9.576748,2 0 -9.576748,2 0 -9.576748,2 0 -9.576748,2 0 -9.576748,2 0 -9.576748,2 0 -9.576748,2 0 -9.576748,2 0 -9.576748,2 0 -9.576748,2 0 -9.576748,2 0 -9.576748,2 0 -9.576748,2 0 -9.576748,2 0 -9.576748,2 0 -11.69374,2 0 -11.69374,2 0 -11.69374,2 0 -11.69374,2 0 -11.69374,2 0 -11.69374,2 0 -11.69374,2 0 -11.69374,2 0 -11.69374,2 0 -11.69374,2 0 -11.69374,2 0 -11.69374,2 0 -11.69374,2 0 -11.69374,2 0 -11.69374,2 0 -11.69374,2 0 -11.69374,2 0 -11.69374,2 0 -11.69374,2 0 -11.69374,2 0 -11.69374,8.910,
2 0 -9.576748,2 0 -9.576748,2 0 -9.576748,2 0 -9.576748,2 0 -9.576748,2 0 -9.576748,2 0 -9.576748,2 0 -9.576748,2 0 -9.576748,2 0 -9.576748,2 0 -9.576748,2 0 -9.576748,2 0 -9.576748,2 0 -9.576748,2 0 -9.576748,2 0 -9.576748,2 0 -9.576748,2 0 -9.576748,2 0 -9.576748,2 0 -9.576748,2 0 -9.576748,2 0 -11.69374,2 0 -11.69374,2 0 -11.69374,2 0 -11.69374,2 0 -11.69374,2 0 -11.69374,2 0 -11.69374,2 0 -11.69374,2 0 -11.69374,2 0 -11.69374,2 0 -11.69374,2 0 -11.69374,2 0 -11.69374,2 0 -11.69374,2 0 -11.69374,2 0 -11.69374,2 0 -11.69374,2 0 -11.69374,2 0 -11.69374,2 0 -11.69374,2 0 -11.69374,9.010,
2 0 -9.576748,2 0 -9.576748,2 0 -9.576748,2 0 -9.576748,2 0 -9.576748,2 0 -9.576748,2 0 -9.576748,2 0 -9.576748,2 0 -9.576748,2 0 -9.576748,2 0 -9.576748,2 0 -9.576748,2 0 -9.576748,2 0 -9.576748,2 0 -9.576748,2 0 -9.576748,2 0 -9.576748,2 0 -9.576748,2 0 -9.576748,2 0 -9.576748,2 0 -9.576748,2 0 -11.69374,2 0 -11.69374,2 0 -11.69374,2 0 -11.69374,2 0 -11.69374,2 0 -11.69374,2 0 -11.69374,2 0 -11.69374,2 0 -11.69374,2 0 -11.69374,2 0 -11.69374,2 0 -11.69374,2 0 -11.69374,2 0 -11.69374,2 0 -11.69374,2 0 -11.69374,2 0 -11.69374,2 0 -11.69374,2 0 -11.69374,2 0 -11.69374,2 0 -11.69374,9.110,
2 0 -9.576748,2 0 -9.576748,2 0 -9.576748,2 0 -9.576748,2 0 -9.576748,2 0 -9.576748,2 0 -9.576748,2 0 -9.576748,2 0 -9.576748,2 0 -9.576748,2 0 -9.576748,2 0 -9.576748,2 0 -9.576748,2 0 -9.576748,2 0 -9.576748,2 0 -9.576748,2 0 -9.576748,2 0 -9.576748,2 0 -9.576748,2 0 -9.576748,2 0 -9.576748,2 0 -11.69374,2 0 -11.69374,2 0 -11.69374,2 0 -11.69374,2 0 -11.69374,2 0 -11.69374,2 0 -11.69374,2 0 -11.69374,2 0 -11.69374,2 0 -11.69374,2 0 -11.69374,2 0 -11.69374,2 0 -11.69374,2 0 -11.69374,2 0 -11.69374,2 0 -11.69374,2 0 -11.69374,2 0 -11.69374,2 0 -11.69374,2 0 -11.69374,2 0 -11.69374,9.210,
2 0 -9.576748,2 0 -9.576748,2 0 -9.576748,2 0 -9.576748,2 0 -9.576748,2 0 -9.576748,2 0 -9.576748,2 0 -9.576748,2 0 -9.576748,2 0 -9.576748,2 0 -9.576748,2 0 -9.576748,2 0 -9.576748,2 0 -9.576748,2 0 -9.576748,2 0 -9.576748,2 0 -9.576748,2 0 -9.576748,2 0 -9.576748,2 0 -9.576748,2 0 -9.576748,2 0 -11.69374,2 0 -11.69374,2 0 -11.69374,2 0 -11.69374,2 0 -11.69374,2 0 -11.69374,2 0 -11.69374,2 0 -11.69374,2 0 -11.69374,2 0 -11.69374,2 0 -11.69374,2 0 -11.69374,2 0 -11.69374,2 0 -11.69374,2 0 -11.69374,2 0 -11.69374,2 0 -11.69374,2 0 -11.69374,2 0 -11.69374,2 0 -11.69374,2 0 -11.69374,9.310,
2 0 -9.576748,2 0 -9.576748,2 0 -9.576748,2 0 -9.576748,2 0 -9.576748,2 0 -9.576748,2 0 -9.576748,2 0 -9.576748,2 0 -9.576748,2 0 -9.576748,2 0 -9.576748,2 0 -9.576748,2 0 -9.576748,2 0 -9.576748,2 0 -9.576748,2 0 -9.576748,2 0 -9.576748,2 0 -9.576748,2 0 -9.576748,2 0 -9.576748,2 0 -9.576748,2 0 -11.69374,2 0 -11.69374,2 0 -11.69374,2 0 -11.69374,2 0 -11.69374,2 0 -11.69374,2 0 -11.69374,2 0 -11.69374,2 0 -11.69374,2 0 -11.69374,2 0 -11.69374,2 0 -11.69374,2 0 -11.69374,2 0 -11.69374,2 0 -11.69374,2 0 -11.69374,2 0 -11.69374,2 0 -11.69374,2 0 -11.69374,2 0 -11.69374,2 0 -11.69374,9.410,
2 0 -9.576748,2 0 -9.576748,2 0 -9.576748,2 0 -9.576748,2 0 -9.576748,2 0 -9.576748,2 0 -9.576748,2 0 -9.576748,2 0 -9.576748,2 0 -9.576748,2 0 -9.576748,2 0 -9.576748,2 0 -9.576748,2 0 -9.576748,2 0 -9.576748,2 0 -9.576748,2 0 -9.576748,2 0 -9.576748,2 0 -9.576748,2 0 -9.576748,2 0 -9.576748,2 0 -11.69374,2 0 -11.69374,2 0 -11.69374,2 0 -11.69374,2 0 -11.69374,2 0 -11.69374,2 0 -11.69374,2 0 -11.69374,2 0 -11.69374,2 0 -11.69374,2 0 -11.69374,2 0 -11.69374,2 0 -11.69374,2 0 -11.69374,2 0 -11.69374,2 0 -11.69374,2 0 -11.69374,2 0 -11.69374,2 0 -11.69374,2 0 -11.69374,2 0 -11.69374,9.510,
2 0 -9.576748,2 0 -9.576748,2 0 -9.576748,2 0 -9.576748,2 0 -9.576748,2 0 -9.576748,2 0 -9.576748,2 0 -9.576748,2 0 -9.576748,2 0 -9.576748,2 0 -9.576748,2 0 -9.576748,2 0 -9.576748,2 0 -9.576748,2 0 -9.576748,2 0 -9.576748,2 0 -9.576748,2 0 -9.576748,2 0 -9.576748,2 0 -9.576748,2 0 -9.576748,2 0 -11.69374,2 0 -11.69374,2 0 -11.69374,2 0 -11.69374,2 0 -11.69374,2 0 -11.69374,2 0 -11.69374,2 0 -11.69374,2 0 -11.69374,2 0 -11.69374,2 0 -11.69374,2 0 -11.69374,2 0 -11.69374,2 0 -11.69374,2 0 -11.69374,2 0 -11.69374,2 0 -11.69374,2 0 -11.69374,2 0 -11.69374,2 0 -11.69374,2 0 -11.69374,9.610,
2 0 -9.576748,2 0 -9.576748,2 0 -9.576748,2 0 -9.576748,2 0 -9.576748,2 0 -9.576748,2 0 -9.576748,2 0 -9.576748,2 0 -9.576748,2 0 -9.576748,2 0 -9.576748,2 0 -9.576748,2 0 -9.576748,2 0 -9.576748,2 0 -9.576748,2 0 -9.576748,2 0 -9.576748,2 0 -9.576748,2 0 -9.576748,2 0 -9.576748,2 0 -9.576748,2 0 -11.69374,2 0 -11.69374,2 0 -11.69374,2 0 -11.69374,2 0 -11.69374,2 0 -11.69374,2 0 -11.69374,2 0 -11.69374,2 0 -11.69374,2 0 -11.69374,2 0 -11.69374,2 0 -11.69374,2 0 -11.69374,2 0 -11.69374,2 0 -11.69374,2 0 -11.69374,2 0 -11.69374,2 0 -11.69374,2 0 -11.69374,2 0 -11.69374,2 0 -11.69374,9.710,
2 0 -9.576748,2 0 -9.576748,2 0 -9.576748,2 0 -9.576748,2 0 -9.576748,2 0 -9.576748,2 0 -9.576748,2 0 -9.576748,2 0 -9.576748,2 0 -9.576748,2 0 -9.576748,2 0 -9.576748,2 0 -9.576748,2 0 -9.576748,2 0 -9.576748,2 0 -9.576748,2 0 -9.576748,2 0 -9.576748,2 0 -9.576748,2 0 -9.576748,2 0 -9.576748,2 0 -11.69374,2 0 -11.69374,2 0 -11.69374,2 0 -11.69374,2 0 -11.69374,2 0 -11.69374,2 0 -11.69374,2 0 -11.69374,2 0 -11.69374,2 0 -11.69374,2 0 -11.69374,2 0 -11.69374,2 0 -11.69374,2 0 -11.69374,2 0 -11.69374,2 0 -11.69374,2 0 -11.69374,2 0 -11.69374,2 0 -11.69374,2 0 -11.69374,2 0 -11.69374,9.810,
2 0 -9.576748,2 0 -9.576748,2 0 -9.576748,2 0 -9.576748,2 0 -9.576748,2 0 -9.576748,2 0 -9.576748,2 0 -9.576748,2 0 -9.576748,2 0 -9.576748,2 0 -9.576748,2 0 -9.576748,2 0 -9.576748,2 0 -9.576748,2 0 -9.576748,2 0 -9.576748,2 0 -9.576748,2 0 -9.576748,2 0 -9.576748,2 0 -9.576748,2 0 -9.576748,2 0 -11.69374,2 0 -11.69374,2 0 -11.69374,2 0 -11.69374,2 0 -11.69374,2 0 -11.69374,2 0 -11.69374,2 0 -11.69374,2 0 -11.69374,2 0 -11.69374,2 0 -11.69374,2 0 -11.69374,2 0 -11.69374,2 0 -11.69374,2 0 -11.69374,2 0 -11.69374,2 0 -11.69374,2 0 -11.69374,2 0 -11.69374,2 0 -11.69374,2 0 -11.69374,9.910,
2 0 -9.576748,2 0 -9.576748,2 0 -9.576748,2 0 -9.576748,2 0 -9.576748,2 0 -9.576748,2 0 -9.576748,2 0 -9.576748,2 0 -9.576748,2 0 -9.576748,2 0 -9.576748,2 0 -9.576748,2 0 -9.576748,2 0 -9.576748,2 0 -9.576748,2 0 -9.576748,2 0 -9.576748,2 0 -9.576748,2 0 -9.576748,2 0 -9.576748,2 0 -9.576748,2 0 -11.69374,2 0 -11.69374,2 0 -11.69374,2 0 -11.69374,2 0 -11.69374,2 0 -11.69374,2 0 -11.69374,2 0 -11.69374,2 0 -11.69374,2 0 -11.69374,2 0 -11.69374,2 0 -11.69374,2 0 -11.69374,2 0 -11.69374,2 0 -11.69374,2 0 -11.69374,2 0 -11.69374,2 0 -11.69374,2 0 -11.69374,2 0 -11.69374,2 0 -11.69374,10.010,
2 0 -9.576748,2 0 -9.576748,2 0 -9.576748,2 0 -9.576748,2 0 -9.576748,2 0 -9.576748,2 0 -9.576748,2 0 -9.576748,2 0 -9.576748,2 0 -9.576748,2 0 -9.576748,2 0 -9.576748,2 0 -9.576748,2 0 -9.576748,2 0 -9.576748,2 0 -9.576748,2 0 -9.576748,2 0 -9.576748,2 0 -9.576748,2 0 -9.576748,2 0 -9.576748,2 0 -11.69374,2 0 -11.69374,2 0 -11.69374,2 0 -11.69374,2 0 -11.69374,2 0 -11.69374,2 0 -11.69374,2 0 -11.69374,2 0 -11.69374,2 0 -11.69374,2 0 -11.69374,2 0 -11.69374,2 0 -11.69374,2 0 -11.69374,2 0 -11.69374,2 0 -11.69374,2 0 -11.69374,2 0 -11.69374,2 0 -11.69374,2 0 -11.69374,2 0 -11.69374,10.110,
2 0 -9.576748,2 0 -9.576748,2 0 -9.576748,2 0 -9.576748,2 0 -9.576748,2 0 -9.576748,2 0 -9.576748,2 0 -9.576748,2 0 -9.576748,2 0 -9.576748,2 0 -9.576748,2 0 -9.576748,2 0 -9.576748,2 0 -9.576748,2 0 -9.576748,2 0 -9.576748,2 0 -9.576748,2 0 -9.576748,2 0 -9.576748,2 0 -9.576748,2 0 -9.576748,2 0 -11.69374,2 0 -11.69374,2 0 -11.69374,2 0 -11.69374,2 0 -11.69374,2 0 -11.69374,2 0 -11.69374,2 0 -11.69374,2 0 -11.69374,2 0 -11.69374,2 0 -11.69374,2 0 -11.69374,2 0 -11.69374,2 0 -11.69374,2 0 -11.69374,2 0 -11.69374,2 0 -11.69374,2 0 -11.69374,2 0 -11.69374,2 0 -11.69374,2 0 -11.69374,10.210,
2 0 -9.576748,2 0 -9.576748,2 0 -9.576748,2 0 -9.576748,2 0 -9.576748,2 0 -9.576748,2 0 -9.576748,2 0 -9.576748,2 0 -9.576748,2 0 -9.576748,2 0 -9.576748,2 0 -9.576748,2 0 -9.576748,2 0 -9.576748,2 0 -9.576748,2 0 -9.576748,2 0 -9.576748,2 0 -9.576748,2 0 -9.576748,2 0 -9.576748,2 0 -9.576748,2 0 -11.69374,2 0 -11.69374,2 0 -11.69374,2 0 -11.69374,2 0 -11.69374,2 0 -11.69374,2 0 -11.69374,2 0 -11.69374,2 0 -11.69374,2 0 -11.69374,2 0 -11.69374,2 0 -11.69374,2 0 -11.69374,2 0 -11.69374,2 0 -11.69374,2 0 -11.69374,2 0 -11.69374,2 0 -11.69374,2 0 -11.69374,2 0 -11.69374,2 0 -11.69374,10.310,
2 0 -9.576748,2 0 -9.576748,2 0 -9.576748,2 0 -9.576748,2 0 -9.576748,2 0 -9.576748,2 0 -9.576748,2 0 -9.576748,2 0 -9.576748,2 0 -9.576748,2 0 -9.576748,2 0 -9.576748,2 0 -9.576748,2 0 -9.576748,2 0 -9.576748,2 0 -9.576748,2 0 -9.576748,2 0 -9.576748,2 0 -9.576748,2 0 -9.576748,2 0 -9.576748,2 0 -11.69374,2 0 -11.69374,2 0 -11.69374,2 0 -11.69374,2 0 -11.69374,2 0 -11.69374,2 0 -11.69374,2 0 -11.69374,2 0 -11.69374,2 0 -11.69374,2 0 -11.69374,2 0 -11.69374,2 0 -11.69374,2 0 -11.69374,2 0 -11.69374,2 0 -11.69374,2 0 -11.69374,2 0 -11.69374,2 0 -11.69374,2 0 -11.69374,2 0 -11.69374,10.410,
2 0 -9.576748,2 0 -9.576748,2 0 -9.576748,2 0 -9.576748,2 0 -9.576748,2 0 -9.576748,2 0 -9.576748,2 0 -9.576748,2 0 -9.576748,2 0 -9.576748,2 0 -9.576748,2 0 -9.576748,2 0 -9.576748,2 0 -9.576748,2 0 -9.576748,2 0 -9.576748,2 0 -9.576748,2 0 -9.576748,2 0 -9.576748,2 0 -9.576748,2 0 -9.576748,2 0 -11.69374,2 0 -11.69374,2 0 -11.69374,2 0 -11.69374,2 0 -11.69374,2 0 -11.69374,2 0 -11.69374,2 0 -11.69374,2 0 -11.69374,2 0 -11.69374,2 0 -11.69374,2 0 -11.69374,2 0 -11.69374,2 0 -11.69374,2 0 -11.69374,2 0 -11.69374,2 0 -11.69374,2 0 -11.69374,2 0 -11.69374,2 0 -11.69374,2 0 -11.69374,10.510,
2 0 -9.576748,2 0 -9.576748,2 0 -9.576748,2 0 -9.576748,2 0 -9.576748,2 0 -9.576748,2 0 -9.576748,2 0 -9.576748,2 0 -9.576748,2 0 -9.576748,2 0 -9.576748,2 0 -9.576748,2 0 -9.576748,2 0 -9.576748,2 0 -9.576748,2 0 -9.576748,2 0 -9.576748,2 0 -9.576748,2 0 -9.576748,2 0 -9.576748,2 0 -9.576748,2 0 -11.69374,2 0 -11.69374,2 0 -11.69374,2 0 -11.69374,2 0 -11.69374,2 0 -11.69374,2 0 -11.69374,2 0 -11.69374,2 0 -11.69374,2 0 -11.69374,2 0 -11.69374,2 0 -11.69374,2 0 -11.69374,2 0 -11.69374,2 0 -11.69374,2 0 -11.69374,2 0 -11.69374,2 0 -11.69374,2 0 -11.69374,2 0 -11.69374,2 0 -11.69374,10.610,
2 0 -9.576748,2 0 -9.576748,2 0 -9.576748,2 0 -9.576748,2 0 -9.576748,2 0 -9.576748,2 0 -9.576748,2 0 -9.576748,2 0 -9.576748,2 0 -9.576748,2 0 -9.576748,2 0 -9.576748,2 0 -9.576748,2 0 -9.576748,2 0 -9.576748,2 0 -9.576748,2 0 -9.576748,2 0 -9.576748,2 0 -9.576748,2 0 -9.576748,2 0 -9.576748,2 0 -11.69374,2 0 -11.69374,2 0 -11.69374,2 0 -11.69374,2 0 -11.69374,2 0 -11.69374,2 0 -11.69374,2 0 -11.69374,2 0 -11.69374,2 0 -11.69374,2 0 -11.69374,2 0 -11.69374,2 0 -11.69374,2 0 -11.69374,2 0 -11.69374,2 0 -11.69374,2 0 -11.69374,2 0 -11.69374,2 0 -11.69374,2 0 -11.69374,2 0 -11.69374,10.710,
2 0 -9.576748,2 0 -9.576748,2 0 -9.576748,2 0 -9.576748,2 0 -9.576748,2 0 -9.576748,2 0 -9.576748,2 0 -9.576748,2 0 -9.576748,2 0 -9.576748,2 0 -9.576748,2 0 -9.576748,2 0 -9.576748,2 0 -9.576748,2 0 -9.576748,2 0 -9.576748,2 0 -9.576748,2 0 -9.576748,2 0 -9.576748,2 0 -9.576748,2 0 -9.576748,2 0 -11.69374,2 0 -11.69374,2 0 -11.69374,2 0 -11.69374,2 0 -11.69374,2 0 -11.69374,2 0 -11.69374,2 0 -11.69374,2 0 -11.69374,2 0 -11.69374,2 0 -11.69374,2 0 -11.69374,2 0 -11.69374,2 0 -11.69374,2 0 -11.69374,2 0 -11.69374,2 0 -11.69374,2 0 -11.69374,2 0 -11.69374,2 0 -11.69374,2 0 -11.69374,10.810,
2 0 -9.576748,2 0 -9.576748,2 0 -9.576748,2 0 -9.576748,2 0 -9.576748,2 0 -9.576748,2 0 -9.576748,2 0 -9.576748,2 0 -9.576748,2 0 -9.576748,2 0 -9.576748,2 0 -9.576748,2 0 -9.576748,2 0 -9.576748,2 0 -9.576748,2 0 -9.576748,2 0 -9.576748,2 0 -9.576748,2 0 -9.576748,2 0 -9.576748,2 0 -9.576748,2 0 -11.69374,2 0 -11.69374,2 0 -11.69374,2 0 -11.69374,2 0 -11.69374,2 0 -11.69374,2 0 -11.69374,2 0 -11.69374,2 0 -11.69374,2 0 -11.69374,2 0 -11.69374,2 0 -11.69374,2 0 -11.69374,2 0 -11.69374,2 0 -11.69374,2 0 -11.69374,2 0 -11.69374,2 0 -11.69374,2 0 -11.69374,2 0 -11.69374,2 0 -11.69374,10.910,
2 0 -9.576748,2 0 -9.576748,2 0 -9.576748,2 0 -9.576748,2 0 -9.576748,2 0 -9.576748,2 0 -9.576748,2 0 -9.576748,2 0 -9.576748,2 0 -9.576748,2 0 -9.576748,2 0 -9.576748,2 0 -9.576748,2 0 -9.576748,2 0 -9.576748,2 0 -9.576748,2 0 -9.576748,2 0 -9.576748,2 0 -9.576748,2 0 -9.576748,2 0 -9.576748,2 0 -11.69374,2 0 -11.69374,2 0 -11.69374,2 0 -11.69374,2 0 -11.69374,2 0 -11.69374,2 0 -11.69374,2 0 -11.69374,2 0 -11.69374,2 0 -11.69374,2 0 -11.69374,2 0 -11.69374,2 0 -11.69374,2 0 -11.69374,2 0 -11.69374,2 0 -11.69374,2 0 -11.69374,2 0 -11.69374,2 0 -11.69374,2 0 -11.69374,2 0 -11.69374,11.010,
2 0 -9.576748,2 0 -9.576748,2 0 -9.576748,2 0 -9.576748,2 0 -9.576748,2 0 -9.576748,2 0 -9.576748,2 0 -9.576748,2 0 -9.576748,2 0 -9.576748,2 0 -9.576748,2 0 -9.576748,2 0 -9.576748,2 0 -9.576748,2 0 -9.576748,2 0 -9.576748,2 0 -9.576748,2 0 -9.576748,2 0 -9.576748,2 0 -9.576748,2 0 -9.576748,2 0 -11.69374,2 0 -11.69374,2 0 -11.69374,2 0 -11.69374,2 0 -11.69374,2 0 -11.69374,2 0 -11.69374,2 0 -11.69374,2 0 -11.69374,2 0 -11.69374,2 0 -11.69374,2 0 -11.69374,2 0 -11.69374,2 0 -11.69374,2 0 -11.69374,2 0 -11.69374,2 0 -11.69374,2 0 -11.69374,2 0 -11.69374,2 0 -11.69374,2 0 -11.69374,11.110,
2 0 -9.576748,2 0 -9.576748,2 0 -9.576748,2 0 -9.576748,2 0 -9.576748,2 0 -9.576748,2 0 -9.576748,2 0 -9.576748,2 0 -9.576748,2 0 -9.576748,2 0 -9.576748,2 0 -9.576748,2 0 -9.576748,2 0 -9.576748,2 0 -9.576748,2 0 -9.576748,2 0 -9.576748,2 0 -9.576748,2 0 -9.576748,2 0 -9.576748,2 0 -9.576748,2 0 -11.69374,2 0 -11.69374,2 0 -11.69374,2 0 -11.69374,2 0 -11.69374,2 0 -11.69374,2 0 -11.69374,2 0 -11.69374,2 0 -11.69374,2 0 -11.69374,2 0 -11.69374,2 0 -11.69374,2 0 -11.69374,2 0 -11.69374,2 0 -11.69374,2 0 -11.69374,2 0 -11.69374,2 0 -11.69374,2 0 -11.69374,2 0 -11.69374,2 0 -11.69374,11.210,
2 0 -9.576748,2 0 -9.576748,2 0 -9.576748,2 0 -9.576748,2 0 -9.576748,2 0 -9.576748,2 0 -9.576748,2 0 -9.576748,2 0 -9.576748,2 0 -9.576748,2 0 -9.576748,2 0 -9.576748,2 0 -9.576748,2 0 -9.576748,2 0 -9.576748,2 0 -9.576748,2 0 -9.576748,2 0 -9.576748,2 0 -9.576748,2 0 -9.576748,2 0 -9.576748,2 0 -11.69374,2 0 -11.69374,2 0 -11.69374,2 0 -11.69374,2 0 -11.69374,2 0 -11.69374,2 0 -11.69374,2 0 -11.69374,2 0 -11.69374,2 0 -11.69374,2 0 -11.69374,2 0 -11.69374,2 0 -11.69374,2 0 -11.69374,2 0 -11.69374,2 0 -11.69374,2 0 -11.69374,2 0 -11.69374,2 0 -11.69374,2 0 -11.69374,2 0 -11.69374,11.310,
2 0 -9.576748,2 0 -9.576748,2 0 -9.576748,2 0 -9.576748,2 0 -9.576748,2 0 -9.576748,2 0 -9.576748,2 0 -9.576748,2 0 -9.576748,2 0 -9.576748,2 0 -9.576748,2 0 -9.576748,2 0 -9.576748,2 0 -9.576748,2 0 -9.576748,2 0 -9.576748,2 0 -9.576748,2 0 -9.576748,2 0 -9.576748,2 0 -9.576748,2 0 -9.576748,2 0 -11.69374,2 0 -11.69374,2 0 -11.69374,2 0 -11.69374,2 0 -11.69374,2 0 -11.69374,2 0 -11.69374,2 0 -11.69374,2 0 -11.69374,2 0 -11.69374,2 0 -11.69374,2 0 -11.69374,2 0 -11.69374,2 0 -11.69374,2 0 -11.69374,2 0 -11.69374,2 0 -11.69374,2 0 -11.69374,2 0 -11.69374,2 0 -11.69374,2 0 -11.69374,11.410,
2 0 -9.576748,2 0 -9.576748,2 0 -9.576748,2 0 -9.576748,2 0 -9.576748,2 0 -9.576748,2 0 -9.576748,2 0 -9.576748,2 0 -9.576748,2 0 -9.576748,2 0 -9.576748,2 0 -9.576748,2 0 -9.576748,2 0 -9.576748,2 0 -9.576748,2 0 -9.576748,2 0 -9.576748,2 0 -9.576748,2 0 -9.576748,2 0 -9.576748,2 0 -9.576748,2 0 -11.69374,2 0 -11.69374,2 0 -11.69374,2 0 -11.69374,2 0 -11.69374,2 0 -11.69374,2 0 -11.69374,2 0 -11.69374,2 0 -11.69374,2 0 -11.69374,2 0 -11.69374,2 0 -11.69374,2 0 -11.69374,2 0 -11.69374,2 0 -11.69374,2 0 -11.69374,2 0 -11.69374,2 0 -11.69374,2 0 -11.69374,2 0 -11.69374,2 0 -11.69374,11.510,
2 0 -9.576748,2 0 -9.576748,2 0 -9.576748,2 0 -9.576748,2 0 -9.576748,2 0 -9.576748,2 0 -9.576748,2 0 -9.576748,2 0 -9.576748,2 0 -9.576748,2 0 -9.576748,2 0 -9.576748,2 0 -9.576748,2 0 -9.576748,2 0 -9.576748,2 0 -9.576748,2 0 -9.576748,2 0 -9.576748,2 0 -9.576748,2 0 -9.576748,2 0 -9.576748,2 0 -11.69374,2 0 -11.69374,2 0 -11.69374,2 0 -11.69374,2 0 -11.69374,2 0 -11.69374,2 0 -11.69374,2 0 -11.69374,2 0 -11.69374,2 0 -11.69374,2 0 -11.69374,2 0 -11.69374,2 0 -11.69374,2 0 -11.69374,2 0 -11.69374,2 0 -11.69374,2 0 -11.69374,2 0 -11.69374,2 0 -11.69374,2 0 -11.69374,2 0 -11.69374,11.610,
2 0 -9.576748,2 0 -9.576748,2 0 -9.576748,2 0 -9.576748,2 0 -9.576748,2 0 -9.576748,2 0 -9.576748,2 0 -9.576748,2 0 -9.576748,2 0 -9.576748,2 0 -9.576748,2 0 -9.576748,2 0 -9.576748,2 0 -9.576748,2 0 -9.576748,2 0 -9.576748,2 0 -9.576748,2 0 -9.576748,2 0 -9.576748,2 0 -9.576748,2 0 -9.576748,2 0 -11.69374,2 0 -11.69374,2 0 -11.69374,2 0 -11.69374,2 0 -11.69374,2 0 -11.69374,2 0 -11.69374,2 0 -11.69374,2 0 -11.69374,2 0 -11.69374,2 0 -11.69374,2 0 -11.69374,2 0 -11.69374,2 0 -11.69374,2 0 -11.69374,2 0 -11.69374,2 0 -11.69374,2 0 -11.69374,2 0 -11.69374,2 0 -11.69374,2 0 -11.69374,11.710,
2 0 -9.576748,2 0 -9.576748,2 0 -9.576748,2 0 -9.576748,2 0 -9.576748,2 0 -9.576748,2 0 -9.576748,2 0 -9.576748,2 0 -9.576748,2 0 -9.576748,2 0 -9.576748,2 0 -9.576748,2 0 -9.576748,2 0 -9.576748,2 0 -9.576748,2 0 -9.576748,2 0 -9.576748,2 0 -9.576748,2 0 -9.576748,2 0 -9.576748,2 0 -9.576748,2 0 -11.69374,2 0 -11.69374,2 0 -11.69374,2 0 -11.69374,2 0 -11.69374,2 0 -11.69374,2 0 -11.69374,2 0 -11.69374,2 0 -11.69374,2 0 -11.69374,2 0 -11.69374,2 0 -11.69374,2 0 -11.69374,2 0 -11.69374,2 0 -11.69374,2 0 -11.69374,2 0 -11.69374,2 0 -11.69374,2 0 -11.69374,2 0 -11.69374,2 0 -11.69374,11.810,
2 0 -9.576748,2 0 -9.576748,2 0 -9.576748,2 0 -9.576748,2 0 -9.576748,2 0 -9.576748,2 0 -9.576748,2 0 -9.576748,2 0 -9.576748,2 0 -9.576748,2 0 -9.576748,2 0 -9.576748,2 0 -9.576748,2 0 -9.576748,2 0 -9.576748,2 0 -9.576748,2 0 -9.576748,2 0 -9.576748,2 0 -9.576748,2 0 -9.576748,2 0 -9.576748,2 0 -11.69374,2 0 -11.69374,2 0 -11.69374,2 0 -11.69374,2 0 -11.69374,2 0 -11.69374,2 0 -11.69374,2 0 -11.69374,2 0 -11.69374,2 0 -11.69374,2 0 -11.69374,2 0 -11.69374,2 0 -11.69374,2 0 -11.69374,2 0 -11.69374,2 0 -11.69374,2 0 -11.69374,2 0 -11.69374,2 0 -11.69374,2 0 -11.69374,2 0 -11.69374,11.910,
2 0 -9.576748,2 0 -9.576748,2 0 -9.576748,2 0 -9.576748,2 0 -9.576748,2 0 -9.576748,2 0 -9.576748,2 0 -9.576748,2 0 -9.576748,2 0 -9.576748,2 0 -9.576748,2 0 -9.576748,2 0 -9.576748,2 0 -9.576748,2 0 -9.576748,2 0 -9.576748,2 0 -9.576748,2 0 -9.576748,2 0 -9.576748,2 0 -9.576748,2 0 -9.576748,2 0 -11.69374,2 0 -11.69374,2 0 -11.69374,2 0 -11.69374,2 0 -11.69374,2 0 -11.69374,2 0 -11.69374,2 0 -11.69374,2 0 -11.69374,2 0 -11.69374,2 0 -11.69374,2 0 -11.69374,2 0 -11.69374,2 0 -11.69374,2 0 -11.69374,2 0 -11.69374,2 0 -11.69374,2 0 -11.69374,2 0 -11.69374,2 0 -11.69374,2 0 -11.69374,12.010,
2 0 -9.576748,2 0 -9.576748,2 0 -9.576748,2 0 -9.576748,2 0 -9.576748,2 0 -9.576748,2 0 -9.576748,2 0 -9.576748,2 0 -9.576748,2 0 -9.576748,2 0 -9.576748,2 0 -9.576748,2 0 -9.576748,2 0 -9.576748,2 0 -9.576748,2 0 -9.576748,2 0 -9.576748,2 0 -9.576748,2 0 -9.576748,2 0 -9.576748,2 0 -9.576748,2 0 -11.69374,2 0 -11.69374,2 0 -11.69374,2 0 -11.69374,2 0 -11.69374,2 0 -11.69374,2 0 -11.69374,2 0 -11.69374,2 0 -11.69374,2 0 -11.69374,2 0 -11.69374,2 0 -11.69374,2 0 -11.69374,2 0 -11.69374,2 0 -11.69374,2 0 -11.69374,2 0 -11.69374,2 0 -11.69374,2 0 -11.69374,2 0 -11.69374,2 0 -11.69374,12.110,
2 0 -9.576748,2 0 -9.576748,2 0 -9.576748,2 0 -9.576748,2 0 -9.576748,2 0 -9.576748,2 0 -9.576748,2 0 -9.576748,2 0 -9.576748,2 0 -9.576748,2 0 -9.576748,2 0 -9.576748,2 0 -9.576748,2 0 -9.576748,2 0 -9.576748,2 0 -9.576748,2 0 -9.576748,2 0 -9.576748,2 0 -9.576748,2 0 -9.576748,2 0 -9.576748,2 0 -11.69374,2 0 -11.69374,2 0 -11.69374,2 0 -11.69374,2 0 -11.69374,2 0 -11.69374,2 0 -11.69374,2 0 -11.69374,2 0 -11.69374,2 0 -11.69374,2 0 -11.69374,2 0 -11.69374,2 0 -11.69374,2 0 -11.69374,2 0 -11.69374,2 0 -11.69374,2 0 -11.69374,2 0 -11.69374,2 0 -11.69374,2 0 -11.69374,2 0 -11.69374,12.210,
2 0 -9.576748,2 0 -9.576748,2 0 -9.576748,2 0 -9.576748,2 0 -9.576748,2 0 -9.576748,2 0 -9.576748,2 0 -9.576748,2 0 -9.576748,2 0 -9.576748,2 0 -9.576748,2 0 -9.576748,2 0 -9.576748,2 0 -9.576748,2 0 -9.576748,2 0 -9.576748,2 0 -9.576748,2 0 -9.576748,2 0 -9.576748,2 0 -9.576748,2 0 -9.576748,2 0 -11.69374,2 0 -11.69374,2 0 -11.69374,2 0 -11.69374,2 0 -11.69374,2 0 -11.69374,2 0 -11.69374,2 0 -11.69374,2 0 -11.69374,2 0 -11.69374,2 0 -11.69374,2 0 -11.69374,2 0 -11.69374,2 0 -11.69374,2 0 -11.69374,2 0 -11.69374,2 0 -11.69374,2 0 -11.69374,2 0 -11.69374,2 0 -11.69374,2 0 -11.69374,12.310,
2 0 -9.576748,2 0 -9.576748,2 0 -9.576748,2 0 -9.576748,2 0 -9.576748,2 0 -9.576748,2 0 -9.576748,2 0 -9.576748,2 0 -9.576748,2 0 -9.576748,2 0 -9.576748,2 0 -9.576748,2 0 -9.576748,2 0 -9.576748,2 0 -9.576748,2 0 -9.576748,2 0 -9.576748,2 0 -9.576748,2 0 -9.576748,2 0 -9.576748,2 0 -9.576748,2 0 -11.69374,2 0 -11.69374,2 0 -11.69374,2 0 -11.69374,2 0 -11.69374,2 0 -11.69374,2 0 -11.69374,2 0 -11.69374,2 0 -11.69374,2 0 -11.69374,2 0 -11.69374,2 0 -11.69374,2 0 -11.69374,2 0 -11.69374,2 0 -11.69374,2 0 -11.69374,2 0 -11.69374,2 0 -11.69374,2 0 -11.69374,2 0 -11.69374,2 0 -11.69374,12.410,
2 0 -9.576748,2 0 -9.576748,2 0 -9.576748,2 0 -9.576748,2 0 -9.576748,2 0 -9.576748,2 0 -9.576748,2 0 -9.576748,2 0 -9.576748,2 0 -9.576748,2 0 -9.576748,2 0 -9.576748,2 0 -9.576748,2 0 -9.576748,2 0 -9.576748,2 0 -9.576748,2 0 -9.576748,2 0 -9.576748,2 0 -9.576748,2 0 -9.576748,2 0 -9.576748,2 0 -11.69374,2 0 -11.69374,2 0 -11.69374,2 0 -11.69374,2 0 -11.69374,2 0 -11.69374,2 0 -11.69374,2 0 -11.69374,2 0 -11.69374,2 0 -11.69374,2 0 -11.69374,2 0 -11.69374,2 0 -11.69374,2 0 -11.69374,2 0 -11.69374,2 0 -11.69374,2 0 -11.69374,2 0 -11.69374,2 0 -11.69374,2 0 -11.69374,2 0 -11.69374,12.510,
2 0 -9.576748,2 0 -9.576748,2 0 -9.576748,2 0 -9.576748,2 0 -9.576748,2 0 -9.576748,2 0 -9.576748,2 0 -9.576748,2 0 -9.576748,2 0 -9.576748,2 0 -9.576748,2 0 -9.576748,2 0 -9.576748,2 0 -9.576748,2 0 -9.576748,2 0 -9.576748,2 0 -9.576748,2 0 -9.576748,2 0 -9.576748,2 0 -9.576748,2 0 -9.576748,2 0 -11.69374,2 0 -11.69374,2 0 -11.69374,2 0 -11.69374,2 0 -11.69374,2 0 -11.69374,2 0 -11.69374,2 0 -11.69374,2 0 -11.69374,2 0 -11.69374,2 0 -11.69374,2 0 -11.69374,2 0 -11.69374,2 0 -11.69374,2 0 -11.69374,2 0 -11.69374,2 0 -11.69374,2 0 -11.69374,2 0 -11.69374,2 0 -11.69374,2 0 -11.69374,12.610,
2 0 -9.576748,2 0 -9.576748,2 0 -9.576748,2 0 -9.576748,2 0 -9.576748,2 0 -9.576748,2 0 -9.576748,2 0 -9.576748,2 0 -9.576748,2 0 -9.576748,2 0 -9.576748,2 0 -9.576748,2 0 -9.576748,2 0 -9.576748,2 0 -9.576748,2 0 -9.576748,2 0 -9.576748,2 0 -9.576748,2 0 -9.576748,2 0 -9.576748,2 0 -9.576748,2 0 -11.69374,2 0 -11.69374,2 0 -11.69374,2 0 -11.69374,2 0 -11.69374,2 0 -11.69374,2 0 -11.69374,2 0 -11.69374,2 0 -11.69374,2 0 -11.69374,2 0 -11.69374,2 0 -11.69374,2 0 -11.69374,2 0 -11.69374,2 0 -11.69374,2 0 -11.69374,2 0 -11.69374,2 0 -11.69374,2 0 -11.69374,2 0 -11.69374,2 0 -11.69374,12.710,
2 0 -9.576748,2 0 -9.576748,2 0 -9.576748,2 0 -9.576748,2 0 -9.576748,2 0 -9.576748,2 0 -9.576748,2 0 -9.576748,2 0 -9.576748,2 0 -9.576748,2 0 -9.576748,2 0 -9.576748,2 0 -9.576748,2 0 -9.576748,2 0 -9.576748,2 0 -9.576748,2 0 -9.576748,2 0 -9.576748,2 0 -9.576748,2 0 -9.576748,2 0 -9.576748,2 0 -11.69374,2 0 -11.69374,2 0 -11.69374,2 0 -11.69374,2 0 -11.69374,2 0 -11.69374,2 0 -11.69374,2 0 -11.69374,2 0 -11.69374,2 0 -11.69374,2 0 -11.69374,2 0 -11.69374,2 0 -11.69374,2 0 -11.69374,2 0 -11.69374,2 0 -11.69374,2 0 -11.69374,2 0 -11.69374,2 0 -11.69374,2 0 -11.69374,2 0 -11.69374,12.810,
2 0 -9.576748,2 0 -9.576748,2 0 -9.576748,2 0 -9.576748,2 0 -9.576748,2 0 -9.576748,2 0 -9.576748,2 0 -9.576748,2 0 -9.576748,2 0 -9.576748,2 0 -9.576748,2 0 -9.576748,2 0 -9.576748,2 0 -9.576748,2 0 -9.576748,2 0 -9.576748,2 0 -9.576748,2 0 -9.576748,2 0 -9.576748,2 0 -9.576748,2 0 -9.576748,2 0 -11.69374,2 0 -11.69374,2 0 -11.69374,2 0 -11.69374,2 0 -11.69374,2 0 -11.69374,2 0 -11.69374,2 0 -11.69374,2 0 -11.69374,2 0 -11.69374,2 0 -11.69374,2 0 -11.69374,2 0 -11.69374,2 0 -11.69374,2 0 -11.69374,2 0 -11.69374,2 0 -11.69374,2 0 -11.69374,2 0 -11.69374,2 0 -11.69374,2 0 -11.69374,12.910,
2 0 -9.576748,2 0 -9.576748,2 0 -9.576748,2 0 -9.576748,2 0 -9.576748,2 0 -9.576748,2 0 -9.576748,2 0 -9.576748,2 0 -9.576748,2 0 -9.576748,2 0 -9.576748,2 0 -9.576748,2 0 -9.576748,2 0 -9.576748,2 0 -9.576748,2 0 -9.576748,2 0 -9.576748,2 0 -9.576748,2 0 -9.576748,2 0 -9.576748,2 0 -9.576748,2 0 -11.69374,2 0 -11.69374,2 0 -11.69374,2 0 -11.69374,2 0 -11.69374,2 0 -11.69374,2 0 -11.69374,2 0 -11.69374,2 0 -11.69374,2 0 -11.69374,2 0 -11.69374,2 0 -11.69374,2 0 -11.69374,2 0 -11.69374,2 0 -11.69374,2 0 -11.69374,2 0 -11.69374,2 0 -11.69374,2 0 -11.69374,2 0 -11.69374,2 0 -11.69374,13.010,
2 0 -9.576748,2 0 -9.576748,2 0 -9.576748,2 0 -9.576748,2 0 -9.576748,2 0 -9.576748,2 0 -9.576748,2 0 -9.576748,2 0 -9.576748,2 0 -9.576748,2 0 -9.576748,2 0 -9.576748,2 0 -9.576748,2 0 -9.576748,2 0 -9.576748,2 0 -9.576748,2 0 -9.576748,2 0 -9.576748,2 0 -9.576748,2 0 -9.576748,2 0 -9.576748,2 0 -11.69374,2 0 -11.69374,2 0 -11.69374,2 0 -11.69374,2 0 -11.69374,2 0 -11.69374,2 0 -11.69374,2 0 -11.69374,2 0 -11.69374,2 0 -11.69374,2 0 -11.69374,2 0 -11.69374,2 0 -11.69374,2 0 -11.69374,2 0 -11.69374,2 0 -11.69374,2 0 -11.69374,2 0 -11.69374,2 0 -11.69374,2 0 -11.69374,2 0 -11.69374,13.110,
2 0 -9.576748,2 0 -9.576748,2 0 -9.576748,2 0 -9.576748,2 0 -9.576748,2 0 -9.576748,2 0 -9.576748,2 0 -9.576748,2 0 -9.576748,2 0 -9.576748,2 0 -9.576748,2 0 -9.576748,2 0 -9.576748,2 0 -9.576748,2 0 -9.576748,2 0 -9.576748,2 0 -9.576748,2 0 -9.576748,2 0 -9.576748,2 0 -9.576748,2 0 -9.576748,2 0 -11.69374,2 0 -11.69374,2 0 -11.69374,2 0 -11.69374,2 0 -11.69374,2 0 -11.69374,2 0 -11.69374,2 0 -11.69374,2 0 -11.69374,2 0 -11.69374,2 0 -11.69374,2 0 -11.69374,2 0 -11.69374,2 0 -11.69374,2 0 -11.69374,2 0 -11.69374,2 0 -11.69374,2 0 -11.69374,2 0 -11.69374,2 0 -11.69374,2 0 -11.69374,13.210,
2 0 -9.576748,2 0 -9.576748,2 0 -9.576748,2 0 -9.576748,2 0 -9.576748,2 0 -9.576748,2 0 -9.576748,2 0 -9.576748,2 0 -9.576748,2 0 -9.576748,2 0 -9.576748,2 0 -9.576748,2 0 -9.576748,2 0 -9.576748,2 0 -9.576748,2 0 -9.576748,2 0 -9.576748,2 0 -9.576748,2 0 -9.576748,2 0 -9.576748,2 0 -9.576748,2 0 -11.69374,2 0 -11.69374,2 0 -11.69374,2 0 -11.69374,2 0 -11.69374,2 0 -11.69374,2 0 -11.69374,2 0 -11.69374,2 0 -11.69374,2 0 -11.69374,2 0 -11.69374,2 0 -11.69374,2 0 -11.69374,2 0 -11.69374,2 0 -11.69374,2 0 -11.69374,2 0 -11.69374,2 0 -11.69374,2 0 -11.69374,2 0 -11.69374,2 0 -11.69374,13.310,
2 0 -9.576748,2 0 -9.576748,2 0 -9.576748,2 0 -9.576748,2 0 -9.576748,2 0 -9.576748,2 0 -9.576748,2 0 -9.576748,2 0 -9.576748,2 0 -9.576748,2 0 -9.576748,2 0 -9.576748,2 0 -9.576748,2 0 -9.576748,2 0 -9.576748,2 0 -9.576748,2 0 -9.576748,2 0 -9.576748,2 0 -9.576748,2 0 -9.576748,2 0 -9.576748,2 0 -11.69374,2 0 -11.69374,2 0 -11.69374,2 0 -11.69374,2 0 -11.69374,2 0 -11.69374,2 0 -11.69374,2 0 -11.69374,2 0 -11.69374,2 0 -11.69374,2 0 -11.69374,2 0 -11.69374,2 0 -11.69374,2 0 -11.69374,2 0 -11.69374,2 0 -11.69374,2 0 -11.69374,2 0 -11.69374,2 0 -11.69374,2 0 -11.69374,2 0 -11.69374,13.410,
2 0 -9.576748,2 0 -9.576748,2 0 -9.576748,2 0 -9.576748,2 0 -9.576748,2 0 -9.576748,2 0 -9.576748,2 0 -9.576748,2 0 -9.576748,2 0 -9.576748,2 0 -9.576748,2 0 -9.576748,2 0 -9.576748,2 0 -9.576748,2 0 -9.576748,2 0 -9.576748,2 0 -9.576748,2 0 -9.576748,2 0 -9.576748,2 0 -9.576748,2 0 -9.576748,2 0 -11.69374,2 0 -11.69374,2 0 -11.69374,2 0 -11.69374,2 0 -11.69374,2 0 -11.69374,2 0 -11.69374,2 0 -11.69374,2 0 -11.69374,2 0 -11.69374,2 0 -11.69374,2 0 -11.69374,2 0 -11.69374,2 0 -11.69374,2 0 -11.69374,2 0 -11.69374,2 0 -11.69374,2 0 -11.69374,2 0 -11.69374,2 0 -11.69374,2 0 -11.69374,13.510,
2 0 -9.576748,2 0 -9.576748,2 0 -9.576748,2 0 -9.576748,2 0 -9.576748,2 0 -9.576748,2 0 -9.576748,2 0 -9.576748,2 0 -9.576748,2 0 -9.576748,2 0 -9.576748,2 0 -9.576748,2 0 -9.576748,2 0 -9.576748,2 0 -9.576748,2 0 -9.576748,2 0 -9.576748,2 0 -9.576748,2 0 -9.576748,2 0 -9.576748,2 0 -9.576748,2 0 -11.69374,2 0 -11.69374,2 0 -11.69374,2 0 -11.69374,2 0 -11.69374,2 0 -11.69374,2 0 -11.69374,2 0 -11.69374,2 0 -11.69374,2 0 -11.69374,2 0 -11.69374,2 0 -11.69374,2 0 -11.69374,2 0 -11.69374,2 0 -11.69374,2 0 -11.69374,2 0 -11.69374,2 0 -11.69374,2 0 -11.69374,2 0 -11.69374,2 0 -11.69374,13.610,
2 0 -9.576748,2 0 -9.576748,2 0 -9.576748,2 0 -9.576748,2 0 -9.576748,2 0 -9.576748,2 0 -9.576748,2 0 -9.576748,2 0 -9.576748,2 0 -9.576748,2 0 -9.576748,2 0 -9.576748,2 0 -9.576748,2 0 -9.576748,2 0 -9.576748,2 0 -9.576748,2 0 -9.576748,2 0 -9.576748,2 0 -9.576748,2 0 -9.576748,2 0 -9.576748,2 0 -11.69374,2 0 -11.69374,2 0 -11.69374,2 0 -11.69374,2 0 -11.69374,2 0 -11.69374,2 0 -11.69374,2 0 -11.69374,2 0 -11.69374,2 0 -11.69374,2 0 -11.69374,2 0 -11.69374,2 0 -11.69374,2 0 -11.69374,2 0 -11.69374,2 0 -11.69374,2 0 -11.69374,2 0 -11.69374,2 0 -11.69374,2 0 -11.69374,2 0 -11.69374,13.710,
2 0 -9.576748,2 0 -9.576748,2 0 -9.576748,2 0 -9.576748,2 0 -9.576748,2 0 -9.576748,2 0 -9.576748,2 0 -9.576748,2 0 -9.576748,2 0 -9.576748,2 0 -9.576748,2 0 -9.576748,2 0 -9.576748,2 0 -9.576748,2 0 -9.576748,2 0 -9.576748,2 0 -9.576748,2 0 -9.576748,2 0 -9.576748,2 0 -9.576748,2 0 -9.576748,2 0 -11.69374,2 0 -11.69374,2 0 -11.69374,2 0 -11.69374,2 0 -11.69374,2 0 -11.69374,2 0 -11.69374,2 0 -11.69374,2 0 -11.69374,2 0 -11.69374,2 0 -11.69374,2 0 -11.69374,2 0 -11.69374,2 0 -11.69374,2 0 -11.69374,2 0 -11.69374,2 0 -11.69374,2 0 -11.69374,2 0 -11.69374,2 0 -11.69374,2 0 -11.69374,13.810,
2 0 -9.576748,2 0 -9.576748,2 0 -9.576748,2 0 -9.576748,2 0 -9.576748,2 0 -9.576748,2 0 -9.576748,2 0 -9.576748,2 0 -9.576748,2 0 -9.576748,2 0 -9.576748,2 0 -9.576748,2 0 -9.576748,2 0 -9.576748,2 0 -9.576748,2 0 -9.576748,2 0 -9.576748,2 0 -9.576748,2 0 -9.576748,2 0 -9.576748,2 0 -9.576748,2 0 -11.69374,2 0 -11.69374,2 0 -11.69374,2 0 -11.69374,2 0 -11.69374,2 0 -11.69374,2 0 -11.69374,2 0 -11.69374,2 0 -11.69374,2 0 -11.69374,2 0 -11.69374,2 0 -11.69374,2 0 -11.69374,2 0 -11.69374,2 0 -11.69374,2 0 -11.69374,2 0 -11.69374,2 0 -11.69374,2 0 -11.69374,2 0 -11.69374,2 0 -11.69374,13.910,
2 0 -9.576748,2 0 -9.576748,2 0 -9.576748,2 0 -9.576748,2 0 -9.576748,2 0 -9.576748,2 0 -9.576748,2 0 -9.576748,2 0 -9.576748,2 0 -9.576748,2 0 -9.576748,2 0 -9.576748,2 0 -9.576748,2 0 -9.576748,2 0 -9.576748,2 0 -9.576748,2 0 -9.576748,2 0 -9.576748,2 0 -9.576748,2 0 -9.576748,2 0 -9.576748,2 0 -11.69374,2 0 -11.69374,2 0 -11.69374,2 0 -11.69374,2 0 -11.69374,2 0 -11.69374,2 0 -11.69374,2 0 -11.69374,2 0 -11.69374,2 0 -11.69374,2 0 -11.69374,2 0 -11.69374,2 0 -11.69374,2 0 -11.69374,2 0 -11.69374,2 0 -11.69374,2 0 -11.69374,2 0 -11.69374,2 0 -11.69374,2 0 -11.69374,2 0 -11.69374,14.010,
2 0 -9.576748,2 0 -9.576748,2 0 -9.576748,2 0 -9.576748,2 0 -9.576748,2 0 -9.576748,2 0 -9.576748,2 0 -9.576748,2 0 -9.576748,2 0 -9.576748,2 0 -9.576748,2 0 -9.576748,2 0 -9.576748,2 0 -9.576748,2 0 -9.576748,2 0 -9.576748,2 0 -9.576748,2 0 -9.576748,2 0 -9.576748,2 0 -9.576748,2 0 -9.576748,2 0 -11.69374,2 0 -11.69374,2 0 -11.69374,2 0 -11.69374,2 0 -11.69374,2 0 -11.69374,2 0 -11.69374,2 0 -11.69374,2 0 -11.69374,2 0 -11.69374,2 0 -11.69374,2 0 -11.69374,2 0 -11.69374,2 0 -11.69374,2 0 -11.69374,2 0 -11.69374,2 0 -11.69374,2 0 -11.69374,2 0 -11.69374,2 0 -11.69374,2 0 -11.69374,14.110,
2 0 -9.576748,2 0 -9.576748,2 0 -9.576748,2 0 -9.576748,2 0 -9.576748,2 0 -9.576748,2 0 -9.576748,2 0 -9.576748,2 0 -9.576748,2 0 -9.576748,2 0 -9.576748,2 0 -9.576748,2 0 -9.576748,2 0 -9.576748,2 0 -9.576748,2 0 -9.576748,2 0 -9.576748,2 0 -9.576748,2 0 -9.576748,2 0 -9.576748,2 0 -9.576748,2 0 -11.69374,2 0 -11.69374,2 0 -11.69374,2 0 -11.69374,2 0 -11.69374,2 0 -11.69374,2 0 -11.69374,2 0 -11.69374,2 0 -11.69374,2 0 -11.69374,2 0 -11.69374,2 0 -11.69374,2 0 -11.69374,2 0 -11.69374,2 0 -11.69374,2 0 -11.69374,2 0 -11.69374,2 0 -11.69374,2 0 -11.69374,2 0 -11.69374,2 0 -11.69374,14.210,
2 0 -9.576748,2 0 -9.576748,2 0 -9.576748,2 0 -9.576748,2 0 -9.576748,2 0 -9.576748,2 0 -9.576748,2 0 -9.576748,2 0 -9.576748,2 0 -9.576748,2 0 -9.576748,2 0 -9.576748,2 0 -9.576748,2 0 -9.576748,2 0 -9.576748,2 0 -9.576748,2 0 -9.576748,2 0 -9.576748,2 0 -9.576748,2 0 -9.576748,2 0 -9.576748,2 0 -11.69374,2 0 -11.69374,2 0 -11.69374,2 0 -11.69374,2 0 -11.69374,2 0 -11.69374,2 0 -11.69374,2 0 -11.69374,2 0 -11.69374,2 0 -11.69374,2 0 -11.69374,2 0 -11.69374,2 0 -11.69374,2 0 -11.69374,2 0 -11.69374,2 0 -11.69374,2 0 -11.69374,2 0 -11.69374,2 0 -11.69374,2 0 -11.69374,2 0 -11.69374,14.310,
2 0 -9.576748,2 0 -9.576748,2 0 -9.576748,2 0 -9.576748,2 0 -9.576748,2 0 -9.576748,2 0 -9.576748,2 0 -9.576748,2 0 -9.576748,2 0 -9.576748,2 0 -9.576748,2 0 -9.576748,2 0 -9.576748,2 0 -9.576748,2 0 -9.576748,2 0 -9.576748,2 0 -9.576748,2 0 -9.576748,2 0 -9.576748,2 0 -9.576748,2 0 -9.576748,2 0 -11.69374,2 0 -11.69374,2 0 -11.69374,2 0 -11.69374,2 0 -11.69374,2 0 -11.69374,2 0 -11.69374,2 0 -11.69374,2 0 -11.69374,2 0 -11.69374,2 0 -11.69374,2 0 -11.69374,2 0 -11.69374,2 0 -11.69374,2 0 -11.69374,2 0 -11.69374,2 0 -11.69374,2 0 -11.69374,2 0 -11.69374,2 0 -11.69374,2 0 -11.69374,14.410,
2 0 -9.576748,2 0 -9.576748,2 0 -9.576748,2 0 -9.576748,2 0 -9.576748,2 0 -9.576748,2 0 -9.576748,2 0 -9.576748,2 0 -9.576748,2 0 -9.576748,2 0 -9.576748,2 0 -9.576748,2 0 -9.576748,2 0 -9.576748,2 0 -9.576748,2 0 -9.576748,2 0 -9.576748,2 0 -9.576748,2 0 -9.576748,2 0 -9.576748,2 0 -9.576748,2 0 -11.69374,2 0 -11.69374,2 0 -11.69374,2 0 -11.69374,2 0 -11.69374,2 0 -11.69374,2 0 -11.69374,2 0 -11.69374,2 0 -11.69374,2 0 -11.69374,2 0 -11.69374,2 0 -11.69374,2 0 -11.69374,2 0 -11.69374,2 0 -11.69374,2 0 -11.69374,2 0 -11.69374,2 0 -11.69374,2 0 -11.69374,2 0 -11.69374,2 0 -11.69374,14.510,
1.628788 0 -9.576748,2.710145 0 -9.576748,0.8690176 0 -9.576748,0.546299 0 -9.576748,3.435099 0 -9.576748,4.165125 0 -9.576748,5.268843 0 -9.576748,-0.5836163 0 -9.576748,-0.1836166 0 -9.576748,2.310145 0 -9.576748,1.228788 0 -9.576748,4.905352 0 -9.576748,0.1462994 0 -9.576748,4.505351 0 -9.576748,-0.9305825 0 -9.576748,1.948784 0 -9.576748,-1.330583 0 -9.576748,3.035099 0 -9.576748,5.668842 0 -9.576748,3.765125 0 -9.576748,-1.710155 0 -9.576748,2 0 -11.69374,4.599992 0 -11.69374,4.199991 0 -11.69374,2.4 0 -11.69374,9.393584 0 -11.69374,3.466665 0 -11.69374,2.733334 0 -11.69374,6.799948 0 -11.69374,6.399948 0 -11.69374,5.666746 0 -11.69374,3.866665 0 -11.69374,4.933334 0 -11.69374,7.532341 0 -11.69374,9.014168 0 -11.69374,8.614168 0 -11.69374,3.133333 0 -11.69374,7.866507 0 -11.69374,5.333334 0 -11.69374,6.066746 0 -11.69374,8.266506 0 -11.69374,7.13234 0 -11.69374,14.610,
2 0 -9.576748,2 0 -9.576748,2 0 -9.576748,2 0 -9.576748,2 0 -9.576748,2 0 -9.576748,2 0 -9.576748,2 0 -9.576748,2 0 -9.576748,2 0 -9.576748,2 0 -9.576748,2 0 -9.576748,2 0 -9.576748,2 0 -9.576748,2 0 -9.576748,2 0 -9.576748,2 0 -9.576748,2 0 -9.576748,2 0 -9.576748,2 0 -9.576748,2 0 -9.576748,2 0 -11.69374,2 0 -11.69374,2 0 -11.69374,2 0 -11.69374,2 0 -11.69374,2 0 -11.69374,2 0 -11.69374,2 0 -11.69374,2 0 -11.69374,2 0 -11.69374,2 0 -11.69374,2 0 -11.69374,2 0 -11.69374,2 0 -11.69374,2 0 -11.69374,2 0 -11.69374,2 0 -11.69374,2 0 -11.69374,2 0 -11.69374,2 0 -11.69374,2 0 -11.69374,14.710,
2 0 -9.576748,2 0 -9.576748,2 0 -9.576748,2 0 -9.576748,2 0 -9.576748,2 0 -9.576748,2 0 -9.576748,2 0 -9.576748,2 0 -9.576748,2 0 -9.576748,2 0 -9.576748,2 0 -9.576748,2 0 -9.576748,2 0 -9.576748,2 0 -9.576748,2 0 -9.576748,2 0 -9.576748,2 0 -9.576748,2 0 -9.576748,2 0 -9.576748,2 0 -9.576748,2 0 -11.69374,2 0 -11.69374,2 0 -11.69374,2 0 -11.69374,2 0 -11.69374,2 0 -11.69374,2 0 -11.69374,2 0 -11.69374,2 0 -11.69374,2 0 -11.69374,2 0 -11.69374,2 0 -11.69374,2 0 -11.69374,2 0 -11.69374,2 0 -11.69374,2 0 -11.69374,2 0 -11.69374,2 0 -11.69374,2 0 -11.69374,2 0 -11.69374,2 0 -11.69374,14.810,
2 0 -9.576748,2 0 -9.576748,2 0 -9.576748,2 0 -9.576748,2 0 -9.576748,2 0 -9.576748,2 0 -9.576748,2 0 -9.576748,2 0 -9.576748,2 0 -9.576748,2 0 -9.576748,2 0 -9.576748,2 0 -9.576748,2 0 -9.576748,2 0 -9.576748,2 0 -9.576748,2 0 -9.576748,2 0 -9.576748,2 0 -9.576748,2 0 -9.576748,2 0 -9.576748,2 0 -11.69374,2 0 -11.69374,2 0 -11.69374,2 0 -11.69374,2 0 -11.69374,2 0 -11.69374,2 0 -11.69374,2 0 -11.69374,2 0 -11.69374,2 0 -11.69374,2 0 -11.69374,2 0 -11.69374,2 0 -11.69374,2 0 -11.69374,2 0 -11.69374,2 0 -11.69374,2 0 -11.69374,2 0 -11.69374,2 0 -11.69374,2 0 -11.69374,2 0 -11.69374,14.910,
2 0 -9.576748,2 0 -9.576748,2 0 -9.576748,2 0 -9.576748,2 0 -9.576748,2 0 -9.576748,2 0 -9.576748,2 0 -9.576748,2 0 -9.576748,2 0 -9.576748,2 0 -9.576748,2 0 -9.576748,2 0 -9.576748,2 0 -9.576748,2 0 -9.576748,2 0 -9.576748,2 0 -9.576748,2 0 -9.576748,2 0 -9.576748,2 0 -9.576748,2 0 -9.576748,2 0 -11.69374,2 0 -11.69374,2 0 -11.69374,2 0 -11.69374,2 0 -11.69374,2 0 -11.69374,2 0 -11.69374,2 0 -11.69374,2 0 -11.69374,2 0 -11.69374,2 0 -11.69374,2 0 -11.69374,2 0 -11.69374,2 0 -11.69374,2 0 -11.69374,2 0 -11.69374,2 0 -11.69374,2 0 -11.69374,2 0 -11.69374,2 0 -11.69374,2 0 -11.69374,15.010,
2 0 -9.576748,2 0 -9.576748,2 0 -9.576748,2 0 -9.576748,2 0 -9.576748,2 0 -9.576748,2 0 -9.576748,2 0 -9.576748,2 0 -9.576748,2 0 -9.576748,2 0 -9.576748,2 0 -9.576748,2 0 -9.576748,2 0 -9.576748,2 0 -9.576748,2 0 -9.576748,2 0 -9.576748,2 0 -9.576748,2 0 -9.576748,2 0 -9.576748,2 0 -9.576748,2 0 -11.69374,2 0 -11.69374,2 0 -11.69374,2 0 -11.69374,2 0 -11.69374,2 0 -11.69374,2 0 -11.69374,2 0 -11.69374,2 0 -11.69374,2 0 -11.69374,2 0 -11.69374,2 0 -11.69374,2 0 -11.69374,2 0 -11.69374,2 0 -11.69374,2 0 -11.69374,2 0 -11.69374,2 0 -11.69374,2 0 -11.69374,2 0 -11.69374,2 0 -11.69374,15.110,
2 0 -9.576748,2 0 -9.576748,2 0 -9.576748,2 0 -9.576748,2 0 -9.576748,2 0 -9.576748,2 0 -9.576748,2 0 -9.576748,2 0 -9.576748,2 0 -9.576748,2 0 -9.576748,2 0 -9.576748,2 0 -9.576748,2 0 -9.576748,2 0 -9.576748,2 0 -9.576748,2 0 -9.576748,2 0 -9.576748,2 0 -9.576748,2 0 -9.576748,2 0 -9.576748,2 0 -11.69374,2 0 -11.69374,2 0 -11.69374,2 0 -11.69374,2 0 -11.69374,2 0 -11.69374,2 0 -11.69374,2 0 -11.69374,2 0 -11.69374,2 0 -11.69374,2 0 -11.69374,2 0 -11.69374,2 0 -11.69374,2 0 -11.69374,2 0 -11.69374,2 0 -11.69374,2 0 -11.69374,2 0 -11.69374,2 0 -11.69374,2 0 -11.69374,2 0 -11.69374,15.210,
2 0 -9.576748,2 0 -9.576748,2 0 -9.576748,2 0 -9.576748,2 0 -9.576748,2 0 -9.576748,2 0 -9.576748,2 0 -9.576748,2 0 -9.576748,2 0 -9.576748,2 0 -9.576748,2 0 -9.576748,2 0 -9.576748,2 0 -9.576748,2 0 -9.576748,2 0 -9.576748,2 0 -9.576748,2 0 -9.576748,2 0 -9.576748,2 0 -9.576748,2 0 -9.576748,2 0 -11.69374,2 0 -11.69374,2 0 -11.69374,2 0 -11.69374,2 0 -11.69374,2 0 -11.69374,2 0 -11.69374,2 0 -11.69374,2 0 -11.69374,2 0 -11.69374,2 0 -11.69374,2 0 -11.69374,2 0 -11.69374,2 0 -11.69374,2 0 -11.69374,2 0 -11.69374,2 0 -11.69374,2 0 -11.69374,2 0 -11.69374,2 0 -11.69374,2 0 -11.69374,15.310,
2 0 -9.576748,2 0 -9.576748,2 0 -9.576748,2 0 -9.576748,2 0 -9.576748,2 0 -9.576748,2 0 -9.576748,2 0 -9.576748,2 0 -9.576748,2 0 -9.576748,2 0 -9.576748,2 0 -9.576748,2 0 -9.576748,2 0 -9.576748,2 0 -9.576748,2 0 -9.576748,2 0 -9.576748,2 0 -9.576748,2 0 -9.576748,2 0 -9.576748,2 0 -9.576748,2 0 -11.69374,2 0 -11.69374,2 0 -11.69374,2 0 -11.69374,2 0 -11.69374,2 0 -11.69374,2 0 -11.69374,2 0 -11.69374,2 0 -11.69374,2 0 -11.69374,2 0 -11.69374,2 0 -11.69374,2 0 -11.69374,2 0 -11.69374,2 0 -11.69374,2 0 -11.69374,2 0 -11.69374,2 0 -11.69374,2 0 -11.69374,2 0 -11.69374,2 0 -11.69374,15.410,
2 0 -9.576748,2 0 -9.576748,2 0 -9.576748,2 0 -9.576748,2 0 -9.576748,2 0 -9.576748,2 0 -9.576748,2 0 -9.576748,2 0 -9.576748,2 0 -9.576748,2 0 -9.576748,2 0 -9.576748,2 0 -9.576748,2 0 -9.576748,2 0 -9.576748,2 0 -9.576748,2 0 -9.576748,2 0 -9.576748,2 0 -9.576748,2 0 -9.576748,2 0 -9.576748,2 0 -11.69374,2 0 -11.69374,2 0 -11.69374,2 0 -11.69374,2 0 -11.69374,2 0 -11.69374,2 0 -11.69374,2 0 -11.69374,2 0 -11.69374,2 0 -11.69374,2 0 -11.69374,2 0 -11.69374,2 0 -11.69374,2 0 -11.69374,2 0 -11.69374,2 0 -11.69374,2 0 -11.69374,2 0 -11.69374,2 0 -11.69374,2 0 -11.69374,2 0 -11.69374,15.510,
2 0 -9.576748,2 0 -9.576748,2 0 -9.576748,2 0 -9.576748,2 0 -9.576748,2 0 -9.576748,2 0 -9.576748,2 0 -9.576748,2 0 -9.576748,2 0 -9.576748,2 0 -9.576748,2 0 -9.576748,2 0 -9.576748,2 0 -9.576748,2 0 -9.576748,2 0 -9.576748,2 0 -9.576748,2 0 -9.576748,2 0 -9.576748,2 0 -9.576748,2 0 -9.576748,2 0 -11.69374,2 0 -11.69374,2 0 -11.69374,2 0 -11.69374,2 0 -11.69374,2 0 -11.69374,2 0 -11.69374,2 0 -11.69374,2 0 -11.69374,2 0 -11.69374,2 0 -11.69374,2 0 -11.69374,2 0 -11.69374,2 0 -11.69374,2 0 -11.69374,2 0 -11.69374,2 0 -11.69374,2 0 -11.69374,2 0 -11.69374,2 0 -11.69374,2 0 -11.69374,15.610,
2 0 -9.576748,2 0 -9.576748,2 0 -9.576748,2 0 -9.576748,2 0 -9.576748,2 0 -9.576748,2 0 -9.576748,2 0 -9.576748,2 0 -9.576748,2 0 -9.576748,2 0 -9.576748,2 0 -9.576748,2 0 -9.576748,2 0 -9.576748,2 0 -9.576748,2 0 -9.576748,2 0 -9.576748,2 0 -9.576748,2 0 -9.576748,2 0 -9.576748,2 0 -9.576748,2 0 -11.69374,2 0 -11.69374,2 0 -11.69374,2 0 -11.69374,2 0 -11.69374,2 0 -11.69374,2 0 -11.69374,2 0 -11.69374,2 0 -11.69374,2 0 -11.69374,2 0 -11.69374,2 0 -11.69374,2 0 -11.69374,2 0 -11.69374,2 0 -11.69374,2 0 -11.69374,2 0 -11.69374,2 0 -11.69374,2 0 -11.69374,2 0 -11.69374,2 0 -11.69374,15.710,
2 0 -9.576748,2 0 -9.576748,2 0 -9.576748,2 0 -9.576748,2 0 -9.576748,2 0 -9.576748,2 0 -9.576748,2 0 -9.576748,2 0 -9.576748,2 0 -9.576748,2 0 -9.576748,2 0 -9.576748,2 0 -9.576748,2 0 -9.576748,2 0 -9.576748,2 0 -9.576748,2 0 -9.576748,2 0 -9.576748,2 0 -9.576748,2 0 -9.576748,2 0 -9.576748,2 0 -11.69374,2 0 -11.69374,2 0 -11.69374,2 0 -11.69374,2 0 -11.69374,2 0 -11.69374,2 0 -11.69374,2 0 -11.69374,2 0 -11.69374,2 0 -11.69374,2 0 -11.69374,2 0 -11.69374,2 0 -11.69374,2 0 -11.69374,2 0 -11.69374,2 0 -11.69374,2 0 -11.69374,2 0 -11.69374,2 0 -11.69374,2 0 -11.69374,2 0 -11.69374,15.810,
2 0 -9.576748,2 0 -9.576748,2 0 -9.576748,2 0 -9.576748,2 0 -9.576748,2 0 -9.576748,2 0 -9.576748,2 0 -9.576748,2 0 -9.576748,2 0 -9.576748,2 0 -9.576748,2 0 -9.576748,2 0 -9.576748,2 0 -9.576748,2 0 -9.576748,2 0 -9.576748,2 0 -9.576748,2 0 -9.576748,2 0 -9.576748,2 0 -9.576748,2 0 -9.576748,2 0 -11.69374,2 0 -11.69374,2 0 -11.69374,2 0 -11.69374,2 0 -11.69374,2 0 -11.69374,2 0 -11.69374,2 0 -11.69374,2 0 -11.69374,2 0 -11.69374,2 0 -11.69374,2 0 -11.69374,2 0 -11.69374,2 0 -11.69374,2 0 -11.69374,2 0 -11.69374,2 0 -11.69374,2 0 -11.69374,2 0 -11.69374,2 0 -11.69374,2 0 -11.69374,15.910,
2 0 -9.576748,2 0 -9.576748,2 0 -9.576748,2 0 -9.576748,2 0 -9.576748,2 0 -9.576748,2 0 -9.576748,2 0 -9.576748,2 0 -9.576748,2 0 -9.576748,2 0 -9.576748,2 0 -9.576748,2 0 -9.576748,2 0 -9.576748,2 0 -9.576748,2 0 -9.576748,2 0 -9.576748,2 0 -9.576748,2 0 -9.576748,2 0 -9.576748,2 0 -9.576748,2 0 -11.69374,2 0 -11.69374,2 0 -11.69374,2 0 -11.69374,2 0 -11.69374,2 0 -11.69374,2 0 -11.69374,2 0 -11.69374,2 0 -11.69374,2 0 -11.69374,2 0 -11.69374,2 0 -11.69374,2 0 -11.69374,2 0 -11.69374,2 0 -11.69374,2 0 -11.69374,2 0 -11.69374,2 0 -11.69374,2 0 -11.69374,2 0 -11.69374,2 0 -11.69374,16.010,
2 0 -9.576748,2 0 -9.576748,2 0 -9.576748,2 0 -9.576748,2 0 -9.576748,2 0 -9.576748,2 0 -9.576748,2 0 -9.576748,2 0 -9.576748,2 0 -9.576748,2 0 -9.576748,2 0 -9.576748,2 0 -9.576748,2 0 -9.576748,2 0 -9.576748,2 0 -9.576748,2 0 -9.576748,2 0 -9.576748,2 0 -9.576748,2 0 -9.576748,2 0 -9.576748,2 0 -11.69374,2 0 -11.69374,2 0 -11.69374,2 0 -11.69374,2 0 -11.69374,2 0 -11.69374,2 0 -11.69374,2 0 -11.69374,2 0 -11.69374,2 0 -11.69374,2 0 -11.69374,2 0 -11.69374,2 0 -11.69374,2 0 -11.69374,2 0 -11.69374,2 0 -11.69374,2 0 -11.69374,2 0 -11.69374,2 0 -11.69374,2 0 -11.69374,2 0 -11.69374,16.110,
2 0 -9.576748,2 0 -9.576748,2 0 -9.576748,2 0 -9.576748,2 0 -9.576748,2 0 -9.576748,2 0 -9.576748,2 0 -9.576748,2 0 -9.576748,2 0 -9.576748,2 0 -9.576748,2 0 -9.576748,2 0 -9.576748,2 0 -9.576748,2 0 -9.576748,2 0 -9.576748,2 0 -9.576748,2 0 -9.576748,2 0 -9.576748,2 0 -9.576748,2 0 -9.576748,2 0 -11.69374,2 0 -11.69374,2 0 -11.69374,2 0 -11.69374,2 0 -11.69374,2 0 -11.69374,2 0 -11.69374,2 0 -11.69374,2 0 -11.69374,2 0 -11.69374,2 0 -11.69374,2 0 -11.69374,2 0 -11.69374,2 0 -11.69374,2 0 -11.69374,2 0 -11.69374,2 0 -11.69374,2 0 -11.69374,2 0 -11.69374,2 0 -11.69374,2 0 -11.69374,16.210,
2 0 -9.576748,2 0 -9.576748,2 0 -9.576748,2 0 -9.576748,2 0 -9.576748,2 0 -9.576748,2 0 -9.576748,2 0 -9.576748,2 0 -9.576748,2 0 -9.576748,2 0 -9.576748,2 0 -9.576748,2 0 -9.576748,2 0 -9.576748,2 0 -9.576748,2 0 -9.576748,2 0 -9.576748,2 0 -9.576748,2 0 -9.576748,2 0 -9.576748,2 0 -9.576748,2 0 -11.69374,2 0 -11.69374,2 0 -11.69374,2 0 -11.69374,2 0 -11.69374,2 0 -11.69374,2 0 -11.69374,2 0 -11.69374,2 0 -11.69374,2 0 -11.69374,2 0 -11.69374,2 0 -11.69374,2 0 -11.69374,2 0 -11.69374,2 0 -11.69374,2 0 -11.69374,2 0 -11.69374,2 0 -11.69374,2 0 -11.69374,2 0 -11.69374,2 0 -11.69374,16.310,
2 0 -9.576748,2 0 -9.576748,2 0 -9.576748,2 0 -9.576748,2 0 -9.576748,2 0 -9.576748,2 0 -9.576748,2 0 -9.576748,2 0 -9.576748,2 0 -9.576748,2 0 -9.576748,2 0 -9.576748,2 0 -9.576748,2 0 -9.576748,2 0 -9.576748,2 0 -9.576748,2 0 -9.576748,2 0 -9.576748,2 0 -9.576748,2 0 -9.576748,2 0 -9.576748,2 0 -11.69374,2 0 -11.69374,2 0 -11.69374,2 0 -11.69374,2 0 -11.69374,2 0 -11.69374,2 0 -11.69374,2 0 -11.69374,2 0 -11.69374,2 0 -11.69374,2 0 -11.69374,2 0 -11.69374,2 0 -11.69374,2 0 -11.69374,2 0 -11.69374,2 0 -11.69374,2 0 -11.69374,2 0 -11.69374,2 0 -11.69374,2 0 -11.69374,2 0 -11.69374,16.410,
2 0 -9.576748,2 0 -9.576748,2 0 -9.576748,2 0 -9.576748,2 0 -9.576748,2 0 -9.576748,2 0 -9.576748,2 0 -9.576748,2 0 -9.576748,2 0 -9.576748,2 0 -9.576748,2 0 -9.576748,2 0 -9.576748,2 0 -9.576748,2 0 -9.576748,2 0 -9.576748,2 0 -9.576748,2 0 -9.576748,2 0 -9.576748,2 0 -9.576748,2 0 -9.576748,2 0 -11.69374,2 0 -11.69374,2 0 -11.69374,2 0 -11.69374,2 0 -11.69374,2 0 -11.69374,2 0 -11.69374,2 0 -11.69374,2 0 -11.69374,2 0 -11.69374,2 0 -11.69374,2 0 -11.69374,2 0 -11.69374,2 0 -11.69374,2 0 -11.69374,2 0 -11.69374,2 0 -11.69374,2 0 -11.69374,2 0 -11.69374,2 0 -11.69374,2 0 -11.69374,16.510,
