TiagoOliveira98/HandTracking/DataLogging/JointData/Logs(1643109225)_Tiago_MemoryGame.csv
WRIST,THUMB_CMC,THUMB_MCP,THUMB_IP,THUMB_TIP,INDEX_FINGER_MCP,INDEX_FINGER_PIP,INDEX_FINGER_DIP,INDEX_FINGER_TIP,MIDDLE_FINGER_MCP,MIDDLE_FINGER_PIP,MIDDLE_FINGER_DIP,MIDDLE_FINGER_TIP,RING_FINGER_MCP,RING_FINGER_PIP,RING_FINGER_DIP,RING_FINGER_TIP,PINKY_MCP,PINKY_PIP,PINKY_DIP,PINKY_TIP,WRIST2,THUMB_CMC2,THUMB_MCP2,THUMB_IP2,THUMB_TIP2,INDEX_FINGER_MCP2,INDEX_FINGER_PIP2,INDEX_FINGER_DIP2,INDEX_FINGER_TIP2,MIDDLE_FINGER_MCP2,MIDDLE_FINGER_PIP2,MIDDLE_FINGER_DIP2,MIDDLE_FINGER_TIP2,RING_FINGER_MCP2,RING_FINGER_PIP2,RING_FINGER_DIP2,RING_FINGER_TIP2,PINKY_MCP2,PINKY_PIP2,PINKY_DIP2,PINKY_TIP2,Timestamp,Event
10 0 0,10 7.47 0,10 7.47 0,10 7.47 0,10 7.47 0,10 7.47 0,10 7.47 0,10 7.47 0,10 7.47 0,10 7.47 0,10 7.47 0,10 7.47 0,10 7.47 0,10 7.47 0,10 7.47 0,10 7.47 0,10 7.47 0,10 7.47 0,10 7.47 0,10 7.47 0,10 7.47 0,10 0 0,10 7.47 0,10 7.47 0,10 7.47 0,10 7.47 0,10 7.47 0,10 7.47 0,10 7.47 0,10 7.47 0,10 7.47 0,10 7.47 0,10 7.47 0,10 7.47 0,10 7.47 0,10 7.47 0,10 7.47 0,10 7.47 0,10 7.47 0,10 7.47 0,10 7.47 0,10 7.47 0,0.010,
2 0 -8.519892,2 0 -8.519892,2 0 -8.519892,2 0 -8.519892,2 0 -8.519892,2 0 -8.519892,2 0 -8.519892,2 0 -8.519892,2 0 -8.519892,2 0 -8.519892,2 0 -8.519892,2 0 -8.519892,2 0 -8.519892,2 0 -8.519892,2 0 -8.519892,2 0 -8.519892,2 0 -8.519892,2 0 -8.519892,2 0 -8.519892,2 0 -8.519892,2 0 -8.519892,2 0 -8.366122,2 0 -8.366122,2 0 -8.366122,2 0 -8.366122,2 0 -8.366122,2 0 -8.366122,2 0 -8.366122,2 0 -8.366122,2 0 -8.366122,2 0 -8.366122,2 0 -8.366122,2 0 -8.366122,2 0 -8.366122,2 0 -8.366122,2 0 -8.366122,2 0 -8.366122,2 0 -8.366122,2 0 -8.366122,2 0 -8.366122,2 0 -8.366122,2 0 -8.366122,0.110, 0
2 0 -8.519892,2 0 -8.519892,2 0 -8.519892,2 0 -8.519892,2 0 -8.519892,2 0 -8.519892,2 0 -8.519892,2 0 -8.519892,2 0 -8.519892,2 0 -8.519892,2 0 -8.519892,2 0 -8.519892,2 0 -8.519892,2 0 -8.519892,2 0 -8.519892,2 0 -8.519892,2 0 -8.519892,2 0 -8.519892,2 0 -8.519892,2 0 -8.519892,2 0 -8.519892,2 0 -8.366122,2 0 -8.366122,2 0 -8.366122,2 0 -8.366122,2 0 -8.366122,2 0 -8.366122,2 0 -8.366122,2 0 -8.366122,2 0 -8.366122,2 0 -8.366122,2 0 -8.366122,2 0 -8.366122,2 0 -8.366122,2 0 -8.366122,2 0 -8.366122,2 0 -8.366122,2 0 -8.366122,2 0 -8.366122,2 0 -8.366122,2 0 -8.366122,2 0 -8.366122,0.210, 0
2 0 -8.519892,2 0 -8.519892,2 0 -8.519892,2 0 -8.519892,2 0 -8.519892,2 0 -8.519892,2 0 -8.519892,2 0 -8.519892,2 0 -8.519892,2 0 -8.519892,2 0 -8.519892,2 0 -8.519892,2 0 -8.519892,2 0 -8.519892,2 0 -8.519892,2 0 -8.519892,2 0 -8.519892,2 0 -8.519892,2 0 -8.519892,2 0 -8.519892,2 0 -8.519892,2 0 -8.366122,2 0 -8.366122,2 0 -8.366122,2 0 -8.366122,2 0 -8.366122,2 0 -8.366122,2 0 -8.366122,2 0 -8.366122,2 0 -8.366122,2 0 -8.366122,2 0 -8.366122,2 0 -8.366122,2 0 -8.366122,2 0 -8.366122,2 0 -8.366122,2 0 -8.366122,2 0 -8.366122,2 0 -8.366122,2 0 -8.366122,2 0 -8.366122,2 0 -8.366122,0.310, 0
2 0 -8.519892,2 0 -8.519892,2 0 -8.519892,2 0 -8.519892,2 0 -8.519892,2 0 -8.519892,2 0 -8.519892,2 0 -8.519892,2 0 -8.519892,2 0 -8.519892,2 0 -8.519892,2 0 -8.519892,2 0 -8.519892,2 0 -8.519892,2 0 -8.519892,2 0 -8.519892,2 0 -8.519892,2 0 -8.519892,2 0 -8.519892,2 0 -8.519892,2 0 -8.519892,2 0 -8.366122,2 0 -8.366122,2 0 -8.366122,2 0 -8.366122,2 0 -8.366122,2 0 -8.366122,2 0 -8.366122,2 0 -8.366122,2 0 -8.366122,2 0 -8.366122,2 0 -8.366122,2 0 -8.366122,2 0 -8.366122,2 0 -8.366122,2 0 -8.366122,2 0 -8.366122,2 0 -8.366122,2 0 -8.366122,2 0 -8.366122,2 0 -8.366122,2 0 -8.366122,0.410, 0
2 0 -8.519892,2 0 -8.519892,2 0 -8.519892,2 0 -8.519892,2 0 -8.519892,2 0 -8.519892,2 0 -8.519892,2 0 -8.519892,2 0 -8.519892,2 0 -8.519892,2 0 -8.519892,2 0 -8.519892,2 0 -8.519892,2 0 -8.519892,2 0 -8.519892,2 0 -8.519892,2 0 -8.519892,2 0 -8.519892,2 0 -8.519892,2 0 -8.519892,2 0 -8.519892,2 0 -8.366122,2 0 -8.366122,2 0 -8.366122,2 0 -8.366122,2 0 -8.366122,2 0 -8.366122,2 0 -8.366122,2 0 -8.366122,2 0 -8.366122,2 0 -8.366122,2 0 -8.366122,2 0 -8.366122,2 0 -8.366122,2 0 -8.366122,2 0 -8.366122,2 0 -8.366122,2 0 -8.366122,2 0 -8.366122,2 0 -8.366122,2 0 -8.366122,2 0 -8.366122,0.510, 0
2 0 -8.519892,2 0 -8.519892,2 0 -8.519892,2 0 -8.519892,2 0 -8.519892,2 0 -8.519892,2 0 -8.519892,2 0 -8.519892,2 0 -8.519892,2 0 -8.519892,2 0 -8.519892,2 0 -8.519892,2 0 -8.519892,2 0 -8.519892,2 0 -8.519892,2 0 -8.519892,2 0 -8.519892,2 0 -8.519892,2 0 -8.519892,2 0 -8.519892,2 0 -8.519892,2 0 -8.366122,2 0 -8.366122,2 0 -8.366122,2 0 -8.366122,2 0 -8.366122,2 0 -8.366122,2 0 -8.366122,2 0 -8.366122,2 0 -8.366122,2 0 -8.366122,2 0 -8.366122,2 0 -8.366122,2 0 -8.366122,2 0 -8.366122,2 0 -8.366122,2 0 -8.366122,2 0 -8.366122,2 0 -8.366122,2 0 -8.366122,2 0 -8.366122,2 0 -8.366122,0.610, 0
2 0 -8.519892,2 0 -8.519892,2 0 -8.519892,2 0 -8.519892,2 0 -8.519892,2 0 -8.519892,2 0 -8.519892,2 0 -8.519892,2 0 -8.519892,2 0 -8.519892,2 0 -8.519892,2 0 -8.519892,2 0 -8.519892,2 0 -8.519892,2 0 -8.519892,2 0 -8.519892,2 0 -8.519892,2 0 -8.519892,2 0 -8.519892,2 0 -8.519892,2 0 -8.519892,2 0 -8.366122,2 0 -8.366122,2 0 -8.366122,2 0 -8.366122,2 0 -8.366122,2 0 -8.366122,2 0 -8.366122,2 0 -8.366122,2 0 -8.366122,2 0 -8.366122,2 0 -8.366122,2 0 -8.366122,2 0 -8.366122,2 0 -8.366122,2 0 -8.366122,2 0 -8.366122,2 0 -8.366122,2 0 -8.366122,2 0 -8.366122,2 0 -8.366122,2 0 -8.366122,0.710, 0
2 0 -8.519892,2 0 -8.519892,2 0 -8.519892,2 0 -8.519892,2 0 -8.519892,2 0 -8.519892,2 0 -8.519892,2 0 -8.519892,2 0 -8.519892,2 0 -8.519892,2 0 -8.519892,2 0 -8.519892,2 0 -8.519892,2 0 -8.519892,2 0 -8.519892,2 0 -8.519892,2 0 -8.519892,2 0 -8.519892,2 0 -8.519892,2 0 -8.519892,2 0 -8.519892,2 0 -8.366122,2 0 -8.366122,2 0 -8.366122,2 0 -8.366122,2 0 -8.366122,2 0 -8.366122,2 0 -8.366122,2 0 -8.366122,2 0 -8.366122,2 0 -8.366122,2 0 -8.366122,2 0 -8.366122,2 0 -8.366122,2 0 -8.366122,2 0 -8.366122,2 0 -8.366122,2 0 -8.366122,2 0 -8.366122,2 0 -8.366122,2 0 -8.366122,2 0 -8.366122,0.810, 0
2 0 -8.519892,2 0 -8.519892,2 0 -8.519892,2 0 -8.519892,2 0 -8.519892,2 0 -8.519892,2 0 -8.519892,2 0 -8.519892,2 0 -8.519892,2 0 -8.519892,2 0 -8.519892,2 0 -8.519892,2 0 -8.519892,2 0 -8.519892,2 0 -8.519892,2 0 -8.519892,2 0 -8.519892,2 0 -8.519892,2 0 -8.519892,2 0 -8.519892,2 0 -8.519892,2 0 -8.366122,2 0 -8.366122,2 0 -8.366122,2 0 -8.366122,2 0 -8.366122,2 0 -8.366122,2 0 -8.366122,2 0 -8.366122,2 0 -8.366122,2 0 -8.366122,2 0 -8.366122,2 0 -8.366122,2 0 -8.366122,2 0 -8.366122,2 0 -8.366122,2 0 -8.366122,2 0 -8.366122,2 0 -8.366122,2 0 -8.366122,2 0 -8.366122,2 0 -8.366122,0.910, 0
2 0 -8.519892,2 0 -8.519892,2 0 -8.519892,2 0 -8.519892,2 0 -8.519892,2 0 -8.519892,2 0 -8.519892,2 0 -8.519892,2 0 -8.519892,2 0 -8.519892,2 0 -8.519892,2 0 -8.519892,2 0 -8.519892,2 0 -8.519892,2 0 -8.519892,2 0 -8.519892,2 0 -8.519892,2 0 -8.519892,2 0 -8.519892,2 0 -8.519892,2 0 -8.519892,2 0 -8.366122,2 0 -8.366122,2 0 -8.366122,2 0 -8.366122,2 0 -8.366122,2 0 -8.366122,2 0 -8.366122,2 0 -8.366122,2 0 -8.366122,2 0 -8.366122,2 0 -8.366122,2 0 -8.366122,2 0 -8.366122,2 0 -8.366122,2 0 -8.366122,2 0 -8.366122,2 0 -8.366122,2 0 -8.366122,2 0 -8.366122,2 0 -8.366122,2 0 -8.366122,1.010, 0
2 0 -8.519892,2 0 -8.519892,2 0 -8.519892,2 0 -8.519892,2 0 -8.519892,2 0 -8.519892,2 0 -8.519892,2 0 -8.519892,2 0 -8.519892,2 0 -8.519892,2 0 -8.519892,2 0 -8.519892,2 0 -8.519892,2 0 -8.519892,2 0 -8.519892,2 0 -8.519892,2 0 -8.519892,2 0 -8.519892,2 0 -8.519892,2 0 -8.519892,2 0 -8.519892,2 0 -8.366122,2 0 -8.366122,2 0 -8.366122,2 0 -8.366122,2 0 -8.366122,2 0 -8.366122,2 0 -8.366122,2 0 -8.366122,2 0 -8.366122,2 0 -8.366122,2 0 -8.366122,2 0 -8.366122,2 0 -8.366122,2 0 -8.366122,2 0 -8.366122,2 0 -8.366122,2 0 -8.366122,2 0 -8.366122,2 0 -8.366122,2 0 -8.366122,2 0 -8.366122,1.110, 0
2 0 -8.519892,2 0 -8.519892,2 0 -8.519892,2 0 -8.519892,2 0 -8.519892,2 0 -8.519892,2 0 -8.519892,2 0 -8.519892,2 0 -8.519892,2 0 -8.519892,2 0 -8.519892,2 0 -8.519892,2 0 -8.519892,2 0 -8.519892,2 0 -8.519892,2 0 -8.519892,2 0 -8.519892,2 0 -8.519892,2 0 -8.519892,2 0 -8.519892,2 0 -8.519892,2 0 -8.366122,2 0 -8.366122,2 0 -8.366122,2 0 -8.366122,2 0 -8.366122,2 0 -8.366122,2 0 -8.366122,2 0 -8.366122,2 0 -8.366122,2 0 -8.366122,2 0 -8.366122,2 0 -8.366122,2 0 -8.366122,2 0 -8.366122,2 0 -8.366122,2 0 -8.366122,2 0 -8.366122,2 0 -8.366122,2 0 -8.366122,2 0 -8.366122,2 0 -8.366122,1.210, 0
2 0 -8.519892,2 0 -8.519892,2 0 -8.519892,2 0 -8.519892,2 0 -8.519892,2 0 -8.519892,2 0 -8.519892,2 0 -8.519892,2 0 -8.519892,2 0 -8.519892,2 0 -8.519892,2 0 -8.519892,2 0 -8.519892,2 0 -8.519892,2 0 -8.519892,2 0 -8.519892,2 0 -8.519892,2 0 -8.519892,2 0 -8.519892,2 0 -8.519892,2 0 -8.519892,2 0 -8.366122,2 0 -8.366122,2 0 -8.366122,2 0 -8.366122,2 0 -8.366122,2 0 -8.366122,2 0 -8.366122,2 0 -8.366122,2 0 -8.366122,2 0 -8.366122,2 0 -8.366122,2 0 -8.366122,2 0 -8.366122,2 0 -8.366122,2 0 -8.366122,2 0 -8.366122,2 0 -8.366122,2 0 -8.366122,2 0 -8.366122,2 0 -8.366122,2 0 -8.366122,1.310, 0
-1.337656 -12.13426 0.7122895,-1.787936 -11.08869 0.6653382,-2.015303 -9.929321 0.9134557,-2.196005 -9.154406 1.233634,-2.427012 -8.572868 1.522485,-1.240157 -9.304937 1.327239,-1.389022 -8.689463 1.675068,-1.611594 -9.224302 1.576509,-1.647807 -9.569201 1.450047,-0.9456549 -9.685266 1.609653,-1.254706 -9.32633 2.126393,-1.489319 -9.805508 2.133608,-1.484708 -10.07998 2.04389,-0.7781019 -10.22421 1.87745,-1.141331 -9.961437 2.28889,-1.383198 -10.38376 2.155379,-1.392132 -10.67009 2.009159,-0.7067509 -10.86746 2.134296,-0.9872437 -10.57242 2.379662,-1.208834 -10.86385 2.301655,-1.245388 -11.15536 2.226038,2 0 -8.366122,2 0 -8.366122,2 0 -8.366122,2 0 -8.366122,2 0 -8.366122,2 0 -8.366122,2 0 -8.366122,2 0 -8.366122,2 0 -8.366122,2 0 -8.366122,2 0 -8.366122,2 0 -8.366122,2 0 -8.366122,2 0 -8.366122,2 0 -8.366122,2 0 -8.366122,2 0 -8.366122,2 0 -8.366122,2 0 -8.366122,2 0 -8.366122,2 0 -8.366122,1.410,Right Hand Closed  1
-1.446965 -10.53693 2.176015,-2.160556 -9.495571 2.012371,-2.559919 -8.501385 2.07951,-2.743892 -7.741452 2.196863,-2.884399 -7.249881 2.357922,-2.261609 -7.490268 2.422461,-2.474793 -6.576231 2.489149,-2.580988 -6.918308 2.503383,-2.59783 -7.329676 2.53713,-1.872358 -7.543993 2.622556,-2.086496 -6.953992 2.629033,-2.171339 -7.418048 2.711366,-2.179713 -7.891423 2.901143,-1.529274 -7.811515 2.772073,-1.754469 -7.379704 2.78511,-1.861791 -7.835544 2.709729,-1.882583 -8.339121 2.769561,-1.235102 -8.2001 2.924248,-1.42231 -7.826353 2.902785,-1.541301 -8.175854 2.782894,-1.576141 -8.590528 2.732884,2 0 -8.366122,2 0 -8.366122,2 0 -8.366122,2 0 -8.366122,2 0 -8.366122,2 0 -8.366122,2 0 -8.366122,2 0 -8.366122,2 0 -8.366122,2 0 -8.366122,2 0 -8.366122,2 0 -8.366122,2 0 -8.366122,2 0 -8.366122,2 0 -8.366122,2 0 -8.366122,2 0 -8.366122,2 0 -8.366122,2 0 -8.366122,2 0 -8.366122,2 0 -8.366122,1.510,Right Hand Closed  1
-2.110037 -8.286776 2.270086,-2.786073 -6.967659 1.843233,-3.066453 -5.905836 1.894964,-3.338249 -5.177866 2.142921,-3.608229 -4.590814 2.405683,-2.333467 -4.967731 2.072187,-2.540293 -4.130292 2.484848,-2.933915 -4.083973 2.658041,-3.206398 -4.280715 2.774577,-2.075831 -5.220888 2.588439,-2.490418 -4.239099 3.079586,-2.974757 -4.572192 3.195856,-3.206322 -5.0277 3.112856,-1.936508 -5.639394 3.112621,-2.361998 -4.799621 3.513903,-2.840243 -5.110085 3.530054,-3.048326 -5.562776 3.426773,-1.92494 -6.192656 3.624793,-2.299734 -5.560161 3.87265,-2.666358 -5.61934 3.868839,-2.829967 -5.865774 3.807686,2 0 -8.366122,2 0 -8.366122,2 0 -8.366122,2 0 -8.366122,2 0 -8.366122,2 0 -8.366122,2 0 -8.366122,2 0 -8.366122,2 0 -8.366122,2 0 -8.366122,2 0 -8.366122,2 0 -8.366122,2 0 -8.366122,2 0 -8.366122,2 0 -8.366122,2 0 -8.366122,2 0 -8.366122,2 0 -8.366122,2 0 -8.366122,2 0 -8.366122,2 0 -8.366122,1.610, 1
-2.106011 -7.849308 1.069643,-2.727554 -6.691514 0.5537334,-2.95399 -5.695033 0.599283,-3.175655 -5.032798 0.8446307,-3.399641 -4.451297 1.065856,-2.268769 -4.839967 1.139202,-2.368587 -3.900182 1.516115,-2.800904 -3.928258 1.665481,-3.068436 -4.245723 1.737557,-2.078221 -5.180484 1.687588,-2.383692 -4.138024 2.216062,-2.900012 -4.289325 2.368552,-3.133362 -4.726191 2.348935,-2.021766 -5.679594 2.19749,-2.414969 -4.797883 2.60157,-2.879818 -4.953098 2.596785,-3.086092 -5.369792 2.49442,-2.098096 -6.248397 2.674218,-2.476541 -5.59374 2.818296,-2.814374 -5.591627 2.764248,-2.952161 -5.789514 2.664903,2 0 -8.366122,2 0 -8.366122,2 0 -8.366122,2 0 -8.366122,2 0 -8.366122,2 0 -8.366122,2 0 -8.366122,2 0 -8.366122,2 0 -8.366122,2 0 -8.366122,2 0 -8.366122,2 0 -8.366122,2 0 -8.366122,2 0 -8.366122,2 0 -8.366122,2 0 -8.366122,2 0 -8.366122,2 0 -8.366122,2 0 -8.366122,2 0 -8.366122,2 0 -8.366122,1.710, 1
-2.176116 -7.743364 0.7314843,-2.747694 -6.624713 0.2259741,-2.956613 -5.665303 0.2523726,-3.147129 -4.990852 0.4578167,-3.319719 -4.411076 0.6544055,-2.316206 -4.86057 0.8115083,-2.411242 -3.893196 1.178865,-2.804001 -3.85991 1.333738,-3.06536 -4.152526 1.428494,-2.13363 -5.171185 1.337472,-2.381656 -4.095531 1.859613,-2.850658 -4.158286 2.041341,-3.103199 -4.537986 2.064792,-2.084432 -5.639393 1.832877,-2.421904 -4.756742 2.277072,-2.85959 -4.822046 2.346704,-3.086692 -5.161195 2.306331,-2.167833 -6.189007 2.286102,-2.503258 -5.519075 2.51114,-2.828468 -5.378095 2.560175,-2.998673 -5.43692 2.548865,2 0 -8.366122,2 0 -8.366122,2 0 -8.366122,2 0 -8.366122,2 0 -8.366122,2 0 -8.366122,2 0 -8.366122,2 0 -8.366122,2 0 -8.366122,2 0 -8.366122,2 0 -8.366122,2 0 -8.366122,2 0 -8.366122,2 0 -8.366122,2 0 -8.366122,2 0 -8.366122,2 0 -8.366122,2 0 -8.366122,2 0 -8.366122,2 0 -8.366122,2 0 -8.366122,1.810, 2
-2.299773 -7.399009 0.5665569,-2.887737 -6.427848 0.1414449,-3.044764 -5.479271 0.1956413,-3.142671 -4.809115 0.3983155,-3.238793 -4.295961 0.5640073,-2.480757 -4.620299 0.8970556,-2.603247 -3.699227 1.357786,-3.001987 -3.702493 1.525747,-3.266064 -3.99742 1.611615,-2.265769 -4.938938 1.394485,-2.569234 -3.982391 2.018141,-3.031664 -4.132379 2.136764,-3.26954 -4.540999 2.082868,-2.186471 -5.455397 1.871346,-2.536277 -4.67626 2.407617,-2.978166 -4.761116 2.456537,-3.215675 -5.092753 2.389093,-2.242275 -6.09456 2.31707,-2.6031 -5.637086 2.611839,-2.928761 -5.536566 2.695565,-3.106548 -5.604179 2.69246,2 0 -8.366122,2 0 -8.366122,2 0 -8.366122,2 0 -8.366122,2 0 -8.366122,2 0 -8.366122,2 0 -8.366122,2 0 -8.366122,2 0 -8.366122,2 0 -8.366122,2 0 -8.366122,2 0 -8.366122,2 0 -8.366122,2 0 -8.366122,2 0 -8.366122,2 0 -8.366122,2 0 -8.366122,2 0 -8.366122,2 0 -8.366122,2 0 -8.366122,2 0 -8.366122,1.910, 2
-2.290344 -7.349658 0.3918481,-2.863492 -6.38937 -0.03301936,-3.030161 -5.471553 0.03127736,-3.146048 -4.834453 0.2430228,-3.277582 -4.330245 0.4218056,-2.437899 -4.604572 0.6666121,-2.558251 -3.71523 1.084885,-2.955052 -3.720263 1.265658,-3.211885 -4.018839 1.376043,-2.225508 -4.922047 1.156159,-2.522386 -3.973192 1.725144,-2.986506 -4.072208 1.864146,-3.244616 -4.466831 1.832327,-2.150199 -5.421001 1.619028,-2.520282 -4.668758 2.105779,-2.956683 -4.735526 2.150977,-3.203007 -5.068485 2.086524,-2.207412 -6.032682 2.048897,-2.597889 -5.5925 2.300387,-2.914061 -5.530218 2.338281,-3.081444 -5.634492 2.297518,2 0 -8.366122,2 0 -8.366122,2 0 -8.366122,2 0 -8.366122,2 0 -8.366122,2 0 -8.366122,2 0 -8.366122,2 0 -8.366122,2 0 -8.366122,2 0 -8.366122,2 0 -8.366122,2 0 -8.366122,2 0 -8.366122,2 0 -8.366122,2 0 -8.366122,2 0 -8.366122,2 0 -8.366122,2 0 -8.366122,2 0 -8.366122,2 0 -8.366122,2 0 -8.366122,2.010, 1
-2.227966 -7.438123 0.2164036,-2.795173 -6.509939 -0.22972,-2.970193 -5.631351 -0.1822267,-3.104879 -5.063464 0.01924415,-3.240208 -4.641666 0.1963112,-2.378682 -4.735158 0.4947286,-2.516101 -3.839583 0.8950084,-2.921268 -3.798631 1.08971,-3.188252 -4.068416 1.216873,-2.184737 -5.063266 0.9827351,-2.477102 -4.095611 1.560529,-2.958595 -4.151542 1.731009,-3.236465 -4.515424 1.71884,-2.125393 -5.579027 1.435278,-2.482675 -4.811393 1.953013,-2.937736 -4.817539 2.072349,-3.217886 -5.092645 2.034941,-2.198798 -6.209819 1.8469,-2.59084 -5.768861 2.123415,-2.923633 -5.665834 2.188573,-3.125147 -5.73105 2.146921,2 0 -8.366122,2 0 -8.366122,2 0 -8.366122,2 0 -8.366122,2 0 -8.366122,2 0 -8.366122,2 0 -8.366122,2 0 -8.366122,2 0 -8.366122,2 0 -8.366122,2 0 -8.366122,2 0 -8.366122,2 0 -8.366122,2 0 -8.366122,2 0 -8.366122,2 0 -8.366122,2 0 -8.366122,2 0 -8.366122,2 0 -8.366122,2 0 -8.366122,2 0 -8.366122,2.110, 2
-2.279327 -7.310045 0.3162667,-2.874453 -6.400271 -0.08564138,-3.055094 -5.495605 -0.003145248,-3.182903 -4.879827 0.228515,-3.342155 -4.40123 0.4527862,-2.447176 -4.596951 0.5967176,-2.576367 -3.720623 1.019568,-2.955224 -3.677369 1.22279,-3.20058 -3.974432 1.357493,-2.231181 -4.900316 1.066561,-2.538833 -3.979084 1.662474,-3.002491 -4.108057 1.823948,-3.255936 -4.52618 1.807955,-2.161309 -5.398806 1.509935,-2.555808 -4.716243 2.006925,-2.979196 -4.811517 2.081058,-3.202573 -5.113718 2.023437,-2.226444 -6.017499 1.918204,-2.652972 -5.660312 2.190625,-2.963863 -5.595214 2.262743,-3.121874 -5.656537 2.237679,2 0 -8.366122,2 0 -8.366122,2 0 -8.366122,2 0 -8.366122,2 0 -8.366122,2 0 -8.366122,2 0 -8.366122,2 0 -8.366122,2 0 -8.366122,2 0 -8.366122,2 0 -8.366122,2 0 -8.366122,2 0 -8.366122,2 0 -8.366122,2 0 -8.366122,2 0 -8.366122,2 0 -8.366122,2 0 -8.366122,2 0 -8.366122,2 0 -8.366122,2 0 -8.366122,2.210, 2
-2.351232 -7.353773 0.1335963,-2.897612 -6.469244 -0.3583377,-3.079939 -5.645923 -0.3179527,-3.197635 -5.11056 -0.1185298,-3.298321 -4.745033 0.06637491,-2.484866 -4.701492 0.3443158,-2.601871 -3.749967 0.6976528,-2.997198 -3.699613 0.8827996,-3.245885 -3.971143 0.9999621,-2.293621 -4.985696 0.8407071,-2.580195 -3.972152 1.396829,-3.058634 -4.036077 1.533568,-3.316204 -4.407582 1.504046,-2.238705 -5.492028 1.312361,-2.59943 -4.730297 1.8254,-3.041695 -4.749948 1.936293,-3.296193 -5.013195 1.89283,-2.312839 -6.129758 1.728148,-2.72182 -5.75015 2.024529,-3.047985 -5.668697 2.088398,-3.229532 -5.729306 2.048564,2 0 -8.366122,2 0 -8.366122,2 0 -8.366122,2 0 -8.366122,2 0 -8.366122,2 0 -8.366122,2 0 -8.366122,2 0 -8.366122,2 0 -8.366122,2 0 -8.366122,2 0 -8.366122,2 0 -8.366122,2 0 -8.366122,2 0 -8.366122,2 0 -8.366122,2 0 -8.366122,2 0 -8.366122,2 0 -8.366122,2 0 -8.366122,2 0 -8.366122,2 0 -8.366122,2.310, 2
-2.401974 -7.616905 -0.278665,-2.896696 -6.620304 -0.6168672,-3.080179 -5.716817 -0.461805,-3.271822 -5.0713 -0.1862087,-3.470881 -4.55667 0.08481789,-2.387979 -5.056125 0.07360217,-2.32553 -3.981037 0.5212976,-2.71612 -3.945928 0.7242749,-2.974122 -4.202363 0.8111024,-2.190847 -5.420158 0.5414057,-2.290518 -4.328224 1.182747,-2.763695 -4.343053 1.397903,-3.014563 -4.674153 1.402163,-2.110972 -5.980239 0.9727418,-2.358364 -5.18081 1.522047,-2.814252 -5.156963 1.656791,-3.075412 -5.38569 1.611713,-2.176774 -6.612892 1.359424,-2.542848 -6.124098 1.659513,-2.920456 -6.004416 1.690536,-3.138309 -6.071645 1.599103,2 0 -8.366122,2 0 -8.366122,2 0 -8.366122,2 0 -8.366122,2 0 -8.366122,2 0 -8.366122,2 0 -8.366122,2 0 -8.366122,2 0 -8.366122,2 0 -8.366122,2 0 -8.366122,2 0 -8.366122,2 0 -8.366122,2 0 -8.366122,2 0 -8.366122,2 0 -8.366122,2 0 -8.366122,2 0 -8.366122,2 0 -8.366122,2 0 -8.366122,2 0 -8.366122,2.410, 2
-2.326241 -8.006842 0.5902512,-2.768305 -7.356054 0.5650355,-2.973882 -6.536093 0.7552549,-3.154154 -5.922626 0.9532299,-3.359161 -5.448951 1.172354,-2.275125 -5.405505 1.210671,-2.569905 -4.446548 1.450554,-2.869193 -4.549577 1.561812,-2.989573 -4.846565 1.648543,-2.097106 -5.544358 1.400799,-2.469148 -4.516542 1.636395,-2.794749 -4.620277 1.658327,-2.901439 -4.99352 1.649046,-2.029122 -5.927335 1.550405,-2.346811 -4.96377 1.826736,-2.707173 -5.004491 1.841037,-2.855766 -5.34031 1.828627,-2.075802 -6.451158 1.686476,-2.293911 -5.729244 1.926976,-2.587104 -5.655809 1.987486,-2.739966 -5.849364 2.007591,2 0 -8.366122,2 0 -8.366122,2 0 -8.366122,2 0 -8.366122,2 0 -8.366122,2 0 -8.366122,2 0 -8.366122,2 0 -8.366122,2 0 -8.366122,2 0 -8.366122,2 0 -8.366122,2 0 -8.366122,2 0 -8.366122,2 0 -8.366122,2 0 -8.366122,2 0 -8.366122,2 0 -8.366122,2 0 -8.366122,2 0 -8.366122,2 0 -8.366122,2 0 -8.366122,2.510, 1
-1.84259 -13.36878 0.6312016,-2.297308 -12.52747 0.6491099,-2.541767 -11.49336 0.9510803,-2.705223 -10.74618 1.312921,-2.817462 -10.14339 1.732774,-1.969135 -10.57311 1.076348,-2.032519 -9.671038 1.595041,-2.23275 -9.606594 1.89316,-2.385419 -9.780439 2.048908,-1.658336 -10.86206 1.350297,-1.867113 -10.33225 1.935334,-2.167751 -10.86922 2.051324,-2.247444 -11.19591 1.998832,-1.455077 -11.3794 1.636993,-1.77297 -11.06657 2.094454,-2.03494 -11.60569 2.016449,-2.059416 -11.87734 1.910161,-1.326227 -12.02609 1.92364,-1.674465 -11.79116 2.187427,-1.892018 -12.17008 2.090627,-1.883756 -12.4197 1.984372,2 0 -8.366122,2 0 -8.366122,2 0 -8.366122,2 0 -8.366122,2 0 -8.366122,2 0 -8.366122,2 0 -8.366122,2 0 -8.366122,2 0 -8.366122,2 0 -8.366122,2 0 -8.366122,2 0 -8.366122,2 0 -8.366122,2 0 -8.366122,2 0 -8.366122,2 0 -8.366122,2 0 -8.366122,2 0 -8.366122,2 0 -8.366122,2 0 -8.366122,2 0 -8.366122,2.610, 1
-1.884513 -16.50257 -1.596607,-2.318551 -15.75238 -1.452426,-2.494133 -15.00449 -1.436799,-2.62832 -14.38285 -1.483843,-2.790995 -13.91324 -1.541479,-1.917618 -14.38906 -1.583544,-1.987344 -13.55168 -1.83911,-2.19507 -13.60314 -1.996674,-2.30973 -13.82629 -2.039831,-1.676372 -14.54545 -1.794218,-1.7357 -13.7655 -2.15661,-1.954768 -13.84161 -2.367654,-2.081835 -14.01867 -2.481502,-1.518038 -14.75873 -2.009139,-1.594362 -14.03664 -2.297869,-1.786008 -14.11545 -2.451696,-1.891394 -14.34829 -2.545452,-1.421112 -14.98576 -2.216072,-1.479628 -14.41201 -2.460985,-1.617815 -14.39378 -2.613872,-1.6983 -14.55582 -2.748224,2 0 -8.366122,2 0 -8.366122,2 0 -8.366122,2 0 -8.366122,2 0 -8.366122,2 0 -8.366122,2 0 -8.366122,2 0 -8.366122,2 0 -8.366122,2 0 -8.366122,2 0 -8.366122,2 0 -8.366122,2 0 -8.366122,2 0 -8.366122,2 0 -8.366122,2 0 -8.366122,2 0 -8.366122,2 0 -8.366122,2 0 -8.366122,2 0 -8.366122,2 0 -8.366122,2.710,Right Hand Closed  1
-1.884513 -16.50257 -1.596607,-2.318551 -15.75238 -1.452426,-2.494133 -15.00449 -1.436799,-2.62832 -14.38285 -1.483843,-2.790995 -13.91324 -1.541479,-1.917618 -14.38906 -1.583544,-1.987344 -13.55168 -1.83911,-2.19507 -13.60314 -1.996674,-2.30973 -13.82629 -2.039831,-1.676372 -14.54545 -1.794218,-1.7357 -13.7655 -2.15661,-1.954768 -13.84161 -2.367654,-2.081835 -14.01867 -2.481502,-1.518038 -14.75873 -2.009139,-1.594362 -14.03664 -2.297869,-1.786008 -14.11545 -2.451696,-1.891394 -14.34829 -2.545452,-1.421112 -14.98576 -2.216072,-1.479628 -14.41201 -2.460985,-1.617815 -14.39378 -2.613872,-1.6983 -14.55582 -2.748224,2 0 -8.366122,2 0 -8.366122,2 0 -8.366122,2 0 -8.366122,2 0 -8.366122,2 0 -8.366122,2 0 -8.366122,2 0 -8.366122,2 0 -8.366122,2 0 -8.366122,2 0 -8.366122,2 0 -8.366122,2 0 -8.366122,2 0 -8.366122,2 0 -8.366122,2 0 -8.366122,2 0 -8.366122,2 0 -8.366122,2 0 -8.366122,2 0 -8.366122,2 0 -8.366122,2.810,Right Hand Closed  1
-1.884513 -16.50257 -1.596607,-2.318551 -15.75238 -1.452426,-2.494133 -15.00449 -1.436799,-2.62832 -14.38285 -1.483843,-2.790995 -13.91324 -1.541479,-1.917618 -14.38906 -1.583544,-1.987344 -13.55168 -1.83911,-2.19507 -13.60314 -1.996674,-2.30973 -13.82629 -2.039831,-1.676372 -14.54545 -1.794218,-1.7357 -13.7655 -2.15661,-1.954768 -13.84161 -2.367654,-2.081835 -14.01867 -2.481502,-1.518038 -14.75873 -2.009139,-1.594362 -14.03664 -2.297869,-1.786008 -14.11545 -2.451696,-1.891394 -14.34829 -2.545452,-1.421112 -14.98576 -2.216072,-1.479628 -14.41201 -2.460985,-1.617815 -14.39378 -2.613872,-1.6983 -14.55582 -2.748224,2 0 -8.366122,2 0 -8.366122,2 0 -8.366122,2 0 -8.366122,2 0 -8.366122,2 0 -8.366122,2 0 -8.366122,2 0 -8.366122,2 0 -8.366122,2 0 -8.366122,2 0 -8.366122,2 0 -8.366122,2 0 -8.366122,2 0 -8.366122,2 0 -8.366122,2 0 -8.366122,2 0 -8.366122,2 0 -8.366122,2 0 -8.366122,2 0 -8.366122,2 0 -8.366122,2.910,Right Hand Closed  1
-1.884513 -16.50257 -1.596607,-2.318551 -15.75238 -1.452426,-2.494133 -15.00449 -1.436799,-2.62832 -14.38285 -1.483843,-2.790995 -13.91324 -1.541479,-1.917618 -14.38906 -1.583544,-1.987344 -13.55168 -1.83911,-2.19507 -13.60314 -1.996674,-2.30973 -13.82629 -2.039831,-1.676372 -14.54545 -1.794218,-1.7357 -13.7655 -2.15661,-1.954768 -13.84161 -2.367654,-2.081835 -14.01867 -2.481502,-1.518038 -14.75873 -2.009139,-1.594362 -14.03664 -2.297869,-1.786008 -14.11545 -2.451696,-1.891394 -14.34829 -2.545452,-1.421112 -14.98576 -2.216072,-1.479628 -14.41201 -2.460985,-1.617815 -14.39378 -2.613872,-1.6983 -14.55582 -2.748224,2 0 -8.366122,2 0 -8.366122,2 0 -8.366122,2 0 -8.366122,2 0 -8.366122,2 0 -8.366122,2 0 -8.366122,2 0 -8.366122,2 0 -8.366122,2 0 -8.366122,2 0 -8.366122,2 0 -8.366122,2 0 -8.366122,2 0 -8.366122,2 0 -8.366122,2 0 -8.366122,2 0 -8.366122,2 0 -8.366122,2 0 -8.366122,2 0 -8.366122,2 0 -8.366122,3.010,Right Hand Closed  1
-1.884513 -16.50257 -1.596607,-2.318551 -15.75238 -1.452426,-2.494133 -15.00449 -1.436799,-2.62832 -14.38285 -1.483843,-2.790995 -13.91324 -1.541479,-1.917618 -14.38906 -1.583544,-1.987344 -13.55168 -1.83911,-2.19507 -13.60314 -1.996674,-2.30973 -13.82629 -2.039831,-1.676372 -14.54545 -1.794218,-1.7357 -13.7655 -2.15661,-1.954768 -13.84161 -2.367654,-2.081835 -14.01867 -2.481502,-1.518038 -14.75873 -2.009139,-1.594362 -14.03664 -2.297869,-1.786008 -14.11545 -2.451696,-1.891394 -14.34829 -2.545452,-1.421112 -14.98576 -2.216072,-1.479628 -14.41201 -2.460985,-1.617815 -14.39378 -2.613872,-1.6983 -14.55582 -2.748224,2 0 -8.366122,2 0 -8.366122,2 0 -8.366122,2 0 -8.366122,2 0 -8.366122,2 0 -8.366122,2 0 -8.366122,2 0 -8.366122,2 0 -8.366122,2 0 -8.366122,2 0 -8.366122,2 0 -8.366122,2 0 -8.366122,2 0 -8.366122,2 0 -8.366122,2 0 -8.366122,2 0 -8.366122,2 0 -8.366122,2 0 -8.366122,2 0 -8.366122,2 0 -8.366122,3.110,Right Hand Closed  1
-1.884513 -16.50257 -1.596607,-2.318551 -15.75238 -1.452426,-2.494133 -15.00449 -1.436799,-2.62832 -14.38285 -1.483843,-2.790995 -13.91324 -1.541479,-1.917618 -14.38906 -1.583544,-1.987344 -13.55168 -1.83911,-2.19507 -13.60314 -1.996674,-2.30973 -13.82629 -2.039831,-1.676372 -14.54545 -1.794218,-1.7357 -13.7655 -2.15661,-1.954768 -13.84161 -2.367654,-2.081835 -14.01867 -2.481502,-1.518038 -14.75873 -2.009139,-1.594362 -14.03664 -2.297869,-1.786008 -14.11545 -2.451696,-1.891394 -14.34829 -2.545452,-1.421112 -14.98576 -2.216072,-1.479628 -14.41201 -2.460985,-1.617815 -14.39378 -2.613872,-1.6983 -14.55582 -2.748224,2 0 -8.366122,2 0 -8.366122,2 0 -8.366122,2 0 -8.366122,2 0 -8.366122,2 0 -8.366122,2 0 -8.366122,2 0 -8.366122,2 0 -8.366122,2 0 -8.366122,2 0 -8.366122,2 0 -8.366122,2 0 -8.366122,2 0 -8.366122,2 0 -8.366122,2 0 -8.366122,2 0 -8.366122,2 0 -8.366122,2 0 -8.366122,2 0 -8.366122,2 0 -8.366122,3.210,Right Hand Closed  1
-1.884513 -16.50257 -1.596607,-2.318551 -15.75238 -1.452426,-2.494133 -15.00449 -1.436799,-2.62832 -14.38285 -1.483843,-2.790995 -13.91324 -1.541479,-1.917618 -14.38906 -1.583544,-1.987344 -13.55168 -1.83911,-2.19507 -13.60314 -1.996674,-2.30973 -13.82629 -2.039831,-1.676372 -14.54545 -1.794218,-1.7357 -13.7655 -2.15661,-1.954768 -13.84161 -2.367654,-2.081835 -14.01867 -2.481502,-1.518038 -14.75873 -2.009139,-1.594362 -14.03664 -2.297869,-1.786008 -14.11545 -2.451696,-1.891394 -14.34829 -2.545452,-1.421112 -14.98576 -2.216072,-1.479628 -14.41201 -2.460985,-1.617815 -14.39378 -2.613872,-1.6983 -14.55582 -2.748224,2 0 -8.366122,2 0 -8.366122,2 0 -8.366122,2 0 -8.366122,2 0 -8.366122,2 0 -8.366122,2 0 -8.366122,2 0 -8.366122,2 0 -8.366122,2 0 -8.366122,2 0 -8.366122,2 0 -8.366122,2 0 -8.366122,2 0 -8.366122,2 0 -8.366122,2 0 -8.366122,2 0 -8.366122,2 0 -8.366122,2 0 -8.366122,2 0 -8.366122,2 0 -8.366122,3.310,Right Hand Closed  1
-1.884513 -16.50257 -1.596607,-2.318551 -15.75238 -1.452426,-2.494133 -15.00449 -1.436799,-2.62832 -14.38285 -1.483843,-2.790995 -13.91324 -1.541479,-1.917618 -14.38906 -1.583544,-1.987344 -13.55168 -1.83911,-2.19507 -13.60314 -1.996674,-2.30973 -13.82629 -2.039831,-1.676372 -14.54545 -1.794218,-1.7357 -13.7655 -2.15661,-1.954768 -13.84161 -2.367654,-2.081835 -14.01867 -2.481502,-1.518038 -14.75873 -2.009139,-1.594362 -14.03664 -2.297869,-1.786008 -14.11545 -2.451696,-1.891394 -14.34829 -2.545452,-1.421112 -14.98576 -2.216072,-1.479628 -14.41201 -2.460985,-1.617815 -14.39378 -2.613872,-1.6983 -14.55582 -2.748224,2 0 -8.366122,2 0 -8.366122,2 0 -8.366122,2 0 -8.366122,2 0 -8.366122,2 0 -8.366122,2 0 -8.366122,2 0 -8.366122,2 0 -8.366122,2 0 -8.366122,2 0 -8.366122,2 0 -8.366122,2 0 -8.366122,2 0 -8.366122,2 0 -8.366122,2 0 -8.366122,2 0 -8.366122,2 0 -8.366122,2 0 -8.366122,2 0 -8.366122,2 0 -8.366122,3.410,Right Hand Closed  1
-1.884513 -16.50257 -1.596607,-2.318551 -15.75238 -1.452426,-2.494133 -15.00449 -1.436799,-2.62832 -14.38285 -1.483843,-2.790995 -13.91324 -1.541479,-1.917618 -14.38906 -1.583544,-1.987344 -13.55168 -1.83911,-2.19507 -13.60314 -1.996674,-2.30973 -13.82629 -2.039831,-1.676372 -14.54545 -1.794218,-1.7357 -13.7655 -2.15661,-1.954768 -13.84161 -2.367654,-2.081835 -14.01867 -2.481502,-1.518038 -14.75873 -2.009139,-1.594362 -14.03664 -2.297869,-1.786008 -14.11545 -2.451696,-1.891394 -14.34829 -2.545452,-1.421112 -14.98576 -2.216072,-1.479628 -14.41201 -2.460985,-1.617815 -14.39378 -2.613872,-1.6983 -14.55582 -2.748224,2 0 -8.366122,2 0 -8.366122,2 0 -8.366122,2 0 -8.366122,2 0 -8.366122,2 0 -8.366122,2 0 -8.366122,2 0 -8.366122,2 0 -8.366122,2 0 -8.366122,2 0 -8.366122,2 0 -8.366122,2 0 -8.366122,2 0 -8.366122,2 0 -8.366122,2 0 -8.366122,2 0 -8.366122,2 0 -8.366122,2 0 -8.366122,2 0 -8.366122,2 0 -8.366122,3.510,Right Hand Closed  1
-1.884513 -16.50257 -1.596607,-2.318551 -15.75238 -1.452426,-2.494133 -15.00449 -1.436799,-2.62832 -14.38285 -1.483843,-2.790995 -13.91324 -1.541479,-1.917618 -14.38906 -1.583544,-1.987344 -13.55168 -1.83911,-2.19507 -13.60314 -1.996674,-2.30973 -13.82629 -2.039831,-1.676372 -14.54545 -1.794218,-1.7357 -13.7655 -2.15661,-1.954768 -13.84161 -2.367654,-2.081835 -14.01867 -2.481502,-1.518038 -14.75873 -2.009139,-1.594362 -14.03664 -2.297869,-1.786008 -14.11545 -2.451696,-1.891394 -14.34829 -2.545452,-1.421112 -14.98576 -2.216072,-1.479628 -14.41201 -2.460985,-1.617815 -14.39378 -2.613872,-1.6983 -14.55582 -2.748224,2 0 -8.366122,2 0 -8.366122,2 0 -8.366122,2 0 -8.366122,2 0 -8.366122,2 0 -8.366122,2 0 -8.366122,2 0 -8.366122,2 0 -8.366122,2 0 -8.366122,2 0 -8.366122,2 0 -8.366122,2 0 -8.366122,2 0 -8.366122,2 0 -8.366122,2 0 -8.366122,2 0 -8.366122,2 0 -8.366122,2 0 -8.366122,2 0 -8.366122,2 0 -8.366122,3.610,Right Hand Closed  1
-1.884513 -16.50257 -1.596607,-2.318551 -15.75238 -1.452426,-2.494133 -15.00449 -1.436799,-2.62832 -14.38285 -1.483843,-2.790995 -13.91324 -1.541479,-1.917618 -14.38906 -1.583544,-1.987344 -13.55168 -1.83911,-2.19507 -13.60314 -1.996674,-2.30973 -13.82629 -2.039831,-1.676372 -14.54545 -1.794218,-1.7357 -13.7655 -2.15661,-1.954768 -13.84161 -2.367654,-2.081835 -14.01867 -2.481502,-1.518038 -14.75873 -2.009139,-1.594362 -14.03664 -2.297869,-1.786008 -14.11545 -2.451696,-1.891394 -14.34829 -2.545452,-1.421112 -14.98576 -2.216072,-1.479628 -14.41201 -2.460985,-1.617815 -14.39378 -2.613872,-1.6983 -14.55582 -2.748224,2 0 -8.366122,2 0 -8.366122,2 0 -8.366122,2 0 -8.366122,2 0 -8.366122,2 0 -8.366122,2 0 -8.366122,2 0 -8.366122,2 0 -8.366122,2 0 -8.366122,2 0 -8.366122,2 0 -8.366122,2 0 -8.366122,2 0 -8.366122,2 0 -8.366122,2 0 -8.366122,2 0 -8.366122,2 0 -8.366122,2 0 -8.366122,2 0 -8.366122,2 0 -8.366122,3.710,Right Hand Closed  1
-1.884513 -16.50257 -1.596607,-2.318551 -15.75238 -1.452426,-2.494133 -15.00449 -1.436799,-2.62832 -14.38285 -1.483843,-2.790995 -13.91324 -1.541479,-1.917618 -14.38906 -1.583544,-1.987344 -13.55168 -1.83911,-2.19507 -13.60314 -1.996674,-2.30973 -13.82629 -2.039831,-1.676372 -14.54545 -1.794218,-1.7357 -13.7655 -2.15661,-1.954768 -13.84161 -2.367654,-2.081835 -14.01867 -2.481502,-1.518038 -14.75873 -2.009139,-1.594362 -14.03664 -2.297869,-1.786008 -14.11545 -2.451696,-1.891394 -14.34829 -2.545452,-1.421112 -14.98576 -2.216072,-1.479628 -14.41201 -2.460985,-1.617815 -14.39378 -2.613872,-1.6983 -14.55582 -2.748224,2 0 -8.366122,2 0 -8.366122,2 0 -8.366122,2 0 -8.366122,2 0 -8.366122,2 0 -8.366122,2 0 -8.366122,2 0 -8.366122,2 0 -8.366122,2 0 -8.366122,2 0 -8.366122,2 0 -8.366122,2 0 -8.366122,2 0 -8.366122,2 0 -8.366122,2 0 -8.366122,2 0 -8.366122,2 0 -8.366122,2 0 -8.366122,2 0 -8.366122,2 0 -8.366122,3.810,Right Hand Closed  1
-1.884513 -16.50257 -1.596607,-2.318551 -15.75238 -1.452426,-2.494133 -15.00449 -1.436799,-2.62832 -14.38285 -1.483843,-2.790995 -13.91324 -1.541479,-1.917618 -14.38906 -1.583544,-1.987344 -13.55168 -1.83911,-2.19507 -13.60314 -1.996674,-2.30973 -13.82629 -2.039831,-1.676372 -14.54545 -1.794218,-1.7357 -13.7655 -2.15661,-1.954768 -13.84161 -2.367654,-2.081835 -14.01867 -2.481502,-1.518038 -14.75873 -2.009139,-1.594362 -14.03664 -2.297869,-1.786008 -14.11545 -2.451696,-1.891394 -14.34829 -2.545452,-1.421112 -14.98576 -2.216072,-1.479628 -14.41201 -2.460985,-1.617815 -14.39378 -2.613872,-1.6983 -14.55582 -2.748224,2 0 -8.366122,2 0 -8.366122,2 0 -8.366122,2 0 -8.366122,2 0 -8.366122,2 0 -8.366122,2 0 -8.366122,2 0 -8.366122,2 0 -8.366122,2 0 -8.366122,2 0 -8.366122,2 0 -8.366122,2 0 -8.366122,2 0 -8.366122,2 0 -8.366122,2 0 -8.366122,2 0 -8.366122,2 0 -8.366122,2 0 -8.366122,2 0 -8.366122,2 0 -8.366122,3.910,Right Hand Closed  1
-1.884513 -16.50257 -1.596607,-2.318551 -15.75238 -1.452426,-2.494133 -15.00449 -1.436799,-2.62832 -14.38285 -1.483843,-2.790995 -13.91324 -1.541479,-1.917618 -14.38906 -1.583544,-1.987344 -13.55168 -1.83911,-2.19507 -13.60314 -1.996674,-2.30973 -13.82629 -2.039831,-1.676372 -14.54545 -1.794218,-1.7357 -13.7655 -2.15661,-1.954768 -13.84161 -2.367654,-2.081835 -14.01867 -2.481502,-1.518038 -14.75873 -2.009139,-1.594362 -14.03664 -2.297869,-1.786008 -14.11545 -2.451696,-1.891394 -14.34829 -2.545452,-1.421112 -14.98576 -2.216072,-1.479628 -14.41201 -2.460985,-1.617815 -14.39378 -2.613872,-1.6983 -14.55582 -2.748224,2 0 -8.366122,2 0 -8.366122,2 0 -8.366122,2 0 -8.366122,2 0 -8.366122,2 0 -8.366122,2 0 -8.366122,2 0 -8.366122,2 0 -8.366122,2 0 -8.366122,2 0 -8.366122,2 0 -8.366122,2 0 -8.366122,2 0 -8.366122,2 0 -8.366122,2 0 -8.366122,2 0 -8.366122,2 0 -8.366122,2 0 -8.366122,2 0 -8.366122,2 0 -8.366122,4.010,Right Hand Closed  1
-1.884513 -16.50257 -1.596607,-2.318551 -15.75238 -1.452426,-2.494133 -15.00449 -1.436799,-2.62832 -14.38285 -1.483843,-2.790995 -13.91324 -1.541479,-1.917618 -14.38906 -1.583544,-1.987344 -13.55168 -1.83911,-2.19507 -13.60314 -1.996674,-2.30973 -13.82629 -2.039831,-1.676372 -14.54545 -1.794218,-1.7357 -13.7655 -2.15661,-1.954768 -13.84161 -2.367654,-2.081835 -14.01867 -2.481502,-1.518038 -14.75873 -2.009139,-1.594362 -14.03664 -2.297869,-1.786008 -14.11545 -2.451696,-1.891394 -14.34829 -2.545452,-1.421112 -14.98576 -2.216072,-1.479628 -14.41201 -2.460985,-1.617815 -14.39378 -2.613872,-1.6983 -14.55582 -2.748224,2 0 -8.366122,2 0 -8.366122,2 0 -8.366122,2 0 -8.366122,2 0 -8.366122,2 0 -8.366122,2 0 -8.366122,2 0 -8.366122,2 0 -8.366122,2 0 -8.366122,2 0 -8.366122,2 0 -8.366122,2 0 -8.366122,2 0 -8.366122,2 0 -8.366122,2 0 -8.366122,2 0 -8.366122,2 0 -8.366122,2 0 -8.366122,2 0 -8.366122,2 0 -8.366122,4.110,Right Hand Closed  1
-1.884513 -16.50257 -1.596607,-2.318551 -15.75238 -1.452426,-2.494133 -15.00449 -1.436799,-2.62832 -14.38285 -1.483843,-2.790995 -13.91324 -1.541479,-1.917618 -14.38906 -1.583544,-1.987344 -13.55168 -1.83911,-2.19507 -13.60314 -1.996674,-2.30973 -13.82629 -2.039831,-1.676372 -14.54545 -1.794218,-1.7357 -13.7655 -2.15661,-1.954768 -13.84161 -2.367654,-2.081835 -14.01867 -2.481502,-1.518038 -14.75873 -2.009139,-1.594362 -14.03664 -2.297869,-1.786008 -14.11545 -2.451696,-1.891394 -14.34829 -2.545452,-1.421112 -14.98576 -2.216072,-1.479628 -14.41201 -2.460985,-1.617815 -14.39378 -2.613872,-1.6983 -14.55582 -2.748224,2 0 -8.366122,2 0 -8.366122,2 0 -8.366122,2 0 -8.366122,2 0 -8.366122,2 0 -8.366122,2 0 -8.366122,2 0 -8.366122,2 0 -8.366122,2 0 -8.366122,2 0 -8.366122,2 0 -8.366122,2 0 -8.366122,2 0 -8.366122,2 0 -8.366122,2 0 -8.366122,2 0 -8.366122,2 0 -8.366122,2 0 -8.366122,2 0 -8.366122,2 0 -8.366122,4.210,Right Hand Closed  1
-1.884513 -16.50257 -1.596607,-2.318551 -15.75238 -1.452426,-2.494133 -15.00449 -1.436799,-2.62832 -14.38285 -1.483843,-2.790995 -13.91324 -1.541479,-1.917618 -14.38906 -1.583544,-1.987344 -13.55168 -1.83911,-2.19507 -13.60314 -1.996674,-2.30973 -13.82629 -2.039831,-1.676372 -14.54545 -1.794218,-1.7357 -13.7655 -2.15661,-1.954768 -13.84161 -2.367654,-2.081835 -14.01867 -2.481502,-1.518038 -14.75873 -2.009139,-1.594362 -14.03664 -2.297869,-1.786008 -14.11545 -2.451696,-1.891394 -14.34829 -2.545452,-1.421112 -14.98576 -2.216072,-1.479628 -14.41201 -2.460985,-1.617815 -14.39378 -2.613872,-1.6983 -14.55582 -2.748224,2 0 -8.366122,2 0 -8.366122,2 0 -8.366122,2 0 -8.366122,2 0 -8.366122,2 0 -8.366122,2 0 -8.366122,2 0 -8.366122,2 0 -8.366122,2 0 -8.366122,2 0 -8.366122,2 0 -8.366122,2 0 -8.366122,2 0 -8.366122,2 0 -8.366122,2 0 -8.366122,2 0 -8.366122,2 0 -8.366122,2 0 -8.366122,2 0 -8.366122,2 0 -8.366122,4.310,Right Hand Closed  1
-1.884513 -16.50257 -1.596607,-2.318551 -15.75238 -1.452426,-2.494133 -15.00449 -1.436799,-2.62832 -14.38285 -1.483843,-2.790995 -13.91324 -1.541479,-1.917618 -14.38906 -1.583544,-1.987344 -13.55168 -1.83911,-2.19507 -13.60314 -1.996674,-2.30973 -13.82629 -2.039831,-1.676372 -14.54545 -1.794218,-1.7357 -13.7655 -2.15661,-1.954768 -13.84161 -2.367654,-2.081835 -14.01867 -2.481502,-1.518038 -14.75873 -2.009139,-1.594362 -14.03664 -2.297869,-1.786008 -14.11545 -2.451696,-1.891394 -14.34829 -2.545452,-1.421112 -14.98576 -2.216072,-1.479628 -14.41201 -2.460985,-1.617815 -14.39378 -2.613872,-1.6983 -14.55582 -2.748224,2 0 -8.366122,2 0 -8.366122,2 0 -8.366122,2 0 -8.366122,2 0 -8.366122,2 0 -8.366122,2 0 -8.366122,2 0 -8.366122,2 0 -8.366122,2 0 -8.366122,2 0 -8.366122,2 0 -8.366122,2 0 -8.366122,2 0 -8.366122,2 0 -8.366122,2 0 -8.366122,2 0 -8.366122,2 0 -8.366122,2 0 -8.366122,2 0 -8.366122,2 0 -8.366122,4.410,Right Hand Closed  1
-1.884513 -16.50257 -1.596607,-2.318551 -15.75238 -1.452426,-2.494133 -15.00449 -1.436799,-2.62832 -14.38285 -1.483843,-2.790995 -13.91324 -1.541479,-1.917618 -14.38906 -1.583544,-1.987344 -13.55168 -1.83911,-2.19507 -13.60314 -1.996674,-2.30973 -13.82629 -2.039831,-1.676372 -14.54545 -1.794218,-1.7357 -13.7655 -2.15661,-1.954768 -13.84161 -2.367654,-2.081835 -14.01867 -2.481502,-1.518038 -14.75873 -2.009139,-1.594362 -14.03664 -2.297869,-1.786008 -14.11545 -2.451696,-1.891394 -14.34829 -2.545452,-1.421112 -14.98576 -2.216072,-1.479628 -14.41201 -2.460985,-1.617815 -14.39378 -2.613872,-1.6983 -14.55582 -2.748224,2 0 -8.366122,2 0 -8.366122,2 0 -8.366122,2 0 -8.366122,2 0 -8.366122,2 0 -8.366122,2 0 -8.366122,2 0 -8.366122,2 0 -8.366122,2 0 -8.366122,2 0 -8.366122,2 0 -8.366122,2 0 -8.366122,2 0 -8.366122,2 0 -8.366122,2 0 -8.366122,2 0 -8.366122,2 0 -8.366122,2 0 -8.366122,2 0 -8.366122,2 0 -8.366122,4.510,Right Hand Closed  1
-1.884513 -16.50257 -1.596607,-2.318551 -15.75238 -1.452426,-2.494133 -15.00449 -1.436799,-2.62832 -14.38285 -1.483843,-2.790995 -13.91324 -1.541479,-1.917618 -14.38906 -1.583544,-1.987344 -13.55168 -1.83911,-2.19507 -13.60314 -1.996674,-2.30973 -13.82629 -2.039831,-1.676372 -14.54545 -1.794218,-1.7357 -13.7655 -2.15661,-1.954768 -13.84161 -2.367654,-2.081835 -14.01867 -2.481502,-1.518038 -14.75873 -2.009139,-1.594362 -14.03664 -2.297869,-1.786008 -14.11545 -2.451696,-1.891394 -14.34829 -2.545452,-1.421112 -14.98576 -2.216072,-1.479628 -14.41201 -2.460985,-1.617815 -14.39378 -2.613872,-1.6983 -14.55582 -2.748224,2 0 -8.366122,2 0 -8.366122,2 0 -8.366122,2 0 -8.366122,2 0 -8.366122,2 0 -8.366122,2 0 -8.366122,2 0 -8.366122,2 0 -8.366122,2 0 -8.366122,2 0 -8.366122,2 0 -8.366122,2 0 -8.366122,2 0 -8.366122,2 0 -8.366122,2 0 -8.366122,2 0 -8.366122,2 0 -8.366122,2 0 -8.366122,2 0 -8.366122,2 0 -8.366122,4.610,Right Hand Closed  1
-1.884513 -16.50257 -1.596607,-2.318551 -15.75238 -1.452426,-2.494133 -15.00449 -1.436799,-2.62832 -14.38285 -1.483843,-2.790995 -13.91324 -1.541479,-1.917618 -14.38906 -1.583544,-1.987344 -13.55168 -1.83911,-2.19507 -13.60314 -1.996674,-2.30973 -13.82629 -2.039831,-1.676372 -14.54545 -1.794218,-1.7357 -13.7655 -2.15661,-1.954768 -13.84161 -2.367654,-2.081835 -14.01867 -2.481502,-1.518038 -14.75873 -2.009139,-1.594362 -14.03664 -2.297869,-1.786008 -14.11545 -2.451696,-1.891394 -14.34829 -2.545452,-1.421112 -14.98576 -2.216072,-1.479628 -14.41201 -2.460985,-1.617815 -14.39378 -2.613872,-1.6983 -14.55582 -2.748224,2 0 -8.366122,2 0 -8.366122,2 0 -8.366122,2 0 -8.366122,2 0 -8.366122,2 0 -8.366122,2 0 -8.366122,2 0 -8.366122,2 0 -8.366122,2 0 -8.366122,2 0 -8.366122,2 0 -8.366122,2 0 -8.366122,2 0 -8.366122,2 0 -8.366122,2 0 -8.366122,2 0 -8.366122,2 0 -8.366122,2 0 -8.366122,2 0 -8.366122,2 0 -8.366122,4.710,Right Hand Closed  1
-1.884513 -16.50257 -1.596607,-2.318551 -15.75238 -1.452426,-2.494133 -15.00449 -1.436799,-2.62832 -14.38285 -1.483843,-2.790995 -13.91324 -1.541479,-1.917618 -14.38906 -1.583544,-1.987344 -13.55168 -1.83911,-2.19507 -13.60314 -1.996674,-2.30973 -13.82629 -2.039831,-1.676372 -14.54545 -1.794218,-1.7357 -13.7655 -2.15661,-1.954768 -13.84161 -2.367654,-2.081835 -14.01867 -2.481502,-1.518038 -14.75873 -2.009139,-1.594362 -14.03664 -2.297869,-1.786008 -14.11545 -2.451696,-1.891394 -14.34829 -2.545452,-1.421112 -14.98576 -2.216072,-1.479628 -14.41201 -2.460985,-1.617815 -14.39378 -2.613872,-1.6983 -14.55582 -2.748224,2 0 -8.366122,2 0 -8.366122,2 0 -8.366122,2 0 -8.366122,2 0 -8.366122,2 0 -8.366122,2 0 -8.366122,2 0 -8.366122,2 0 -8.366122,2 0 -8.366122,2 0 -8.366122,2 0 -8.366122,2 0 -8.366122,2 0 -8.366122,2 0 -8.366122,2 0 -8.366122,2 0 -8.366122,2 0 -8.366122,2 0 -8.366122,2 0 -8.366122,2 0 -8.366122,4.810,Right Hand Closed  1
-1.884513 -16.50257 -1.596607,-2.318551 -15.75238 -1.452426,-2.494133 -15.00449 -1.436799,-2.62832 -14.38285 -1.483843,-2.790995 -13.91324 -1.541479,-1.917618 -14.38906 -1.583544,-1.987344 -13.55168 -1.83911,-2.19507 -13.60314 -1.996674,-2.30973 -13.82629 -2.039831,-1.676372 -14.54545 -1.794218,-1.7357 -13.7655 -2.15661,-1.954768 -13.84161 -2.367654,-2.081835 -14.01867 -2.481502,-1.518038 -14.75873 -2.009139,-1.594362 -14.03664 -2.297869,-1.786008 -14.11545 -2.451696,-1.891394 -14.34829 -2.545452,-1.421112 -14.98576 -2.216072,-1.479628 -14.41201 -2.460985,-1.617815 -14.39378 -2.613872,-1.6983 -14.55582 -2.748224,2 0 -8.366122,2 0 -8.366122,2 0 -8.366122,2 0 -8.366122,2 0 -8.366122,2 0 -8.366122,2 0 -8.366122,2 0 -8.366122,2 0 -8.366122,2 0 -8.366122,2 0 -8.366122,2 0 -8.366122,2 0 -8.366122,2 0 -8.366122,2 0 -8.366122,2 0 -8.366122,2 0 -8.366122,2 0 -8.366122,2 0 -8.366122,2 0 -8.366122,2 0 -8.366122,4.910,Right Hand Closed  1
-1.884513 -16.50257 -1.596607,-2.318551 -15.75238 -1.452426,-2.494133 -15.00449 -1.436799,-2.62832 -14.38285 -1.483843,-2.790995 -13.91324 -1.541479,-1.917618 -14.38906 -1.583544,-1.987344 -13.55168 -1.83911,-2.19507 -13.60314 -1.996674,-2.30973 -13.82629 -2.039831,-1.676372 -14.54545 -1.794218,-1.7357 -13.7655 -2.15661,-1.954768 -13.84161 -2.367654,-2.081835 -14.01867 -2.481502,-1.518038 -14.75873 -2.009139,-1.594362 -14.03664 -2.297869,-1.786008 -14.11545 -2.451696,-1.891394 -14.34829 -2.545452,-1.421112 -14.98576 -2.216072,-1.479628 -14.41201 -2.460985,-1.617815 -14.39378 -2.613872,-1.6983 -14.55582 -2.748224,2 0 -8.366122,2 0 -8.366122,2 0 -8.366122,2 0 -8.366122,2 0 -8.366122,2 0 -8.366122,2 0 -8.366122,2 0 -8.366122,2 0 -8.366122,2 0 -8.366122,2 0 -8.366122,2 0 -8.366122,2 0 -8.366122,2 0 -8.366122,2 0 -8.366122,2 0 -8.366122,2 0 -8.366122,2 0 -8.366122,2 0 -8.366122,2 0 -8.366122,2 0 -8.366122,5.010,Right Hand Closed  1
-1.884513 -16.50257 -1.596607,-2.318551 -15.75238 -1.452426,-2.494133 -15.00449 -1.436799,-2.62832 -14.38285 -1.483843,-2.790995 -13.91324 -1.541479,-1.917618 -14.38906 -1.583544,-1.987344 -13.55168 -1.83911,-2.19507 -13.60314 -1.996674,-2.30973 -13.82629 -2.039831,-1.676372 -14.54545 -1.794218,-1.7357 -13.7655 -2.15661,-1.954768 -13.84161 -2.367654,-2.081835 -14.01867 -2.481502,-1.518038 -14.75873 -2.009139,-1.594362 -14.03664 -2.297869,-1.786008 -14.11545 -2.451696,-1.891394 -14.34829 -2.545452,-1.421112 -14.98576 -2.216072,-1.479628 -14.41201 -2.460985,-1.617815 -14.39378 -2.613872,-1.6983 -14.55582 -2.748224,2 0 -8.366122,2 0 -8.366122,2 0 -8.366122,2 0 -8.366122,2 0 -8.366122,2 0 -8.366122,2 0 -8.366122,2 0 -8.366122,2 0 -8.366122,2 0 -8.366122,2 0 -8.366122,2 0 -8.366122,2 0 -8.366122,2 0 -8.366122,2 0 -8.366122,2 0 -8.366122,2 0 -8.366122,2 0 -8.366122,2 0 -8.366122,2 0 -8.366122,2 0 -8.366122,5.110,Right Hand Closed  1
-1.884513 -16.50257 -1.596607,-2.318551 -15.75238 -1.452426,-2.494133 -15.00449 -1.436799,-2.62832 -14.38285 -1.483843,-2.790995 -13.91324 -1.541479,-1.917618 -14.38906 -1.583544,-1.987344 -13.55168 -1.83911,-2.19507 -13.60314 -1.996674,-2.30973 -13.82629 -2.039831,-1.676372 -14.54545 -1.794218,-1.7357 -13.7655 -2.15661,-1.954768 -13.84161 -2.367654,-2.081835 -14.01867 -2.481502,-1.518038 -14.75873 -2.009139,-1.594362 -14.03664 -2.297869,-1.786008 -14.11545 -2.451696,-1.891394 -14.34829 -2.545452,-1.421112 -14.98576 -2.216072,-1.479628 -14.41201 -2.460985,-1.617815 -14.39378 -2.613872,-1.6983 -14.55582 -2.748224,2 0 -8.366122,2 0 -8.366122,2 0 -8.366122,2 0 -8.366122,2 0 -8.366122,2 0 -8.366122,2 0 -8.366122,2 0 -8.366122,2 0 -8.366122,2 0 -8.366122,2 0 -8.366122,2 0 -8.366122,2 0 -8.366122,2 0 -8.366122,2 0 -8.366122,2 0 -8.366122,2 0 -8.366122,2 0 -8.366122,2 0 -8.366122,2 0 -8.366122,2 0 -8.366122,5.210,Right Hand Closed  1
-1.884513 -16.50257 -1.596607,-2.318551 -15.75238 -1.452426,-2.494133 -15.00449 -1.436799,-2.62832 -14.38285 -1.483843,-2.790995 -13.91324 -1.541479,-1.917618 -14.38906 -1.583544,-1.987344 -13.55168 -1.83911,-2.19507 -13.60314 -1.996674,-2.30973 -13.82629 -2.039831,-1.676372 -14.54545 -1.794218,-1.7357 -13.7655 -2.15661,-1.954768 -13.84161 -2.367654,-2.081835 -14.01867 -2.481502,-1.518038 -14.75873 -2.009139,-1.594362 -14.03664 -2.297869,-1.786008 -14.11545 -2.451696,-1.891394 -14.34829 -2.545452,-1.421112 -14.98576 -2.216072,-1.479628 -14.41201 -2.460985,-1.617815 -14.39378 -2.613872,-1.6983 -14.55582 -2.748224,2 0 -8.366122,2 0 -8.366122,2 0 -8.366122,2 0 -8.366122,2 0 -8.366122,2 0 -8.366122,2 0 -8.366122,2 0 -8.366122,2 0 -8.366122,2 0 -8.366122,2 0 -8.366122,2 0 -8.366122,2 0 -8.366122,2 0 -8.366122,2 0 -8.366122,2 0 -8.366122,2 0 -8.366122,2 0 -8.366122,2 0 -8.366122,2 0 -8.366122,2 0 -8.366122,5.310,Right Hand Closed  1
-1.884513 -16.50257 -1.596607,-2.318551 -15.75238 -1.452426,-2.494133 -15.00449 -1.436799,-2.62832 -14.38285 -1.483843,-2.790995 -13.91324 -1.541479,-1.917618 -14.38906 -1.583544,-1.987344 -13.55168 -1.83911,-2.19507 -13.60314 -1.996674,-2.30973 -13.82629 -2.039831,-1.676372 -14.54545 -1.794218,-1.7357 -13.7655 -2.15661,-1.954768 -13.84161 -2.367654,-2.081835 -14.01867 -2.481502,-1.518038 -14.75873 -2.009139,-1.594362 -14.03664 -2.297869,-1.786008 -14.11545 -2.451696,-1.891394 -14.34829 -2.545452,-1.421112 -14.98576 -2.216072,-1.479628 -14.41201 -2.460985,-1.617815 -14.39378 -2.613872,-1.6983 -14.55582 -2.748224,2 0 -8.366122,2 0 -8.366122,2 0 -8.366122,2 0 -8.366122,2 0 -8.366122,2 0 -8.366122,2 0 -8.366122,2 0 -8.366122,2 0 -8.366122,2 0 -8.366122,2 0 -8.366122,2 0 -8.366122,2 0 -8.366122,2 0 -8.366122,2 0 -8.366122,2 0 -8.366122,2 0 -8.366122,2 0 -8.366122,2 0 -8.366122,2 0 -8.366122,2 0 -8.366122,5.410,Right Hand Closed  1
-1.884513 -16.50257 -1.596607,-2.318551 -15.75238 -1.452426,-2.494133 -15.00449 -1.436799,-2.62832 -14.38285 -1.483843,-2.790995 -13.91324 -1.541479,-1.917618 -14.38906 -1.583544,-1.987344 -13.55168 -1.83911,-2.19507 -13.60314 -1.996674,-2.30973 -13.82629 -2.039831,-1.676372 -14.54545 -1.794218,-1.7357 -13.7655 -2.15661,-1.954768 -13.84161 -2.367654,-2.081835 -14.01867 -2.481502,-1.518038 -14.75873 -2.009139,-1.594362 -14.03664 -2.297869,-1.786008 -14.11545 -2.451696,-1.891394 -14.34829 -2.545452,-1.421112 -14.98576 -2.216072,-1.479628 -14.41201 -2.460985,-1.617815 -14.39378 -2.613872,-1.6983 -14.55582 -2.748224,2 0 -8.366122,2 0 -8.366122,2 0 -8.366122,2 0 -8.366122,2 0 -8.366122,2 0 -8.366122,2 0 -8.366122,2 0 -8.366122,2 0 -8.366122,2 0 -8.366122,2 0 -8.366122,2 0 -8.366122,2 0 -8.366122,2 0 -8.366122,2 0 -8.366122,2 0 -8.366122,2 0 -8.366122,2 0 -8.366122,2 0 -8.366122,2 0 -8.366122,2 0 -8.366122,5.510,Right Hand Closed  1
-1.884513 -16.50257 -1.596607,-2.318551 -15.75238 -1.452426,-2.494133 -15.00449 -1.436799,-2.62832 -14.38285 -1.483843,-2.790995 -13.91324 -1.541479,-1.917618 -14.38906 -1.583544,-1.987344 -13.55168 -1.83911,-2.19507 -13.60314 -1.996674,-2.30973 -13.82629 -2.039831,-1.676372 -14.54545 -1.794218,-1.7357 -13.7655 -2.15661,-1.954768 -13.84161 -2.367654,-2.081835 -14.01867 -2.481502,-1.518038 -14.75873 -2.009139,-1.594362 -14.03664 -2.297869,-1.786008 -14.11545 -2.451696,-1.891394 -14.34829 -2.545452,-1.421112 -14.98576 -2.216072,-1.479628 -14.41201 -2.460985,-1.617815 -14.39378 -2.613872,-1.6983 -14.55582 -2.748224,2 0 -8.366122,2 0 -8.366122,2 0 -8.366122,2 0 -8.366122,2 0 -8.366122,2 0 -8.366122,2 0 -8.366122,2 0 -8.366122,2 0 -8.366122,2 0 -8.366122,2 0 -8.366122,2 0 -8.366122,2 0 -8.366122,2 0 -8.366122,2 0 -8.366122,2 0 -8.366122,2 0 -8.366122,2 0 -8.366122,2 0 -8.366122,2 0 -8.366122,2 0 -8.366122,5.610,Right Hand Closed  1
-1.884513 -16.50257 -1.596607,-2.318551 -15.75238 -1.452426,-2.494133 -15.00449 -1.436799,-2.62832 -14.38285 -1.483843,-2.790995 -13.91324 -1.541479,-1.917618 -14.38906 -1.583544,-1.987344 -13.55168 -1.83911,-2.19507 -13.60314 -1.996674,-2.30973 -13.82629 -2.039831,-1.676372 -14.54545 -1.794218,-1.7357 -13.7655 -2.15661,-1.954768 -13.84161 -2.367654,-2.081835 -14.01867 -2.481502,-1.518038 -14.75873 -2.009139,-1.594362 -14.03664 -2.297869,-1.786008 -14.11545 -2.451696,-1.891394 -14.34829 -2.545452,-1.421112 -14.98576 -2.216072,-1.479628 -14.41201 -2.460985,-1.617815 -14.39378 -2.613872,-1.6983 -14.55582 -2.748224,2 0 -8.366122,2 0 -8.366122,2 0 -8.366122,2 0 -8.366122,2 0 -8.366122,2 0 -8.366122,2 0 -8.366122,2 0 -8.366122,2 0 -8.366122,2 0 -8.366122,2 0 -8.366122,2 0 -8.366122,2 0 -8.366122,2 0 -8.366122,2 0 -8.366122,2 0 -8.366122,2 0 -8.366122,2 0 -8.366122,2 0 -8.366122,2 0 -8.366122,2 0 -8.366122,5.710,Right Hand Closed  1
-1.884513 -16.50257 -1.596607,-2.318551 -15.75238 -1.452426,-2.494133 -15.00449 -1.436799,-2.62832 -14.38285 -1.483843,-2.790995 -13.91324 -1.541479,-1.917618 -14.38906 -1.583544,-1.987344 -13.55168 -1.83911,-2.19507 -13.60314 -1.996674,-2.30973 -13.82629 -2.039831,-1.676372 -14.54545 -1.794218,-1.7357 -13.7655 -2.15661,-1.954768 -13.84161 -2.367654,-2.081835 -14.01867 -2.481502,-1.518038 -14.75873 -2.009139,-1.594362 -14.03664 -2.297869,-1.786008 -14.11545 -2.451696,-1.891394 -14.34829 -2.545452,-1.421112 -14.98576 -2.216072,-1.479628 -14.41201 -2.460985,-1.617815 -14.39378 -2.613872,-1.6983 -14.55582 -2.748224,2 0 -8.366122,2 0 -8.366122,2 0 -8.366122,2 0 -8.366122,2 0 -8.366122,2 0 -8.366122,2 0 -8.366122,2 0 -8.366122,2 0 -8.366122,2 0 -8.366122,2 0 -8.366122,2 0 -8.366122,2 0 -8.366122,2 0 -8.366122,2 0 -8.366122,2 0 -8.366122,2 0 -8.366122,2 0 -8.366122,2 0 -8.366122,2 0 -8.366122,2 0 -8.366122,5.810,Right Hand Closed  1
-1.884513 -16.50257 -1.596607,-2.318551 -15.75238 -1.452426,-2.494133 -15.00449 -1.436799,-2.62832 -14.38285 -1.483843,-2.790995 -13.91324 -1.541479,-1.917618 -14.38906 -1.583544,-1.987344 -13.55168 -1.83911,-2.19507 -13.60314 -1.996674,-2.30973 -13.82629 -2.039831,-1.676372 -14.54545 -1.794218,-1.7357 -13.7655 -2.15661,-1.954768 -13.84161 -2.367654,-2.081835 -14.01867 -2.481502,-1.518038 -14.75873 -2.009139,-1.594362 -14.03664 -2.297869,-1.786008 -14.11545 -2.451696,-1.891394 -14.34829 -2.545452,-1.421112 -14.98576 -2.216072,-1.479628 -14.41201 -2.460985,-1.617815 -14.39378 -2.613872,-1.6983 -14.55582 -2.748224,2 0 -8.366122,2 0 -8.366122,2 0 -8.366122,2 0 -8.366122,2 0 -8.366122,2 0 -8.366122,2 0 -8.366122,2 0 -8.366122,2 0 -8.366122,2 0 -8.366122,2 0 -8.366122,2 0 -8.366122,2 0 -8.366122,2 0 -8.366122,2 0 -8.366122,2 0 -8.366122,2 0 -8.366122,2 0 -8.366122,2 0 -8.366122,2 0 -8.366122,2 0 -8.366122,5.910,Right Hand Closed  1
0.5387869 -14.14326 -1.747375,0.3044839 -13.19864 -1.034832,0.2614536 -12.17375 -0.4327014,0.1584568 -11.32875 0.01116544,0.06510735 -10.83355 0.4083731,1.214805 -12.54946 -0.1253178,1.699279 -12.09896 0.4808449,1.840391 -11.98059 0.8526377,1.902168 -11.85838 1.074495,1.425632 -13.27811 -0.2611882,2.104809 -13.04833 0.2991976,2.350038 -13.04574 0.5794224,2.477209 -13.07364 0.7507421,1.451525 -13.91703 -0.4178839,1.999949 -13.82715 0.05069774,2.130973 -13.90503 0.2102781,2.214747 -13.95491 0.3096148,1.353818 -14.40575 -0.5362628,1.675326 -14.48413 -0.2450296,1.703087 -14.54591 -0.1545356,1.701307 -14.56551 -0.1305389,-11.60961 -13.57488 0.3141724,-11.20837 -12.84351 1.282236,-11.04951 -12.14803 1.975832,-10.86065 -11.54246 2.535905,-10.49889 -11.03844 3.076361,-12.08781 -11.30737 1.967021,-12.48896 -10.39658 2.65475,-12.71576 -10.08393 3.163342,-12.8568 -10.02509 3.486537,-12.53156 -11.80713 1.788839,-13.1918 -10.87839 2.373323,-13.54942 -10.53719 2.722574,-13.80756 -10.43178 2.965122,-12.79679 -12.43267 1.625852,-13.53666 -11.88294 2.17043,-13.98235 -11.71789 2.471293,-14.35221 -11.69206 2.680159,-12.95511 -13.1431 1.508655,-13.5976 -12.99796 1.980867,-14.03496 -12.98548 2.201823,-14.4335 -12.97284 2.389791,6.010, 7
0.9354987 -13.5016 -1.144938,0.9241257 -12.27865 -0.4186065,1.117542 -11.28161 0.1417432,1.248033 -10.38231 0.5465559,1.225281 -9.525614 0.8367335,2.242246 -12.15151 0.4377354,2.842365 -12.04086 0.9106686,2.957959 -12.23958 1.066399,2.958373 -12.38869 1.154931,2.376969 -12.92099 0.2780721,3.076139 -13.12556 0.8021462,3.279267 -13.3961 0.9259255,3.353041 -13.64465 1.02654,2.374673 -13.59144 0.1087801,3.011464 -13.9197 0.547612,3.195957 -14.26877 0.6226436,3.296236 -14.57093 0.6789684,2.24826 -14.11678 -0.0145303,2.670624 -14.57174 0.3767253,2.837956 -14.91723 0.528242,2.953065 -15.19119 0.6350417,-11.77568 -12.75814 0.7033857,-11.44124 -11.97099 1.337905,-11.34568 -11.03312 1.847033,-11.24202 -10.33204 2.286356,-11.02454 -9.576036 2.745786,-12.38639 -9.995703 1.8253,-12.93081 -9.063753 2.306178,-13.29859 -8.588837 2.674032,-13.58175 -8.418772 2.943046,-12.70801 -10.57813 1.748545,-13.33129 -9.899548 2.212849,-13.71529 -9.668787 2.560269,-14.05271 -9.623575 2.838878,-12.84654 -11.31205 1.679023,-13.24969 -11.24794 2.113762,-13.22525 -11.45951 2.355581,-13.22896 -11.64953 2.544289,-12.89659 -12.05008 1.663726,-13.28904 -12.1654 2.048288,-13.41529 -12.27183 2.2092,-13.54347 -12.31205 2.322051,6.110, 6
0.5128212 -12.15459 -0.9873587,0.6729994 -11.02546 -0.9910818,1.027308 -9.854097 -0.7735381,1.220108 -8.928143 -0.5121173,1.278268 -8.134663 -0.196501,2.058239 -10.32291 -0.5278637,2.854626 -9.954823 -0.1563592,3.329392 -9.760551 0.1218163,3.671214 -9.579954 0.2975197,2.078287 -10.85842 -0.2799043,2.970423 -10.616 0.1750609,3.44985 -10.56782 0.4302684,3.833679 -10.56746 0.6021695,1.960004 -11.39217 -0.04350376,2.785418 -11.31361 0.3160151,3.246192 -11.28202 0.3874232,3.622186 -11.24171 0.427738,1.752815 -11.88155 0.1976018,2.341853 -11.91112 0.4195588,2.659832 -11.95211 0.3991404,2.929659 -12.0053 0.3698593,-11.7062 -12.11572 0.9518198,-11.28197 -11.50198 1.558285,-11.1517 -10.55376 2.005286,-11.07491 -9.966169 2.406587,-10.86081 -9.266594 2.840826,-11.95296 -9.385115 1.956039,-12.31057 -8.444618 2.490312,-12.55392 -7.632282 2.883121,-12.78485 -7.006341 3.108746,-12.36544 -9.703749 1.865673,-12.47425 -10.52324 2.477969,-12.14312 -10.97569 2.631716,-11.89826 -11.05769 2.701835,-12.61402 -10.25014 1.843277,-12.67506 -11.08991 2.368928,-12.37689 -11.46656 2.566527,-12.20292 -11.5712 2.66231,-12.82304 -10.78081 1.877782,-12.99743 -11.28669 2.372289,-12.79665 -11.66647 2.534084,-12.66989 -11.86302 2.667557,6.210, 5
-0.7943821 -11.18063 2.711668,-1.194938 -10.20304 3.100241,-1.47527 -9.003527 3.409571,-1.704453 -8.19857 3.724626,-1.950882 -7.622442 4.065359,-0.6534481 -7.75748 2.89444,-0.3409004 -6.666645 3.174925,-0.2253304 -6.125434 3.541512,-0.2229099 -5.813306 3.851509,-0.3250313 -8.01688 2.971006,0.115983 -6.861209 3.312312,0.1382728 -6.444233 3.689701,0.01753807 -6.377809 3.968243,-0.07814121 -8.440428 3.119111,0.4009342 -7.40537 3.46841,0.3448024 -7.261501 3.778121,0.1468821 -7.365411 3.956187,0.09545851 -9.05368 3.31774,0.5253258 -8.32159 3.642336,0.484087 -8.131666 3.81702,0.2941823 -8.175041 3.935227,-10.78623 -10.87513 2.383378,-10.25163 -10.25953 2.90002,-9.968995 -9.499096 3.455997,-9.774112 -9.065992 4.013956,-9.442114 -8.6556 4.572816,-10.51038 -7.962568 3.493953,-10.62165 -6.601229 4.039462,-10.66929 -5.952396 4.431345,-10.70397 -5.40117 4.676006,-10.93398 -8.052347 3.583718,-11.09958 -6.580575 4.177521,-11.18798 -5.865478 4.654712,-11.266 -5.311885 4.96232,-11.30384 -8.43465 3.683466,-11.57127 -7.158365 4.31886,-11.68918 -6.506633 4.756406,-11.74159 -5.98084 5.020356,-11.6538 -9.015638 3.783872,-12.0023 -8.117678 4.376896,-12.07867 -7.649693 4.611091,-12.06981 -7.300798 4.788223,6.310, 10
-1.216805 -10.97374 2.70052,-1.604415 -10.40452 3.670112,-1.786212 -9.681854 4.272487,-1.888587 -9.059805 4.694325,-2.101846 -8.530685 5.11683,-1.319022 -8.002295 3.99721,-1.176461 -6.951272 4.48236,-1.15331 -6.344034 4.832928,-1.184948 -5.791191 5.141444,-1.11138 -7.94631 3.749228,-0.9295845 -6.960603 4.195378,-1.019946 -6.446777 4.482565,-1.146395 -5.99105 4.665321,-0.9538469 -8.146854 3.537311,-0.7205558 -7.369556 3.922639,-0.7558489 -7.192931 4.131298,-0.8297396 -7.071826 4.204675,-0.8427629 -8.4837 3.396268,-0.657681 -8.088799 3.73026,-0.654747 -7.873321 3.875358,-0.6976824 -7.675922 3.903462,-10.18492 -10.64923 2.459016,-9.921898 -10.16702 3.075131,-9.808874 -9.622173 3.731184,-9.777889 -9.400982 4.322953,-9.66105 -9.28636 4.953842,-9.909102 -8.010788 3.881289,-9.897226 -6.845644 4.549009,-9.925901 -6.083044 5.03045,-9.947812 -5.333054 5.352538,-10.26188 -7.937772 3.944727,-10.34367 -6.664007 4.649059,-10.42 -5.892293 5.096108,-10.44313 -5.142124 5.402125,-10.58245 -8.138111 4.026227,-10.75353 -7.005279 4.710003,-10.84509 -6.33982 5.211487,-10.88123 -5.689167 5.558702,-10.89655 -8.543688 4.125083,-11.16496 -7.756839 4.661501,-11.27197 -7.253276 4.957163,-11.33146 -6.748744 5.206993,6.410, 10
-1.955816 -10.73346 2.71368,-2.595431 -10.09395 2.967709,-3.131184 -9.233562 3.172572,-3.520305 -8.575279 3.387466,-3.877902 -8.171261 3.650838,-2.737204 -7.635116 2.864096,-2.917737 -6.402767 3.123107,-3.025051 -5.657896 3.343412,-3.121198 -4.964654 3.550507,-2.405485 -7.569519 3.010144,-2.519685 -6.26933 3.300233,-2.629597 -5.591772 3.594347,-2.776798 -5.050134 3.808569,-2.085609 -7.702114 3.232259,-2.125156 -6.525369 3.527381,-2.247402 -5.851884 3.823323,-2.43223 -5.342831 4.061524,-1.76524 -8.06979 3.476862,-1.61406 -7.228975 3.806406,-1.554243 -6.670338 4.099966,-1.571138 -6.136484 4.37089,-9.518335 -10.22457 1.450955,-8.916294 -9.858917 1.786173,-8.455786 -8.948126 2.050214,-8.125543 -8.218489 2.334781,-7.764736 -7.838526 2.580104,-9.085676 -7.482852 2.053709,-9.078934 -6.153222 2.32719,-9.061959 -5.479391 2.497901,-9.030131 -4.890676 2.650705,-9.443788 -7.513088 2.164414,-9.474195 -6.004303 2.492199,-9.465822 -5.251644 2.80469,-9.442183 -4.590204 3.015733,-9.757683 -7.768775 2.302339,-9.861166 -6.429756 2.659644,-9.885146 -5.697432 2.99768,-9.844522 -4.998872 3.258012,-10.05401 -8.226383 2.437573,-10.28571 -7.295396 2.810849,-10.40126 -6.724138 3.113061,-10.44375 -6.100818 3.315308,6.510, 10
-2.177873 -10.47454 1.83771,-2.825519 -10.02048 1.947304,-3.396322 -9.285919 2.089631,-3.820972 -8.688101 2.289239,-4.184461 -8.349295 2.510229,-3.005574 -7.744831 2.007979,-3.209673 -6.667266 2.239679,-3.335974 -6.062086 2.395211,-3.472836 -5.492153 2.536469,-2.689815 -7.579795 2.176889,-2.865255 -6.391897 2.472577,-3.005571 -5.673048 2.712852,-3.145785 -5.037526 2.903723,-2.367891 -7.628394 2.397085,-2.475653 -6.502273 2.695472,-2.593796 -5.827234 2.900941,-2.729455 -5.240295 3.065407,-2.02451 -7.896901 2.628041,-1.945436 -7.004472 2.897087,-1.942002 -6.441574 3.089029,-1.966118 -5.883431 3.241842,-9.272696 -10.07407 1.775897,-8.680128 -9.714478 2.092894,-8.170032 -8.936848 2.371246,-7.779346 -8.314571 2.683034,-7.393372 -7.936809 3.028547,-8.689633 -7.32016 2.24693,-8.620831 -6.15805 2.572748,-8.573939 -5.505752 2.825843,-8.545697 -4.873059 2.98976,-9.05816 -7.251518 2.395151,-9.027724 -5.999063 2.740594,-8.986277 -5.179227 3.077413,-8.958596 -4.461778 3.319952,-9.407104 -7.46101 2.561815,-9.429234 -6.316628 2.943928,-9.40301 -5.54053 3.286346,-9.36643 -4.830711 3.516259,-9.755015 -7.886949 2.760525,-9.892862 -7.013541 3.153379,-9.950925 -6.403943 3.419648,-9.986399 -5.766517 3.611731,6.610, 10
-2.160277 -10.05821 1.606808,-2.79086 -9.708132 1.746608,-3.362129 -9.061232 1.883671,-3.788886 -8.50456 2.069092,-4.161506 -8.234259 2.280294,-3.039259 -7.441026 1.780979,-3.249722 -6.376962 1.956599,-3.379325 -5.774523 2.08798,-3.51377 -5.216352 2.225454,-2.716498 -7.236202 1.919863,-2.914267 -6.072742 2.127685,-3.051931 -5.364149 2.338418,-3.183574 -4.761742 2.522815,-2.383529 -7.262752 2.096643,-2.525808 -6.172283 2.340958,-2.645083 -5.514097 2.518962,-2.776111 -4.956377 2.666862,-2.023752 -7.521301 2.30281,-1.969253 -6.665164 2.51147,-1.956419 -6.116569 2.666136,-1.9684 -5.576774 2.802971,-9.181377 -9.731544 1.066073,-8.603842 -9.423822 1.385674,-8.097086 -8.69828 1.686689,-7.714561 -8.120502 2.006346,-7.329021 -7.776855 2.36228,-8.587644 -7.191877 1.51626,-8.507163 -6.061294 1.814835,-8.453792 -5.39145 2.060821,-8.405933 -4.770957 2.220653,-8.956203 -7.115646 1.672621,-8.92067 -5.850568 1.972836,-8.87913 -5.025676 2.281958,-8.839723 -4.309841 2.506646,-9.307181 -7.30878 1.849639,-9.318707 -6.151224 2.168231,-9.288741 -5.357936 2.475701,-9.236685 -4.627409 2.690183,-9.65832 -7.721035 2.055064,-9.788434 -6.824565 2.378843,-9.847397 -6.199077 2.608211,-9.877476 -5.551267 2.77606,6.710, 10
-2.151284 -9.924381 1.493617,-2.771619 -9.644474 1.623205,-3.335293 -8.997044 1.745141,-3.750261 -8.415152 1.915603,-4.129374 -8.162474 2.112281,-3.03742 -7.341217 1.595215,-3.24888 -6.297596 1.750037,-3.373472 -5.70745 1.859703,-3.496823 -5.161596 1.981971,-2.713439 -7.130712 1.747362,-2.91757 -5.972726 1.950048,-3.049162 -5.26781 2.147425,-3.168486 -4.673131 2.326816,-2.377056 -7.153213 1.942173,-2.523157 -6.061412 2.187525,-2.647164 -5.409526 2.352181,-2.773128 -4.853595 2.480566,-2.011614 -7.403259 2.171467,-1.946954 -6.546086 2.375327,-1.930262 -6.005893 2.52067,-1.928892 -5.478704 2.654276,-9.174109 -9.648062 1.652671,-8.598954 -9.347052 1.955336,-8.088762 -8.615406 2.248393,-7.693244 -8.048094 2.55975,-7.304525 -7.716381 2.914863,-8.544144 -6.952476 2.161035,-8.462817 -5.792503 2.468971,-8.416263 -5.122776 2.714492,-8.373942 -4.496585 2.875678,-8.909305 -6.870857 2.292815,-8.879515 -5.587245 2.6011,-8.832623 -4.774034 2.90266,-8.788997 -4.078958 3.123414,-9.264353 -7.058705 2.444261,-9.28598 -5.877867 2.770035,-9.260882 -5.082696 3.066869,-9.214441 -4.368162 3.269104,-9.616508 -7.465922 2.617484,-9.737234 -6.551496 2.93999,-9.788609 -5.931881 3.153666,-9.809056 -5.312213 3.308946,6.810, 10
-2.124196 -9.728668 1.501186,-2.760114 -9.406042 1.659673,-3.324701 -8.776854 1.807507,-3.750738 -8.204163 1.996524,-4.120836 -7.929168 2.213338,-3.002737 -7.148103 1.665302,-3.22899 -6.10406 1.833497,-3.356497 -5.50724 1.974259,-3.479902 -4.95182 2.117244,-2.673949 -6.933708 1.789505,-2.871025 -5.79115 1.971581,-3.002454 -5.085515 2.162867,-3.119867 -4.485175 2.340799,-2.336174 -6.961068 1.950108,-2.468198 -5.891334 2.162129,-2.588036 -5.249559 2.319961,-2.709841 -4.706182 2.452329,-1.972986 -7.213109 2.148207,-1.911682 -6.377854 2.329636,-1.897621 -5.839177 2.469963,-1.900415 -5.312868 2.597826,-9.166809 -9.44137 1.607187,-8.584082 -9.143976 1.908636,-8.069989 -8.439886 2.205477,-7.672226 -7.887446 2.522146,-7.286442 -7.552503 2.882278,-8.505589 -6.777166 2.119737,-8.431866 -5.631147 2.444062,-8.38536 -4.960007 2.701596,-8.336455 -4.343866 2.86956,-8.872688 -6.684242 2.263238,-8.839664 -5.399275 2.597666,-8.789096 -4.58286 2.910194,-8.738327 -3.868389 3.133507,-9.225808 -6.842138 2.421524,-9.236919 -5.665716 2.758692,-9.201875 -4.882844 3.052718,-9.147452 -4.163875 3.257874,-9.580965 -7.212688 2.598308,-9.690191 -6.29961 2.926507,-9.733323 -5.665367 3.121546,-9.746426 -5.021663 3.262536,6.910, 10
-2.123284 -9.279068 1.438477,-2.755531 -9.001431 1.578332,-3.322374 -8.380669 1.71147,-3.744703 -7.788295 1.88596,-4.124034 -7.460502 2.081064,-2.984736 -6.721115 1.54031,-3.209373 -5.692752 1.66523,-3.33259 -5.121015 1.736287,-3.448154 -4.588073 1.812855,-2.668306 -6.495375 1.659187,-2.86502 -5.347282 1.830706,-2.991179 -4.657762 1.997972,-3.102222 -4.061817 2.142015,-2.340804 -6.501064 1.813729,-2.483694 -5.411226 2.013587,-2.603892 -4.776592 2.146394,-2.723878 -4.227541 2.250086,-1.986675 -6.718112 2.000819,-1.945702 -5.850517 2.175529,-1.94698 -5.330546 2.315428,-1.964276 -4.832352 2.431239,-9.04565 -8.974199 1.445554,-8.467238 -8.693987 1.713873,-7.957638 -8.003513 1.986602,-7.561355 -7.48167 2.291089,-7.171665 -7.229191 2.640945,-8.369319 -6.358428 1.871996,-8.286958 -5.236006 2.137498,-8.228683 -4.580774 2.36263,-8.174439 -3.979891 2.512561,-8.721072 -6.248064 2.011678,-8.658934 -4.98748 2.280711,-8.585068 -4.196016 2.551514,-8.521543 -3.510265 2.756309,-9.067899 -6.379945 2.166352,-9.043347 -5.222072 2.45211,-8.984282 -4.465913 2.699992,-8.917513 -3.789934 2.878315,-9.422337 -6.710386 2.341896,-9.511224 -5.813682 2.63537,-9.546236 -5.187054 2.804634,-9.558772 -4.561673 2.928006,7.010, 10
-2.142582 -9.201649 1.333413,-2.76546 -8.923733 1.527253,-3.323036 -8.3095 1.687081,-3.732764 -7.716431 1.879486,-4.110971 -7.392198 2.090676,-3.004765 -6.678357 1.487362,-3.22667 -5.660207 1.646665,-3.346472 -5.083276 1.742018,-3.461737 -4.537084 1.84138,-2.691817 -6.453117 1.595257,-2.89735 -5.326643 1.815799,-3.026525 -4.641407 2.013496,-3.145403 -4.043794 2.188003,-2.366563 -6.457016 1.748103,-2.521048 -5.387121 1.98963,-2.653334 -4.748647 2.165823,-2.786197 -4.196575 2.300403,-2.015183 -6.671936 1.934206,-1.978196 -5.818124 2.144615,-1.989508 -5.289323 2.317414,-2.019303 -4.786599 2.464303,-8.99583 -8.904074 1.401783,-8.434964 -8.597237 1.66426,-7.921606 -7.895097 1.924346,-7.521849 -7.380748 2.220715,-7.128948 -7.134147 2.562064,-8.342296 -6.286979 1.791621,-8.244497 -5.178968 2.05703,-8.182131 -4.518843 2.274163,-8.12467 -3.907223 2.425566,-8.686413 -6.179732 1.921158,-8.613423 -4.938837 2.190062,-8.534342 -4.153995 2.459906,-8.465149 -3.466178 2.658982,-9.023441 -6.311426 2.071882,-8.991861 -5.177606 2.359441,-8.922535 -4.436889 2.589759,-8.843856 -3.779921 2.749435,-9.363029 -6.644996 2.245121,-9.442326 -5.749756 2.533155,-9.458831 -5.136845 2.699814,-9.450959 -4.522731 2.814446,7.110, 10
-2.150461 -9.150932 1.107391,-2.796628 -8.804794 1.233422,-3.355252 -8.170971 1.343761,-3.733798 -7.562299 1.522183,-4.069221 -7.151886 1.717134,-3.031393 -6.647773 1.043707,-3.254595 -5.706478 1.20121,-3.391352 -5.182943 1.325037,-3.529431 -4.677404 1.443055,-2.727763 -6.462882 1.185458,-2.926503 -5.38449 1.399698,-3.07633 -4.736516 1.624642,-3.228033 -4.148675 1.816713,-2.415143 -6.482851 1.388686,-2.574842 -5.480003 1.612137,-2.73483 -4.89901 1.797735,-2.89897 -4.424477 1.93535,-2.083843 -6.685955 1.620466,-2.086001 -5.88244 1.836249,-2.15185 -5.376624 2.015437,-2.244536 -4.915052 2.142107,-8.94541 -8.832396 1.325457,-8.405491 -8.480165 1.501629,-7.907572 -7.761795 1.71637,-7.516935 -7.239532 1.986823,-7.127287 -6.951429 2.305783,-8.313497 -6.206254 1.602921,-8.211919 -5.1371 1.837036,-8.135675 -4.517045 2.032324,-8.062219 -3.937267 2.170099,-8.634953 -6.11815 1.775915,-8.553623 -4.922241 2.014862,-8.472679 -4.177755 2.273958,-8.402881 -3.535024 2.456785,-8.955602 -6.260322 1.973097,-8.923076 -5.156282 2.240891,-8.850349 -4.436645 2.483112,-8.766745 -3.802183 2.651316,-9.284421 -6.597244 2.181734,-9.374001 -5.711633 2.477533,-9.388694 -5.108369 2.665431,-9.374098 -4.501751 2.794603,7.210, 10
-2.143219 -8.858412 0.1685981,-2.760153 -8.266363 -9.153783E-05,-3.125259 -7.487722 0.0284427,-3.349241 -6.793128 0.1720611,-3.451245 -6.145616 0.3243488,-2.844724 -6.446613 -0.08740643,-2.892566 -5.359962 0.1158498,-3.074978 -5.177054 0.2662874,-3.197106 -5.210739 0.3366064,-2.596738 -6.418366 0.2238885,-2.702803 -5.219561 0.5737916,-2.944571 -5.686115 0.7454154,-3.0166 -6.26836 0.7515619,-2.351349 -6.504503 0.5493767,-2.486217 -5.381341 0.8430821,-2.775404 -5.864212 0.8951579,-2.868082 -6.467159 0.8370873,-2.092453 -6.716708 0.899272,-2.299922 -5.919054 1.135311,-2.594054 -6.215839 1.235121,-2.734396 -6.70446 1.276008,-9.098922 -8.781271 0.791046,-8.572258 -8.107546 0.6406838,-8.2774 -7.155711 0.7032141,-8.076184 -6.465736 0.9042212,-7.908615 -5.798095 1.112033,-8.70927 -6.123315 0.4767795,-8.636417 -5.136239 0.720382,-8.374379 -5.449695 0.8721095,-8.249182 -5.909236 0.950623,-8.931916 -6.170532 0.7662508,-8.784403 -5.153482 1.047843,-8.466844 -5.690507 1.315063,-8.356089 -6.228363 1.46213,-9.140425 -6.387062 1.106343,-8.955004 -5.461624 1.397296,-8.61706 -5.961088 1.584886,-8.487176 -6.518852 1.668258,-9.335922 -6.742912 1.432698,-9.142463 -6.091174 1.688619,-8.823337 -6.291346 1.824171,-8.639661 -6.63496 1.892272,7.310,Left Hand Closed 5
-1.987832 -8.806864 0.5688592,-2.540846 -8.057453 0.4208595,-2.847931 -7.231462 0.461526,-3.036586 -6.531845 0.607352,-3.053534 -5.956832 0.7732438,-2.667874 -6.325996 0.278716,-2.888426 -5.471647 0.4860039,-3.057957 -5.174679 0.7060584,-3.137427 -5.003 0.8540208,-2.410073 -6.244699 0.5869317,-2.582727 -5.277019 0.8553358,-2.709165 -5.868062 1.016316,-2.71514 -6.45931 1.09324,-2.151148 -6.324208 0.9249771,-2.294248 -5.415145 1.176023,-2.493254 -6.001592 1.220057,-2.525283 -6.604524 1.196576,-1.880127 -6.575759 1.276839,-2.07583 -5.853237 1.482698,-2.317316 -6.19245 1.540131,-2.414917 -6.67943 1.569059,-9.166763 -8.828829 1.44192,-8.672249 -7.92055 1.093876,-8.443163 -6.992359 1.091569,-8.269975 -6.324804 1.274238,-8.186835 -5.674942 1.472263,-9.033145 -5.998489 0.8883017,-8.714983 -5.395465 1.140254,-8.525249 -6.019765 1.233743,-8.534803 -6.500835 1.258184,-9.251267 -6.033195 1.271636,-8.731733 -5.553779 1.551563,-8.562066 -6.435483 1.615467,-8.683898 -6.821483 1.534786,-9.410885 -6.230382 1.725378,-8.860907 -5.771953 1.966943,-8.72678 -6.633701 1.883968,-8.861963 -7.045991 1.760449,-9.499987 -6.541627 2.161307,-9.026698 -6.170768 2.24523,-8.892189 -6.760803 2.100554,-9.027843 -7.122505 1.96386,7.410,Left Hand Closed 3
-1.803316 -8.915281 0.927047,-2.287447 -7.830236 0.497271,-2.47109 -6.909579 0.6501287,-2.670659 -6.310064 0.9372461,-2.670234 -6.06215 1.172898,-1.601304 -6.039768 0.8563902,-2.231694 -5.552068 0.8578125,-2.40212 -6.221599 0.7027798,-2.290964 -6.585254 0.6258716,-1.484986 -6.258165 1.276356,-2.252766 -5.683404 1.270164,-2.421189 -6.358819 1.059183,-2.263071 -6.648856 0.9323927,-1.502709 -6.583646 1.695233,-2.217285 -5.976356 1.684161,-2.362489 -6.586812 1.434729,-2.216386 -6.915844 1.337286,-1.655606 -6.939472 2.086641,-2.184793 -6.430341 1.98441,-2.290561 -6.837347 1.783455,-2.164685 -7.125705 1.720772,-9.348713 -8.908979 1.129394,-8.782821 -8.046555 0.8055304,-8.628855 -7.053334 0.8532912,-8.504333 -6.34399 1.035105,-8.472137 -5.780414 1.172176,-9.445641 -6.078592 0.9440968,-8.832652 -5.831633 1.146382,-8.698329 -6.497556 1.081017,-8.839393 -6.818658 0.9684392,-9.635148 -6.214993 1.273856,-8.834188 -5.961395 1.406797,-8.747303 -6.725547 1.215313,-8.924554 -6.955049 1.020755,-9.679676 -6.528448 1.663157,-8.886634 -6.225784 1.714665,-8.81672 -6.956029 1.465181,-8.996022 -7.231528 1.31571,-9.591193 -6.907497 2.044883,-8.96698 -6.60635 2.002628,-8.89094 -7.126462 1.84393,-9.058077 -7.408475 1.771749,7.510,Right Hand Closed Left Hand Closed 1
-1.770873 -9.009521 0.8318992,-2.292563 -7.997503 0.3600416,-2.534042 -7.099227 0.5502053,-2.781909 -6.46228 0.8866132,-2.827981 -6.148841 1.210669,-1.690083 -6.135697 0.8446131,-2.390688 -5.645922 0.8926114,-2.576234 -6.251271 0.7632054,-2.463917 -6.572929 0.7031826,-1.594945 -6.380373 1.272399,-2.38783 -5.879781 1.255574,-2.558556 -6.464546 1.068876,-2.431536 -6.763059 0.9800407,-1.625374 -6.755831 1.668522,-2.341617 -6.195434 1.6338,-2.523571 -6.665191 1.431781,-2.427111 -6.985162 1.398882,-1.773168 -7.173532 2.03928,-2.314655 -6.641622 1.938575,-2.476034 -6.867782 1.792883,-2.437531 -7.138183 1.784006,-9.37373 -8.82382 0.4947646,-8.817806 -8.075823 0.1950605,-8.652074 -7.089892 0.2779561,-8.479467 -6.392333 0.4831524,-8.365949 -5.806934 0.674359,-9.508826 -6.154918 0.4419609,-8.869361 -5.805742 0.5947652,-8.723008 -6.471782 0.502188,-8.855409 -6.815754 0.3905321,-9.680854 -6.32633 0.7740793,-8.853486 -5.910122 0.8973558,-8.727918 -6.638708 0.7101995,-8.884671 -6.920113 0.5302261,-9.701935 -6.653597 1.134249,-8.896225 -6.178329 1.166492,-8.782759 -6.845985 0.9341892,-8.924251 -7.165001 0.7929814,-9.572963 -7.062356 1.48518,-8.957423 -6.667571 1.450516,-8.855902 -7.099037 1.293673,-8.978268 -7.350316 1.202622,7.610,Right Hand Closed Left Hand Closed 2
-1.777738 -8.917187 -0.3720493,-2.376797 -8.084925 -0.8908011,-2.647066 -7.268886 -0.8076351,-2.938015 -6.755769 -0.544428,-3.167991 -6.306455 -0.2431737,-1.883283 -6.336397 -0.3493332,-2.337649 -5.476415 -0.1503806,-2.716621 -5.658563 -0.1490521,-2.878675 -5.999303 -0.1373581,-1.783076 -6.648229 0.1475021,-2.411484 -5.71426 0.3998826,-2.767418 -6.063163 0.3391241,-2.798971 -6.436422 0.2168915,-1.816137 -7.066818 0.5999041,-2.443348 -6.191686 0.8049181,-2.784786 -6.494015 0.6740835,-2.809533 -6.863669 0.5541851,-1.960095 -7.541738 1.014103,-2.478833 -6.799806 1.110733,-2.765082 -6.863413 1.002551,-2.819969 -7.069079 0.9068408,-9.331064 -8.659719 -0.7688983,-8.809164 -8.068377 -1.131327,-8.64595 -7.174857 -1.104427,-8.451286 -6.629013 -0.9385262,-8.251145 -6.102508 -0.7042115,-9.418865 -6.364599 -0.8759189,-9.026711 -5.672275 -0.641643,-8.677304 -5.734733 -0.5707159,-8.493754 -5.962845 -0.5528876,-9.553192 -6.514812 -0.5207019,-9.05116 -5.690262 -0.2932301,-8.659342 -5.947536 -0.2550014,-8.515557 -6.307581 -0.2629698,-9.560472 -6.804477 -0.1607279,-9.056686 -5.990022 0.04798889,-8.669667 -6.251335 0.01066285,-8.538732 -6.637072 -0.01904106,-9.434817 -7.150028 0.1862888,-9.004887 -6.544902 0.2996448,-8.690334 -6.643156 0.2350436,-8.550181 -6.88912 0.1980679,7.710,Left Hand Closed 2
-1.88658 -9.126398 -0.5300641,-2.561644 -8.631893 -0.9587143,-2.919351 -7.918477 -0.9226503,-3.190435 -7.458261 -0.7669106,-3.414455 -7.025523 -0.6051173,-2.286234 -6.746537 -0.3314046,-2.589414 -5.71185 -0.009463906,-2.85429 -5.114007 0.1294432,-3.082663 -4.730178 0.21126,-2.104236 -6.962692 0.1634884,-2.459157 -5.687506 0.733412,-2.809441 -5.08723 0.9579439,-3.100138 -4.599248 1.083888,-2.058844 -7.412858 0.6069703,-2.51881 -6.448696 1.223123,-2.910569 -5.95111 1.513426,-3.212092 -5.577096 1.685137,-2.142849 -8.004196 0.9823672,-2.680264 -7.555241 1.449465,-3.062922 -7.365686 1.62719,-3.348862 -7.225147 1.744457,-9.159271 -8.768543 -1.18744,-8.60607 -8.326242 -1.241864,-8.394959 -7.637187 -1.117781,-8.20439 -7.192548 -0.9399693,-7.969248 -6.72763 -0.710287,-8.914552 -6.676335 -0.7236753,-8.907209 -5.680388 -0.3682482,-8.75515 -5.012329 -0.08758104,-8.567644 -4.515344 0.1636388,-9.069139 -6.870353 -0.4159466,-9.123965 -5.823862 0.03585887,-8.935353 -5.130153 0.4062473,-8.721619 -4.568057 0.6986927,-9.183351 -7.273244 -0.1193639,-9.262455 -6.371027 0.3393793,-9.108994 -5.755731 0.691643,-8.92157 -5.272161 0.9406047,-9.254702 -7.807188 0.1430204,-9.333164 -7.136684 0.5960673,-9.267302 -6.644267 0.8862855,-9.178063 -6.212051 1.114315,7.810, 10
-2.086417 -9.495655 0.2783601,-2.758333 -9.044432 0.02605382,-3.169571 -8.397799 0.2096624,-3.563556 -7.990216 0.5153646,-3.88818 -7.637731 0.871429,-2.631778 -6.985749 0.4016962,-2.879629 -6.094955 0.7155068,-3.057159 -5.455011 0.9449013,-3.192305 -4.931659 1.154615,-2.372582 -7.066137 0.8550072,-2.651561 -5.980926 1.36196,-2.888815 -5.298915 1.710046,-3.101782 -4.746258 1.907374,-2.206887 -7.445734 1.254943,-2.744744 -6.733659 1.818318,-3.169603 -6.342136 2.129224,-3.486324 -6.107584 2.296803,-2.201316 -7.98925 1.622981,-2.80899 -7.75495 1.951572,-3.172904 -7.739814 1.977659,-3.417122 -7.838029 1.950035,-9.000346 -9.199875 -0.6611925,-8.622722 -8.87068 -0.7503648,-8.376582 -8.077526 -0.637162,-8.158715 -7.579113 -0.442918,-7.851582 -7.174768 -0.2256255,-8.810733 -6.938244 -0.5241607,-8.834644 -5.945821 -0.3182276,-8.815645 -5.26267 -0.1471028,-8.76286 -4.626966 0.03620195,-8.957853 -7.054121 -0.1720425,-8.998188 -5.961345 0.1272247,-8.948178 -5.197395 0.3752363,-8.885998 -4.483526 0.5573826,-9.086963 -7.34056 0.1880223,-9.149478 -6.336454 0.4832654,-9.134346 -5.607025 0.6954167,-9.085661 -4.948457 0.860134,-9.200453 -7.800127 0.5280796,-9.291879 -7.029151 0.8245845,-9.280731 -6.494924 0.9931871,-9.250482 -5.955707 1.100629,7.910, 9
-2.10718 -9.653614 0.3949238,-2.743519 -9.093348 0.1140603,-3.129927 -8.341307 0.2929619,-3.499039 -7.860017 0.5862235,-3.792294 -7.447994 0.8866748,-2.488862 -7.056834 0.5656648,-2.689395 -6.141135 0.9112175,-2.855733 -5.481758 1.182584,-2.966041 -4.938705 1.409317,-2.265049 -7.187006 1.008595,-2.574287 -6.141939 1.52899,-2.83389 -5.431249 1.870699,-3.048044 -4.898761 2.072507,-2.156318 -7.602693 1.401392,-2.80336 -6.98047 1.932696,-3.255501 -6.634368 2.210762,-3.540009 -6.464381 2.368535,-2.200318 -8.146498 1.761458,-2.849098 -7.933893 2.008869,-3.18185 -7.940937 1.984536,-3.347748 -8.067759 1.936698,-8.994716 -9.449778 -0.6247556,-8.655426 -9.06859 -0.7345034,-8.445199 -8.290781 -0.6334105,-8.246522 -7.783195 -0.4571509,-7.987622 -7.308172 -0.2708577,-8.874188 -7.167076 -0.4868163,-8.92264 -6.165987 -0.2915088,-8.916602 -5.476274 -0.1347056,-8.88524 -4.857778 0.04205912,-9.00543 -7.292642 -0.1371279,-9.095208 -6.212818 0.151783,-9.073984 -5.480375 0.3941009,-9.052408 -4.792499 0.5853965,-9.107803 -7.609365 0.2091629,-9.229246 -6.641461 0.5111883,-9.250283 -5.953369 0.7396803,-9.241854 -5.312376 0.9104437,-9.200846 -8.093416 0.5336791,-9.34392 -7.374737 0.8381597,-9.374222 -6.885073 1.019875,-9.377937 -6.395138 1.141941,8.010, 9
-2.248118 -10.26638 0.2229173,-2.818142 -9.5639 -4.465878E-05,-3.148077 -8.691643 0.2004123,-3.489233 -8.182419 0.5096109,-3.741029 -7.760595 0.8463271,-2.532717 -7.630445 0.4017617,-2.655301 -6.730216 0.7390407,-2.772208 -6.098199 0.9924605,-2.844669 -5.554544 1.202829,-2.299695 -7.840665 0.8157749,-2.623187 -6.873455 1.31158,-2.916958 -6.307788 1.570674,-3.180141 -5.86615 1.685882,-2.196363 -8.265818 1.202233,-2.87825 -7.779777 1.65734,-3.350924 -7.751995 1.79308,-3.643443 -7.810466 1.8165,-2.252683 -8.806 1.580523,-2.864417 -8.643177 1.841494,-3.200693 -8.677944 1.860785,-3.390926 -8.754696 1.797719,-9.088535 -10.15393 -1.307671,-8.728071 -9.498043 -1.634091,-8.568496 -8.909214 -1.572456,-8.341652 -8.565704 -1.417848,-8.082202 -8.077017 -1.282594,-9.172221 -8.019602 -1.15341,-9.192514 -7.115282 -0.93026,-9.13566 -6.576713 -0.8366933,-9.073381 -6.170539 -0.7527527,-9.271652 -8.2223 -0.7579043,-9.353673 -7.222028 -0.3992186,-9.226876 -6.629058 -0.2071431,-9.098779 -6.190582 -0.07670045,-9.290297 -8.575628 -0.3900856,-9.366053 -7.755558 -0.01767576,-9.237608 -7.227998 0.209859,-9.09185 -6.800359 0.3602138,-9.248371 -9.014606 -0.08242631,-9.246967 -8.546934 0.2795671,-9.170691 -8.224108 0.5379015,-9.071447 -7.929183 0.7098526,8.110, 8
-2.285825 -10.4544 0.02444647,-2.899841 -9.695124 -0.3241816,-3.203861 -8.907442 -0.1985253,-3.533348 -8.438129 0.0722958,-3.811331 -7.990697 0.3631546,-2.606493 -7.849546 0.08312842,-2.753963 -6.931755 0.3823405,-2.900076 -6.299253 0.615812,-2.999444 -5.771146 0.8048891,-2.392298 -8.070078 0.535903,-2.735167 -7.049728 1.002227,-3.057618 -6.461317 1.25944,-3.348726 -6.013439 1.355644,-2.317211 -8.4872 0.9398303,-3.016753 -7.968998 1.361073,-3.517988 -7.949642 1.449895,-3.847567 -8.014021 1.439372,-2.391185 -9.00709 1.320842,-3.045909 -8.775017 1.532544,-3.443367 -8.748075 1.50476,-3.703638 -8.762228 1.392136,-9.158119 -10.37807 -2.242082,-8.815969 -9.98671 -2.030223,-8.638768 -9.55504 -1.827114,-8.443725 -9.107315 -1.713858,-8.256307 -8.620319 -1.650935,-9.270544 -8.883783 -1.537799,-9.233609 -8.082514 -1.224297,-9.110888 -7.647539 -1.040109,-9.004459 -7.296943 -0.9136088,-9.370119 -8.794464 -1.529172,-9.361013 -7.87531 -1.212783,-9.221009 -7.376236 -1.026424,-9.113722 -6.969965 -0.8946674,-9.375673 -8.814186 -1.512988,-9.378664 -7.981243 -1.257771,-9.247579 -7.582793 -1.079874,-9.143434 -7.260292 -0.9207722,-9.319247 -8.919418 -1.517319,-9.278911 -8.367353 -1.32938,-9.212684 -8.046957 -1.180575,-9.164924 -7.763818 -1.038516,8.210, 9
-2.383488 -10.48127 0.1279473,-3.084047 -9.890451 -0.1186098,-3.436367 -9.118389 0.0273112,-3.744995 -8.562208 0.2741708,-4.073045 -8.079353 0.5517323,-2.876661 -7.921798 0.3109172,-3.083687 -6.998732 0.6502433,-3.273401 -6.354033 0.8977653,-3.420538 -5.850051 1.129153,-2.636806 -8.098349 0.7284086,-2.975329 -7.030811 1.221143,-3.282629 -6.422853 1.45392,-3.542374 -5.923885 1.581536,-2.528293 -8.50626 1.124747,-3.20426 -7.936039 1.610296,-3.729084 -7.943799 1.734181,-4.070035 -7.9818 1.772966,-2.553032 -9.049946 1.499395,-3.118866 -8.778299 1.829569,-3.474876 -8.776794 1.867298,-3.683933 -8.757925 1.847323,-9.158119 -10.37807 -2.242082,-8.815969 -9.98671 -2.030223,-8.638768 -9.55504 -1.827114,-8.443725 -9.107315 -1.713858,-8.256307 -8.620319 -1.650935,-9.270544 -8.883783 -1.537799,-9.233609 -8.082514 -1.224297,-9.110888 -7.647539 -1.040109,-9.004459 -7.296943 -0.9136088,-9.370119 -8.794464 -1.529172,-9.361013 -7.87531 -1.212783,-9.221009 -7.376236 -1.026424,-9.113722 -6.969965 -0.8946674,-9.375673 -8.814186 -1.512988,-9.378664 -7.981243 -1.257771,-9.247579 -7.582793 -1.079874,-9.143434 -7.260292 -0.9207722,-9.319247 -8.919418 -1.517319,-9.278911 -8.367353 -1.32938,-9.212684 -8.046957 -1.180575,-9.164924 -7.763818 -1.038516,8.310, 9
-2.431367 -10.49954 0.3874179,-3.110361 -9.874327 0.1299316,-3.479125 -9.072626 0.3183955,-3.85449 -8.508011 0.6094917,-4.184517 -8.053371 0.9275654,-2.946239 -7.890964 0.6511911,-3.167824 -6.997705 1.106504,-3.387131 -6.382721 1.408984,-3.570318 -5.899932 1.654858,-2.711917 -8.071321 1.094889,-3.022744 -7.037844 1.709833,-3.325987 -6.411867 2.013041,-3.609559 -5.965801 2.150929,-2.589391 -8.51944 1.496027,-3.230083 -7.923895 2.101928,-3.737906 -7.805597 2.307106,-4.096454 -7.820302 2.351027,-2.604113 -9.110693 1.866416,-3.205091 -8.812649 2.259437,-3.578222 -8.753792 2.318115,-3.8228 -8.74246 2.268838,-9.415035 -12.81127 0.1976813,-8.977897 -11.83952 0.1031316,-8.834826 -10.89131 0.3012229,-8.687515 -10.2538 0.5819784,-8.519136 -9.538057 0.8778914,-9.569538 -10.25056 0.9279146,-9.737074 -9.165737 1.518684,-9.659738 -8.67548 1.800848,-9.57856 -8.317547 1.941727,-9.684199 -10.64247 1.297464,-9.856465 -9.617655 2.002458,-9.519157 -9.09317 2.307331,-9.242239 -8.790348 2.488034,-9.703804 -11.22247 1.657164,-9.82368 -10.36802 2.303624,-9.522574 -9.837814 2.625584,-9.247869 -9.467999 2.831193,-9.62564 -11.86023 1.970267,-9.605037 -11.37712 2.514741,-9.373251 -11.01543 2.820661,-9.140955 -10.73251 3.01642,8.410, 10
-2.618221 -11.15288 0.4108017,-3.279545 -10.39663 0.1496194,-3.630015 -9.588892 0.3192838,-4.005777 -9.061104 0.5746366,-4.374928 -8.607368 0.8441452,-3.082071 -8.509651 0.7610244,-3.34531 -7.634525 1.197529,-3.570908 -7.059922 1.477366,-3.740679 -6.636752 1.706142,-2.847213 -8.743668 1.218787,-3.170053 -7.664658 1.856163,-3.497145 -7.11537 2.184621,-3.780476 -6.693486 2.344633,-2.720643 -9.243469 1.63245,-3.315186 -8.481501 2.210422,-3.799185 -8.390657 2.405088,-4.097044 -8.3687 2.459193,-2.737476 -9.906746 2.018569,-3.305209 -9.456478 2.482167,-3.655879 -9.382057 2.633881,-3.84329 -9.34832 2.667209,-9.439682 -13.33896 -0.1248573,-8.992207 -12.35507 -0.2416256,-8.855396 -11.33464 -0.04953081,-8.664528 -10.63652 0.2173261,-8.465087 -9.908203 0.4958717,-9.580877 -10.83671 0.5017425,-9.670258 -9.880823 1.012288,-9.624105 -9.245352 1.281012,-9.559698 -8.63096 1.419244,-9.707997 -11.22191 0.8701646,-9.735153 -10.14561 1.494984,-9.401307 -9.614304 1.767507,-9.078019 -9.280136 1.915153,-9.716081 -11.75781 1.248911,-9.66583 -10.82227 1.856892,-9.357745 -10.27011 2.164579,-9.053928 -9.905754 2.320676,-9.588998 -12.34843 1.571423,-9.473945 -11.70462 2.088598,-9.249553 -11.28914 2.404402,-9.012575 -11.00046 2.596098,8.510, 10
-2.594184 -11.28352 0.5502248,-3.287509 -10.52945 0.2502549,-3.64397 -9.700851 0.4206046,-4.03328 -9.178108 0.6815777,-4.414988 -8.706005 0.9742599,-3.087406 -8.630232 1.026264,-3.344461 -7.747053 1.53474,-3.576826 -7.164934 1.855508,-3.766238 -6.713995 2.110948,-2.863396 -8.899826 1.529989,-3.19977 -7.827457 2.24364,-3.543268 -7.275806 2.608875,-3.831003 -6.861102 2.800048,-2.747938 -9.421761 1.963889,-3.312442 -8.600248 2.627025,-3.812244 -8.531059 2.844539,-4.121316 -8.587215 2.909575,-2.768078 -10.10331 2.362476,-3.284703 -9.590136 2.89115,-3.640737 -9.468489 3.045658,-3.831202 -9.420792 3.090904,-9.470708 -13.24988 -0.3055386,-9.019493 -12.24314 -0.4101298,-8.888794 -11.23353 -0.1796902,-8.709822 -10.5303 0.1138282,-8.529459 -9.823217 0.431416,-9.612842 -10.82888 0.3865224,-9.729988 -9.894947 0.9078311,-9.690846 -9.217133 1.197951,-9.630044 -8.588556 1.365927,-9.744155 -11.21156 0.7306994,-9.782747 -10.11762 1.403584,-9.44426 -9.616285 1.669294,-9.115938 -9.363434 1.794775,-9.7615 -11.7414 1.082044,-9.719323 -10.77736 1.730167,-9.400314 -10.26438 2.012565,-9.104013 -9.966707 2.150337,-9.630727 -12.3312 1.374537,-9.512891 -11.65504 1.918459,-9.281807 -11.23663 2.212439,-9.052438 -10.97909 2.379215,8.610, 10
-2.717818 -11.58679 0.7181811,-3.420891 -10.76455 0.3524534,-3.778385 -9.925133 0.5090152,-4.169991 -9.386295 0.7710961,-4.529695 -8.917959 1.068141,-3.223711 -8.881287 1.149174,-3.497495 -7.971653 1.632774,-3.752214 -7.410846 1.930144,-3.957926 -7.010793 2.153903,-3.020953 -9.143625 1.669173,-3.364355 -8.053709 2.314247,-3.692864 -7.507785 2.623501,-3.982136 -7.101888 2.785495,-2.933669 -9.680023 2.119937,-3.529835 -8.836697 2.688019,-4.030071 -8.681932 2.871012,-4.366261 -8.65107 2.939889,-2.984702 -10.39282 2.528986,-3.512844 -9.828514 2.960763,-3.891771 -9.5989 3.082701,-4.148924 -9.429386 3.134614,-9.463759 -13.03167 -0.6167537,-9.026806 -12.15927 -0.7031145,-8.90686 -11.1452 -0.4897786,-8.735756 -10.46074 -0.2145164,-8.559443 -9.730164 0.08953011,-9.62166 -10.7287 0.1043159,-9.723787 -9.823408 0.6321294,-9.687783 -9.135569 0.9577457,-9.630152 -8.508011 1.179312,-9.734367 -11.10829 0.4459184,-9.77139 -10.05305 1.102764,-9.430835 -9.529213 1.413044,-9.100999 -9.250824 1.57148,-9.74039 -11.63448 0.7831824,-9.708101 -10.72219 1.442958,-9.391212 -10.2007 1.780488,-9.098434 -9.882391 1.954005,-9.608665 -12.23241 1.068284,-9.521018 -11.64354 1.655537,-9.313684 -11.21789 2.01244,-9.11269 -10.91689 2.234066,8.710, 10
-2.737047 -11.57911 0.7979916,-3.458817 -10.7283 0.4426548,-3.824795 -9.876928 0.6091238,-4.226711 -9.34907 0.880646,-4.593019 -8.919218 1.186148,-3.2852 -8.884546 1.279209,-3.546651 -7.985683 1.759268,-3.803802 -7.43715 2.032273,-4.015808 -7.034843 2.247149,-3.068251 -9.1318 1.791507,-3.395485 -8.073887 2.435788,-3.72163 -7.547328 2.731895,-4.01204 -7.168386 2.886847,-2.963024 -9.667902 2.23769,-3.530642 -8.834965 2.811283,-4.021002 -8.674707 3.02295,-4.363638 -8.652861 3.117235,-2.997361 -10.38391 2.642381,-3.512823 -9.842674 3.080976,-3.890528 -9.621365 3.221448,-4.15398 -9.470537 3.291692,-9.445719 -12.97919 -0.699067,-9.02484 -12.13042 -0.7682118,-8.909357 -11.13747 -0.5444264,-8.741061 -10.46345 -0.2578363,-8.564692 -9.723593 0.06056052,-9.603969 -10.71285 0.02573007,-9.713763 -9.816399 0.558126,-9.685165 -9.131861 0.8900684,-9.6365 -8.505606 1.112404,-9.719951 -11.08261 0.3621634,-9.771434 -10.04777 1.0278,-9.448223 -9.50684 1.351351,-9.125367 -9.206959 1.519611,-9.732217 -11.60505 0.6939737,-9.716431 -10.70292 1.353555,-9.414177 -10.19005 1.69728,-9.12255 -9.87957 1.875375,-9.617344 -12.19773 0.9762906,-9.526145 -11.62249 1.563217,-9.326925 -11.19963 1.925493,-9.123878 -10.90783 2.148148,8.810, 10
-2.745406 -11.54607 0.796536,-3.467361 -10.75382 0.4274952,-3.83267 -9.901026 0.5973485,-4.219299 -9.387493 0.877399,-4.568733 -8.902328 1.191802,-3.308153 -8.879951 1.312578,-3.599274 -8.014771 1.819532,-3.873985 -7.526184 2.109684,-4.091475 -7.183116 2.337888,-3.097282 -9.120275 1.833656,-3.431343 -8.086344 2.509437,-3.762913 -7.571325 2.803346,-4.052357 -7.203005 2.950689,-2.981045 -9.644072 2.289766,-3.521077 -8.835358 2.895209,-3.983068 -8.654366 3.105833,-4.301185 -8.607141 3.178796,-2.996342 -10.35679 2.701799,-3.480837 -9.81946 3.181727,-3.83187 -9.592506 3.338167,-4.071958 -9.451399 3.400049,-9.402888 -12.94754 -0.7817187,-8.955009 -12.09756 -0.8015353,-8.84618 -11.11884 -0.5551394,-8.694481 -10.44964 -0.2636635,-8.532468 -9.699917 0.05881155,-9.60516 -10.70417 0.01308519,-9.67183 -9.778069 0.5610453,-9.601069 -9.08654 0.9028736,-9.513695 -8.487457 1.123808,-9.716656 -11.10925 0.3219217,-9.740129 -10.06315 1.009261,-9.403565 -9.502489 1.341343,-9.065713 -9.147366 1.525127,-9.72122 -11.64666 0.6270851,-9.666573 -10.7809 1.301427,-9.352753 -10.20774 1.676323,-9.04799 -9.828465 1.885862,-9.595276 -12.23985 0.8874161,-9.47604 -11.7047 1.500302,-9.267603 -11.25244 1.914619,-9.057717 -10.90531 2.19011,8.910, 10
-2.671189 -11.42143 0.6710832,-3.35277 -10.77819 0.5256119,-3.775318 -10.00642 0.7033674,-4.155682 -9.55525 0.9567462,-4.543526 -9.09062 1.232976,-3.270265 -8.816944 1.066115,-3.49642 -7.971916 1.488453,-3.744423 -7.436256 1.793396,-3.970291 -7.049379 2.033539,-3.034452 -8.945728 1.467531,-3.303449 -7.911868 2.035251,-3.646986 -7.445403 2.410861,-3.932943 -7.214162 2.642398,-2.866613 -9.359301 1.847583,-3.273932 -8.563814 2.380769,-3.735128 -8.490547 2.644247,-4.065426 -8.609467 2.801979,-2.807359 -9.973534 2.214191,-3.213125 -9.497643 2.666767,-3.540461 -9.452726 2.850623,-3.756647 -9.521908 2.966337,-9.232499 -12.59295 -0.3675076,-8.75362 -11.8563 -0.4859324,-8.566736 -10.83812 -0.3647125,-8.375961 -10.19638 -0.1430291,-8.165264 -9.513474 0.1347786,-9.182218 -10.18555 0.05117261,-9.205476 -9.232491 0.4290943,-9.086149 -8.596008 0.7255034,-8.908115 -8.053429 0.9566377,-9.359203 -10.43982 0.3877127,-9.4012 -9.400734 0.9283886,-9.181237 -8.792412 1.290636,-8.940388 -8.320499 1.521654,-9.452484 -10.89672 0.7321954,-9.452095 -9.96456 1.256569,-9.1952 -9.402903 1.601934,-8.937581 -9.009422 1.858868,-9.440145 -11.48103 1.046067,-9.362164 -10.87767 1.531863,-9.144106 -10.50048 1.845317,-8.940164 -10.25851 2.093256,9.010, 8
-2.693946 -11.17244 0.2441327,-3.324867 -10.61414 0.1058422,-3.76549 -9.884863 0.2219596,-4.122724 -9.45187 0.4405882,-4.48687 -9.010773 0.6708944,-3.288923 -8.641029 0.4097808,-3.396189 -7.678874 0.6913751,-3.571432 -7.110709 0.929698,-3.797115 -6.682185 1.142759,-3.072468 -8.758989 0.7935175,-3.140676 -7.667362 1.286715,-3.448648 -7.188884 1.628281,-3.755176 -6.950975 1.876703,-2.861639 -9.083817 1.18619,-2.974152 -8.092464 1.665996,-3.361294 -7.910577 1.95393,-3.698689 -7.975821 2.141242,-2.678886 -9.587807 1.565172,-2.821136 -8.877619 2.006199,-3.10405 -8.715397 2.224774,-3.362364 -8.737413 2.390521,-9.138383 -12.24632 0.2261271,-8.668056 -11.42714 0.1016679,-8.439662 -10.44223 0.2052976,-8.198065 -9.775673 0.4006911,-7.949306 -9.162783 0.6412193,-9.013 -9.667427 0.4558751,-9.052568 -8.775656 0.7381456,-8.916378 -8.138973 0.9827337,-8.684172 -7.598518 1.206275,-9.190354 -9.856504 0.7847403,-9.293327 -8.847149 1.203987,-9.107413 -8.193718 1.528969,-8.837303 -7.677982 1.76448,-9.3243 -10.22661 1.121528,-9.439025 -9.328558 1.531192,-9.245821 -8.742046 1.852071,-8.996522 -8.321859 2.065234,-9.420732 -10.75951 1.44091,-9.459595 -10.04366 1.839268,-9.308762 -9.593893 2.11533,-9.118279 -9.251041 2.332228,9.110, 10
-2.523787 -10.52475 0.9754242,-3.119576 -10.03574 0.9194779,-3.61245 -9.308758 1.041769,-3.971972 -8.772963 1.251143,-4.285406 -8.349781 1.514194,-3.246794 -7.979517 1.131436,-3.418058 -6.946949 1.410973,-3.568338 -6.306003 1.631959,-3.719934 -5.673295 1.788234,-2.986667 -7.891073 1.433792,-3.138693 -6.843701 1.821712,-3.297604 -6.120399 2.140548,-3.448181 -5.385052 2.387504,-2.701304 -8.010305 1.757195,-2.802013 -6.999799 2.137876,-2.957986 -6.362705 2.418814,-3.119852 -5.791978 2.633956,-2.40452 -8.318724 2.055102,-2.382615 -7.484349 2.388528,-2.465066 -6.975605 2.59221,-2.576621 -6.48394 2.761168,-9.193868 -11.86708 1.133758,-8.662791 -10.95789 1.058673,-8.343075 -9.976091 1.149442,-8.065854 -9.280771 1.331148,-7.806911 -8.694012 1.558565,-8.86797 -9.06963 1.110774,-8.871963 -8.320982 1.27854,-8.834011 -7.709419 1.385532,-8.740369 -7.147823 1.510195,-9.094645 -9.165802 1.37752,-9.076324 -8.281658 1.590419,-8.9935 -7.609343 1.767763,-8.895702 -6.982442 1.902767,-9.307248 -9.423254 1.670482,-9.313966 -8.585838 1.863575,-9.24217 -7.948341 2.029642,-9.166688 -7.362792 2.159515,-9.524981 -9.84374 1.965417,-9.551861 -9.112816 2.204428,-9.496023 -8.624212 2.34415,-9.428836 -8.13484 2.484364,9.210, 10
-2.497081 -10.11941 1.478147,-3.08967 -9.639366 1.511991,-3.589906 -8.966444 1.645014,-3.950895 -8.424614 1.850641,-4.298142 -8.045397 2.112989,-3.295856 -7.493311 1.678153,-3.477747 -6.533904 1.935623,-3.630649 -5.872837 2.12312,-3.7943 -5.219722 2.250463,-3.014346 -7.342407 1.90302,-3.185062 -6.333244 2.22568,-3.359648 -5.626264 2.460028,-3.515665 -4.932834 2.6332,-2.721395 -7.417432 2.152216,-2.830273 -6.40138 2.492481,-2.981517 -5.739971 2.708353,-3.139521 -5.130914 2.86563,-2.410929 -7.700538 2.404988,-2.401644 -6.871734 2.701586,-2.464655 -6.329011 2.878583,-2.555478 -5.75897 3.035161,-9.245722 -10.56356 2.527202,-8.648174 -9.814426 2.48313,-8.210227 -8.861727 2.624442,-7.938832 -8.123514 2.88063,-7.636178 -7.530891 3.182406,-8.664382 -7.479253 2.484963,-8.614242 -6.445237 2.661191,-8.568513 -5.822351 2.816144,-8.501377 -5.247629 2.936671,-8.979619 -7.471405 2.759371,-8.931204 -6.350019 2.959389,-8.862871 -5.633892 3.15722,-8.786198 -5.008682 3.309814,-9.287415 -7.656841 3.06074,-9.309143 -6.602941 3.238507,-9.250793 -5.928133 3.432374,-9.145159 -5.323066 3.560222,-9.601863 -8.033882 3.356052,-9.68504 -7.204798 3.564778,-9.669782 -6.65161 3.710238,-9.600673 -6.081588 3.83946,9.310, 10
-2.602698 -9.316734 1.506047,-3.235794 -8.940067 1.537363,-3.79211 -8.299219 1.657765,-4.192274 -7.753423 1.848764,-4.586271 -7.459969 2.098776,-3.551453 -6.734482 1.555542,-3.779915 -5.785575 1.726101,-3.939976 -5.159205 1.873721,-4.10076 -4.540941 1.993604,-3.264663 -6.542084 1.767984,-3.491356 -5.502546 2.011093,-3.676577 -4.808597 2.227457,-3.835411 -4.135625 2.405744,-2.961743 -6.560598 2.003919,-3.110907 -5.532852 2.255325,-3.287985 -4.934648 2.399265,-3.464922 -4.36355 2.520165,-2.627775 -6.771187 2.262719,-2.648961 -5.934575 2.499742,-2.73378 -5.418697 2.637621,-2.836 -4.873395 2.765127,-9.11984 -9.306555 2.179848,-8.532697 -8.772715 2.25946,-8.086443 -7.873609 2.404968,-7.804172 -7.176935 2.622826,-7.483282 -6.746141 2.870266,-8.519212 -6.391443 2.372834,-8.454065 -5.289649 2.605562,-8.390357 -4.663418 2.80749,-8.323628 -4.056919 2.954745,-8.846331 -6.333351 2.58305,-8.798646 -5.121534 2.815977,-8.721887 -4.390873 3.073103,-8.651294 -3.742255 3.252219,-9.164133 -6.497943 2.819865,-9.167907 -5.362756 3.078654,-9.095571 -4.648488 3.33709,-9.006841 -4.028211 3.51099,-9.480262 -6.857421 3.048136,-9.576847 -5.990678 3.332032,-9.585691 -5.39652 3.537127,-9.558874 -4.801109 3.665423,9.410, 10
-2.584335 -8.943247 1.362473,-3.250479 -8.538027 1.270574,-3.796577 -7.91627 1.346917,-4.219927 -7.432241 1.52909,-4.608335 -7.173612 1.777878,-3.571393 -6.401607 1.26937,-3.792862 -5.451847 1.436944,-3.977067 -4.930078 1.579614,-4.180361 -4.429021 1.704536,-3.303905 -6.221661 1.579423,-3.49974 -5.145849 1.866035,-3.712157 -4.516232 2.148089,-3.938273 -3.911834 2.365715,-3.014177 -6.261657 1.918059,-3.159158 -5.236036 2.221616,-3.373674 -4.693657 2.436453,-3.610394 -4.201247 2.602322,-2.693265 -6.50492 2.261339,-2.719629 -5.663124 2.533896,-2.836388 -5.159278 2.711211,-2.987654 -4.654909 2.866418,-9.121799 -8.960728 2.141754,-8.517962 -8.41843 2.165934,-8.065008 -7.536397 2.314141,-7.759624 -6.881086 2.537106,-7.415929 -6.500238 2.803079,-8.470338 -6.060065 2.269573,-8.397651 -5.028646 2.490882,-8.316052 -4.419967 2.699259,-8.22984 -3.825977 2.842853,-8.792819 -6.000444 2.516832,-8.718917 -4.870279 2.753278,-8.611337 -4.139053 2.993445,-8.509762 -3.490465 3.164997,-9.10765 -6.152778 2.78988,-9.091953 -5.081975 3.010978,-9.006665 -4.379578 3.225728,-8.893471 -3.761376 3.374301,-9.428169 -6.500629 3.056979,-9.487362 -5.648004 3.301306,-9.472444 -5.078905 3.439729,-9.420098 -4.510316 3.539298,9.510, 10
-2.497214 -8.286591 0.7809044,-3.182805 -7.949928 0.6356378,-3.753817 -7.352891 0.6716875,-4.19026 -6.904672 0.8316703,-4.594916 -6.56417 1.037635,-3.575871 -5.90555 0.5442513,-3.857666 -5.050589 0.7310296,-4.06061 -4.580061 0.880605,-4.265541 -4.150637 1.005647,-3.340456 -5.769044 0.8872144,-3.637707 -4.809085 1.208816,-3.913315 -4.32582 1.482485,-4.177635 -3.957866 1.680013,-3.060931 -5.840261 1.271125,-3.326521 -4.987459 1.643113,-3.634226 -4.747743 1.923288,-3.908756 -4.649244 2.102281,-2.748931 -6.087223 1.656051,-2.967572 -5.434452 2.023215,-3.235144 -5.196786 2.280797,-3.496191 -5.035207 2.472533,-9.096238 -8.404045 1.495716,-8.490763 -7.949338 1.486377,-8.047792 -7.123565 1.610952,-7.745381 -6.497566 1.829655,-7.408395 -6.071058 2.080237,-8.428433 -5.689231 1.519862,-8.305038 -4.677318 1.736094,-8.188936 -4.110526 1.943284,-8.066382 -3.563614 2.083287,-8.729806 -5.624658 1.777128,-8.613785 -4.542569 2.027814,-8.465078 -3.8797 2.286433,-8.492263 -3.340182 2.559907,-9.081887 -6.018333 2.135761,-9.067177 -4.922956 2.368556,-8.971569 -4.2196 2.607663,-8.855744 -3.613721 2.77524,-9.400874 -6.336464 2.383801,-9.465174 -5.469373 2.64764,-9.451706 -4.88538 2.826812,-9.40473 -4.298535 2.946493,9.610, 10
-2.315278 -7.928823 -0.1853965,-3.027796 -7.61761 -0.4112223,-3.587036 -7.060867 -0.3772657,-4.003168 -6.646067 -0.2116545,-4.418051 -6.204927 -0.0460548,-3.411829 -5.83847 -0.3291847,-3.74873 -5.03733 -0.0472707,-4.05261 -4.745549 0.1736832,-4.331085 -4.639697 0.3401046,-3.190049 -5.729181 0.07218599,-3.59811 -4.774295 0.5081021,-4.012909 -4.656332 0.8370843,-4.343557 -4.77606 1.069388,-2.95446 -5.812555 0.5059275,-3.378603 -4.990835 0.8915589,-3.785362 -5.178178 1.122888,-4.060863 -5.545856 1.276134,-2.722051 -6.059837 0.9304374,-3.122631 -5.55665 1.26719,-3.463388 -5.643605 1.466609,-3.731864 -5.855499 1.652916,-9.17415 -8.040104 1.288781,-8.586041 -7.54567 1.164954,-8.181496 -6.684158 1.230551,-7.874311 -6.096012 1.398939,-7.533074 -5.642273 1.635972,-8.482581 -5.350023 1.220543,-8.339273 -4.419709 1.444343,-8.180109 -3.849522 1.639708,-7.982987 -3.368556 1.77631,-8.711517 -5.332912 1.544772,-8.54315 -4.346031 1.822998,-8.333005 -3.752429 2.064356,-8.084988 -3.233028 2.230824,-8.951011 -5.507581 1.886732,-8.85668 -4.542184 2.171894,-8.673834 -3.971594 2.442511,-8.445934 -3.50078 2.625582,-9.219312 -5.867242 2.219789,-9.202609 -5.115695 2.544855,-9.099975 -4.61206 2.79329,-8.939047 -4.113283 2.969042,9.710, 7
-1.953901 -6.987651 0.58711,-2.717652 -6.458937 0.1616194,-3.19993 -5.881259 0.2347012,-3.600668 -5.554625 0.451368,-3.917631 -5.173508 0.6803735,-2.870297 -4.499942 0.7194403,-3.345235 -3.935748 1.024089,-3.735207 -3.799825 1.14649,-4.054619 -3.859735 1.201199,-2.643249 -4.552061 1.187916,-3.389557 -4.217686 1.532234,-3.851879 -4.507152 1.629189,-4.148162 -4.920806 1.645309,-2.480849 -4.864799 1.646257,-3.248014 -4.582878 1.958069,-3.718941 -4.828004 2.018351,-3.997895 -5.206134 2.054737,-2.404943 -5.378555 2.086571,-2.998811 -5.157086 2.289892,-3.346648 -5.20151 2.361062,-3.595447 -5.323978 2.442427,-9.568921 -7.313053 0.2474885,-8.926686 -6.845588 -0.2187307,-8.509764 -6.243658 -0.2403432,-8.144272 -5.882335 -0.07256633,-7.784195 -5.578147 0.1525225,-8.982644 -4.843861 -0.02867979,-8.746887 -3.828758 0.1054855,-8.411322 -3.348238 0.1781859,-8.063788 -3.058898 0.2568721,-9.103897 -4.901779 0.4078615,-8.740446 -3.741342 0.6066278,-8.296865 -3.305098 0.7434866,-7.895283 -3.023946 0.8233662,-9.164264 -5.099132 0.8145048,-8.779142 -3.952666 1.002768,-8.339594 -3.546348 1.118274,-7.960957 -3.342323 1.159135,-9.158429 -5.438312 1.194822,-8.859705 -4.617349 1.363747,-8.571496 -4.234821 1.46688,-8.281633 -3.971147 1.523821,9.810, 7
