TiagoOliveira98/HandTracking/DataLogging/JointData/Logs(1637000327)_tia.csv
WRIST,THUMB_CMC,THUMB_MCP,THUMB_IP,THUMB_TIP,INDEX_FINGER_MCP,INDEX_FINGER_PIP,INDEX_FINGER_DIP,INDEX_FINGER_TIP,MIDDLE_FINGER_MCP,MIDDLE_FINGER_PIP,MIDDLE_FINGER_DIP,MIDDLE_FINGER_TIP,RING_FINGER_MCP,RING_FINGER_PIP,RING_FINGER_DIP,RING_FINGER_TIP,PINKY_MCP,PINKY_PIP,PINKY_DIP,PINKY_TIP,WRIST2,THUMB_CMC2,THUMB_MCP2,THUMB_IP2,THUMB_TIP2,INDEX_FINGER_MCP2,INDEX_FINGER_PIP2,INDEX_FINGER_DIP2,INDEX_FINGER_TIP2,MIDDLE_FINGER_MCP2,MIDDLE_FINGER_PIP2,MIDDLE_FINGER_DIP2,MIDDLE_FINGER_TIP2,RING_FINGER_MCP2,RING_FINGER_PIP2,RING_FINGER_DIP2,RING_FINGER_TIP2,PINKY_MCP2,PINKY_PIP2,PINKY_DIP2,PINKY_TIP2,Timestamp,Event
10 0 0,10 7.47 0,10 7.47 0,10 7.47 0,10 7.47 0,10 7.47 0,10 7.47 0,10 7.47 0,10 7.47 0,10 7.47 0,10 7.47 0,10 7.47 0,10 7.47 0,10 7.47 0,10 7.47 0,10 7.47 0,10 7.47 0,10 7.47 0,10 7.47 0,10 7.47 0,10 7.47 0,10 0 0,10 7.47 0,10 7.47 0,10 7.47 0,10 7.47 0,10 7.47 0,10 7.47 0,10 7.47 0,10 7.47 0,10 7.47 0,10 7.47 0,10 7.47 0,10 7.47 0,10 7.47 0,10 7.47 0,10 7.47 0,10 7.47 0,10 7.47 0,10 7.47 0,10 7.47 0,10 7.47 0,0.020,Dnf
2 0 -11.73393,2 0 -11.73393,2 0 -11.73393,2 0 -11.73393,2 0 -11.73393,2 0 -11.73393,2 0 -11.73393,2 0 -11.73393,2 0 -11.73393,2 0 -11.73393,2 0 -11.73393,2 0 -11.73393,2 0 -11.73393,2 0 -11.73393,2 0 -11.73393,2 0 -11.73393,2 0 -11.73393,2 0 -11.73393,2 0 -11.73393,2 0 -11.73393,2 0 -11.73393,2 0 -11.41594,2 0 -11.41594,2 0 -11.41594,2 0 -11.41594,2 0 -11.41594,2 0 -11.41594,2 0 -11.41594,2 0 -11.41594,2 0 -11.41594,2 0 -11.41594,2 0 -11.41594,2 0 -11.41594,2 0 -11.41594,2 0 -11.41594,2 0 -11.41594,2 0 -11.41594,2 0 -11.41594,2 0 -11.41594,2 0 -11.41594,2 0 -11.41594,2 0 -11.41594,0.040,DnF
-0.8391495 -6.096729 0.6707425,-1.65461 -6.060502 1.192009,-2.381557 -5.340202 1.550168,-2.948101 -4.646997 1.878318,-3.420038 -4.19869 2.285048,-1.940136 -2.971303 1.509881,-2.207255 -1.362504 1.948458,-2.355524 -0.3416586 2.29501,-2.457691 0.4902668 2.608377,-1.449373 -2.721805 1.564521,-1.655121 -1.001674 2.100816,-1.760123 0.08012962 2.468724,-1.847148 1.037563 2.784209,-0.9409366 -2.790105 1.655187,-1.077639 -1.210873 2.122927,-1.110622 -0.1378713 2.485165,-1.163648 0.7955527 2.796858,-0.4351273 -3.138105 1.781802,-0.4362979 -1.790291 2.285085,-0.4335866 -0.9731832 2.639578,-0.4511414 -0.219233 2.918494,-10.79784 -7.552981 1.091479,-10.03979 -7.19193 1.433471,-9.356201 -6.436959 1.71728,-8.847428 -5.707336 2.040287,-8.366134 -5.32449 2.395694,-9.827186 -4.275632 1.41456,-9.607975 -2.85458 1.617698,-9.528379 -1.990329 1.843943,-9.481813 -1.273828 1.99177,-10.27315 -4.038166 1.463918,-10.08668 -2.400018 1.617681,-9.998293 -1.389682 1.89671,-9.930519 -0.5438457 2.128049,-10.71037 -4.103979 1.529179,-10.58353 -2.568398 1.685639,-10.5123 -1.636606 1.915059,-10.42823 -0.834909 2.098465,-11.15616 -4.408453 1.637939,-11.19115 -3.256006 1.798862,-11.17453 -2.553068 1.956941,-11.12082 -1.878637 2.075538,0.060,DnF
-0.8391495 -6.096729 0.6707425,-1.65461 -6.060502 1.192009,-2.381557 -5.340202 1.550168,-2.948101 -4.646997 1.878318,-3.420038 -4.19869 2.285048,-1.940136 -2.971303 1.509881,-2.207255 -1.362504 1.948458,-2.355524 -0.3416586 2.29501,-2.457691 0.4902668 2.608377,-1.449373 -2.721805 1.564521,-1.655121 -1.001674 2.100816,-1.760123 0.08012962 2.468724,-1.847148 1.037563 2.784209,-0.9409366 -2.790105 1.655187,-1.077639 -1.210873 2.122927,-1.110622 -0.1378713 2.485165,-1.163648 0.7955527 2.796858,-0.4351273 -3.138105 1.781802,-0.4362979 -1.790291 2.285085,-0.4335866 -0.9731832 2.639578,-0.4511414 -0.219233 2.918494,-10.79784 -7.552981 1.091479,-10.03979 -7.19193 1.433471,-9.356201 -6.436959 1.71728,-8.847428 -5.707336 2.040287,-8.366134 -5.32449 2.395694,-9.827186 -4.275632 1.41456,-9.607975 -2.85458 1.617698,-9.528379 -1.990329 1.843943,-9.481813 -1.273828 1.99177,-10.27315 -4.038166 1.463918,-10.08668 -2.400018 1.617681,-9.998293 -1.389682 1.89671,-9.930519 -0.5438457 2.128049,-10.71037 -4.103979 1.529179,-10.58353 -2.568398 1.685639,-10.5123 -1.636606 1.915059,-10.42823 -0.834909 2.098465,-11.15616 -4.408453 1.637939,-11.19115 -3.256006 1.798862,-11.17453 -2.553068 1.956941,-11.12082 -1.878637 2.075538,0.080,DnF
-0.8391495 -6.096729 0.6707425,-1.65461 -6.060502 1.192009,-2.381557 -5.340202 1.550168,-2.948101 -4.646997 1.878318,-3.420038 -4.19869 2.285048,-1.940136 -2.971303 1.509881,-2.207255 -1.362504 1.948458,-2.355524 -0.3416586 2.29501,-2.457691 0.4902668 2.608377,-1.449373 -2.721805 1.564521,-1.655121 -1.001674 2.100816,-1.760123 0.08012962 2.468724,-1.847148 1.037563 2.784209,-0.9409366 -2.790105 1.655187,-1.077639 -1.210873 2.122927,-1.110622 -0.1378713 2.485165,-1.163648 0.7955527 2.796858,-0.4351273 -3.138105 1.781802,-0.4362979 -1.790291 2.285085,-0.4335866 -0.9731832 2.639578,-0.4511414 -0.219233 2.918494,-10.79784 -7.552981 1.091479,-10.03979 -7.19193 1.433471,-9.356201 -6.436959 1.71728,-8.847428 -5.707336 2.040287,-8.366134 -5.32449 2.395694,-9.827186 -4.275632 1.41456,-9.607975 -2.85458 1.617698,-9.528379 -1.990329 1.843943,-9.481813 -1.273828 1.99177,-10.27315 -4.038166 1.463918,-10.08668 -2.400018 1.617681,-9.998293 -1.389682 1.89671,-9.930519 -0.5438457 2.128049,-10.71037 -4.103979 1.529179,-10.58353 -2.568398 1.685639,-10.5123 -1.636606 1.915059,-10.42823 -0.834909 2.098465,-11.15616 -4.408453 1.637939,-11.19115 -3.256006 1.798862,-11.17453 -2.553068 1.956941,-11.12082 -1.878637 2.075538,0.100,DnF
-0.7250853 -6.369939 1.125884,-1.496564 -6.266571 1.734762,-2.22232 -5.548736 2.11746,-2.758038 -4.791317 2.449163,-3.274601 -4.292646 2.814916,-1.805176 -3.154636 2.008026,-2.054779 -1.540078 2.493351,-2.212369 -0.4768395 2.881315,-2.300314 0.4112129 3.198235,-1.32733 -2.854424 2.007997,-1.489746 -1.164947 2.563489,-1.611586 0.01479053 2.911562,-1.68054 1.061074 3.21747,-0.8371644 -2.902681 2.053291,-0.9215717 -1.33902 2.525205,-0.9855413 -0.2545295 2.855623,-1.026773 0.6975627 3.154388,-0.3377295 -3.237134 2.149947,-0.3078451 -1.922634 2.605283,-0.3065243 -1.117388 2.911209,-0.2984257 -0.3640399 3.19285,-10.76635 -7.478449 1.185378,-9.995932 -7.120821 1.548728,-9.30732 -6.384343 1.835263,-8.790719 -5.66492 2.143393,-8.332738 -5.30533 2.46639,-9.783295 -4.185853 1.537666,-9.577593 -2.748756 1.717508,-9.505187 -1.877172 1.902287,-9.455636 -1.171328 2.023796,-10.23951 -3.932559 1.516083,-10.05007 -2.293437 1.641613,-9.95072 -1.305841 1.877765,-9.870907 -0.4604702 2.099246,-10.69084 -4.002029 1.512585,-10.54393 -2.45581 1.612105,-10.45588 -1.541793 1.783634,-10.36382 -0.7408805 1.935056,-11.1502 -4.322378 1.543824,-11.18619 -3.155821 1.622489,-11.16921 -2.474496 1.73467,-11.12408 -1.808511 1.836441,0.120,DnF
-0.7250853 -6.369939 1.125884,-1.496564 -6.266571 1.734762,-2.22232 -5.548736 2.11746,-2.758038 -4.791317 2.449163,-3.274601 -4.292646 2.814916,-1.805176 -3.154636 2.008026,-2.054779 -1.540078 2.493351,-2.212369 -0.4768395 2.881315,-2.300314 0.4112129 3.198235,-1.32733 -2.854424 2.007997,-1.489746 -1.164947 2.563489,-1.611586 0.01479053 2.911562,-1.68054 1.061074 3.21747,-0.8371644 -2.902681 2.053291,-0.9215717 -1.33902 2.525205,-0.9855413 -0.2545295 2.855623,-1.026773 0.6975627 3.154388,-0.3377295 -3.237134 2.149947,-0.3078451 -1.922634 2.605283,-0.3065243 -1.117388 2.911209,-0.2984257 -0.3640399 3.19285,-10.76635 -7.478449 1.185378,-9.995932 -7.120821 1.548728,-9.30732 -6.384343 1.835263,-8.790719 -5.66492 2.143393,-8.332738 -5.30533 2.46639,-9.783295 -4.185853 1.537666,-9.577593 -2.748756 1.717508,-9.505187 -1.877172 1.902287,-9.455636 -1.171328 2.023796,-10.23951 -3.932559 1.516083,-10.05007 -2.293437 1.641613,-9.95072 -1.305841 1.877765,-9.870907 -0.4604702 2.099246,-10.69084 -4.002029 1.512585,-10.54393 -2.45581 1.612105,-10.45588 -1.541793 1.783634,-10.36382 -0.7408805 1.935056,-11.1502 -4.322378 1.543824,-11.18619 -3.155821 1.622489,-11.16921 -2.474496 1.73467,-11.12408 -1.808511 1.836441,0.140,DnF
-0.7250853 -6.369939 1.125884,-1.496564 -6.266571 1.734762,-2.22232 -5.548736 2.11746,-2.758038 -4.791317 2.449163,-3.274601 -4.292646 2.814916,-1.805176 -3.154636 2.008026,-2.054779 -1.540078 2.493351,-2.212369 -0.4768395 2.881315,-2.300314 0.4112129 3.198235,-1.32733 -2.854424 2.007997,-1.489746 -1.164947 2.563489,-1.611586 0.01479053 2.911562,-1.68054 1.061074 3.21747,-0.8371644 -2.902681 2.053291,-0.9215717 -1.33902 2.525205,-0.9855413 -0.2545295 2.855623,-1.026773 0.6975627 3.154388,-0.3377295 -3.237134 2.149947,-0.3078451 -1.922634 2.605283,-0.3065243 -1.117388 2.911209,-0.2984257 -0.3640399 3.19285,-10.76635 -7.478449 1.185378,-9.995932 -7.120821 1.548728,-9.30732 -6.384343 1.835263,-8.790719 -5.66492 2.143393,-8.332738 -5.30533 2.46639,-9.783295 -4.185853 1.537666,-9.577593 -2.748756 1.717508,-9.505187 -1.877172 1.902287,-9.455636 -1.171328 2.023796,-10.23951 -3.932559 1.516083,-10.05007 -2.293437 1.641613,-9.95072 -1.305841 1.877765,-9.870907 -0.4604702 2.099246,-10.69084 -4.002029 1.512585,-10.54393 -2.45581 1.612105,-10.45588 -1.541793 1.783634,-10.36382 -0.7408805 1.935056,-11.1502 -4.322378 1.543824,-11.18619 -3.155821 1.622489,-11.16921 -2.474496 1.73467,-11.12408 -1.808511 1.836441,0.160,DnF
-0.6281939 -6.565349 1.391819,-1.398518 -6.377252 2.031882,-2.148404 -5.65651 2.447841,-2.674663 -4.882133 2.812932,-3.174794 -4.3721 3.22104,-1.728631 -3.275183 2.301552,-1.965375 -1.745943 2.803315,-2.134237 -0.7601914 3.224662,-2.250223 0.1070132 3.538584,-1.252792 -2.985491 2.318214,-1.453121 -1.449601 2.871443,-1.608597 -0.358161 3.239106,-1.72559 0.6237202 3.554309,-0.7603865 -3.032289 2.389761,-0.8585854 -1.591719 2.86073,-0.9254789 -0.6104369 3.226322,-0.9813571 0.2483048 3.536818,-0.2485027 -3.352107 2.516071,-0.2057972 -2.116886 2.958213,-0.1938658 -1.338221 3.285476,-0.1987734 -0.5865626 3.600995,-10.72672 -7.437151 1.313452,-9.941793 -7.054782 1.663822,-9.248705 -6.311697 1.965823,-8.731146 -5.596613 2.294019,-8.263849 -5.232681 2.643819,-9.724774 -4.106229 1.67238,-9.524134 -2.679334 1.886007,-9.448217 -1.810465 2.089669,-9.395069 -1.105857 2.215235,-10.19406 -3.85877 1.682917,-10.01385 -2.219841 1.830752,-9.920179 -1.24265 2.068243,-9.847665 -0.4151607 2.270174,-10.65556 -3.938367 1.712455,-10.5234 -2.406127 1.840294,-10.43384 -1.511879 2.00645,-10.34313 -0.7391028 2.132313,-11.12308 -4.27143 1.777215,-11.16413 -3.106537 1.899095,-11.14334 -2.409029 2.027183,-11.0969 -1.729293 2.119802,0.180,DnF
-0.6281939 -6.565349 1.391819,-1.398518 -6.377252 2.031882,-2.148404 -5.65651 2.447841,-2.674663 -4.882133 2.812932,-3.174794 -4.3721 3.22104,-1.728631 -3.275183 2.301552,-1.965375 -1.745943 2.803315,-2.134237 -0.7601914 3.224662,-2.250223 0.1070132 3.538584,-1.252792 -2.985491 2.318214,-1.453121 -1.449601 2.871443,-1.608597 -0.358161 3.239106,-1.72559 0.6237202 3.554309,-0.7603865 -3.032289 2.389761,-0.8585854 -1.591719 2.86073,-0.9254789 -0.6104369 3.226322,-0.9813571 0.2483048 3.536818,-0.2485027 -3.352107 2.516071,-0.2057972 -2.116886 2.958213,-0.1938658 -1.338221 3.285476,-0.1987734 -0.5865626 3.600995,-10.72672 -7.437151 1.313452,-9.941793 -7.054782 1.663822,-9.248705 -6.311697 1.965823,-8.731146 -5.596613 2.294019,-8.263849 -5.232681 2.643819,-9.724774 -4.106229 1.67238,-9.524134 -2.679334 1.886007,-9.448217 -1.810465 2.089669,-9.395069 -1.105857 2.215235,-10.19406 -3.85877 1.682917,-10.01385 -2.219841 1.830752,-9.920179 -1.24265 2.068243,-9.847665 -0.4151607 2.270174,-10.65556 -3.938367 1.712455,-10.5234 -2.406127 1.840294,-10.43384 -1.511879 2.00645,-10.34313 -0.7391028 2.132313,-11.12308 -4.27143 1.777215,-11.16413 -3.106537 1.899095,-11.14334 -2.409029 2.027183,-11.0969 -1.729293 2.119802,0.200,DnF
-0.6281939 -6.565349 1.391819,-1.398518 -6.377252 2.031882,-2.148404 -5.65651 2.447841,-2.674663 -4.882133 2.812932,-3.174794 -4.3721 3.22104,-1.728631 -3.275183 2.301552,-1.965375 -1.745943 2.803315,-2.134237 -0.7601914 3.224662,-2.250223 0.1070132 3.538584,-1.252792 -2.985491 2.318214,-1.453121 -1.449601 2.871443,-1.608597 -0.358161 3.239106,-1.72559 0.6237202 3.554309,-0.7603865 -3.032289 2.389761,-0.8585854 -1.591719 2.86073,-0.9254789 -0.6104369 3.226322,-0.9813571 0.2483048 3.536818,-0.2485027 -3.352107 2.516071,-0.2057972 -2.116886 2.958213,-0.1938658 -1.338221 3.285476,-0.1987734 -0.5865626 3.600995,-10.72672 -7.437151 1.313452,-9.941793 -7.054782 1.663822,-9.248705 -6.311697 1.965823,-8.731146 -5.596613 2.294019,-8.263849 -5.232681 2.643819,-9.724774 -4.106229 1.67238,-9.524134 -2.679334 1.886007,-9.448217 -1.810465 2.089669,-9.395069 -1.105857 2.215235,-10.19406 -3.85877 1.682917,-10.01385 -2.219841 1.830752,-9.920179 -1.24265 2.068243,-9.847665 -0.4151607 2.270174,-10.65556 -3.938367 1.712455,-10.5234 -2.406127 1.840294,-10.43384 -1.511879 2.00645,-10.34313 -0.7391028 2.132313,-11.12308 -4.27143 1.777215,-11.16413 -3.106537 1.899095,-11.14334 -2.409029 2.027183,-11.0969 -1.729293 2.119802,0.220,DnF
-0.6166897 -6.628379 1.409127,-1.367893 -6.40039 1.993874,-2.125164 -5.67975 2.419215,-2.632283 -4.919352 2.806323,-3.105019 -4.399648 3.237631,-1.673875 -3.33437 2.365427,-1.918291 -1.889896 2.878049,-2.080619 -0.936336 3.278876,-2.189504 -0.07191896 3.573252,-1.189947 -3.061472 2.433497,-1.400482 -1.546154 3.005259,-1.553478 -0.4693112 3.400278,-1.660595 0.5120835 3.735888,-0.6974907 -3.121583 2.538937,-0.7889214 -1.700594 3.043849,-0.8535066 -0.7425752 3.418919,-0.9017372 0.09741783 3.739725,-0.1898494 -3.445722 2.693516,-0.138936 -2.240833 3.121081,-0.1220045 -1.458599 3.450915,-0.1154366 -0.6975951 3.767976,-10.70214 -7.395946 1.242602,-9.906254 -6.999345 1.505298,-9.215413 -6.275321 1.778138,-8.696628 -5.56397 2.078066,-8.241964 -5.217254 2.392358,-9.692922 -4.085754 1.567969,-9.496047 -2.635768 1.749639,-9.420249 -1.76212 1.921821,-9.357309 -1.063089 2.017579,-10.16905 -3.834087 1.569499,-9.984992 -2.17103 1.69168,-9.885825 -1.175876 1.896876,-9.808969 -0.3506722 2.075512,-10.63704 -3.907184 1.574156,-10.49375 -2.349728 1.647098,-10.39864 -1.449665 1.749691,-10.3076 -0.7013736 1.837515,-11.10174 -4.233095 1.601309,-11.12818 -3.032591 1.653592,-11.10831 -2.334127 1.735097,-11.06785 -1.673778 1.790514,0.240,DnF
-0.6166897 -6.628379 1.409127,-1.367893 -6.40039 1.993874,-2.125164 -5.67975 2.419215,-2.632283 -4.919352 2.806323,-3.105019 -4.399648 3.237631,-1.673875 -3.33437 2.365427,-1.918291 -1.889896 2.878049,-2.080619 -0.936336 3.278876,-2.189504 -0.07191896 3.573252,-1.189947 -3.061472 2.433497,-1.400482 -1.546154 3.005259,-1.553478 -0.4693112 3.400278,-1.660595 0.5120835 3.735888,-0.6974907 -3.121583 2.538937,-0.7889214 -1.700594 3.043849,-0.8535066 -0.7425752 3.418919,-0.9017372 0.09741783 3.739725,-0.1898494 -3.445722 2.693516,-0.138936 -2.240833 3.121081,-0.1220045 -1.458599 3.450915,-0.1154366 -0.6975951 3.767976,-10.70214 -7.395946 1.242602,-9.906254 -6.999345 1.505298,-9.215413 -6.275321 1.778138,-8.696628 -5.56397 2.078066,-8.241964 -5.217254 2.392358,-9.692922 -4.085754 1.567969,-9.496047 -2.635768 1.749639,-9.420249 -1.76212 1.921821,-9.357309 -1.063089 2.017579,-10.16905 -3.834087 1.569499,-9.984992 -2.17103 1.69168,-9.885825 -1.175876 1.896876,-9.808969 -0.3506722 2.075512,-10.63704 -3.907184 1.574156,-10.49375 -2.349728 1.647098,-10.39864 -1.449665 1.749691,-10.3076 -0.7013736 1.837515,-11.10174 -4.233095 1.601309,-11.12818 -3.032591 1.653592,-11.10831 -2.334127 1.735097,-11.06785 -1.673778 1.790514,0.260,DnF
-0.6166897 -6.628379 1.409127,-1.367893 -6.40039 1.993874,-2.125164 -5.67975 2.419215,-2.632283 -4.919352 2.806323,-3.105019 -4.399648 3.237631,-1.673875 -3.33437 2.365427,-1.918291 -1.889896 2.878049,-2.080619 -0.936336 3.278876,-2.189504 -0.07191896 3.573252,-1.189947 -3.061472 2.433497,-1.400482 -1.546154 3.005259,-1.553478 -0.4693112 3.400278,-1.660595 0.5120835 3.735888,-0.6974907 -3.121583 2.538937,-0.7889214 -1.700594 3.043849,-0.8535066 -0.7425752 3.418919,-0.9017372 0.09741783 3.739725,-0.1898494 -3.445722 2.693516,-0.138936 -2.240833 3.121081,-0.1220045 -1.458599 3.450915,-0.1154366 -0.6975951 3.767976,-10.70214 -7.395946 1.242602,-9.906254 -6.999345 1.505298,-9.215413 -6.275321 1.778138,-8.696628 -5.56397 2.078066,-8.241964 -5.217254 2.392358,-9.692922 -4.085754 1.567969,-9.496047 -2.635768 1.749639,-9.420249 -1.76212 1.921821,-9.357309 -1.063089 2.017579,-10.16905 -3.834087 1.569499,-9.984992 -2.17103 1.69168,-9.885825 -1.175876 1.896876,-9.808969 -0.3506722 2.075512,-10.63704 -3.907184 1.574156,-10.49375 -2.349728 1.647098,-10.39864 -1.449665 1.749691,-10.3076 -0.7013736 1.837515,-11.10174 -4.233095 1.601309,-11.12818 -3.032591 1.653592,-11.10831 -2.334127 1.735097,-11.06785 -1.673778 1.790514,0.280,DnF
-0.5861435 -6.659169 1.451716,-1.335133 -6.440078 2.08322,-2.089314 -5.703405 2.490352,-2.575718 -4.913031 2.856554,-3.053413 -4.431072 3.277908,-1.635684 -3.346629 2.375863,-1.890475 -1.935779 2.849596,-2.055374 -0.9875493 3.226294,-2.162308 -0.1202521 3.514142,-1.14551 -3.057262 2.403377,-1.365273 -1.563728 2.928734,-1.521412 -0.4988785 3.286032,-1.621803 0.4611549 3.578423,-0.6562519 -3.097423 2.48543,-0.7505703 -1.703393 2.946394,-0.8221006 -0.7765279 3.287626,-0.8677969 0.04133511 3.574945,-0.1536551 -3.396631 2.624212,-0.1120157 -2.221889 3.014421,-0.09302568 -1.444061 3.318026,-0.07573032 -0.6775508 3.613953,-10.68218 -7.377946 1.279461,-9.886737 -6.973676 1.582384,-9.185109 -6.236372 1.869574,-8.666369 -5.521155 2.18362,-8.220554 -5.161115 2.506643,-9.67182 -4.061714 1.612074,-9.475537 -2.628504 1.823945,-9.387701 -1.753099 2.024152,-9.311628 -1.046349 2.147095,-10.14632 -3.806207 1.610947,-9.965464 -2.142133 1.760619,-9.86078 -1.15378 1.999574,-9.774451 -0.310936 2.209213,-10.60875 -3.874641 1.624029,-10.47215 -2.333865 1.726566,-10.37825 -1.4396 1.856598,-10.2829 -0.6735024 1.96808,-11.07293 -4.199018 1.665276,-11.12073 -3.021746 1.73499,-11.11106 -2.331874 1.83162,-11.07503 -1.659869 1.906645,0.300,DnF
-0.5861435 -6.659169 1.451716,-1.335133 -6.440078 2.08322,-2.089314 -5.703405 2.490352,-2.575718 -4.913031 2.856554,-3.053413 -4.431072 3.277908,-1.635684 -3.346629 2.375863,-1.890475 -1.935779 2.849596,-2.055374 -0.9875493 3.226294,-2.162308 -0.1202521 3.514142,-1.14551 -3.057262 2.403377,-1.365273 -1.563728 2.928734,-1.521412 -0.4988785 3.286032,-1.621803 0.4611549 3.578423,-0.6562519 -3.097423 2.48543,-0.7505703 -1.703393 2.946394,-0.8221006 -0.7765279 3.287626,-0.8677969 0.04133511 3.574945,-0.1536551 -3.396631 2.624212,-0.1120157 -2.221889 3.014421,-0.09302568 -1.444061 3.318026,-0.07573032 -0.6775508 3.613953,-10.68218 -7.377946 1.279461,-9.886737 -6.973676 1.582384,-9.185109 -6.236372 1.869574,-8.666369 -5.521155 2.18362,-8.220554 -5.161115 2.506643,-9.67182 -4.061714 1.612074,-9.475537 -2.628504 1.823945,-9.387701 -1.753099 2.024152,-9.311628 -1.046349 2.147095,-10.14632 -3.806207 1.610947,-9.965464 -2.142133 1.760619,-9.86078 -1.15378 1.999574,-9.774451 -0.310936 2.209213,-10.60875 -3.874641 1.624029,-10.47215 -2.333865 1.726566,-10.37825 -1.4396 1.856598,-10.2829 -0.6735024 1.96808,-11.07293 -4.199018 1.665276,-11.12073 -3.021746 1.73499,-11.11106 -2.331874 1.83162,-11.07503 -1.659869 1.906645,0.320,DnF
-0.5861435 -6.659169 1.451716,-1.335133 -6.440078 2.08322,-2.089314 -5.703405 2.490352,-2.575718 -4.913031 2.856554,-3.053413 -4.431072 3.277908,-1.635684 -3.346629 2.375863,-1.890475 -1.935779 2.849596,-2.055374 -0.9875493 3.226294,-2.162308 -0.1202521 3.514142,-1.14551 -3.057262 2.403377,-1.365273 -1.563728 2.928734,-1.521412 -0.4988785 3.286032,-1.621803 0.4611549 3.578423,-0.6562519 -3.097423 2.48543,-0.7505703 -1.703393 2.946394,-0.8221006 -0.7765279 3.287626,-0.8677969 0.04133511 3.574945,-0.1536551 -3.396631 2.624212,-0.1120157 -2.221889 3.014421,-0.09302568 -1.444061 3.318026,-0.07573032 -0.6775508 3.613953,-10.68218 -7.377946 1.279461,-9.886737 -6.973676 1.582384,-9.185109 -6.236372 1.869574,-8.666369 -5.521155 2.18362,-8.220554 -5.161115 2.506643,-9.67182 -4.061714 1.612074,-9.475537 -2.628504 1.823945,-9.387701 -1.753099 2.024152,-9.311628 -1.046349 2.147095,-10.14632 -3.806207 1.610947,-9.965464 -2.142133 1.760619,-9.86078 -1.15378 1.999574,-9.774451 -0.310936 2.209213,-10.60875 -3.874641 1.624029,-10.47215 -2.333865 1.726566,-10.37825 -1.4396 1.856598,-10.2829 -0.6735024 1.96808,-11.07293 -4.199018 1.665276,-11.12073 -3.021746 1.73499,-11.11106 -2.331874 1.83162,-11.07503 -1.659869 1.906645,0.340,DnF
-0.5861435 -6.659169 1.451716,-1.335133 -6.440078 2.08322,-2.089314 -5.703405 2.490352,-2.575718 -4.913031 2.856554,-3.053413 -4.431072 3.277908,-1.635684 -3.346629 2.375863,-1.890475 -1.935779 2.849596,-2.055374 -0.9875493 3.226294,-2.162308 -0.1202521 3.514142,-1.14551 -3.057262 2.403377,-1.365273 -1.563728 2.928734,-1.521412 -0.4988785 3.286032,-1.621803 0.4611549 3.578423,-0.6562519 -3.097423 2.48543,-0.7505703 -1.703393 2.946394,-0.8221006 -0.7765279 3.287626,-0.8677969 0.04133511 3.574945,-0.1536551 -3.396631 2.624212,-0.1120157 -2.221889 3.014421,-0.09302568 -1.444061 3.318026,-0.07573032 -0.6775508 3.613953,-10.68218 -7.377946 1.279461,-9.886737 -6.973676 1.582384,-9.185109 -6.236372 1.869574,-8.666369 -5.521155 2.18362,-8.220554 -5.161115 2.506643,-9.67182 -4.061714 1.612074,-9.475537 -2.628504 1.823945,-9.387701 -1.753099 2.024152,-9.311628 -1.046349 2.147095,-10.14632 -3.806207 1.610947,-9.965464 -2.142133 1.760619,-9.86078 -1.15378 1.999574,-9.774451 -0.310936 2.209213,-10.60875 -3.874641 1.624029,-10.47215 -2.333865 1.726566,-10.37825 -1.4396 1.856598,-10.2829 -0.6735024 1.96808,-11.07293 -4.199018 1.665276,-11.12073 -3.021746 1.73499,-11.11106 -2.331874 1.83162,-11.07503 -1.659869 1.906645,0.360,DnF
-0.5486712 -6.712369 1.433889,-1.302267 -6.481267 2.088985,-2.058664 -5.761846 2.51107,-2.544981 -4.961123 2.881259,-3.014787 -4.44333 3.301638,-1.611707 -3.405313 2.381436,-1.855527 -1.968581 2.865772,-2.01014 -1.020832 3.247203,-2.109763 -0.1544132 3.537474,-1.117709 -3.117258 2.38532,-1.320842 -1.623391 2.912349,-1.457893 -0.568687 3.270413,-1.544824 0.3885598 3.561703,-0.6258593 -3.151755 2.451541,-0.7073898 -1.755405 2.900437,-0.7612624 -0.8219314 3.261185,-0.7960625 0.0066576 3.56207,-0.1236019 -3.451043 2.571795,-0.07699299 -2.278368 2.951913,-0.04970551 -1.499932 3.271281,-0.028543 -0.7296453 3.582476,-10.69319 -7.366188 1.373133,-9.894755 -6.974881 1.654083,-9.197824 -6.219968 1.919722,-8.684641 -5.488712 2.217106,-8.234392 -5.123543 2.517797,-9.670406 -4.029476 1.636002,-9.470353 -2.615833 1.81168,-9.381909 -1.744626 1.993237,-9.306208 -1.051826 2.102318,-10.14645 -3.762818 1.629515,-9.963213 -2.110003 1.749673,-9.856422 -1.130997 1.968061,-9.765678 -0.3058696 2.160141,-10.60841 -3.816162 1.63668,-10.47116 -2.271568 1.71118,-10.37722 -1.378833 1.828572,-10.27926 -0.6191688 1.924268,-11.07059 -4.125499 1.66816,-11.10648 -2.949701 1.709487,-11.09171 -2.268545 1.787713,-11.0499 -1.608491 1.850258,0.380,DnF
-0.5486712 -6.712369 1.433889,-1.302267 -6.481267 2.088985,-2.058664 -5.761846 2.51107,-2.544981 -4.961123 2.881259,-3.014787 -4.44333 3.301638,-1.611707 -3.405313 2.381436,-1.855527 -1.968581 2.865772,-2.01014 -1.020832 3.247203,-2.109763 -0.1544132 3.537474,-1.117709 -3.117258 2.38532,-1.320842 -1.623391 2.912349,-1.457893 -0.568687 3.270413,-1.544824 0.3885598 3.561703,-0.6258593 -3.151755 2.451541,-0.7073898 -1.755405 2.900437,-0.7612624 -0.8219314 3.261185,-0.7960625 0.0066576 3.56207,-0.1236019 -3.451043 2.571795,-0.07699299 -2.278368 2.951913,-0.04970551 -1.499932 3.271281,-0.028543 -0.7296453 3.582476,-10.69319 -7.366188 1.373133,-9.894755 -6.974881 1.654083,-9.197824 -6.219968 1.919722,-8.684641 -5.488712 2.217106,-8.234392 -5.123543 2.517797,-9.670406 -4.029476 1.636002,-9.470353 -2.615833 1.81168,-9.381909 -1.744626 1.993237,-9.306208 -1.051826 2.102318,-10.14645 -3.762818 1.629515,-9.963213 -2.110003 1.749673,-9.856422 -1.130997 1.968061,-9.765678 -0.3058696 2.160141,-10.60841 -3.816162 1.63668,-10.47116 -2.271568 1.71118,-10.37722 -1.378833 1.828572,-10.27926 -0.6191688 1.924268,-11.07059 -4.125499 1.66816,-11.10648 -2.949701 1.709487,-11.09171 -2.268545 1.787713,-11.0499 -1.608491 1.850258,0.400,DnF
-0.5486712 -6.712369 1.433889,-1.302267 -6.481267 2.088985,-2.058664 -5.761846 2.51107,-2.544981 -4.961123 2.881259,-3.014787 -4.44333 3.301638,-1.611707 -3.405313 2.381436,-1.855527 -1.968581 2.865772,-2.01014 -1.020832 3.247203,-2.109763 -0.1544132 3.537474,-1.117709 -3.117258 2.38532,-1.320842 -1.623391 2.912349,-1.457893 -0.568687 3.270413,-1.544824 0.3885598 3.561703,-0.6258593 -3.151755 2.451541,-0.7073898 -1.755405 2.900437,-0.7612624 -0.8219314 3.261185,-0.7960625 0.0066576 3.56207,-0.1236019 -3.451043 2.571795,-0.07699299 -2.278368 2.951913,-0.04970551 -1.499932 3.271281,-0.028543 -0.7296453 3.582476,-10.69319 -7.366188 1.373133,-9.894755 -6.974881 1.654083,-9.197824 -6.219968 1.919722,-8.684641 -5.488712 2.217106,-8.234392 -5.123543 2.517797,-9.670406 -4.029476 1.636002,-9.470353 -2.615833 1.81168,-9.381909 -1.744626 1.993237,-9.306208 -1.051826 2.102318,-10.14645 -3.762818 1.629515,-9.963213 -2.110003 1.749673,-9.856422 -1.130997 1.968061,-9.765678 -0.3058696 2.160141,-10.60841 -3.816162 1.63668,-10.47116 -2.271568 1.71118,-10.37722 -1.378833 1.828572,-10.27926 -0.6191688 1.924268,-11.07059 -4.125499 1.66816,-11.10648 -2.949701 1.709487,-11.09171 -2.268545 1.787713,-11.0499 -1.608491 1.850258,0.420,DnF
-0.5322227 -6.770646 1.334845,-1.284122 -6.518394 1.981663,-2.034763 -5.804962 2.370155,-2.509233 -5.006959 2.721369,-2.966321 -4.485974 3.122207,-1.565882 -3.435346 2.140784,-1.80913 -2.03045 2.574072,-1.953773 -1.128181 2.920099,-2.050575 -0.2952504 3.190255,-1.067081 -3.163608 2.13793,-1.247696 -1.698124 2.605285,-1.362127 -0.7020345 2.929645,-1.434066 0.1792569 3.183806,-0.5832081 -3.191622 2.199305,-0.6450825 -1.817678 2.603613,-0.6800799 -0.9214578 2.940064,-0.7009754 -0.139379 3.200488,-0.09431458 -3.468021 2.328971,-0.04347086 -2.302136 2.672652,-0.007855415 -1.539451 2.957639,0.02007818 -0.785646 3.227859,-10.68209 -7.374541 1.399882,-9.884582 -6.953792 1.665482,-9.192877 -6.200557 1.930037,-8.680275 -5.479294 2.232661,-8.232967 -5.123446 2.537215,-9.675256 -4.020805 1.680632,-9.482177 -2.614332 1.876755,-9.390397 -1.741496 2.063058,-9.30891 -1.035902 2.172396,-10.14528 -3.764791 1.693594,-9.969867 -2.107837 1.833142,-9.863193 -1.126026 2.054405,-9.770261 -0.2957411 2.238836,-10.60317 -3.819696 1.719536,-10.47716 -2.272504 1.813195,-10.38522 -1.373154 1.932349,-10.28815 -0.6055818 2.027367,-11.06288 -4.126351 1.769025,-11.11259 -2.937931 1.826056,-11.10401 -2.239611 1.914252,-11.06728 -1.567398 1.975691,0.440,DnF
-0.5322227 -6.770646 1.334845,-1.284122 -6.518394 1.981663,-2.034763 -5.804962 2.370155,-2.509233 -5.006959 2.721369,-2.966321 -4.485974 3.122207,-1.565882 -3.435346 2.140784,-1.80913 -2.03045 2.574072,-1.953773 -1.128181 2.920099,-2.050575 -0.2952504 3.190255,-1.067081 -3.163608 2.13793,-1.247696 -1.698124 2.605285,-1.362127 -0.7020345 2.929645,-1.434066 0.1792569 3.183806,-0.5832081 -3.191622 2.199305,-0.6450825 -1.817678 2.603613,-0.6800799 -0.9214578 2.940064,-0.7009754 -0.139379 3.200488,-0.09431458 -3.468021 2.328971,-0.04347086 -2.302136 2.672652,-0.007855415 -1.539451 2.957639,0.02007818 -0.785646 3.227859,-10.68209 -7.374541 1.399882,-9.884582 -6.953792 1.665482,-9.192877 -6.200557 1.930037,-8.680275 -5.479294 2.232661,-8.232967 -5.123446 2.537215,-9.675256 -4.020805 1.680632,-9.482177 -2.614332 1.876755,-9.390397 -1.741496 2.063058,-9.30891 -1.035902 2.172396,-10.14528 -3.764791 1.693594,-9.969867 -2.107837 1.833142,-9.863193 -1.126026 2.054405,-9.770261 -0.2957411 2.238836,-10.60317 -3.819696 1.719536,-10.47716 -2.272504 1.813195,-10.38522 -1.373154 1.932349,-10.28815 -0.6055818 2.027367,-11.06288 -4.126351 1.769025,-11.11259 -2.937931 1.826056,-11.10401 -2.239611 1.914252,-11.06728 -1.567398 1.975691,0.460,DnF
-0.5322227 -6.770646 1.334845,-1.284122 -6.518394 1.981663,-2.034763 -5.804962 2.370155,-2.509233 -5.006959 2.721369,-2.966321 -4.485974 3.122207,-1.565882 -3.435346 2.140784,-1.80913 -2.03045 2.574072,-1.953773 -1.128181 2.920099,-2.050575 -0.2952504 3.190255,-1.067081 -3.163608 2.13793,-1.247696 -1.698124 2.605285,-1.362127 -0.7020345 2.929645,-1.434066 0.1792569 3.183806,-0.5832081 -3.191622 2.199305,-0.6450825 -1.817678 2.603613,-0.6800799 -0.9214578 2.940064,-0.7009754 -0.139379 3.200488,-0.09431458 -3.468021 2.328971,-0.04347086 -2.302136 2.672652,-0.007855415 -1.539451 2.957639,0.02007818 -0.785646 3.227859,-10.68209 -7.374541 1.399882,-9.884582 -6.953792 1.665482,-9.192877 -6.200557 1.930037,-8.680275 -5.479294 2.232661,-8.232967 -5.123446 2.537215,-9.675256 -4.020805 1.680632,-9.482177 -2.614332 1.876755,-9.390397 -1.741496 2.063058,-9.30891 -1.035902 2.172396,-10.14528 -3.764791 1.693594,-9.969867 -2.107837 1.833142,-9.863193 -1.126026 2.054405,-9.770261 -0.2957411 2.238836,-10.60317 -3.819696 1.719536,-10.47716 -2.272504 1.813195,-10.38522 -1.373154 1.932349,-10.28815 -0.6055818 2.027367,-11.06288 -4.126351 1.769025,-11.11259 -2.937931 1.826056,-11.10401 -2.239611 1.914252,-11.06728 -1.567398 1.975691,0.480,DnF
-0.5239639 -6.77003 1.148215,-1.274654 -6.538931 1.813976,-2.019433 -5.824767 2.218388,-2.482837 -5.023389 2.577632,-2.940915 -4.504871 2.986847,-1.554659 -3.486991 2.012193,-1.784505 -2.083153 2.431078,-1.926972 -1.188966 2.759202,-2.021805 -0.3643737 3.013599,-1.050687 -3.225783 1.989052,-1.221925 -1.756662 2.447345,-1.333506 -0.7811456 2.754712,-1.396451 0.09970999 2.997716,-0.5650897 -3.253376 2.03293,-0.6137004 -1.888444 2.415863,-0.6446371 -0.9999404 2.739564,-0.6573915 -0.2104521 3.001442,-0.07954884 -3.518438 2.139285,-0.0163908 -2.362615 2.448976,0.03409719 -1.603661 2.721754,0.07661295 -0.8447547 2.992129,-10.701 -7.377217 1.483394,-9.906503 -6.97064 1.792598,-9.204681 -6.203166 2.071705,-8.682717 -5.477287 2.38105,-8.231678 -5.102613 2.691089,-9.682669 -4.009513 1.784907,-9.480186 -2.609933 1.99682,-9.383245 -1.741556 2.201258,-9.301626 -1.041333 2.32639,-10.15374 -3.746124 1.792469,-9.972413 -2.108685 1.937673,-9.861533 -1.131314 2.173777,-9.767983 -0.2977433 2.37136,-10.61293 -3.804262 1.819821,-10.48498 -2.277133 1.924274,-10.38922 -1.389037 2.055516,-10.2879 -0.6264615 2.159534,-11.07533 -4.117898 1.875224,-11.12523 -2.951529 1.95919,-11.11311 -2.261385 2.05734,-11.07182 -1.590044 2.127024,0.500,DnF
-0.5239639 -6.77003 1.148215,-1.274654 -6.538931 1.813976,-2.019433 -5.824767 2.218388,-2.482837 -5.023389 2.577632,-2.940915 -4.504871 2.986847,-1.554659 -3.486991 2.012193,-1.784505 -2.083153 2.431078,-1.926972 -1.188966 2.759202,-2.021805 -0.3643737 3.013599,-1.050687 -3.225783 1.989052,-1.221925 -1.756662 2.447345,-1.333506 -0.7811456 2.754712,-1.396451 0.09970999 2.997716,-0.5650897 -3.253376 2.03293,-0.6137004 -1.888444 2.415863,-0.6446371 -0.9999404 2.739564,-0.6573915 -0.2104521 3.001442,-0.07954884 -3.518438 2.139285,-0.0163908 -2.362615 2.448976,0.03409719 -1.603661 2.721754,0.07661295 -0.8447547 2.992129,-10.701 -7.377217 1.483394,-9.906503 -6.97064 1.792598,-9.204681 -6.203166 2.071705,-8.682717 -5.477287 2.38105,-8.231678 -5.102613 2.691089,-9.682669 -4.009513 1.784907,-9.480186 -2.609933 1.99682,-9.383245 -1.741556 2.201258,-9.301626 -1.041333 2.32639,-10.15374 -3.746124 1.792469,-9.972413 -2.108685 1.937673,-9.861533 -1.131314 2.173777,-9.767983 -0.2977433 2.37136,-10.61293 -3.804262 1.819821,-10.48498 -2.277133 1.924274,-10.38922 -1.389037 2.055516,-10.2879 -0.6264615 2.159534,-11.07533 -4.117898 1.875224,-11.12523 -2.951529 1.95919,-11.11311 -2.261385 2.05734,-11.07182 -1.590044 2.127024,0.520,DnF
-0.5239639 -6.77003 1.148215,-1.274654 -6.538931 1.813976,-2.019433 -5.824767 2.218388,-2.482837 -5.023389 2.577632,-2.940915 -4.504871 2.986847,-1.554659 -3.486991 2.012193,-1.784505 -2.083153 2.431078,-1.926972 -1.188966 2.759202,-2.021805 -0.3643737 3.013599,-1.050687 -3.225783 1.989052,-1.221925 -1.756662 2.447345,-1.333506 -0.7811456 2.754712,-1.396451 0.09970999 2.997716,-0.5650897 -3.253376 2.03293,-0.6137004 -1.888444 2.415863,-0.6446371 -0.9999404 2.739564,-0.6573915 -0.2104521 3.001442,-0.07954884 -3.518438 2.139285,-0.0163908 -2.362615 2.448976,0.03409719 -1.603661 2.721754,0.07661295 -0.8447547 2.992129,-10.701 -7.377217 1.483394,-9.906503 -6.97064 1.792598,-9.204681 -6.203166 2.071705,-8.682717 -5.477287 2.38105,-8.231678 -5.102613 2.691089,-9.682669 -4.009513 1.784907,-9.480186 -2.609933 1.99682,-9.383245 -1.741556 2.201258,-9.301626 -1.041333 2.32639,-10.15374 -3.746124 1.792469,-9.972413 -2.108685 1.937673,-9.861533 -1.131314 2.173777,-9.767983 -0.2977433 2.37136,-10.61293 -3.804262 1.819821,-10.48498 -2.277133 1.924274,-10.38922 -1.389037 2.055516,-10.2879 -0.6264615 2.159534,-11.07533 -4.117898 1.875224,-11.12523 -2.951529 1.95919,-11.11311 -2.261385 2.05734,-11.07182 -1.590044 2.127024,0.540,DnF
-0.5080433 -6.729031 1.066263,-1.24629 -6.51061 1.758512,-1.993893 -5.808774 2.183569,-2.460474 -5.012994 2.552243,-2.914903 -4.491485 2.971476,-1.537229 -3.505159 2.023988,-1.77974 -2.116433 2.463037,-1.921094 -1.214361 2.792401,-2.014808 -0.3693423 3.049635,-1.035017 -3.230661 1.992715,-1.226483 -1.767498 2.480061,-1.344775 -0.769856 2.802658,-1.415627 0.1383433 3.050658,-0.5469131 -3.249998 2.024601,-0.6054564 -1.887775 2.429095,-0.6497765 -0.9783978 2.753742,-0.6770253 -0.1716409 3.021107,-0.05274343 -3.503936 2.114242,0.003925323 -2.337894 2.44614,0.04638624 -1.550759 2.731199,0.08242798 -0.7634768 3.014357,-10.69883 -7.374597 1.495305,-9.909242 -6.976293 1.830452,-9.213759 -6.215267 2.116986,-8.707335 -5.4925 2.432143,-8.267209 -5.128152 2.744174,-9.68049 -4.008153 1.816321,-9.484627 -2.60825 2.039573,-9.396034 -1.734951 2.259296,-9.320812 -1.025607 2.399298,-10.15489 -3.740674 1.817475,-9.98741 -2.085061 1.978534,-9.878047 -1.09151 2.236785,-9.785032 -0.2403197 2.46099,-10.61428 -3.793323 1.840716,-10.50055 -2.259778 1.955999,-10.40982 -1.362013 2.100877,-10.31048 -0.5940127 2.219076,-11.07545 -4.104208 1.894186,-11.13388 -2.939291 1.981796,-11.12571 -2.245401 2.083264,-11.08792 -1.576621 2.157177,0.560,DnF
-0.5080433 -6.729031 1.066263,-1.24629 -6.51061 1.758512,-1.993893 -5.808774 2.183569,-2.460474 -5.012994 2.552243,-2.914903 -4.491485 2.971476,-1.537229 -3.505159 2.023988,-1.77974 -2.116433 2.463037,-1.921094 -1.214361 2.792401,-2.014808 -0.3693423 3.049635,-1.035017 -3.230661 1.992715,-1.226483 -1.767498 2.480061,-1.344775 -0.769856 2.802658,-1.415627 0.1383433 3.050658,-0.5469131 -3.249998 2.024601,-0.6054564 -1.887775 2.429095,-0.6497765 -0.9783978 2.753742,-0.6770253 -0.1716409 3.021107,-0.05274343 -3.503936 2.114242,0.003925323 -2.337894 2.44614,0.04638624 -1.550759 2.731199,0.08242798 -0.7634768 3.014357,-10.69883 -7.374597 1.495305,-9.909242 -6.976293 1.830452,-9.213759 -6.215267 2.116986,-8.707335 -5.4925 2.432143,-8.267209 -5.128152 2.744174,-9.68049 -4.008153 1.816321,-9.484627 -2.60825 2.039573,-9.396034 -1.734951 2.259296,-9.320812 -1.025607 2.399298,-10.15489 -3.740674 1.817475,-9.98741 -2.085061 1.978534,-9.878047 -1.09151 2.236785,-9.785032 -0.2403197 2.46099,-10.61428 -3.793323 1.840716,-10.50055 -2.259778 1.955999,-10.40982 -1.362013 2.100877,-10.31048 -0.5940127 2.219076,-11.07545 -4.104208 1.894186,-11.13388 -2.939291 1.981796,-11.12571 -2.245401 2.083264,-11.08792 -1.576621 2.157177,0.580,DnF
-0.5080433 -6.729031 1.066263,-1.24629 -6.51061 1.758512,-1.993893 -5.808774 2.183569,-2.460474 -5.012994 2.552243,-2.914903 -4.491485 2.971476,-1.537229 -3.505159 2.023988,-1.77974 -2.116433 2.463037,-1.921094 -1.214361 2.792401,-2.014808 -0.3693423 3.049635,-1.035017 -3.230661 1.992715,-1.226483 -1.767498 2.480061,-1.344775 -0.769856 2.802658,-1.415627 0.1383433 3.050658,-0.5469131 -3.249998 2.024601,-0.6054564 -1.887775 2.429095,-0.6497765 -0.9783978 2.753742,-0.6770253 -0.1716409 3.021107,-0.05274343 -3.503936 2.114242,0.003925323 -2.337894 2.44614,0.04638624 -1.550759 2.731199,0.08242798 -0.7634768 3.014357,-10.69883 -7.374597 1.495305,-9.909242 -6.976293 1.830452,-9.213759 -6.215267 2.116986,-8.707335 -5.4925 2.432143,-8.267209 -5.128152 2.744174,-9.68049 -4.008153 1.816321,-9.484627 -2.60825 2.039573,-9.396034 -1.734951 2.259296,-9.320812 -1.025607 2.399298,-10.15489 -3.740674 1.817475,-9.98741 -2.085061 1.978534,-9.878047 -1.09151 2.236785,-9.785032 -0.2403197 2.46099,-10.61428 -3.793323 1.840716,-10.50055 -2.259778 1.955999,-10.40982 -1.362013 2.100877,-10.31048 -0.5940127 2.219076,-11.07545 -4.104208 1.894186,-11.13388 -2.939291 1.981796,-11.12571 -2.245401 2.083264,-11.08792 -1.576621 2.157177,0.600,DnF
-0.5120997 -6.678236 0.9051494,-1.25588 -6.484777 1.592519,-2.006974 -5.793901 2.016785,-2.473973 -5.008512 2.380277,-2.914692 -4.473457 2.782499,-1.530999 -3.503519 1.886925,-1.778032 -2.100348 2.340034,-1.923197 -1.187121 2.667944,-2.017824 -0.3441892 2.91941,-1.027215 -3.232582 1.854963,-1.211596 -1.747078 2.353439,-1.328384 -0.7359099 2.679017,-1.395381 0.1750855 2.935858,-0.5401497 -3.258479 1.88524,-0.5928125 -1.888771 2.299279,-0.6333666 -0.9682193 2.621822,-0.6550627 -0.1561618 2.89445,-0.04740334 -3.514845 1.967906,0.01623535 -2.343103 2.303642,0.06426525 -1.55482 2.590866,0.1050625 -0.7722993 2.875055,-10.69883 -7.374597 1.495305,-9.909242 -6.976293 1.830452,-9.213759 -6.215267 2.116986,-8.707335 -5.4925 2.432143,-8.267209 -5.128152 2.744174,-9.68049 -4.008153 1.816321,-9.484627 -2.60825 2.039573,-9.396034 -1.734951 2.259296,-9.320812 -1.025607 2.399298,-10.15489 -3.740674 1.817475,-9.98741 -2.085061 1.978534,-9.878047 -1.09151 2.236785,-9.785032 -0.2403197 2.46099,-10.61428 -3.793323 1.840716,-10.50055 -2.259778 1.955999,-10.40982 -1.362013 2.100877,-10.31048 -0.5940127 2.219076,-11.07545 -4.104208 1.894186,-11.13388 -2.939291 1.981796,-11.12571 -2.245401 2.083264,-11.08792 -1.576621 2.157177,0.620,DnF
-0.5120997 -6.678236 0.9051494,-1.25588 -6.484777 1.592519,-2.006974 -5.793901 2.016785,-2.473973 -5.008512 2.380277,-2.914692 -4.473457 2.782499,-1.530999 -3.503519 1.886925,-1.778032 -2.100348 2.340034,-1.923197 -1.187121 2.667944,-2.017824 -0.3441892 2.91941,-1.027215 -3.232582 1.854963,-1.211596 -1.747078 2.353439,-1.328384 -0.7359099 2.679017,-1.395381 0.1750855 2.935858,-0.5401497 -3.258479 1.88524,-0.5928125 -1.888771 2.299279,-0.6333666 -0.9682193 2.621822,-0.6550627 -0.1561618 2.89445,-0.04740334 -3.514845 1.967906,0.01623535 -2.343103 2.303642,0.06426525 -1.55482 2.590866,0.1050625 -0.7722993 2.875055,-10.70895 -7.39117 1.59387,-9.915712 -6.972616 1.922951,-9.222083 -6.210854 2.205387,-8.713697 -5.483817 2.518022,-8.258806 -5.13964 2.840472,-9.684855 -3.985281 1.886884,-9.492481 -2.609062 2.09008,-9.404244 -1.748125 2.303648,-9.330772 -1.046528 2.438624,-10.1595 -3.727262 1.889883,-9.989511 -2.102315 2.020367,-9.886863 -1.118681 2.262968,-9.801481 -0.2780051 2.468311,-10.61791 -3.789712 1.918818,-10.50782 -2.294876 2.009932,-10.42322 -1.422004 2.139414,-10.33497 -0.6791377 2.239111,-11.07827 -4.10791 1.982295,-11.13583 -2.959902 2.067292,-11.12624 -2.270927 2.167382,-11.091 -1.604671 2.238208,0.640,DnF
-0.5120997 -6.678236 0.9051494,-1.25588 -6.484777 1.592519,-2.006974 -5.793901 2.016785,-2.473973 -5.008512 2.380277,-2.914692 -4.473457 2.782499,-1.530999 -3.503519 1.886925,-1.778032 -2.100348 2.340034,-1.923197 -1.187121 2.667944,-2.017824 -0.3441892 2.91941,-1.027215 -3.232582 1.854963,-1.211596 -1.747078 2.353439,-1.328384 -0.7359099 2.679017,-1.395381 0.1750855 2.935858,-0.5401497 -3.258479 1.88524,-0.5928125 -1.888771 2.299279,-0.6333666 -0.9682193 2.621822,-0.6550627 -0.1561618 2.89445,-0.04740334 -3.514845 1.967906,0.01623535 -2.343103 2.303642,0.06426525 -1.55482 2.590866,0.1050625 -0.7722993 2.875055,-10.70895 -7.39117 1.59387,-9.915712 -6.972616 1.922951,-9.222083 -6.210854 2.205387,-8.713697 -5.483817 2.518022,-8.258806 -5.13964 2.840472,-9.684855 -3.985281 1.886884,-9.492481 -2.609062 2.09008,-9.404244 -1.748125 2.303648,-9.330772 -1.046528 2.438624,-10.1595 -3.727262 1.889883,-9.989511 -2.102315 2.020367,-9.886863 -1.118681 2.262968,-9.801481 -0.2780051 2.468311,-10.61791 -3.789712 1.918818,-10.50782 -2.294876 2.009932,-10.42322 -1.422004 2.139414,-10.33497 -0.6791377 2.239111,-11.07827 -4.10791 1.982295,-11.13583 -2.959902 2.067292,-11.12624 -2.270927 2.167382,-11.091 -1.604671 2.238208,0.660,DnF
-0.5120997 -6.678236 0.9051494,-1.25588 -6.484777 1.592519,-2.006974 -5.793901 2.016785,-2.473973 -5.008512 2.380277,-2.914692 -4.473457 2.782499,-1.530999 -3.503519 1.886925,-1.778032 -2.100348 2.340034,-1.923197 -1.187121 2.667944,-2.017824 -0.3441892 2.91941,-1.027215 -3.232582 1.854963,-1.211596 -1.747078 2.353439,-1.328384 -0.7359099 2.679017,-1.395381 0.1750855 2.935858,-0.5401497 -3.258479 1.88524,-0.5928125 -1.888771 2.299279,-0.6333666 -0.9682193 2.621822,-0.6550627 -0.1561618 2.89445,-0.04740334 -3.514845 1.967906,0.01623535 -2.343103 2.303642,0.06426525 -1.55482 2.590866,0.1050625 -0.7722993 2.875055,-10.70895 -7.39117 1.59387,-9.915712 -6.972616 1.922951,-9.222083 -6.210854 2.205387,-8.713697 -5.483817 2.518022,-8.258806 -5.13964 2.840472,-9.684855 -3.985281 1.886884,-9.492481 -2.609062 2.09008,-9.404244 -1.748125 2.303648,-9.330772 -1.046528 2.438624,-10.1595 -3.727262 1.889883,-9.989511 -2.102315 2.020367,-9.886863 -1.118681 2.262968,-9.801481 -0.2780051 2.468311,-10.61791 -3.789712 1.918818,-10.50782 -2.294876 2.009932,-10.42322 -1.422004 2.139414,-10.33497 -0.6791377 2.239111,-11.07827 -4.10791 1.982295,-11.13583 -2.959902 2.067292,-11.12624 -2.270927 2.167382,-11.091 -1.604671 2.238208,0.680,DnF
-0.5206079 -6.642204 0.8769721,-1.264249 -6.456159 1.577202,-2.007802 -5.768236 2.00776,-2.483798 -5.000371 2.379329,-2.933239 -4.470983 2.789918,-1.548004 -3.473258 1.838317,-1.790152 -2.084828 2.283247,-1.931573 -1.173889 2.611537,-2.026258 -0.3476462 2.865016,-1.041484 -3.197746 1.796802,-1.2105 -1.715623 2.277455,-1.324742 -0.7071815 2.605175,-1.392378 0.1810489 2.862144,-0.5529032 -3.223301 1.82127,-0.5929399 -1.845582 2.220379,-0.6340346 -0.9205556 2.550856,-0.6570349 -0.1174626 2.825725,-0.05870342 -3.483709 1.901656,0.01043129 -2.307361 2.222167,0.05610657 -1.518642 2.505833,0.09585524 -0.7444186 2.78668,-10.72015 -7.388975 1.443679,-9.91573 -6.97174 1.744202,-9.221506 -6.221089 2.007843,-8.714897 -5.482271 2.300764,-8.27021 -5.108193 2.599962,-9.692767 -4.037323 1.742272,-9.488378 -2.625899 1.955581,-9.397543 -1.742026 2.167091,-9.323765 -1.024225 2.300605,-10.1714 -3.768787 1.743039,-9.989679 -2.118295 1.888136,-9.885746 -1.120973 2.130147,-9.800748 -0.2767072 2.327683,-10.633 -3.819392 1.760991,-10.51044 -2.287525 1.856889,-10.4206 -1.402591 1.982512,-10.32423 -0.6532111 2.07561,-11.09539 -4.124961 1.807129,-11.14473 -2.95187 1.892463,-11.12857 -2.256359 1.995465,-11.08123 -1.586668 2.061498,0.700,DnF
-0.5206079 -6.642204 0.8769721,-1.264249 -6.456159 1.577202,-2.007802 -5.768236 2.00776,-2.483798 -5.000371 2.379329,-2.933239 -4.470983 2.789918,-1.548004 -3.473258 1.838317,-1.790152 -2.084828 2.283247,-1.931573 -1.173889 2.611537,-2.026258 -0.3476462 2.865016,-1.041484 -3.197746 1.796802,-1.2105 -1.715623 2.277455,-1.324742 -0.7071815 2.605175,-1.392378 0.1810489 2.862144,-0.5529032 -3.223301 1.82127,-0.5929399 -1.845582 2.220379,-0.6340346 -0.9205556 2.550856,-0.6570349 -0.1174626 2.825725,-0.05870342 -3.483709 1.901656,0.01043129 -2.307361 2.222167,0.05610657 -1.518642 2.505833,0.09585524 -0.7444186 2.78668,-10.72015 -7.388975 1.443679,-9.91573 -6.97174 1.744202,-9.221506 -6.221089 2.007843,-8.714897 -5.482271 2.300764,-8.27021 -5.108193 2.599962,-9.692767 -4.037323 1.742272,-9.488378 -2.625899 1.955581,-9.397543 -1.742026 2.167091,-9.323765 -1.024225 2.300605,-10.1714 -3.768787 1.743039,-9.989679 -2.118295 1.888136,-9.885746 -1.120973 2.130147,-9.800748 -0.2767072 2.327683,-10.633 -3.819392 1.760991,-10.51044 -2.287525 1.856889,-10.4206 -1.402591 1.982512,-10.32423 -0.6532111 2.07561,-11.09539 -4.124961 1.807129,-11.14473 -2.95187 1.892463,-11.12857 -2.256359 1.995465,-11.08123 -1.586668 2.061498,0.720,DnF
-0.5206079 -6.642204 0.8769721,-1.264249 -6.456159 1.577202,-2.007802 -5.768236 2.00776,-2.483798 -5.000371 2.379329,-2.933239 -4.470983 2.789918,-1.548004 -3.473258 1.838317,-1.790152 -2.084828 2.283247,-1.931573 -1.173889 2.611537,-2.026258 -0.3476462 2.865016,-1.041484 -3.197746 1.796802,-1.2105 -1.715623 2.277455,-1.324742 -0.7071815 2.605175,-1.392378 0.1810489 2.862144,-0.5529032 -3.223301 1.82127,-0.5929399 -1.845582 2.220379,-0.6340346 -0.9205556 2.550856,-0.6570349 -0.1174626 2.825725,-0.05870342 -3.483709 1.901656,0.01043129 -2.307361 2.222167,0.05610657 -1.518642 2.505833,0.09585524 -0.7444186 2.78668,-10.72015 -7.388975 1.443679,-9.91573 -6.97174 1.744202,-9.221506 -6.221089 2.007843,-8.714897 -5.482271 2.300764,-8.27021 -5.108193 2.599962,-9.692767 -4.037323 1.742272,-9.488378 -2.625899 1.955581,-9.397543 -1.742026 2.167091,-9.323765 -1.024225 2.300605,-10.1714 -3.768787 1.743039,-9.989679 -2.118295 1.888136,-9.885746 -1.120973 2.130147,-9.800748 -0.2767072 2.327683,-10.633 -3.819392 1.760991,-10.51044 -2.287525 1.856889,-10.4206 -1.402591 1.982512,-10.32423 -0.6532111 2.07561,-11.09539 -4.124961 1.807129,-11.14473 -2.95187 1.892463,-11.12857 -2.256359 1.995465,-11.08123 -1.586668 2.061498,0.740,DnF
-0.5234847 -6.663276 0.8342373,-1.27852 -6.483594 1.546001,-2.01949 -5.799291 1.959198,-2.494971 -5.025312 2.312098,-2.947325 -4.48229 2.702031,-1.561289 -3.501208 1.747315,-1.803087 -2.126167 2.179158,-1.943332 -1.233285 2.501657,-2.037619 -0.4238906 2.755781,-1.050175 -3.215615 1.688703,-1.214531 -1.746037 2.133533,-1.323793 -0.7562356 2.447515,-1.387342 0.1161013 2.697101,-0.559732 -3.234301 1.701485,-0.6006842 -1.865125 2.085845,-0.6419687 -0.9500003 2.424665,-0.6648684 -0.1515503 2.698533,-0.06621265 -3.495289 1.771204,-0.002222061 -2.338046 2.089204,0.04021645 -1.570288 2.371823,0.07627106 -0.8135467 2.648745,-10.72248 -7.41013 1.494744,-9.928026 -7.00739 1.787351,-9.22812 -6.246562 2.051225,-8.715281 -5.512453 2.348094,-8.268193 -5.150915 2.647568,-9.698199 -4.04433 1.780185,-9.50258 -2.634716 1.970771,-9.412833 -1.749074 2.16737,-9.336689 -1.032874 2.289578,-10.17209 -3.774177 1.778924,-9.991879 -2.125881 1.904277,-9.880875 -1.131955 2.14153,-9.788952 -0.2882843 2.348963,-10.63652 -3.823924 1.793429,-10.50509 -2.283897 1.874674,-10.41088 -1.38205 2.003433,-10.31339 -0.6109109 2.110731,-11.10395 -4.128467 1.831965,-11.15445 -2.94263 1.888076,-11.14646 -2.246168 1.978788,-11.11091 -1.574253 2.048063,0.760,DnF
-0.5234847 -6.663276 0.8342373,-1.27852 -6.483594 1.546001,-2.01949 -5.799291 1.959198,-2.494971 -5.025312 2.312098,-2.947325 -4.48229 2.702031,-1.561289 -3.501208 1.747315,-1.803087 -2.126167 2.179158,-1.943332 -1.233285 2.501657,-2.037619 -0.4238906 2.755781,-1.050175 -3.215615 1.688703,-1.214531 -1.746037 2.133533,-1.323793 -0.7562356 2.447515,-1.387342 0.1161013 2.697101,-0.559732 -3.234301 1.701485,-0.6006842 -1.865125 2.085845,-0.6419687 -0.9500003 2.424665,-0.6648684 -0.1515503 2.698533,-0.06621265 -3.495289 1.771204,-0.002222061 -2.338046 2.089204,0.04021645 -1.570288 2.371823,0.07627106 -0.8135467 2.648745,-10.72248 -7.41013 1.494744,-9.928026 -7.00739 1.787351,-9.22812 -6.246562 2.051225,-8.715281 -5.512453 2.348094,-8.268193 -5.150915 2.647568,-9.698199 -4.04433 1.780185,-9.50258 -2.634716 1.970771,-9.412833 -1.749074 2.16737,-9.336689 -1.032874 2.289578,-10.17209 -3.774177 1.778924,-9.991879 -2.125881 1.904277,-9.880875 -1.131955 2.14153,-9.788952 -0.2882843 2.348963,-10.63652 -3.823924 1.793429,-10.50509 -2.283897 1.874674,-10.41088 -1.38205 2.003433,-10.31339 -0.6109109 2.110731,-11.10395 -4.128467 1.831965,-11.15445 -2.94263 1.888076,-11.14646 -2.246168 1.978788,-11.11091 -1.574253 2.048063,0.780,DnF
-0.5234847 -6.663276 0.8342373,-1.27852 -6.483594 1.546001,-2.01949 -5.799291 1.959198,-2.494971 -5.025312 2.312098,-2.947325 -4.48229 2.702031,-1.561289 -3.501208 1.747315,-1.803087 -2.126167 2.179158,-1.943332 -1.233285 2.501657,-2.037619 -0.4238906 2.755781,-1.050175 -3.215615 1.688703,-1.214531 -1.746037 2.133533,-1.323793 -0.7562356 2.447515,-1.387342 0.1161013 2.697101,-0.559732 -3.234301 1.701485,-0.6006842 -1.865125 2.085845,-0.6419687 -0.9500003 2.424665,-0.6648684 -0.1515503 2.698533,-0.06621265 -3.495289 1.771204,-0.002222061 -2.338046 2.089204,0.04021645 -1.570288 2.371823,0.07627106 -0.8135467 2.648745,-10.72248 -7.41013 1.494744,-9.928026 -7.00739 1.787351,-9.22812 -6.246562 2.051225,-8.715281 -5.512453 2.348094,-8.268193 -5.150915 2.647568,-9.698199 -4.04433 1.780185,-9.50258 -2.634716 1.970771,-9.412833 -1.749074 2.16737,-9.336689 -1.032874 2.289578,-10.17209 -3.774177 1.778924,-9.991879 -2.125881 1.904277,-9.880875 -1.131955 2.14153,-9.788952 -0.2882843 2.348963,-10.63652 -3.823924 1.793429,-10.50509 -2.283897 1.874674,-10.41088 -1.38205 2.003433,-10.31339 -0.6109109 2.110731,-11.10395 -4.128467 1.831965,-11.15445 -2.94263 1.888076,-11.14646 -2.246168 1.978788,-11.11091 -1.574253 2.048063,0.800,DnF
-0.5464983 -6.714593 0.8574187,-1.296916 -6.531019 1.580352,-2.036305 -5.830867 1.991912,-2.511392 -5.060604 2.332783,-2.96089 -4.518283 2.708838,-1.566902 -3.554627 1.802018,-1.805247 -2.180372 2.256752,-1.944249 -1.296421 2.597584,-2.038476 -0.4819651 2.86219,-1.057164 -3.265684 1.743897,-1.218256 -1.806957 2.21084,-1.321129 -0.8195643 2.550685,-1.380364 0.07248497 2.825073,-0.5687819 -3.283741 1.753975,-0.6012721 -1.909009 2.166743,-0.6361666 -0.9809403 2.537803,-0.6558495 -0.1575084 2.837195,-0.07517147 -3.556127 1.819565,-0.009191513 -2.396509 2.152925,0.03363323 -1.630399 2.444617,0.07135963 -0.8682704 2.733876,-10.73692 -7.413768 1.494027,-9.952687 -7.01476 1.811399,-9.253695 -6.245544 2.092317,-8.745826 -5.510162 2.40486,-8.303227 -5.140419 2.714896,-9.719432 -4.05775 1.827894,-9.523153 -2.645593 2.047526,-9.439092 -1.767785 2.25743,-9.367769 -1.05107 2.391481,-10.18831 -3.782677 1.835215,-10.00571 -2.130103 1.995619,-9.896667 -1.142986 2.244628,-9.801614 -0.2895994 2.457678,-10.64853 -3.827458 1.860326,-10.51698 -2.282022 1.973568,-10.42495 -1.376268 2.116422,-10.32176 -0.5914063 2.231864,-11.11494 -4.135542 1.909067,-11.16879 -2.952547 1.992746,-11.16515 -2.255235 2.091911,-11.1288 -1.572538 2.16711,0.820,DnF
-0.5464983 -6.714593 0.8574187,-1.296916 -6.531019 1.580352,-2.036305 -5.830867 1.991912,-2.511392 -5.060604 2.332783,-2.96089 -4.518283 2.708838,-1.566902 -3.554627 1.802018,-1.805247 -2.180372 2.256752,-1.944249 -1.296421 2.597584,-2.038476 -0.4819651 2.86219,-1.057164 -3.265684 1.743897,-1.218256 -1.806957 2.21084,-1.321129 -0.8195643 2.550685,-1.380364 0.07248497 2.825073,-0.5687819 -3.283741 1.753975,-0.6012721 -1.909009 2.166743,-0.6361666 -0.9809403 2.537803,-0.6558495 -0.1575084 2.837195,-0.07517147 -3.556127 1.819565,-0.009191513 -2.396509 2.152925,0.03363323 -1.630399 2.444617,0.07135963 -0.8682704 2.733876,-10.73692 -7.413768 1.494027,-9.952687 -7.01476 1.811399,-9.253695 -6.245544 2.092317,-8.745826 -5.510162 2.40486,-8.303227 -5.140419 2.714896,-9.719432 -4.05775 1.827894,-9.523153 -2.645593 2.047526,-9.439092 -1.767785 2.25743,-9.367769 -1.05107 2.391481,-10.18831 -3.782677 1.835215,-10.00571 -2.130103 1.995619,-9.896667 -1.142986 2.244628,-9.801614 -0.2895994 2.457678,-10.64853 -3.827458 1.860326,-10.51698 -2.282022 1.973568,-10.42495 -1.376268 2.116422,-10.32176 -0.5914063 2.231864,-11.11494 -4.135542 1.909067,-11.16879 -2.952547 1.992746,-11.16515 -2.255235 2.091911,-11.1288 -1.572538 2.16711,0.840,DnF
-0.5464983 -6.714593 0.8574187,-1.296916 -6.531019 1.580352,-2.036305 -5.830867 1.991912,-2.511392 -5.060604 2.332783,-2.96089 -4.518283 2.708838,-1.566902 -3.554627 1.802018,-1.805247 -2.180372 2.256752,-1.944249 -1.296421 2.597584,-2.038476 -0.4819651 2.86219,-1.057164 -3.265684 1.743897,-1.218256 -1.806957 2.21084,-1.321129 -0.8195643 2.550685,-1.380364 0.07248497 2.825073,-0.5687819 -3.283741 1.753975,-0.6012721 -1.909009 2.166743,-0.6361666 -0.9809403 2.537803,-0.6558495 -0.1575084 2.837195,-0.07517147 -3.556127 1.819565,-0.009191513 -2.396509 2.152925,0.03363323 -1.630399 2.444617,0.07135963 -0.8682704 2.733876,-10.73692 -7.413768 1.494027,-9.952687 -7.01476 1.811399,-9.253695 -6.245544 2.092317,-8.745826 -5.510162 2.40486,-8.303227 -5.140419 2.714896,-9.719432 -4.05775 1.827894,-9.523153 -2.645593 2.047526,-9.439092 -1.767785 2.25743,-9.367769 -1.05107 2.391481,-10.18831 -3.782677 1.835215,-10.00571 -2.130103 1.995619,-9.896667 -1.142986 2.244628,-9.801614 -0.2895994 2.457678,-10.64853 -3.827458 1.860326,-10.51698 -2.282022 1.973568,-10.42495 -1.376268 2.116422,-10.32176 -0.5914063 2.231864,-11.11494 -4.135542 1.909067,-11.16879 -2.952547 1.992746,-11.16515 -2.255235 2.091911,-11.1288 -1.572538 2.16711,0.860,DnF
-0.5518517 -6.721521 0.8255389,-1.29634 -6.545695 1.561436,-2.032902 -5.880233 1.994875,-2.498293 -5.124465 2.360094,-2.949949 -4.581595 2.760858,-1.568974 -3.575389 1.799656,-1.815639 -2.223496 2.240459,-1.954479 -1.35874 2.575615,-2.045001 -0.5526958 2.839033,-1.059408 -3.288372 1.737597,-1.219444 -1.842282 2.197398,-1.318576 -0.8845229 2.524574,-1.372744 -0.01430225 2.785398,-0.5700026 -3.309082 1.746151,-0.6082535 -1.956836 2.144714,-0.6478143 -1.057082 2.501232,-0.6696301 -0.2561688 2.789863,-0.07666397 -3.574964 1.809134,-0.00290966 -2.427583 2.125163,0.04176331 -1.675388 2.406124,0.07578897 -0.9358945 2.682804,-10.74222 -7.455317 1.562034,-9.96675 -7.035783 1.86061,-9.280624 -6.260234 2.126584,-8.779024 -5.514577 2.429129,-8.331919 -5.146556 2.732315,-9.752323 -4.059952 1.833457,-9.559244 -2.664293 2.009491,-9.470804 -1.788146 2.197958,-9.395512 -1.075382 2.325251,-10.21706 -3.795562 1.8385,-10.04382 -2.159553 1.952852,-9.933399 -1.16873 2.190993,-9.841686 -0.3224978 2.401995,-10.67235 -3.853997 1.86295,-10.55397 -2.331165 1.941718,-10.46108 -1.426683 2.08227,-10.36382 -0.6496644 2.199985,-11.1331 -4.168975 1.911921,-11.20027 -2.991523 1.98002,-11.20011 -2.294905 2.080852,-11.17232 -1.617795 2.159509,0.880,DnF
-0.5518517 -6.721521 0.8255389,-1.29634 -6.545695 1.561436,-2.032902 -5.880233 1.994875,-2.498293 -5.124465 2.360094,-2.949949 -4.581595 2.760858,-1.568974 -3.575389 1.799656,-1.815639 -2.223496 2.240459,-1.954479 -1.35874 2.575615,-2.045001 -0.5526958 2.839033,-1.059408 -3.288372 1.737597,-1.219444 -1.842282 2.197398,-1.318576 -0.8845229 2.524574,-1.372744 -0.01430225 2.785398,-0.5700026 -3.309082 1.746151,-0.6082535 -1.956836 2.144714,-0.6478143 -1.057082 2.501232,-0.6696301 -0.2561688 2.789863,-0.07666397 -3.574964 1.809134,-0.00290966 -2.427583 2.125163,0.04176331 -1.675388 2.406124,0.07578897 -0.9358945 2.682804,-10.74222 -7.455317 1.562034,-9.96675 -7.035783 1.86061,-9.280624 -6.260234 2.126584,-8.779024 -5.514577 2.429129,-8.331919 -5.146556 2.732315,-9.752323 -4.059952 1.833457,-9.559244 -2.664293 2.009491,-9.470804 -1.788146 2.197958,-9.395512 -1.075382 2.325251,-10.21706 -3.795562 1.8385,-10.04382 -2.159553 1.952852,-9.933399 -1.16873 2.190993,-9.841686 -0.3224978 2.401995,-10.67235 -3.853997 1.86295,-10.55397 -2.331165 1.941718,-10.46108 -1.426683 2.08227,-10.36382 -0.6496644 2.199985,-11.1331 -4.168975 1.911921,-11.20027 -2.991523 1.98002,-11.20011 -2.294905 2.080852,-11.17232 -1.617795 2.159509,0.900,DnF
-0.5518517 -6.721521 0.8255389,-1.29634 -6.545695 1.561436,-2.032902 -5.880233 1.994875,-2.498293 -5.124465 2.360094,-2.949949 -4.581595 2.760858,-1.568974 -3.575389 1.799656,-1.815639 -2.223496 2.240459,-1.954479 -1.35874 2.575615,-2.045001 -0.5526958 2.839033,-1.059408 -3.288372 1.737597,-1.219444 -1.842282 2.197398,-1.318576 -0.8845229 2.524574,-1.372744 -0.01430225 2.785398,-0.5700026 -3.309082 1.746151,-0.6082535 -1.956836 2.144714,-0.6478143 -1.057082 2.501232,-0.6696301 -0.2561688 2.789863,-0.07666397 -3.574964 1.809134,-0.00290966 -2.427583 2.125163,0.04176331 -1.675388 2.406124,0.07578897 -0.9358945 2.682804,-10.74222 -7.455317 1.562034,-9.96675 -7.035783 1.86061,-9.280624 -6.260234 2.126584,-8.779024 -5.514577 2.429129,-8.331919 -5.146556 2.732315,-9.752323 -4.059952 1.833457,-9.559244 -2.664293 2.009491,-9.470804 -1.788146 2.197958,-9.395512 -1.075382 2.325251,-10.21706 -3.795562 1.8385,-10.04382 -2.159553 1.952852,-9.933399 -1.16873 2.190993,-9.841686 -0.3224978 2.401995,-10.67235 -3.853997 1.86295,-10.55397 -2.331165 1.941718,-10.46108 -1.426683 2.08227,-10.36382 -0.6496644 2.199985,-11.1331 -4.168975 1.911921,-11.20027 -2.991523 1.98002,-11.20011 -2.294905 2.080852,-11.17232 -1.617795 2.159509,0.920,DnF
-0.5518517 -6.721521 0.8255389,-1.29634 -6.545695 1.561436,-2.032902 -5.880233 1.994875,-2.498293 -5.124465 2.360094,-2.949949 -4.581595 2.760858,-1.568974 -3.575389 1.799656,-1.815639 -2.223496 2.240459,-1.954479 -1.35874 2.575615,-2.045001 -0.5526958 2.839033,-1.059408 -3.288372 1.737597,-1.219444 -1.842282 2.197398,-1.318576 -0.8845229 2.524574,-1.372744 -0.01430225 2.785398,-0.5700026 -3.309082 1.746151,-0.6082535 -1.956836 2.144714,-0.6478143 -1.057082 2.501232,-0.6696301 -0.2561688 2.789863,-0.07666397 -3.574964 1.809134,-0.00290966 -2.427583 2.125163,0.04176331 -1.675388 2.406124,0.07578897 -0.9358945 2.682804,-10.74222 -7.455317 1.562034,-9.96675 -7.035783 1.86061,-9.280624 -6.260234 2.126584,-8.779024 -5.514577 2.429129,-8.331919 -5.146556 2.732315,-9.752323 -4.059952 1.833457,-9.559244 -2.664293 2.009491,-9.470804 -1.788146 2.197958,-9.395512 -1.075382 2.325251,-10.21706 -3.795562 1.8385,-10.04382 -2.159553 1.952852,-9.933399 -1.16873 2.190993,-9.841686 -0.3224978 2.401995,-10.67235 -3.853997 1.86295,-10.55397 -2.331165 1.941718,-10.46108 -1.426683 2.08227,-10.36382 -0.6496644 2.199985,-11.1331 -4.168975 1.911921,-11.20027 -2.991523 1.98002,-11.20011 -2.294905 2.080852,-11.17232 -1.617795 2.159509,0.940,DnF
-0.5588627 -6.746292 0.948305,-1.279976 -6.584777 1.732583,-2.014488 -5.912345 2.187334,-2.488841 -5.158844 2.555162,-2.941044 -4.609087 2.954535,-1.56294 -3.608341 2.032747,-1.805803 -2.253389 2.525775,-1.94175 -1.379998 2.903872,-2.031891 -0.5590625 3.203434,-1.053902 -3.303268 1.962965,-1.21353 -1.82123 2.474603,-1.311959 -0.8070416 2.858907,-1.363022 0.1273761 3.171129,-0.5654993 -3.340383 1.963725,-0.598012 -1.951243 2.4155,-0.6356583 -1.012475 2.828852,-0.6559057 -0.1593914 3.168459,-0.07239151 -3.647619 2.015699,-0.002513885 -2.496551 2.384628,0.03850508 -1.750644 2.701195,0.07499981 -1.001684 3.009588,-10.78043 -7.477479 1.551552,-10.00911 -7.07726 1.88784,-9.326644 -6.294985 2.175833,-8.836459 -5.544536 2.497406,-8.389879 -5.170467 2.813971,-9.778932 -4.100538 1.902379,-9.587088 -2.697596 2.120814,-9.509816 -1.827652 2.334716,-9.442691 -1.107383 2.475619,-10.24617 -3.829291 1.911157,-10.08035 -2.182695 2.061182,-9.97713 -1.19366 2.308873,-9.887265 -0.3318787 2.527092,-10.70367 -3.874424 1.942181,-10.59186 -2.33018 2.049398,-10.50404 -1.428372 2.197398,-10.40744 -0.644053 2.322997,-11.16757 -4.179319 1.998815,-11.23584 -2.994515 2.083773,-11.24045 -2.295352 2.185526,-11.2179 -1.604719 2.264753,0.960,DnF
-0.5588627 -6.746292 0.948305,-1.279976 -6.584777 1.732583,-2.014488 -5.912345 2.187334,-2.488841 -5.158844 2.555162,-2.941044 -4.609087 2.954535,-1.56294 -3.608341 2.032747,-1.805803 -2.253389 2.525775,-1.94175 -1.379998 2.903872,-2.031891 -0.5590625 3.203434,-1.053902 -3.303268 1.962965,-1.21353 -1.82123 2.474603,-1.311959 -0.8070416 2.858907,-1.363022 0.1273761 3.171129,-0.5654993 -3.340383 1.963725,-0.598012 -1.951243 2.4155,-0.6356583 -1.012475 2.828852,-0.6559057 -0.1593914 3.168459,-0.07239151 -3.647619 2.015699,-0.002513885 -2.496551 2.384628,0.03850508 -1.750644 2.701195,0.07499981 -1.001684 3.009588,-10.78043 -7.477479 1.551552,-10.00911 -7.07726 1.88784,-9.326644 -6.294985 2.175833,-8.836459 -5.544536 2.497406,-8.389879 -5.170467 2.813971,-9.778932 -4.100538 1.902379,-9.587088 -2.697596 2.120814,-9.509816 -1.827652 2.334716,-9.442691 -1.107383 2.475619,-10.24617 -3.829291 1.911157,-10.08035 -2.182695 2.061182,-9.97713 -1.19366 2.308873,-9.887265 -0.3318787 2.527092,-10.70367 -3.874424 1.942181,-10.59186 -2.33018 2.049398,-10.50404 -1.428372 2.197398,-10.40744 -0.644053 2.322997,-11.16757 -4.179319 1.998815,-11.23584 -2.994515 2.083773,-11.24045 -2.295352 2.185526,-11.2179 -1.604719 2.264753,0.980,DnF
-0.5588627 -6.746292 0.948305,-1.279976 -6.584777 1.732583,-2.014488 -5.912345 2.187334,-2.488841 -5.158844 2.555162,-2.941044 -4.609087 2.954535,-1.56294 -3.608341 2.032747,-1.805803 -2.253389 2.525775,-1.94175 -1.379998 2.903872,-2.031891 -0.5590625 3.203434,-1.053902 -3.303268 1.962965,-1.21353 -1.82123 2.474603,-1.311959 -0.8070416 2.858907,-1.363022 0.1273761 3.171129,-0.5654993 -3.340383 1.963725,-0.598012 -1.951243 2.4155,-0.6356583 -1.012475 2.828852,-0.6559057 -0.1593914 3.168459,-0.07239151 -3.647619 2.015699,-0.002513885 -2.496551 2.384628,0.03850508 -1.750644 2.701195,0.07499981 -1.001684 3.009588,-10.78043 -7.477479 1.551552,-10.00911 -7.07726 1.88784,-9.326644 -6.294985 2.175833,-8.836459 -5.544536 2.497406,-8.389879 -5.170467 2.813971,-9.778932 -4.100538 1.902379,-9.587088 -2.697596 2.120814,-9.509816 -1.827652 2.334716,-9.442691 -1.107383 2.475619,-10.24617 -3.829291 1.911157,-10.08035 -2.182695 2.061182,-9.97713 -1.19366 2.308873,-9.887265 -0.3318787 2.527092,-10.70367 -3.874424 1.942181,-10.59186 -2.33018 2.049398,-10.50404 -1.428372 2.197398,-10.40744 -0.644053 2.322997,-11.16757 -4.179319 1.998815,-11.23584 -2.994515 2.083773,-11.24045 -2.295352 2.185526,-11.2179 -1.604719 2.264753,1.000,DnF
-0.5349083 -6.822868 1.032565,-1.258551 -6.628946 1.842589,-1.983947 -5.919672 2.282284,-2.45046 -5.151603 2.640815,-2.907207 -4.619214 3.048264,-1.558846 -3.600338 1.957591,-1.793216 -2.271747 2.392858,-1.900297 -1.442941 2.787169,-1.972943 -0.640305 3.11474,-1.039762 -3.308688 1.869185,-1.176129 -1.892354 2.281859,-1.2259 -0.9732547 2.624852,-1.24369 -0.1332035 2.901798,-0.5553017 -3.372333 1.87526,-0.5457335 -2.01526 2.273824,-0.5383048 -1.157297 2.702203,-0.5314488 -0.3609843 3.016577,-0.07198 -3.718834 1.944745,0.02376986 -2.653986 2.300057,0.0848856 -2.0106 2.60415,0.1258273 -1.341775 2.880484,-10.8027 -7.633703 1.630717,-10.02897 -7.220306 1.953099,-9.358239 -6.434433 2.233649,-8.897894 -5.639186 2.563522,-8.45795 -5.195385 2.88434,-9.814152 -4.235842 1.843854,-9.61827 -2.859066 2.008958,-9.561217 -2.031555 2.209827,-9.522408 -1.321887 2.364573,-10.27005 -3.952976 1.877466,-10.11343 -2.370141 1.967727,-10.04729 -1.413352 2.211712,-10.00877 -0.5888295 2.417295,-10.71619 -3.994646 1.949976,-10.61345 -2.503484 2.022213,-10.54908 -1.596434 2.183059,-10.48793 -0.8297782 2.330944,-11.17797 -4.308841 2.052104,-11.25719 -3.123962 2.14784,-11.26673 -2.407358 2.283017,-11.25327 -1.730572 2.379457,1.020,DnF
-0.5349083 -6.822868 1.032565,-1.258551 -6.628946 1.842589,-1.983947 -5.919672 2.282284,-2.45046 -5.151603 2.640815,-2.907207 -4.619214 3.048264,-1.558846 -3.600338 1.957591,-1.793216 -2.271747 2.392858,-1.900297 -1.442941 2.787169,-1.972943 -0.640305 3.11474,-1.039762 -3.308688 1.869185,-1.176129 -1.892354 2.281859,-1.2259 -0.9732547 2.624852,-1.24369 -0.1332035 2.901798,-0.5553017 -3.372333 1.87526,-0.5457335 -2.01526 2.273824,-0.5383048 -1.157297 2.702203,-0.5314488 -0.3609843 3.016577,-0.07198 -3.718834 1.944745,0.02376986 -2.653986 2.300057,0.0848856 -2.0106 2.60415,0.1258273 -1.341775 2.880484,-10.8027 -7.633703 1.630717,-10.02897 -7.220306 1.953099,-9.358239 -6.434433 2.233649,-8.897894 -5.639186 2.563522,-8.45795 -5.195385 2.88434,-9.814152 -4.235842 1.843854,-9.61827 -2.859066 2.008958,-9.561217 -2.031555 2.209827,-9.522408 -1.321887 2.364573,-10.27005 -3.952976 1.877466,-10.11343 -2.370141 1.967727,-10.04729 -1.413352 2.211712,-10.00877 -0.5888295 2.417295,-10.71619 -3.994646 1.949976,-10.61345 -2.503484 2.022213,-10.54908 -1.596434 2.183059,-10.48793 -0.8297782 2.330944,-11.17797 -4.308841 2.052104,-11.25719 -3.123962 2.14784,-11.26673 -2.407358 2.283017,-11.25327 -1.730572 2.379457,1.040,DnF
-0.5349083 -6.822868 1.032565,-1.258551 -6.628946 1.842589,-1.983947 -5.919672 2.282284,-2.45046 -5.151603 2.640815,-2.907207 -4.619214 3.048264,-1.558846 -3.600338 1.957591,-1.793216 -2.271747 2.392858,-1.900297 -1.442941 2.787169,-1.972943 -0.640305 3.11474,-1.039762 -3.308688 1.869185,-1.176129 -1.892354 2.281859,-1.2259 -0.9732547 2.624852,-1.24369 -0.1332035 2.901798,-0.5553017 -3.372333 1.87526,-0.5457335 -2.01526 2.273824,-0.5383048 -1.157297 2.702203,-0.5314488 -0.3609843 3.016577,-0.07198 -3.718834 1.944745,0.02376986 -2.653986 2.300057,0.0848856 -2.0106 2.60415,0.1258273 -1.341775 2.880484,-10.8027 -7.633703 1.630717,-10.02897 -7.220306 1.953099,-9.358239 -6.434433 2.233649,-8.897894 -5.639186 2.563522,-8.45795 -5.195385 2.88434,-9.814152 -4.235842 1.843854,-9.61827 -2.859066 2.008958,-9.561217 -2.031555 2.209827,-9.522408 -1.321887 2.364573,-10.27005 -3.952976 1.877466,-10.11343 -2.370141 1.967727,-10.04729 -1.413352 2.211712,-10.00877 -0.5888295 2.417295,-10.71619 -3.994646 1.949976,-10.61345 -2.503484 2.022213,-10.54908 -1.596434 2.183059,-10.48793 -0.8297782 2.330944,-11.17797 -4.308841 2.052104,-11.25719 -3.123962 2.14784,-11.26673 -2.407358 2.283017,-11.25327 -1.730572 2.379457,1.060,DnF
-0.5419331 -6.82604 1.008477,-1.275578 -6.637233 1.773169,-2.013915 -5.92476 2.190619,-2.47481 -5.138574 2.530437,-2.918827 -4.593426 2.908785,-1.563726 -3.605517 1.925266,-1.800938 -2.289844 2.356589,-1.908143 -1.46704 2.73559,-1.971397 -0.6718106 3.048121,-1.041208 -3.318489 1.846061,-1.182464 -1.890537 2.265641,-1.228903 -0.9566312 2.618908,-1.23005 -0.09921455 2.906709,-0.5554237 -3.397594 1.855119,-0.5426822 -2.068979 2.247534,-0.532403 -1.22254 2.657926,-0.516047 -0.4357162 2.964962,-0.06807852 -3.744117 1.912949,0.02614546 -2.718671 2.256003,0.08214188 -2.115816 2.544395,0.117435 -1.478925 2.805622,-10.80346 -7.739721 1.626779,-10.03636 -7.281857 1.956371,-9.392909 -6.467023 2.220813,-8.975563 -5.633234 2.54168,-8.575246 -5.133766 2.859717,-9.834997 -4.325628 1.792685,-9.642063 -3.045112 1.937706,-9.596121 -2.294246 2.119875,-9.580473 -1.636299 2.265425,-10.29009 -4.054817 1.831589,-10.14285 -2.595904 1.893934,-10.08831 -1.752818 2.114513,-10.06053 -1.022851 2.296896,-10.72423 -4.089107 1.921872,-10.63778 -2.690783 1.983429,-10.59071 -1.887043 2.150239,-10.54286 -1.204939 2.298829,-11.17439 -4.372601 2.044613,-11.2385 -3.279549 2.131738,-11.23924 -2.620927 2.247646,-11.21324 -2.004941 2.330582,1.080,DnF
-0.5419331 -6.82604 1.008477,-1.275578 -6.637233 1.773169,-2.013915 -5.92476 2.190619,-2.47481 -5.138574 2.530437,-2.918827 -4.593426 2.908785,-1.563726 -3.605517 1.925266,-1.800938 -2.289844 2.356589,-1.908143 -1.46704 2.73559,-1.971397 -0.6718106 3.048121,-1.041208 -3.318489 1.846061,-1.182464 -1.890537 2.265641,-1.228903 -0.9566312 2.618908,-1.23005 -0.09921455 2.906709,-0.5554237 -3.397594 1.855119,-0.5426822 -2.068979 2.247534,-0.532403 -1.22254 2.657926,-0.516047 -0.4357162 2.964962,-0.06807852 -3.744117 1.912949,0.02614546 -2.718671 2.256003,0.08214188 -2.115816 2.544395,0.117435 -1.478925 2.805622,-10.80346 -7.739721 1.626779,-10.03636 -7.281857 1.956371,-9.392909 -6.467023 2.220813,-8.975563 -5.633234 2.54168,-8.575246 -5.133766 2.859717,-9.834997 -4.325628 1.792685,-9.642063 -3.045112 1.937706,-9.596121 -2.294246 2.119875,-9.580473 -1.636299 2.265425,-10.29009 -4.054817 1.831589,-10.14285 -2.595904 1.893934,-10.08831 -1.752818 2.114513,-10.06053 -1.022851 2.296896,-10.72423 -4.089107 1.921872,-10.63778 -2.690783 1.983429,-10.59071 -1.887043 2.150239,-10.54286 -1.204939 2.298829,-11.17439 -4.372601 2.044613,-11.2385 -3.279549 2.131738,-11.23924 -2.620927 2.247646,-11.21324 -2.004941 2.330582,1.100,DnF
-0.5419331 -6.82604 1.008477,-1.275578 -6.637233 1.773169,-2.013915 -5.92476 2.190619,-2.47481 -5.138574 2.530437,-2.918827 -4.593426 2.908785,-1.563726 -3.605517 1.925266,-1.800938 -2.289844 2.356589,-1.908143 -1.46704 2.73559,-1.971397 -0.6718106 3.048121,-1.041208 -3.318489 1.846061,-1.182464 -1.890537 2.265641,-1.228903 -0.9566312 2.618908,-1.23005 -0.09921455 2.906709,-0.5554237 -3.397594 1.855119,-0.5426822 -2.068979 2.247534,-0.532403 -1.22254 2.657926,-0.516047 -0.4357162 2.964962,-0.06807852 -3.744117 1.912949,0.02614546 -2.718671 2.256003,0.08214188 -2.115816 2.544395,0.117435 -1.478925 2.805622,-10.80346 -7.739721 1.626779,-10.03636 -7.281857 1.956371,-9.392909 -6.467023 2.220813,-8.975563 -5.633234 2.54168,-8.575246 -5.133766 2.859717,-9.834997 -4.325628 1.792685,-9.642063 -3.045112 1.937706,-9.596121 -2.294246 2.119875,-9.580473 -1.636299 2.265425,-10.29009 -4.054817 1.831589,-10.14285 -2.595904 1.893934,-10.08831 -1.752818 2.114513,-10.06053 -1.022851 2.296896,-10.72423 -4.089107 1.921872,-10.63778 -2.690783 1.983429,-10.59071 -1.887043 2.150239,-10.54286 -1.204939 2.298829,-11.17439 -4.372601 2.044613,-11.2385 -3.279549 2.131738,-11.23924 -2.620927 2.247646,-11.21324 -2.004941 2.330582,1.120,DnF
-0.5584707 -6.837541 1.048707,-1.294214 -6.65106 1.819727,-2.036714 -5.935298 2.234179,-2.497643 -5.143957 2.574202,-2.939725 -4.590982 2.947111,-1.573402 -3.603218 1.955865,-1.812249 -2.298492 2.388417,-1.914962 -1.482916 2.772072,-1.972398 -0.6865497 3.084124,-1.057966 -3.313613 1.867293,-1.201212 -1.88689 2.272977,-1.238235 -0.9684052 2.630265,-1.232349 -0.1167703 2.925767,-0.575511 -3.397269 1.867427,-0.5709372 -2.085485 2.24203,-0.5544691 -1.277474 2.651852,-0.5338173 -0.5390925 2.9627,-0.08778667 -3.743662 1.919321,0.001348972 -2.739014 2.242709,0.05878639 -2.165357 2.522712,0.09601784 -1.573143 2.777225,-10.83914 -7.811754 1.598214,-10.08548 -7.330257 1.969436,-9.448886 -6.5039 2.25973,-9.059791 -5.671226 2.57524,-8.680182 -5.048501 2.891769,-9.846908 -4.383443 1.827806,-9.647175 -3.168942 1.976028,-9.586797 -2.54555 2.130808,-9.552048 -2.059203 2.237701,-10.31783 -4.139818 1.86015,-10.14929 -2.839558 1.91605,-10.09168 -2.205146 2.11298,-10.07065 -1.738266 2.261042,-10.76509 -4.212052 1.951585,-10.67204 -2.951875 2.026088,-10.61574 -2.29383 2.199599,-10.55682 -1.79284 2.362105,-11.22659 -4.540739 2.076905,-11.27092 -3.589129 2.182984,-11.24482 -3.052808 2.291695,-11.18142 -2.594111 2.378259,1.140,DnF
-0.5584707 -6.837541 1.048707,-1.294214 -6.65106 1.819727,-2.036714 -5.935298 2.234179,-2.497643 -5.143957 2.574202,-2.939725 -4.590982 2.947111,-1.573402 -3.603218 1.955865,-1.812249 -2.298492 2.388417,-1.914962 -1.482916 2.772072,-1.972398 -0.6865497 3.084124,-1.057966 -3.313613 1.867293,-1.201212 -1.88689 2.272977,-1.238235 -0.9684052 2.630265,-1.232349 -0.1167703 2.925767,-0.575511 -3.397269 1.867427,-0.5709372 -2.085485 2.24203,-0.5544691 -1.277474 2.651852,-0.5338173 -0.5390925 2.9627,-0.08778667 -3.743662 1.919321,0.001348972 -2.739014 2.242709,0.05878639 -2.165357 2.522712,0.09601784 -1.573143 2.777225,-10.83914 -7.811754 1.598214,-10.08548 -7.330257 1.969436,-9.448886 -6.5039 2.25973,-9.059791 -5.671226 2.57524,-8.680182 -5.048501 2.891769,-9.846908 -4.383443 1.827806,-9.647175 -3.168942 1.976028,-9.586797 -2.54555 2.130808,-9.552048 -2.059203 2.237701,-10.31783 -4.139818 1.86015,-10.14929 -2.839558 1.91605,-10.09168 -2.205146 2.11298,-10.07065 -1.738266 2.261042,-10.76509 -4.212052 1.951585,-10.67204 -2.951875 2.026088,-10.61574 -2.29383 2.199599,-10.55682 -1.79284 2.362105,-11.22659 -4.540739 2.076905,-11.27092 -3.589129 2.182984,-11.24482 -3.052808 2.291695,-11.18142 -2.594111 2.378259,1.160,DnF
-0.5584707 -6.837541 1.048707,-1.294214 -6.65106 1.819727,-2.036714 -5.935298 2.234179,-2.497643 -5.143957 2.574202,-2.939725 -4.590982 2.947111,-1.573402 -3.603218 1.955865,-1.812249 -2.298492 2.388417,-1.914962 -1.482916 2.772072,-1.972398 -0.6865497 3.084124,-1.057966 -3.313613 1.867293,-1.201212 -1.88689 2.272977,-1.238235 -0.9684052 2.630265,-1.232349 -0.1167703 2.925767,-0.575511 -3.397269 1.867427,-0.5709372 -2.085485 2.24203,-0.5544691 -1.277474 2.651852,-0.5338173 -0.5390925 2.9627,-0.08778667 -3.743662 1.919321,0.001348972 -2.739014 2.242709,0.05878639 -2.165357 2.522712,0.09601784 -1.573143 2.777225,-10.83914 -7.811754 1.598214,-10.08548 -7.330257 1.969436,-9.448886 -6.5039 2.25973,-9.059791 -5.671226 2.57524,-8.680182 -5.048501 2.891769,-9.846908 -4.383443 1.827806,-9.647175 -3.168942 1.976028,-9.586797 -2.54555 2.130808,-9.552048 -2.059203 2.237701,-10.31783 -4.139818 1.86015,-10.14929 -2.839558 1.91605,-10.09168 -2.205146 2.11298,-10.07065 -1.738266 2.261042,-10.76509 -4.212052 1.951585,-10.67204 -2.951875 2.026088,-10.61574 -2.29383 2.199599,-10.55682 -1.79284 2.362105,-11.22659 -4.540739 2.076905,-11.27092 -3.589129 2.182984,-11.24482 -3.052808 2.291695,-11.18142 -2.594111 2.378259,1.180,DnF
-0.5750389 -6.868341 1.056055,-1.30992 -6.675945 1.750814,-2.059471 -5.923309 2.116942,-2.52051 -5.118525 2.424142,-2.961953 -4.572078 2.768401,-1.603378 -3.600952 1.796479,-1.841937 -2.306439 2.173301,-1.944125 -1.506937 2.517458,-1.999874 -0.7328086 2.802167,-1.084527 -3.31465 1.737942,-1.215611 -1.947752 2.078573,-1.241064 -1.082671 2.393861,-1.227912 -0.3169017 2.661289,-0.6009145 -3.392042 1.77088,-0.5961385 -2.106645 2.104791,-0.5778694 -1.326959 2.489912,-0.5615745 -0.649549 2.771977,-0.1064787 -3.737324 1.854091,-0.01209545 -2.744829 2.152201,0.04888105 -2.2056 2.410681,0.08615303 -1.685121 2.643154,-10.80493 -7.725618 1.252977,-10.08915 -7.310764 1.649807,-9.505939 -6.511474 1.988963,-9.130323 -5.710053 2.348482,-8.770931 -5.030775 2.731822,-9.897482 -4.362871 1.550837,-9.715998 -3.126226 1.811148,-9.613572 -2.601769 2.177082,-9.532287 -2.51399 2.429091,-10.36031 -4.152751 1.62329,-10.27982 -2.770323 1.959414,-10.18503 -2.365673 2.425955,-10.08399 -2.559524 2.733446,-10.80077 -4.26497 1.754807,-10.80208 -2.983946 2.014176,-10.69546 -2.511636 2.390238,-10.55779 -2.489126 2.650877,-11.25187 -4.626399 1.918388,-11.33854 -3.587231 2.231628,-11.26085 -3.153064 2.53458,-11.10661 -3.035221 2.736515,1.200,DnF
-0.5750389 -6.868341 1.056055,-1.30992 -6.675945 1.750814,-2.059471 -5.923309 2.116942,-2.52051 -5.118525 2.424142,-2.961953 -4.572078 2.768401,-1.603378 -3.600952 1.796479,-1.841937 -2.306439 2.173301,-1.944125 -1.506937 2.517458,-1.999874 -0.7328086 2.802167,-1.084527 -3.31465 1.737942,-1.215611 -1.947752 2.078573,-1.241064 -1.082671 2.393861,-1.227912 -0.3169017 2.661289,-0.6009145 -3.392042 1.77088,-0.5961385 -2.106645 2.104791,-0.5778694 -1.326959 2.489912,-0.5615745 -0.649549 2.771977,-0.1064787 -3.737324 1.854091,-0.01209545 -2.744829 2.152201,0.04888105 -2.2056 2.410681,0.08615303 -1.685121 2.643154,-10.80493 -7.725618 1.252977,-10.08915 -7.310764 1.649807,-9.505939 -6.511474 1.988963,-9.130323 -5.710053 2.348482,-8.770931 -5.030775 2.731822,-9.897482 -4.362871 1.550837,-9.715998 -3.126226 1.811148,-9.613572 -2.601769 2.177082,-9.532287 -2.51399 2.429091,-10.36031 -4.152751 1.62329,-10.27982 -2.770323 1.959414,-10.18503 -2.365673 2.425955,-10.08399 -2.559524 2.733446,-10.80077 -4.26497 1.754807,-10.80208 -2.983946 2.014176,-10.69546 -2.511636 2.390238,-10.55779 -2.489126 2.650877,-11.25187 -4.626399 1.918388,-11.33854 -3.587231 2.231628,-11.26085 -3.153064 2.53458,-11.10661 -3.035221 2.736515,1.220,DnF
-0.5750389 -6.868341 1.056055,-1.30992 -6.675945 1.750814,-2.059471 -5.923309 2.116942,-2.52051 -5.118525 2.424142,-2.961953 -4.572078 2.768401,-1.603378 -3.600952 1.796479,-1.841937 -2.306439 2.173301,-1.944125 -1.506937 2.517458,-1.999874 -0.7328086 2.802167,-1.084527 -3.31465 1.737942,-1.215611 -1.947752 2.078573,-1.241064 -1.082671 2.393861,-1.227912 -0.3169017 2.661289,-0.6009145 -3.392042 1.77088,-0.5961385 -2.106645 2.104791,-0.5778694 -1.326959 2.489912,-0.5615745 -0.649549 2.771977,-0.1064787 -3.737324 1.854091,-0.01209545 -2.744829 2.152201,0.04888105 -2.2056 2.410681,0.08615303 -1.685121 2.643154,-10.80493 -7.725618 1.252977,-10.08915 -7.310764 1.649807,-9.505939 -6.511474 1.988963,-9.130323 -5.710053 2.348482,-8.770931 -5.030775 2.731822,-9.897482 -4.362871 1.550837,-9.715998 -3.126226 1.811148,-9.613572 -2.601769 2.177082,-9.532287 -2.51399 2.429091,-10.36031 -4.152751 1.62329,-10.27982 -2.770323 1.959414,-10.18503 -2.365673 2.425955,-10.08399 -2.559524 2.733446,-10.80077 -4.26497 1.754807,-10.80208 -2.983946 2.014176,-10.69546 -2.511636 2.390238,-10.55779 -2.489126 2.650877,-11.25187 -4.626399 1.918388,-11.33854 -3.587231 2.231628,-11.26085 -3.153064 2.53458,-11.10661 -3.035221 2.736515,1.240,DnF
-0.5956054 -6.854242 0.9653827,-1.329421 -6.687606 1.664843,-2.076929 -5.906735 2.024977,-2.531607 -5.090806 2.322423,-2.970803 -4.561737 2.657907,-1.621971 -3.621599 1.730708,-1.858508 -2.343922 2.105561,-1.953059 -1.539933 2.450161,-2.001692 -0.7537789 2.736389,-1.100102 -3.331283 1.671543,-1.231438 -1.96189 2.027878,-1.252457 -1.08721 2.358284,-1.23451 -0.3066468 2.638125,-0.6135626 -3.41199 1.703398,-0.6071982 -2.141469 2.053446,-0.5837379 -1.368636 2.45391,-0.5618782 -0.7010808 2.755758,-0.1145353 -3.7532 1.78121,-0.02736759 -2.770011 2.101625,0.02528858 -2.251539 2.372899,0.05133486 -1.757579 2.615294,-10.78897 -7.818836 1.122578,-10.09668 -7.275983 1.566236,-9.539688 -6.447345 1.927758,-9.209862 -5.681148 2.332513,-8.872356 -4.972559 2.759405,-10.00891 -4.409259 1.403727,-9.862229 -3.235624 1.787781,-9.728672 -2.831372 2.270641,-9.638645 -2.919856 2.607198,-10.45354 -4.271231 1.488289,-10.41045 -2.90687 1.998004,-10.25113 -2.583546 2.671118,-10.10424 -2.951063 3.141581,-10.88415 -4.431598 1.641996,-10.90224 -3.18857 2.05987,-10.76049 -2.831662 2.6375,-10.59784 -3.033837 3.039158,-11.33701 -4.840557 1.820715,-11.42179 -3.830348 2.266159,-11.31179 -3.46216 2.706677,-11.10794 -3.496294 3.011311,1.260,DnF
-0.5956054 -6.854242 0.9653827,-1.329421 -6.687606 1.664843,-2.076929 -5.906735 2.024977,-2.531607 -5.090806 2.322423,-2.970803 -4.561737 2.657907,-1.621971 -3.621599 1.730708,-1.858508 -2.343922 2.105561,-1.953059 -1.539933 2.450161,-2.001692 -0.7537789 2.736389,-1.100102 -3.331283 1.671543,-1.231438 -1.96189 2.027878,-1.252457 -1.08721 2.358284,-1.23451 -0.3066468 2.638125,-0.6135626 -3.41199 1.703398,-0.6071982 -2.141469 2.053446,-0.5837379 -1.368636 2.45391,-0.5618782 -0.7010808 2.755758,-0.1145353 -3.7532 1.78121,-0.02736759 -2.770011 2.101625,0.02528858 -2.251539 2.372899,0.05133486 -1.757579 2.615294,-10.78897 -7.818836 1.122578,-10.09668 -7.275983 1.566236,-9.539688 -6.447345 1.927758,-9.209862 -5.681148 2.332513,-8.872356 -4.972559 2.759405,-10.00891 -4.409259 1.403727,-9.862229 -3.235624 1.787781,-9.728672 -2.831372 2.270641,-9.638645 -2.919856 2.607198,-10.45354 -4.271231 1.488289,-10.41045 -2.90687 1.998004,-10.25113 -2.583546 2.671118,-10.10424 -2.951063 3.141581,-10.88415 -4.431598 1.641996,-10.90224 -3.18857 2.05987,-10.76049 -2.831662 2.6375,-10.59784 -3.033837 3.039158,-11.33701 -4.840557 1.820715,-11.42179 -3.830348 2.266159,-11.31179 -3.46216 2.706677,-11.10794 -3.496294 3.011311,1.280,DnF
-0.5956054 -6.854242 0.9653827,-1.329421 -6.687606 1.664843,-2.076929 -5.906735 2.024977,-2.531607 -5.090806 2.322423,-2.970803 -4.561737 2.657907,-1.621971 -3.621599 1.730708,-1.858508 -2.343922 2.105561,-1.953059 -1.539933 2.450161,-2.001692 -0.7537789 2.736389,-1.100102 -3.331283 1.671543,-1.231438 -1.96189 2.027878,-1.252457 -1.08721 2.358284,-1.23451 -0.3066468 2.638125,-0.6135626 -3.41199 1.703398,-0.6071982 -2.141469 2.053446,-0.5837379 -1.368636 2.45391,-0.5618782 -0.7010808 2.755758,-0.1145353 -3.7532 1.78121,-0.02736759 -2.770011 2.101625,0.02528858 -2.251539 2.372899,0.05133486 -1.757579 2.615294,-10.78897 -7.818836 1.122578,-10.09668 -7.275983 1.566236,-9.539688 -6.447345 1.927758,-9.209862 -5.681148 2.332513,-8.872356 -4.972559 2.759405,-10.00891 -4.409259 1.403727,-9.862229 -3.235624 1.787781,-9.728672 -2.831372 2.270641,-9.638645 -2.919856 2.607198,-10.45354 -4.271231 1.488289,-10.41045 -2.90687 1.998004,-10.25113 -2.583546 2.671118,-10.10424 -2.951063 3.141581,-10.88415 -4.431598 1.641996,-10.90224 -3.18857 2.05987,-10.76049 -2.831662 2.6375,-10.59784 -3.033837 3.039158,-11.33701 -4.840557 1.820715,-11.42179 -3.830348 2.266159,-11.31179 -3.46216 2.706677,-11.10794 -3.496294 3.011311,1.300,DnF
-0.5956054 -6.854242 0.9653827,-1.329421 -6.687606 1.664843,-2.076929 -5.906735 2.024977,-2.531607 -5.090806 2.322423,-2.970803 -4.561737 2.657907,-1.621971 -3.621599 1.730708,-1.858508 -2.343922 2.105561,-1.953059 -1.539933 2.450161,-2.001692 -0.7537789 2.736389,-1.100102 -3.331283 1.671543,-1.231438 -1.96189 2.027878,-1.252457 -1.08721 2.358284,-1.23451 -0.3066468 2.638125,-0.6135626 -3.41199 1.703398,-0.6071982 -2.141469 2.053446,-0.5837379 -1.368636 2.45391,-0.5618782 -0.7010808 2.755758,-0.1145353 -3.7532 1.78121,-0.02736759 -2.770011 2.101625,0.02528858 -2.251539 2.372899,0.05133486 -1.757579 2.615294,-10.78897 -7.818836 1.122578,-10.09668 -7.275983 1.566236,-9.539688 -6.447345 1.927758,-9.209862 -5.681148 2.332513,-8.872356 -4.972559 2.759405,-10.00891 -4.409259 1.403727,-9.862229 -3.235624 1.787781,-9.728672 -2.831372 2.270641,-9.638645 -2.919856 2.607198,-10.45354 -4.271231 1.488289,-10.41045 -2.90687 1.998004,-10.25113 -2.583546 2.671118,-10.10424 -2.951063 3.141581,-10.88415 -4.431598 1.641996,-10.90224 -3.18857 2.05987,-10.76049 -2.831662 2.6375,-10.59784 -3.033837 3.039158,-11.33701 -4.840557 1.820715,-11.42179 -3.830348 2.266159,-11.31179 -3.46216 2.706677,-11.10794 -3.496294 3.011311,1.320,DnF
-0.5704174 -6.828369 0.941157,-1.295153 -6.66554 1.668287,-2.040078 -5.934308 2.040892,-2.494424 -5.119909 2.346558,-2.925508 -4.579314 2.689374,-1.616081 -3.614516 1.711384,-1.859707 -2.366774 2.082565,-1.94154 -1.583546 2.441526,-1.969778 -0.8246856 2.741921,-1.09899 -3.314235 1.638231,-1.236542 -1.957312 1.990221,-1.259984 -1.095778 2.334472,-1.243043 -0.3275123 2.635083,-0.6137943 -3.395946 1.651924,-0.5958662 -2.148351 1.992472,-0.5637903 -1.433899 2.382771,-0.5339117 -0.8476958 2.680245,-0.1135449 -3.74097 1.719052,-0.02014065 -2.74896 2.039936,0.04255199 -2.259986 2.309534,0.07546949 -1.82978 2.542674,-10.84244 -7.713817 0.7784067,-10.12568 -7.262811 1.265162,-9.581652 -6.45474 1.648196,-9.26627 -5.67481 2.046672,-8.971461 -4.946077 2.459984,-10.07072 -4.353028 1.056023,-9.991854 -3.107628 1.491576,-9.859697 -2.712526 2.073691,-9.79143 -2.972534 2.476779,-10.50989 -4.262703 1.119289,-10.5202 -2.759927 1.7084,-10.34263 -2.610361 2.460909,-10.21376 -3.269835 2.937472,-10.93897 -4.447155 1.255669,-10.9961 -3.083895 1.752794,-10.8153 -2.957817 2.366698,-10.6606 -3.490184 2.745214,-11.38495 -4.853983 1.41787,-11.48943 -3.760575 1.924316,-11.33587 -3.480628 2.407577,-11.12945 -3.738121 2.707602,1.340,DnF
-0.5704174 -6.828369 0.941157,-1.295153 -6.66554 1.668287,-2.040078 -5.934308 2.040892,-2.494424 -5.119909 2.346558,-2.925508 -4.579314 2.689374,-1.616081 -3.614516 1.711384,-1.859707 -2.366774 2.082565,-1.94154 -1.583546 2.441526,-1.969778 -0.8246856 2.741921,-1.09899 -3.314235 1.638231,-1.236542 -1.957312 1.990221,-1.259984 -1.095778 2.334472,-1.243043 -0.3275123 2.635083,-0.6137943 -3.395946 1.651924,-0.5958662 -2.148351 1.992472,-0.5637903 -1.433899 2.382771,-0.5339117 -0.8476958 2.680245,-0.1135449 -3.74097 1.719052,-0.02014065 -2.74896 2.039936,0.04255199 -2.259986 2.309534,0.07546949 -1.82978 2.542674,-10.84244 -7.713817 0.7784067,-10.12568 -7.262811 1.265162,-9.581652 -6.45474 1.648196,-9.26627 -5.67481 2.046672,-8.971461 -4.946077 2.459984,-10.07072 -4.353028 1.056023,-9.991854 -3.107628 1.491576,-9.859697 -2.712526 2.073691,-9.79143 -2.972534 2.476779,-10.50989 -4.262703 1.119289,-10.5202 -2.759927 1.7084,-10.34263 -2.610361 2.460909,-10.21376 -3.269835 2.937472,-10.93897 -4.447155 1.255669,-10.9961 -3.083895 1.752794,-10.8153 -2.957817 2.366698,-10.6606 -3.490184 2.745214,-11.38495 -4.853983 1.41787,-11.48943 -3.760575 1.924316,-11.33587 -3.480628 2.407577,-11.12945 -3.738121 2.707602,1.360,DnF
-0.5704174 -6.828369 0.941157,-1.295153 -6.66554 1.668287,-2.040078 -5.934308 2.040892,-2.494424 -5.119909 2.346558,-2.925508 -4.579314 2.689374,-1.616081 -3.614516 1.711384,-1.859707 -2.366774 2.082565,-1.94154 -1.583546 2.441526,-1.969778 -0.8246856 2.741921,-1.09899 -3.314235 1.638231,-1.236542 -1.957312 1.990221,-1.259984 -1.095778 2.334472,-1.243043 -0.3275123 2.635083,-0.6137943 -3.395946 1.651924,-0.5958662 -2.148351 1.992472,-0.5637903 -1.433899 2.382771,-0.5339117 -0.8476958 2.680245,-0.1135449 -3.74097 1.719052,-0.02014065 -2.74896 2.039936,0.04255199 -2.259986 2.309534,0.07546949 -1.82978 2.542674,-10.84244 -7.713817 0.7784067,-10.12568 -7.262811 1.265162,-9.581652 -6.45474 1.648196,-9.26627 -5.67481 2.046672,-8.971461 -4.946077 2.459984,-10.07072 -4.353028 1.056023,-9.991854 -3.107628 1.491576,-9.859697 -2.712526 2.073691,-9.79143 -2.972534 2.476779,-10.50989 -4.262703 1.119289,-10.5202 -2.759927 1.7084,-10.34263 -2.610361 2.460909,-10.21376 -3.269835 2.937472,-10.93897 -4.447155 1.255669,-10.9961 -3.083895 1.752794,-10.8153 -2.957817 2.366698,-10.6606 -3.490184 2.745214,-11.38495 -4.853983 1.41787,-11.48943 -3.760575 1.924316,-11.33587 -3.480628 2.407577,-11.12945 -3.738121 2.707602,1.380,DnF
-0.553175 -6.842681 1.019762,-1.271078 -6.68154 1.77694,-2.009292 -5.955282 2.164125,-2.44508 -5.137619 2.475604,-2.873634 -4.592107 2.827279,-1.591221 -3.619361 1.838798,-1.818069 -2.373096 2.230666,-1.893049 -1.597435 2.594707,-1.917304 -0.8415446 2.892889,-1.072225 -3.314274 1.767213,-1.181506 -1.97737 2.147775,-1.191051 -1.152967 2.501761,-1.157464 -0.4559245 2.81768,-0.583849 -3.404281 1.782612,-0.5588551 -2.151802 2.159355,-0.5196743 -1.478806 2.571489,-0.4789543 -0.9598632 2.880468,-0.07942533 -3.771146 1.854915,0.01836395 -2.779171 2.221176,0.08195114 -2.300376 2.525525,0.1173086 -1.901573 2.782064,-10.87521 -7.6613 0.8975143,-10.14865 -7.196569 1.41732,-9.621283 -6.403766 1.826304,-9.311912 -5.640131 2.242371,-9.020535 -4.891201 2.672894,-10.06798 -4.252561 1.185832,-9.988276 -3.06177 1.669793,-9.887754 -2.799988 2.296912,-9.87379 -3.164331 2.726924,-10.50259 -4.179843 1.238251,-10.4749 -2.672021 1.871297,-10.33684 -2.691576 2.631078,-10.27491 -3.412894 3.093107,-10.93846 -4.363662 1.374528,-10.96458 -2.996639 1.939008,-10.81746 -3.108078 2.569982,-10.73118 -3.807964 2.922614,-11.4043 -4.764963 1.53739,-11.49116 -3.657445 2.108311,-11.32228 -3.571534 2.614592,-11.13435 -4.021934 2.90132,1.400,DnF
-0.553175 -6.842681 1.019762,-1.271078 -6.68154 1.77694,-2.009292 -5.955282 2.164125,-2.44508 -5.137619 2.475604,-2.873634 -4.592107 2.827279,-1.591221 -3.619361 1.838798,-1.818069 -2.373096 2.230666,-1.893049 -1.597435 2.594707,-1.917304 -0.8415446 2.892889,-1.072225 -3.314274 1.767213,-1.181506 -1.97737 2.147775,-1.191051 -1.152967 2.501761,-1.157464 -0.4559245 2.81768,-0.583849 -3.404281 1.782612,-0.5588551 -2.151802 2.159355,-0.5196743 -1.478806 2.571489,-0.4789543 -0.9598632 2.880468,-0.07942533 -3.771146 1.854915,0.01836395 -2.779171 2.221176,0.08195114 -2.300376 2.525525,0.1173086 -1.901573 2.782064,-10.87521 -7.6613 0.8975143,-10.14865 -7.196569 1.41732,-9.621283 -6.403766 1.826304,-9.311912 -5.640131 2.242371,-9.020535 -4.891201 2.672894,-10.06798 -4.252561 1.185832,-9.988276 -3.06177 1.669793,-9.887754 -2.799988 2.296912,-9.87379 -3.164331 2.726924,-10.50259 -4.179843 1.238251,-10.4749 -2.672021 1.871297,-10.33684 -2.691576 2.631078,-10.27491 -3.412894 3.093107,-10.93846 -4.363662 1.374528,-10.96458 -2.996639 1.939008,-10.81746 -3.108078 2.569982,-10.73118 -3.807964 2.922614,-11.4043 -4.764963 1.53739,-11.49116 -3.657445 2.108311,-11.32228 -3.571534 2.614592,-11.13435 -4.021934 2.90132,1.420,DnF
-0.553175 -6.842681 1.019762,-1.271078 -6.68154 1.77694,-2.009292 -5.955282 2.164125,-2.44508 -5.137619 2.475604,-2.873634 -4.592107 2.827279,-1.591221 -3.619361 1.838798,-1.818069 -2.373096 2.230666,-1.893049 -1.597435 2.594707,-1.917304 -0.8415446 2.892889,-1.072225 -3.314274 1.767213,-1.181506 -1.97737 2.147775,-1.191051 -1.152967 2.501761,-1.157464 -0.4559245 2.81768,-0.583849 -3.404281 1.782612,-0.5588551 -2.151802 2.159355,-0.5196743 -1.478806 2.571489,-0.4789543 -0.9598632 2.880468,-0.07942533 -3.771146 1.854915,0.01836395 -2.779171 2.221176,0.08195114 -2.300376 2.525525,0.1173086 -1.901573 2.782064,-10.87521 -7.6613 0.8975143,-10.14865 -7.196569 1.41732,-9.621283 -6.403766 1.826304,-9.311912 -5.640131 2.242371,-9.020535 -4.891201 2.672894,-10.06798 -4.252561 1.185832,-9.988276 -3.06177 1.669793,-9.887754 -2.799988 2.296912,-9.87379 -3.164331 2.726924,-10.50259 -4.179843 1.238251,-10.4749 -2.672021 1.871297,-10.33684 -2.691576 2.631078,-10.27491 -3.412894 3.093107,-10.93846 -4.363662 1.374528,-10.96458 -2.996639 1.939008,-10.81746 -3.108078 2.569982,-10.73118 -3.807964 2.922614,-11.4043 -4.764963 1.53739,-11.49116 -3.657445 2.108311,-11.32228 -3.571534 2.614592,-11.13435 -4.021934 2.90132,1.440,DnF
-0.5321598 -6.819015 1.013519,-1.241627 -6.667647 1.780984,-1.970813 -5.958797 2.196374,-2.425754 -5.149459 2.528355,-2.838601 -4.585773 2.882002,-1.544224 -3.63751 1.935808,-1.776886 -2.401372 2.382583,-1.846779 -1.628866 2.777572,-1.847671 -0.8939681 3.090134,-1.036955 -3.313759 1.863804,-1.166353 -1.894906 2.288665,-1.18117 -0.9733281 2.671472,-1.154481 -0.168344 3.004539,-0.5493307 -3.426084 1.872756,-0.5174265 -2.145118 2.283994,-0.4824963 -1.478768 2.69519,-0.4441881 -0.9813514 3.002008,-0.04936123 -3.819405 1.937853,0.05605745 -2.820101 2.317978,0.1231923 -2.34697 2.621066,0.153554 -1.952851 2.873707,-10.88235 -7.699548 0.7552024,-10.15634 -7.230194 1.261711,-9.633232 -6.407003 1.681686,-9.327686 -5.631419 2.118643,-9.046673 -4.831701 2.566236,-10.05399 -4.294569 1.059551,-10.04818 -2.993405 1.606286,-9.930258 -2.977969 2.218475,-9.89231 -3.514171 2.596041,-10.48688 -4.263738 1.115302,-10.48634 -2.654407 1.792324,-10.32022 -2.951562 2.439105,-10.25734 -3.721056 2.775131,-10.92622 -4.446344 1.257875,-10.97526 -3.007718 1.846017,-10.78581 -3.341546 2.387531,-10.68797 -4.124819 2.640246,-11.40593 -4.805252 1.42304,-11.47982 -3.668993 1.985665,-11.2742 -3.765727 2.436641,-11.09112 -4.339445 2.666017,1.460,Left Hand Closed
-0.5321598 -6.819015 1.013519,-1.241627 -6.667647 1.780984,-1.970813 -5.958797 2.196374,-2.425754 -5.149459 2.528355,-2.838601 -4.585773 2.882002,-1.544224 -3.63751 1.935808,-1.776886 -2.401372 2.382583,-1.846779 -1.628866 2.777572,-1.847671 -0.8939681 3.090134,-1.036955 -3.313759 1.863804,-1.166353 -1.894906 2.288665,-1.18117 -0.9733281 2.671472,-1.154481 -0.168344 3.004539,-0.5493307 -3.426084 1.872756,-0.5174265 -2.145118 2.283994,-0.4824963 -1.478768 2.69519,-0.4441881 -0.9813514 3.002008,-0.04936123 -3.819405 1.937853,0.05605745 -2.820101 2.317978,0.1231923 -2.34697 2.621066,0.153554 -1.952851 2.873707,-10.88235 -7.699548 0.7552024,-10.15634 -7.230194 1.261711,-9.633232 -6.407003 1.681686,-9.327686 -5.631419 2.118643,-9.046673 -4.831701 2.566236,-10.05399 -4.294569 1.059551,-10.04818 -2.993405 1.606286,-9.930258 -2.977969 2.218475,-9.89231 -3.514171 2.596041,-10.48688 -4.263738 1.115302,-10.48634 -2.654407 1.792324,-10.32022 -2.951562 2.439105,-10.25734 -3.721056 2.775131,-10.92622 -4.446344 1.257875,-10.97526 -3.007718 1.846017,-10.78581 -3.341546 2.387531,-10.68797 -4.124819 2.640246,-11.40593 -4.805252 1.42304,-11.47982 -3.668993 1.985665,-11.2742 -3.765727 2.436641,-11.09112 -4.339445 2.666017,1.480,DnF
-0.5321598 -6.819015 1.013519,-1.241627 -6.667647 1.780984,-1.970813 -5.958797 2.196374,-2.425754 -5.149459 2.528355,-2.838601 -4.585773 2.882002,-1.544224 -3.63751 1.935808,-1.776886 -2.401372 2.382583,-1.846779 -1.628866 2.777572,-1.847671 -0.8939681 3.090134,-1.036955 -3.313759 1.863804,-1.166353 -1.894906 2.288665,-1.18117 -0.9733281 2.671472,-1.154481 -0.168344 3.004539,-0.5493307 -3.426084 1.872756,-0.5174265 -2.145118 2.283994,-0.4824963 -1.478768 2.69519,-0.4441881 -0.9813514 3.002008,-0.04936123 -3.819405 1.937853,0.05605745 -2.820101 2.317978,0.1231923 -2.34697 2.621066,0.153554 -1.952851 2.873707,-10.88235 -7.699548 0.7552024,-10.15634 -7.230194 1.261711,-9.633232 -6.407003 1.681686,-9.327686 -5.631419 2.118643,-9.046673 -4.831701 2.566236,-10.05399 -4.294569 1.059551,-10.04818 -2.993405 1.606286,-9.930258 -2.977969 2.218475,-9.89231 -3.514171 2.596041,-10.48688 -4.263738 1.115302,-10.48634 -2.654407 1.792324,-10.32022 -2.951562 2.439105,-10.25734 -3.721056 2.775131,-10.92622 -4.446344 1.257875,-10.97526 -3.007718 1.846017,-10.78581 -3.341546 2.387531,-10.68797 -4.124819 2.640246,-11.40593 -4.805252 1.42304,-11.47982 -3.668993 1.985665,-11.2742 -3.765727 2.436641,-11.09112 -4.339445 2.666017,1.500,DnF
-0.4902458 -6.844863 1.232195,-1.193594 -6.714597 2.069104,-1.930824 -6.00912 2.486388,-2.381807 -5.181151 2.810948,-2.811648 -4.616614 3.163836,-1.521842 -3.607487 2.144531,-1.746533 -2.363347 2.567682,-1.8002 -1.607564 2.944755,-1.791315 -0.9086556 3.246726,-1.011035 -3.263223 2.022657,-1.132717 -1.84705 2.402352,-1.142262 -0.9486337 2.77108,-1.107633 -0.1956534 3.103976,-0.5253944 -3.373167 1.996301,-0.4955606 -2.09769 2.380077,-0.4551978 -1.470725 2.807305,-0.4080515 -1.034894 3.131497,-0.02846146 -3.776812 2.03037,0.0697341 -2.808477 2.425304,0.1278582 -2.376129 2.758843,0.1582351 -2.070736 3.032403,-10.84723 -7.738992 0.617463,-10.14098 -7.232871 1.050882,-9.62808 -6.369 1.472865,-9.336275 -5.549709 1.93502,-9.036083 -4.741683 2.419837,-10.02917 -4.371624 0.8654996,-10.0176 -2.983162 1.496444,-9.870687 -3.162807 2.076823,-9.82188 -3.739435 2.35464,-10.44939 -4.341722 0.9626498,-10.42257 -2.704573 1.694919,-10.21862 -3.316729 2.266159,-10.17217 -4.110292 2.485064,-10.88897 -4.509024 1.144993,-10.91331 -3.062004 1.781353,-10.68234 -3.688365 2.240797,-10.60459 -4.497375 2.385013,-11.38589 -4.83161 1.34253,-11.42267 -3.668396 1.892727,-11.1657 -3.941049 2.269239,-10.99901 -4.551157 2.421801,1.520,DnF
-0.4902458 -6.844863 1.232195,-1.193594 -6.714597 2.069104,-1.930824 -6.00912 2.486388,-2.381807 -5.181151 2.810948,-2.811648 -4.616614 3.163836,-1.521842 -3.607487 2.144531,-1.746533 -2.363347 2.567682,-1.8002 -1.607564 2.944755,-1.791315 -0.9086556 3.246726,-1.011035 -3.263223 2.022657,-1.132717 -1.84705 2.402352,-1.142262 -0.9486337 2.77108,-1.107633 -0.1956534 3.103976,-0.5253944 -3.373167 1.996301,-0.4955606 -2.09769 2.380077,-0.4551978 -1.470725 2.807305,-0.4080515 -1.034894 3.131497,-0.02846146 -3.776812 2.03037,0.0697341 -2.808477 2.425304,0.1278582 -2.376129 2.758843,0.1582351 -2.070736 3.032403,-10.84723 -7.738992 0.617463,-10.14098 -7.232871 1.050882,-9.62808 -6.369 1.472865,-9.336275 -5.549709 1.93502,-9.036083 -4.741683 2.419837,-10.02917 -4.371624 0.8654996,-10.0176 -2.983162 1.496444,-9.870687 -3.162807 2.076823,-9.82188 -3.739435 2.35464,-10.44939 -4.341722 0.9626498,-10.42257 -2.704573 1.694919,-10.21862 -3.316729 2.266159,-10.17217 -4.110292 2.485064,-10.88897 -4.509024 1.144993,-10.91331 -3.062004 1.781353,-10.68234 -3.688365 2.240797,-10.60459 -4.497375 2.385013,-11.38589 -4.83161 1.34253,-11.42267 -3.668396 1.892727,-11.1657 -3.941049 2.269239,-10.99901 -4.551157 2.421801,1.540,DnF
-0.4902458 -6.844863 1.232195,-1.193594 -6.714597 2.069104,-1.930824 -6.00912 2.486388,-2.381807 -5.181151 2.810948,-2.811648 -4.616614 3.163836,-1.521842 -3.607487 2.144531,-1.746533 -2.363347 2.567682,-1.8002 -1.607564 2.944755,-1.791315 -0.9086556 3.246726,-1.011035 -3.263223 2.022657,-1.132717 -1.84705 2.402352,-1.142262 -0.9486337 2.77108,-1.107633 -0.1956534 3.103976,-0.5253944 -3.373167 1.996301,-0.4955606 -2.09769 2.380077,-0.4551978 -1.470725 2.807305,-0.4080515 -1.034894 3.131497,-0.02846146 -3.776812 2.03037,0.0697341 -2.808477 2.425304,0.1278582 -2.376129 2.758843,0.1582351 -2.070736 3.032403,-10.84723 -7.738992 0.617463,-10.14098 -7.232871 1.050882,-9.62808 -6.369 1.472865,-9.336275 -5.549709 1.93502,-9.036083 -4.741683 2.419837,-10.02917 -4.371624 0.8654996,-10.0176 -2.983162 1.496444,-9.870687 -3.162807 2.076823,-9.82188 -3.739435 2.35464,-10.44939 -4.341722 0.9626498,-10.42257 -2.704573 1.694919,-10.21862 -3.316729 2.266159,-10.17217 -4.110292 2.485064,-10.88897 -4.509024 1.144993,-10.91331 -3.062004 1.781353,-10.68234 -3.688365 2.240797,-10.60459 -4.497375 2.385013,-11.38589 -4.83161 1.34253,-11.42267 -3.668396 1.892727,-11.1657 -3.941049 2.269239,-10.99901 -4.551157 2.421801,1.560,DnF
-0.4675612 -6.87895 1.412659,-1.179425 -6.73421 2.239075,-1.93288 -6.012954 2.653608,-2.386079 -5.182209 2.970955,-2.815188 -4.612334 3.299724,-1.516623 -3.596224 2.295705,-1.732316 -2.355814 2.715168,-1.767079 -1.628288 3.080836,-1.73996 -0.96174 3.372617,-1.005019 -3.239511 2.170915,-1.11752 -1.829342 2.536754,-1.118085 -0.938231 2.900606,-1.068601 -0.2067375 3.232755,-0.5163641 -3.353824 2.143252,-0.4911208 -2.085021 2.520613,-0.451148 -1.499772 2.957944,-0.3964338 -1.126805 3.288869,-0.01172066 -3.769583 2.172574,0.08853006 -2.817815 2.566199,0.1489563 -2.410413 2.914788,0.1918788 -2.149183 3.20051,-10.82091 -7.737936 0.4293226,-10.10326 -7.227608 0.8314046,-9.603117 -6.317076 1.218143,-9.323519 -5.475036 1.65864,-9.052794 -4.645761 2.12931,-10.00832 -4.420671 0.6357816,-9.990766 -3.000546 1.287056,-9.802959 -3.133193 1.88242,-9.724147 -3.682512 2.182283,-10.41654 -4.39238 0.7390405,-10.3683 -2.771551 1.457986,-10.11307 -3.480652 2.024749,-10.04335 -4.283435 2.248266,-10.84421 -4.564861 0.9206848,-10.86053 -3.112404 1.528565,-10.58125 -3.854541 1.953985,-10.47904 -4.677259 2.062867,-11.33443 -4.898064 1.120634,-11.34197 -3.758836 1.648452,-11.06043 -4.13097 1.973218,-10.89355 -4.778011 2.083358,1.580,DnF
-0.4675612 -6.87895 1.412659,-1.179425 -6.73421 2.239075,-1.93288 -6.012954 2.653608,-2.386079 -5.182209 2.970955,-2.815188 -4.612334 3.299724,-1.516623 -3.596224 2.295705,-1.732316 -2.355814 2.715168,-1.767079 -1.628288 3.080836,-1.73996 -0.96174 3.372617,-1.005019 -3.239511 2.170915,-1.11752 -1.829342 2.536754,-1.118085 -0.938231 2.900606,-1.068601 -0.2067375 3.232755,-0.5163641 -3.353824 2.143252,-0.4911208 -2.085021 2.520613,-0.451148 -1.499772 2.957944,-0.3964338 -1.126805 3.288869,-0.01172066 -3.769583 2.172574,0.08853006 -2.817815 2.566199,0.1489563 -2.410413 2.914788,0.1918788 -2.149183 3.20051,-10.82091 -7.737936 0.4293226,-10.10326 -7.227608 0.8314046,-9.603117 -6.317076 1.218143,-9.323519 -5.475036 1.65864,-9.052794 -4.645761 2.12931,-10.00832 -4.420671 0.6357816,-9.990766 -3.000546 1.287056,-9.802959 -3.133193 1.88242,-9.724147 -3.682512 2.182283,-10.41654 -4.39238 0.7390405,-10.3683 -2.771551 1.457986,-10.11307 -3.480652 2.024749,-10.04335 -4.283435 2.248266,-10.84421 -4.564861 0.9206848,-10.86053 -3.112404 1.528565,-10.58125 -3.854541 1.953985,-10.47904 -4.677259 2.062867,-11.33443 -4.898064 1.120634,-11.34197 -3.758836 1.648452,-11.06043 -4.13097 1.973218,-10.89355 -4.778011 2.083358,1.600,DnF
-0.4675612 -6.87895 1.412659,-1.179425 -6.73421 2.239075,-1.93288 -6.012954 2.653608,-2.386079 -5.182209 2.970955,-2.815188 -4.612334 3.299724,-1.516623 -3.596224 2.295705,-1.732316 -2.355814 2.715168,-1.767079 -1.628288 3.080836,-1.73996 -0.96174 3.372617,-1.005019 -3.239511 2.170915,-1.11752 -1.829342 2.536754,-1.118085 -0.938231 2.900606,-1.068601 -0.2067375 3.232755,-0.5163641 -3.353824 2.143252,-0.4911208 -2.085021 2.520613,-0.451148 -1.499772 2.957944,-0.3964338 -1.126805 3.288869,-0.01172066 -3.769583 2.172574,0.08853006 -2.817815 2.566199,0.1489563 -2.410413 2.914788,0.1918788 -2.149183 3.20051,-10.82091 -7.737936 0.4293226,-10.10326 -7.227608 0.8314046,-9.603117 -6.317076 1.218143,-9.323519 -5.475036 1.65864,-9.052794 -4.645761 2.12931,-10.00832 -4.420671 0.6357816,-9.990766 -3.000546 1.287056,-9.802959 -3.133193 1.88242,-9.724147 -3.682512 2.182283,-10.41654 -4.39238 0.7390405,-10.3683 -2.771551 1.457986,-10.11307 -3.480652 2.024749,-10.04335 -4.283435 2.248266,-10.84421 -4.564861 0.9206848,-10.86053 -3.112404 1.528565,-10.58125 -3.854541 1.953985,-10.47904 -4.677259 2.062867,-11.33443 -4.898064 1.120634,-11.34197 -3.758836 1.648452,-11.06043 -4.13097 1.973218,-10.89355 -4.778011 2.083358,1.620,DnF
