TiagoOliveira98/HandTracking/DataLogging/JointData/Logs(1637100652)_Hamilton.csv
WRIST,THUMB_CMC,THUMB_MCP,THUMB_IP,THUMB_TIP,INDEX_FINGER_MCP,INDEX_FINGER_PIP,INDEX_FINGER_DIP,INDEX_FINGER_TIP,MIDDLE_FINGER_MCP,MIDDLE_FINGER_PIP,MIDDLE_FINGER_DIP,MIDDLE_FINGER_TIP,RING_FINGER_MCP,RING_FINGER_PIP,RING_FINGER_DIP,RING_FINGER_TIP,PINKY_MCP,PINKY_PIP,PINKY_DIP,PINKY_TIP,WRIST2,THUMB_CMC2,THUMB_MCP2,THUMB_IP2,THUMB_TIP2,INDEX_FINGER_MCP2,INDEX_FINGER_PIP2,INDEX_FINGER_DIP2,INDEX_FINGER_TIP2,MIDDLE_FINGER_MCP2,MIDDLE_FINGER_PIP2,MIDDLE_FINGER_DIP2,MIDDLE_FINGER_TIP2,RING_FINGER_MCP2,RING_FINGER_PIP2,RING_FINGER_DIP2,RING_FINGER_TIP2,PINKY_MCP2,PINKY_PIP2,PINKY_DIP2,PINKY_TIP2,Timestamp,Event
10 0 0,10 7.47 0,10 7.47 0,10 7.47 0,10 7.47 0,10 7.47 0,10 7.47 0,10 7.47 0,10 7.47 0,10 7.47 0,10 7.47 0,10 7.47 0,10 7.47 0,10 7.47 0,10 7.47 0,10 7.47 0,10 7.47 0,10 7.47 0,10 7.47 0,10 7.47 0,10 7.47 0,10 0 0,10 7.47 0,10 7.47 0,10 7.47 0,10 7.47 0,10 7.47 0,10 7.47 0,10 7.47 0,10 7.47 0,10 7.47 0,10 7.47 0,10 7.47 0,10 7.47 0,10 7.47 0,10 7.47 0,10 7.47 0,10 7.47 0,10 7.47 0,10 7.47 0,10 7.47 0,10 7.47 0,0.020,Dnf
2 0 -8.866314,2 0 -8.866314,2 0 -8.866314,2 0 -8.866314,2 0 -8.866314,2 0 -8.866314,2 0 -8.866314,2 0 -8.866314,2 0 -8.866314,2 0 -8.866314,2 0 -8.866314,2 0 -8.866314,2 0 -8.866314,2 0 -8.866314,2 0 -8.866314,2 0 -8.866314,2 0 -8.866314,2 0 -8.866314,2 0 -8.866314,2 0 -8.866314,2 0 -8.866314,-10.21311 -8.021458 0.9218503,-9.581141 -7.729349 1.035267,-9.102581 -7.104757 1.217093,-8.795574 -6.463005 1.442991,-8.514542 -6.073198 1.652815,-9.521317 -5.361188 1.077617,-9.336282 -4.170095 1.215123,-9.26144 -3.458068 1.356283,-9.197817 -2.853523 1.454579,-9.898652 -5.15574 1.155826,-9.778128 -3.799489 1.275089,-9.708029 -2.98022 1.447712,-9.647484 -2.308175 1.582403,-10.26658 -5.201574 1.243914,-10.18728 -3.88846 1.32574,-10.13055 -3.088857 1.425888,-10.06536 -2.44175 1.519629,-10.62713 -5.458751 1.339578,-10.70278 -4.425102 1.417147,-10.72061 -3.777639 1.510506,-10.69571 -3.182138 1.567039,0.040,DnF
2 0 -8.866314,2 0 -8.866314,2 0 -8.866314,2 0 -8.866314,2 0 -8.866314,2 0 -8.866314,2 0 -8.866314,2 0 -8.866314,2 0 -8.866314,2 0 -8.866314,2 0 -8.866314,2 0 -8.866314,2 0 -8.866314,2 0 -8.866314,2 0 -8.866314,2 0 -8.866314,2 0 -8.866314,2 0 -8.866314,2 0 -8.866314,2 0 -8.866314,2 0 -8.866314,-10.21311 -8.021458 0.9218503,-9.581141 -7.729349 1.035267,-9.102581 -7.104757 1.217093,-8.795574 -6.463005 1.442991,-8.514542 -6.073198 1.652815,-9.521317 -5.361188 1.077617,-9.336282 -4.170095 1.215123,-9.26144 -3.458068 1.356283,-9.197817 -2.853523 1.454579,-9.898652 -5.15574 1.155826,-9.778128 -3.799489 1.275089,-9.708029 -2.98022 1.447712,-9.647484 -2.308175 1.582403,-10.26658 -5.201574 1.243914,-10.18728 -3.88846 1.32574,-10.13055 -3.088857 1.425888,-10.06536 -2.44175 1.519629,-10.62713 -5.458751 1.339578,-10.70278 -4.425102 1.417147,-10.72061 -3.777639 1.510506,-10.69571 -3.182138 1.567039,0.060,DnF
2 0 -8.866314,2 0 -8.866314,2 0 -8.866314,2 0 -8.866314,2 0 -8.866314,2 0 -8.866314,2 0 -8.866314,2 0 -8.866314,2 0 -8.866314,2 0 -8.866314,2 0 -8.866314,2 0 -8.866314,2 0 -8.866314,2 0 -8.866314,2 0 -8.866314,2 0 -8.866314,2 0 -8.866314,2 0 -8.866314,2 0 -8.866314,2 0 -8.866314,2 0 -8.866314,-10.21311 -8.021458 0.9218503,-9.581141 -7.729349 1.035267,-9.102581 -7.104757 1.217093,-8.795574 -6.463005 1.442991,-8.514542 -6.073198 1.652815,-9.521317 -5.361188 1.077617,-9.336282 -4.170095 1.215123,-9.26144 -3.458068 1.356283,-9.197817 -2.853523 1.454579,-9.898652 -5.15574 1.155826,-9.778128 -3.799489 1.275089,-9.708029 -2.98022 1.447712,-9.647484 -2.308175 1.582403,-10.26658 -5.201574 1.243914,-10.18728 -3.88846 1.32574,-10.13055 -3.088857 1.425888,-10.06536 -2.44175 1.519629,-10.62713 -5.458751 1.339578,-10.70278 -4.425102 1.417147,-10.72061 -3.777639 1.510506,-10.69571 -3.182138 1.567039,0.080,DnF
2 0 -8.866314,2 0 -8.866314,2 0 -8.866314,2 0 -8.866314,2 0 -8.866314,2 0 -8.866314,2 0 -8.866314,2 0 -8.866314,2 0 -8.866314,2 0 -8.866314,2 0 -8.866314,2 0 -8.866314,2 0 -8.866314,2 0 -8.866314,2 0 -8.866314,2 0 -8.866314,2 0 -8.866314,2 0 -8.866314,2 0 -8.866314,2 0 -8.866314,2 0 -8.866314,-10.21311 -8.021458 0.9218503,-9.581141 -7.729349 1.035267,-9.102581 -7.104757 1.217093,-8.795574 -6.463005 1.442991,-8.514542 -6.073198 1.652815,-9.521317 -5.361188 1.077617,-9.336282 -4.170095 1.215123,-9.26144 -3.458068 1.356283,-9.197817 -2.853523 1.454579,-9.898652 -5.15574 1.155826,-9.778128 -3.799489 1.275089,-9.708029 -2.98022 1.447712,-9.647484 -2.308175 1.582403,-10.26658 -5.201574 1.243914,-10.18728 -3.88846 1.32574,-10.13055 -3.088857 1.425888,-10.06536 -2.44175 1.519629,-10.62713 -5.458751 1.339578,-10.70278 -4.425102 1.417147,-10.72061 -3.777639 1.510506,-10.69571 -3.182138 1.567039,0.100,DnF
-3.146989 -6.132626 3.720847,-4.137813 -5.73862 4.28291,-4.930882 -5.205232 4.7708,-5.527843 -4.518604 5.0197,-5.888412 -3.936745 5.190206,-4.480108 -3.676815 5.758288,-5.094646 -2.051391 6.331406,-5.419512 -1.470208 6.478563,-5.643648 -1.219079 6.522321,-3.987789 -3.145404 5.538731,-4.521746 -1.317454 6.187637,-4.919777 -0.7558026 6.164067,-5.197523 -0.6062779 6.135773,-3.568565 -2.902547 5.273121,-3.9306 -1.18581 5.775219,-4.263842 -0.6750798 5.835605,-4.543604 -0.5088334 5.854911,-3.232498 -2.924572 4.998265,-3.345637 -1.695172 5.325638,-3.53403 -1.194322 5.406765,-3.753973 -0.936523 5.424364,-10.20117 -8.013796 1.05715,-9.580882 -7.723777 1.303742,-9.092311 -7.105592 1.562135,-8.787778 -6.47417 1.853588,-8.499296 -6.061622 2.122843,-9.510202 -5.338851 1.369176,-9.334459 -4.198089 1.584487,-9.273563 -3.511228 1.769845,-9.224367 -2.900827 1.888477,-9.88014 -5.124761 1.433197,-9.771221 -3.812538 1.634703,-9.712896 -3.005069 1.857572,-9.665686 -2.313514 2.021844,-10.24075 -5.17531 1.520585,-10.1771 -3.912284 1.679545,-10.13105 -3.132985 1.842739,-10.07589 -2.485699 1.978858,-10.60204 -5.446876 1.629777,-10.68144 -4.45222 1.776128,-10.70053 -3.810822 1.913321,-10.68066 -3.20418 2.006926,0.120,DnF
-3.146989 -6.132626 3.720847,-4.137813 -5.73862 4.28291,-4.930882 -5.205232 4.7708,-5.527843 -4.518604 5.0197,-5.888412 -3.936745 5.190206,-4.480108 -3.676815 5.758288,-5.094646 -2.051391 6.331406,-5.419512 -1.470208 6.478563,-5.643648 -1.219079 6.522321,-3.987789 -3.145404 5.538731,-4.521746 -1.317454 6.187637,-4.919777 -0.7558026 6.164067,-5.197523 -0.6062779 6.135773,-3.568565 -2.902547 5.273121,-3.9306 -1.18581 5.775219,-4.263842 -0.6750798 5.835605,-4.543604 -0.5088334 5.854911,-3.232498 -2.924572 4.998265,-3.345637 -1.695172 5.325638,-3.53403 -1.194322 5.406765,-3.753973 -0.936523 5.424364,-10.20117 -8.013796 1.05715,-9.580882 -7.723777 1.303742,-9.092311 -7.105592 1.562135,-8.787778 -6.47417 1.853588,-8.499296 -6.061622 2.122843,-9.510202 -5.338851 1.369176,-9.334459 -4.198089 1.584487,-9.273563 -3.511228 1.769845,-9.224367 -2.900827 1.888477,-9.88014 -5.124761 1.433197,-9.771221 -3.812538 1.634703,-9.712896 -3.005069 1.857572,-9.665686 -2.313514 2.021844,-10.24075 -5.17531 1.520585,-10.1771 -3.912284 1.679545,-10.13105 -3.132985 1.842739,-10.07589 -2.485699 1.978858,-10.60204 -5.446876 1.629777,-10.68144 -4.45222 1.776128,-10.70053 -3.810822 1.913321,-10.68066 -3.20418 2.006926,0.140,DnF
-3.146989 -6.132626 3.720847,-4.137813 -5.73862 4.28291,-4.930882 -5.205232 4.7708,-5.527843 -4.518604 5.0197,-5.888412 -3.936745 5.190206,-4.480108 -3.676815 5.758288,-5.094646 -2.051391 6.331406,-5.419512 -1.470208 6.478563,-5.643648 -1.219079 6.522321,-3.987789 -3.145404 5.538731,-4.521746 -1.317454 6.187637,-4.919777 -0.7558026 6.164067,-5.197523 -0.6062779 6.135773,-3.568565 -2.902547 5.273121,-3.9306 -1.18581 5.775219,-4.263842 -0.6750798 5.835605,-4.543604 -0.5088334 5.854911,-3.232498 -2.924572 4.998265,-3.345637 -1.695172 5.325638,-3.53403 -1.194322 5.406765,-3.753973 -0.936523 5.424364,-10.20117 -8.013796 1.05715,-9.580882 -7.723777 1.303742,-9.092311 -7.105592 1.562135,-8.787778 -6.47417 1.853588,-8.499296 -6.061622 2.122843,-9.510202 -5.338851 1.369176,-9.334459 -4.198089 1.584487,-9.273563 -3.511228 1.769845,-9.224367 -2.900827 1.888477,-9.88014 -5.124761 1.433197,-9.771221 -3.812538 1.634703,-9.712896 -3.005069 1.857572,-9.665686 -2.313514 2.021844,-10.24075 -5.17531 1.520585,-10.1771 -3.912284 1.679545,-10.13105 -3.132985 1.842739,-10.07589 -2.485699 1.978858,-10.60204 -5.446876 1.629777,-10.68144 -4.45222 1.776128,-10.70053 -3.810822 1.913321,-10.68066 -3.20418 2.006926,0.160,DnF
-3.06136 -6.401034 3.420069,-3.872417 -5.879236 3.901544,-4.546247 -5.230857 4.28262,-5.009657 -4.560791 4.641054,-5.396711 -3.945258 5.036933,-4.090351 -3.21151 3.998945,-4.487055 -1.991315 4.40728,-4.697307 -1.381386 4.769597,-4.918897 -0.8953719 5.034362,-3.671261 -2.991851 3.993608,-3.94577 -1.552648 4.406118,-4.166222 -0.8774505 4.764683,-4.409678 -0.376359 5.053723,-3.275684 -3.087897 4.035549,-3.393497 -1.679706 4.417336,-3.584892 -1.007139 4.769813,-3.830046 -0.4828877 5.026956,-2.86399 -3.442565 4.107677,-2.841922 -2.428415 4.45246,-2.90621 -1.79363 4.695677,-3.045265 -1.198665 4.913522,-10.21773 -7.961509 0.6977401,-9.565854 -7.704257 0.7965164,-9.075993 -7.11695 0.983097,-8.760993 -6.478603 1.194155,-8.480921 -6.068034 1.385547,-9.495869 -5.390163 0.9236868,-9.301653 -4.152263 1.067044,-9.243197 -3.428541 1.187208,-9.197298 -2.831923 1.253229,-9.884949 -5.165736 0.9671683,-9.755693 -3.762883 1.102734,-9.703972 -2.92865 1.250466,-9.66615 -2.251367 1.36139,-10.26369 -5.201157 1.003391,-10.16618 -3.857532 1.078095,-10.11136 -3.059809 1.144929,-10.05529 -2.419166 1.210111,-10.62816 -5.449453 1.039664,-10.68035 -4.406452 1.08734,-10.69415 -3.773788 1.153336,-10.66895 -3.18677 1.189172,0.180,DnF
-3.06136 -6.401034 3.420069,-3.872417 -5.879236 3.901544,-4.546247 -5.230857 4.28262,-5.009657 -4.560791 4.641054,-5.396711 -3.945258 5.036933,-4.090351 -3.21151 3.998945,-4.487055 -1.991315 4.40728,-4.697307 -1.381386 4.769597,-4.918897 -0.8953719 5.034362,-3.671261 -2.991851 3.993608,-3.94577 -1.552648 4.406118,-4.166222 -0.8774505 4.764683,-4.409678 -0.376359 5.053723,-3.275684 -3.087897 4.035549,-3.393497 -1.679706 4.417336,-3.584892 -1.007139 4.769813,-3.830046 -0.4828877 5.026956,-2.86399 -3.442565 4.107677,-2.841922 -2.428415 4.45246,-2.90621 -1.79363 4.695677,-3.045265 -1.198665 4.913522,-10.21773 -7.961509 0.6977401,-9.565854 -7.704257 0.7965164,-9.075993 -7.11695 0.983097,-8.760993 -6.478603 1.194155,-8.480921 -6.068034 1.385547,-9.495869 -5.390163 0.9236868,-9.301653 -4.152263 1.067044,-9.243197 -3.428541 1.187208,-9.197298 -2.831923 1.253229,-9.884949 -5.165736 0.9671683,-9.755693 -3.762883 1.102734,-9.703972 -2.92865 1.250466,-9.66615 -2.251367 1.36139,-10.26369 -5.201157 1.003391,-10.16618 -3.857532 1.078095,-10.11136 -3.059809 1.144929,-10.05529 -2.419166 1.210111,-10.62816 -5.449453 1.039664,-10.68035 -4.406452 1.08734,-10.69415 -3.773788 1.153336,-10.66895 -3.18677 1.189172,0.200,DnF
-3.06136 -6.401034 3.420069,-3.872417 -5.879236 3.901544,-4.546247 -5.230857 4.28262,-5.009657 -4.560791 4.641054,-5.396711 -3.945258 5.036933,-4.090351 -3.21151 3.998945,-4.487055 -1.991315 4.40728,-4.697307 -1.381386 4.769597,-4.918897 -0.8953719 5.034362,-3.671261 -2.991851 3.993608,-3.94577 -1.552648 4.406118,-4.166222 -0.8774505 4.764683,-4.409678 -0.376359 5.053723,-3.275684 -3.087897 4.035549,-3.393497 -1.679706 4.417336,-3.584892 -1.007139 4.769813,-3.830046 -0.4828877 5.026956,-2.86399 -3.442565 4.107677,-2.841922 -2.428415 4.45246,-2.90621 -1.79363 4.695677,-3.045265 -1.198665 4.913522,-10.21773 -7.961509 0.6977401,-9.565854 -7.704257 0.7965164,-9.075993 -7.11695 0.983097,-8.760993 -6.478603 1.194155,-8.480921 -6.068034 1.385547,-9.495869 -5.390163 0.9236868,-9.301653 -4.152263 1.067044,-9.243197 -3.428541 1.187208,-9.197298 -2.831923 1.253229,-9.884949 -5.165736 0.9671683,-9.755693 -3.762883 1.102734,-9.703972 -2.92865 1.250466,-9.66615 -2.251367 1.36139,-10.26369 -5.201157 1.003391,-10.16618 -3.857532 1.078095,-10.11136 -3.059809 1.144929,-10.05529 -2.419166 1.210111,-10.62816 -5.449453 1.039664,-10.68035 -4.406452 1.08734,-10.69415 -3.773788 1.153336,-10.66895 -3.18677 1.189172,0.220,DnF
-2.794876 -6.42583 2.89114,-3.590598 -5.915374 3.342087,-4.270006 -5.183691 3.658453,-4.776159 -4.49332 3.946624,-5.249123 -4.073148 4.296376,-3.803944 -3.386943 3.392376,-4.107508 -2.124022 3.668487,-4.312967 -1.461544 3.930985,-4.560668 -0.9204955 4.137835,-3.379686 -3.152564 3.368952,-3.626993 -1.718072 3.667268,-3.831993 -0.9513602 3.990463,-4.087506 -0.3945994 4.289633,-2.976539 -3.237739 3.403828,-3.133476 -1.867365 3.676784,-3.332937 -1.108554 4.011331,-3.603315 -0.5456977 4.293067,-2.567379 -3.581518 3.48043,-2.511844 -2.61767 3.75072,-2.568077 -1.989562 3.972795,-2.700147 -1.405108 4.186749,-10.19681 -7.975951 0.7838979,-9.542904 -7.727141 0.891675,-9.056752 -7.125513 1.07454,-8.743702 -6.489362 1.288778,-8.471575 -6.087607 1.482682,-9.483057 -5.371082 0.9552633,-9.307833 -4.143957 1.087829,-9.246563 -3.414148 1.220893,-9.19149 -2.808168 1.308369,-9.867857 -5.150363 1.001825,-9.750922 -3.769046 1.116913,-9.689713 -2.939701 1.275454,-9.637394 -2.265964 1.395634,-10.24416 -5.184749 1.048004,-10.15237 -3.859295 1.117511,-10.08976 -3.05907 1.205767,-10.02022 -2.412916 1.283865,-10.60985 -5.435009 1.097915,-10.6675 -4.394869 1.1572,-10.67884 -3.750013 1.24216,-10.64697 -3.152681 1.288123,0.240,DnF
-2.794876 -6.42583 2.89114,-3.590598 -5.915374 3.342087,-4.270006 -5.183691 3.658453,-4.776159 -4.49332 3.946624,-5.249123 -4.073148 4.296376,-3.803944 -3.386943 3.392376,-4.107508 -2.124022 3.668487,-4.312967 -1.461544 3.930985,-4.560668 -0.9204955 4.137835,-3.379686 -3.152564 3.368952,-3.626993 -1.718072 3.667268,-3.831993 -0.9513602 3.990463,-4.087506 -0.3945994 4.289633,-2.976539 -3.237739 3.403828,-3.133476 -1.867365 3.676784,-3.332937 -1.108554 4.011331,-3.603315 -0.5456977 4.293067,-2.567379 -3.581518 3.48043,-2.511844 -2.61767 3.75072,-2.568077 -1.989562 3.972795,-2.700147 -1.405108 4.186749,-10.19681 -7.975951 0.7838979,-9.542904 -7.727141 0.891675,-9.056752 -7.125513 1.07454,-8.743702 -6.489362 1.288778,-8.471575 -6.087607 1.482682,-9.483057 -5.371082 0.9552633,-9.307833 -4.143957 1.087829,-9.246563 -3.414148 1.220893,-9.19149 -2.808168 1.308369,-9.867857 -5.150363 1.001825,-9.750922 -3.769046 1.116913,-9.689713 -2.939701 1.275454,-9.637394 -2.265964 1.395634,-10.24416 -5.184749 1.048004,-10.15237 -3.859295 1.117511,-10.08976 -3.05907 1.205767,-10.02022 -2.412916 1.283865,-10.60985 -5.435009 1.097915,-10.6675 -4.394869 1.1572,-10.67884 -3.750013 1.24216,-10.64697 -3.152681 1.288123,0.260,DnF
-2.794876 -6.42583 2.89114,-3.590598 -5.915374 3.342087,-4.270006 -5.183691 3.658453,-4.776159 -4.49332 3.946624,-5.249123 -4.073148 4.296376,-3.803944 -3.386943 3.392376,-4.107508 -2.124022 3.668487,-4.312967 -1.461544 3.930985,-4.560668 -0.9204955 4.137835,-3.379686 -3.152564 3.368952,-3.626993 -1.718072 3.667268,-3.831993 -0.9513602 3.990463,-4.087506 -0.3945994 4.289633,-2.976539 -3.237739 3.403828,-3.133476 -1.867365 3.676784,-3.332937 -1.108554 4.011331,-3.603315 -0.5456977 4.293067,-2.567379 -3.581518 3.48043,-2.511844 -2.61767 3.75072,-2.568077 -1.989562 3.972795,-2.700147 -1.405108 4.186749,-10.19681 -7.975951 0.7838979,-9.542904 -7.727141 0.891675,-9.056752 -7.125513 1.07454,-8.743702 -6.489362 1.288778,-8.471575 -6.087607 1.482682,-9.483057 -5.371082 0.9552633,-9.307833 -4.143957 1.087829,-9.246563 -3.414148 1.220893,-9.19149 -2.808168 1.308369,-9.867857 -5.150363 1.001825,-9.750922 -3.769046 1.116913,-9.689713 -2.939701 1.275454,-9.637394 -2.265964 1.395634,-10.24416 -5.184749 1.048004,-10.15237 -3.859295 1.117511,-10.08976 -3.05907 1.205767,-10.02022 -2.412916 1.283865,-10.60985 -5.435009 1.097915,-10.6675 -4.394869 1.1572,-10.67884 -3.750013 1.24216,-10.64697 -3.152681 1.288123,0.280,DnF
-2.508018 -6.547611 2.431384,-3.303368 -6.149311 2.885062,-3.994919 -5.392154 3.179582,-4.496392 -4.698619 3.434207,-4.994276 -4.271732 3.752628,-3.547062 -3.659666 2.921696,-3.8402 -2.414114 3.175401,-4.019026 -1.776 3.416519,-4.218456 -1.256752 3.612612,-3.110321 -3.407251 2.872365,-3.334702 -1.999725 3.132459,-3.503813 -1.27236 3.400643,-3.712651 -0.739244 3.643753,-2.695646 -3.479841 2.88893,-2.825065 -2.15079 3.145238,-2.983467 -1.424817 3.448563,-3.195721 -0.8605895 3.702075,-2.280114 -3.80945 2.946392,-2.222899 -2.875251 3.214312,-2.266573 -2.278917 3.430596,-2.377148 -1.724885 3.63625,-10.19968 -7.945923 0.7118304,-9.540988 -7.6867 0.8194001,-9.048199 -7.113809 1.010685,-8.725267 -6.492086 1.226695,-8.448825 -6.097642 1.427263,-9.478334 -5.362726 0.9174668,-9.292511 -4.122879 1.053461,-9.232929 -3.389744 1.179762,-9.18042 -2.788835 1.258171,-9.865298 -5.143462 0.9507582,-9.740089 -3.756673 1.078486,-9.687768 -2.925045 1.228576,-9.642857 -2.251091 1.343042,-10.23777 -5.176254 0.9799345,-10.14126 -3.854785 1.048729,-10.08629 -3.062542 1.115431,-10.02515 -2.42275 1.177817,-10.59532 -5.41959 1.007689,-10.64457 -4.389992 1.058703,-10.65596 -3.758721 1.122667,-10.62672 -3.175609 1.154861,0.300,DnF
-2.508018 -6.547611 2.431384,-3.303368 -6.149311 2.885062,-3.994919 -5.392154 3.179582,-4.496392 -4.698619 3.434207,-4.994276 -4.271732 3.752628,-3.547062 -3.659666 2.921696,-3.8402 -2.414114 3.175401,-4.019026 -1.776 3.416519,-4.218456 -1.256752 3.612612,-3.110321 -3.407251 2.872365,-3.334702 -1.999725 3.132459,-3.503813 -1.27236 3.400643,-3.712651 -0.739244 3.643753,-2.695646 -3.479841 2.88893,-2.825065 -2.15079 3.145238,-2.983467 -1.424817 3.448563,-3.195721 -0.8605895 3.702075,-2.280114 -3.80945 2.946392,-2.222899 -2.875251 3.214312,-2.266573 -2.278917 3.430596,-2.377148 -1.724885 3.63625,-10.19968 -7.945923 0.7118304,-9.540988 -7.6867 0.8194001,-9.048199 -7.113809 1.010685,-8.725267 -6.492086 1.226695,-8.448825 -6.097642 1.427263,-9.478334 -5.362726 0.9174668,-9.292511 -4.122879 1.053461,-9.232929 -3.389744 1.179762,-9.18042 -2.788835 1.258171,-9.865298 -5.143462 0.9507582,-9.740089 -3.756673 1.078486,-9.687768 -2.925045 1.228576,-9.642857 -2.251091 1.343042,-10.23777 -5.176254 0.9799345,-10.14126 -3.854785 1.048729,-10.08629 -3.062542 1.115431,-10.02515 -2.42275 1.177817,-10.59532 -5.41959 1.007689,-10.64457 -4.389992 1.058703,-10.65596 -3.758721 1.122667,-10.62672 -3.175609 1.154861,0.320,DnF
-2.508018 -6.547611 2.431384,-3.303368 -6.149311 2.885062,-3.994919 -5.392154 3.179582,-4.496392 -4.698619 3.434207,-4.994276 -4.271732 3.752628,-3.547062 -3.659666 2.921696,-3.8402 -2.414114 3.175401,-4.019026 -1.776 3.416519,-4.218456 -1.256752 3.612612,-3.110321 -3.407251 2.872365,-3.334702 -1.999725 3.132459,-3.503813 -1.27236 3.400643,-3.712651 -0.739244 3.643753,-2.695646 -3.479841 2.88893,-2.825065 -2.15079 3.145238,-2.983467 -1.424817 3.448563,-3.195721 -0.8605895 3.702075,-2.280114 -3.80945 2.946392,-2.222899 -2.875251 3.214312,-2.266573 -2.278917 3.430596,-2.377148 -1.724885 3.63625,-10.19968 -7.945923 0.7118304,-9.540988 -7.6867 0.8194001,-9.048199 -7.113809 1.010685,-8.725267 -6.492086 1.226695,-8.448825 -6.097642 1.427263,-9.478334 -5.362726 0.9174668,-9.292511 -4.122879 1.053461,-9.232929 -3.389744 1.179762,-9.18042 -2.788835 1.258171,-9.865298 -5.143462 0.9507582,-9.740089 -3.756673 1.078486,-9.687768 -2.925045 1.228576,-9.642857 -2.251091 1.343042,-10.23777 -5.176254 0.9799345,-10.14126 -3.854785 1.048729,-10.08629 -3.062542 1.115431,-10.02515 -2.42275 1.177817,-10.59532 -5.41959 1.007689,-10.64457 -4.389992 1.058703,-10.65596 -3.758721 1.122667,-10.62672 -3.175609 1.154861,0.340,DnF
-2.304574 -6.686961 2.04447,-3.063293 -6.37841 2.539572,-3.72478 -5.690908 2.85124,-4.189833 -5.034919 3.113713,-4.654428 -4.579014 3.431174,-3.314483 -3.906222 2.650117,-3.575737 -2.729842 2.994541,-3.703087 -2.133091 3.253589,-3.846785 -1.600118 3.461143,-2.874701 -3.677288 2.623415,-3.038073 -2.372968 2.96452,-3.138052 -1.730965 3.228666,-3.262393 -1.18913 3.464993,-2.454299 -3.781091 2.660971,-2.518729 -2.553785 3.004685,-2.598785 -1.91502 3.339089,-2.716152 -1.363782 3.61275,-2.032502 -4.12804 2.735665,-1.940248 -3.248976 3.092337,-1.936949 -2.725815 3.380503,-1.988311 -2.24625 3.63146,-10.16739 -7.957202 0.6911035,-9.51068 -7.73245 0.7752986,-9.028833 -7.141887 0.9462411,-8.716046 -6.513413 1.153603,-8.445318 -6.110437 1.341393,-9.454738 -5.370882 0.8144149,-9.269448 -4.126169 0.9342107,-9.205287 -3.393593 1.064619,-9.151556 -2.781791 1.153626,-9.840452 -5.155342 0.8696138,-9.71121 -3.754783 0.9752541,-9.648927 -2.918386 1.130207,-9.599546 -2.239582 1.249574,-10.21733 -5.192852 0.9219619,-10.11668 -3.839349 0.9847192,-10.05223 -3.023075 1.077006,-9.986286 -2.358831 1.159778,-10.58437 -5.443433 0.9740069,-10.634 -4.375129 1.032432,-10.65596 -3.758721 1.101941,-10.62672 -3.175609 1.134135,0.360,DnF
-2.304574 -6.686961 2.04447,-3.063293 -6.37841 2.539572,-3.72478 -5.690908 2.85124,-4.189833 -5.034919 3.113713,-4.654428 -4.579014 3.431174,-3.314483 -3.906222 2.650117,-3.575737 -2.729842 2.994541,-3.703087 -2.133091 3.253589,-3.846785 -1.600118 3.461143,-2.874701 -3.677288 2.623415,-3.038073 -2.372968 2.96452,-3.138052 -1.730965 3.228666,-3.262393 -1.18913 3.464993,-2.454299 -3.781091 2.660971,-2.518729 -2.553785 3.004685,-2.598785 -1.91502 3.339089,-2.716152 -1.363782 3.61275,-2.032502 -4.12804 2.735665,-1.940248 -3.248976 3.092337,-1.936949 -2.725815 3.380503,-1.988311 -2.24625 3.63146,-10.16739 -7.957202 0.6911035,-9.51068 -7.73245 0.7752986,-9.028833 -7.141887 0.9462411,-8.716046 -6.513413 1.153603,-8.445318 -6.110437 1.341393,-9.454738 -5.370882 0.8144149,-9.269448 -4.126169 0.9342107,-9.205287 -3.393593 1.064619,-9.151556 -2.781791 1.153626,-9.840452 -5.155342 0.8696138,-9.71121 -3.754783 0.9752541,-9.648927 -2.918386 1.130207,-9.599546 -2.239582 1.249574,-10.21733 -5.192852 0.9219619,-10.11668 -3.839349 0.9847192,-10.05223 -3.023075 1.077006,-9.986286 -2.358831 1.159778,-10.58437 -5.443433 0.9740069,-10.634 -4.375129 1.032432,-10.63679 -3.714511 1.12206,-10.59923 -3.106115 1.174684,0.380,DnF
-2.304574 -6.686961 2.04447,-3.063293 -6.37841 2.539572,-3.72478 -5.690908 2.85124,-4.189833 -5.034919 3.113713,-4.654428 -4.579014 3.431174,-3.314483 -3.906222 2.650117,-3.575737 -2.729842 2.994541,-3.703087 -2.133091 3.253589,-3.846785 -1.600118 3.461143,-2.874701 -3.677288 2.623415,-3.038073 -2.372968 2.96452,-3.138052 -1.730965 3.228666,-3.262393 -1.18913 3.464993,-2.454299 -3.781091 2.660971,-2.518729 -2.553785 3.004685,-2.598785 -1.91502 3.339089,-2.716152 -1.363782 3.61275,-2.032502 -4.12804 2.735665,-1.940248 -3.248976 3.092337,-1.936949 -2.725815 3.380503,-1.988311 -2.24625 3.63146,-10.16739 -7.957202 0.6911035,-9.51068 -7.73245 0.7752986,-9.028833 -7.141887 0.9462411,-8.716046 -6.513413 1.153603,-8.445318 -6.110437 1.341393,-9.454738 -5.370882 0.8144149,-9.269448 -4.126169 0.9342107,-9.205287 -3.393593 1.064619,-9.151556 -2.781791 1.153626,-9.840452 -5.155342 0.8696138,-9.71121 -3.754783 0.9752541,-9.648927 -2.918386 1.130207,-9.599546 -2.239582 1.249574,-10.21733 -5.192852 0.9219619,-10.11668 -3.839349 0.9847192,-10.05223 -3.023075 1.077006,-9.986286 -2.358831 1.159778,-10.58437 -5.443433 0.9740069,-10.634 -4.375129 1.032432,-10.63679 -3.714511 1.12206,-10.59923 -3.106115 1.174684,0.400,DnF
-2.304574 -6.686961 2.04447,-3.063293 -6.37841 2.539572,-3.72478 -5.690908 2.85124,-4.189833 -5.034919 3.113713,-4.654428 -4.579014 3.431174,-3.314483 -3.906222 2.650117,-3.575737 -2.729842 2.994541,-3.703087 -2.133091 3.253589,-3.846785 -1.600118 3.461143,-2.874701 -3.677288 2.623415,-3.038073 -2.372968 2.96452,-3.138052 -1.730965 3.228666,-3.262393 -1.18913 3.464993,-2.454299 -3.781091 2.660971,-2.518729 -2.553785 3.004685,-2.598785 -1.91502 3.339089,-2.716152 -1.363782 3.61275,-2.032502 -4.12804 2.735665,-1.940248 -3.248976 3.092337,-1.936949 -2.725815 3.380503,-1.988311 -2.24625 3.63146,-10.16739 -7.957202 0.6911035,-9.51068 -7.73245 0.7752986,-9.028833 -7.141887 0.9462411,-8.716046 -6.513413 1.153603,-8.445318 -6.110437 1.341393,-9.454738 -5.370882 0.8144149,-9.269448 -4.126169 0.9342107,-9.205287 -3.393593 1.064619,-9.151556 -2.781791 1.153626,-9.840452 -5.155342 0.8696138,-9.71121 -3.754783 0.9752541,-9.648927 -2.918386 1.130207,-9.599546 -2.239582 1.249574,-10.21733 -5.192852 0.9219619,-10.11668 -3.839349 0.9847192,-10.05223 -3.023075 1.077006,-9.986286 -2.358831 1.159778,-10.58437 -5.443433 0.9740069,-10.634 -4.375129 1.032432,-10.63679 -3.714511 1.12206,-10.59923 -3.106115 1.174684,0.420,DnF
-2.274092 -6.966373 1.904828,-2.935884 -6.735588 2.535001,-3.507372 -6.0721 2.895225,-3.883789 -5.432107 3.203335,-4.257212 -4.945764 3.545329,-3.120791 -4.217432 2.595533,-3.336584 -3.076906 2.961843,-3.412783 -2.484084 3.242915,-3.495344 -1.928655 3.473308,-2.677091 -3.979481 2.527394,-2.775696 -2.755736 2.871164,-2.824399 -2.109477 3.145557,-2.88898 -1.571105 3.383915,-2.268146 -4.100067 2.530782,-2.283963 -2.960584 2.884406,-2.310812 -2.354852 3.224803,-2.36601 -1.84258 3.500396,-1.862804 -4.487242 2.589125,-1.732209 -3.666241 2.98882,-1.687142 -3.20733 3.300312,-1.70562 -2.820689 3.570195,-10.15768 -7.965703 0.7167892,-9.508327 -7.726315 0.8638039,-9.018484 -7.148549 1.068775,-8.699995 -6.53137 1.303359,-8.419567 -6.128105 1.518785,-9.443871 -5.380485 0.9135249,-9.246999 -4.143612 1.072544,-9.174622 -3.41538 1.22349,-9.115434 -2.807538 1.316865,-9.828821 -5.161613 0.961136,-9.704556 -3.764696 1.102923,-9.643688 -2.930742 1.283484,-9.595912 -2.247083 1.415669,-10.20083 -5.19752 1.011874,-10.10814 -3.863276 1.108322,-10.04973 -3.059791 1.216568,-9.990217 -2.398874 1.304802,-10.56061 -5.443622 1.069065,-10.61476 -4.394394 1.150615,-10.61732 -3.750488 1.248906,-10.58144 -3.148711 1.305873,0.440,DnF
-2.274092 -6.966373 1.904828,-2.935884 -6.735588 2.535001,-3.507372 -6.0721 2.895225,-3.883789 -5.432107 3.203335,-4.257212 -4.945764 3.545329,-3.120791 -4.217432 2.595533,-3.336584 -3.076906 2.961843,-3.412783 -2.484084 3.242915,-3.495344 -1.928655 3.473308,-2.677091 -3.979481 2.527394,-2.775696 -2.755736 2.871164,-2.824399 -2.109477 3.145557,-2.88898 -1.571105 3.383915,-2.268146 -4.100067 2.530782,-2.283963 -2.960584 2.884406,-2.310812 -2.354852 3.224803,-2.36601 -1.84258 3.500396,-1.862804 -4.487242 2.589125,-1.732209 -3.666241 2.98882,-1.687142 -3.20733 3.300312,-1.70562 -2.820689 3.570195,-10.15768 -7.965703 0.7167892,-9.508327 -7.726315 0.8638039,-9.018484 -7.148549 1.068775,-8.699995 -6.53137 1.303359,-8.419567 -6.128105 1.518785,-9.443871 -5.380485 0.9135249,-9.246999 -4.143612 1.072544,-9.174622 -3.41538 1.22349,-9.115434 -2.807538 1.316865,-9.828821 -5.161613 0.961136,-9.704556 -3.764696 1.102923,-9.643688 -2.930742 1.283484,-9.595912 -2.247083 1.415669,-10.20083 -5.19752 1.011874,-10.10814 -3.863276 1.108322,-10.04973 -3.059791 1.216568,-9.990217 -2.398874 1.304802,-10.56061 -5.443622 1.069065,-10.61476 -4.394394 1.150615,-10.61732 -3.750488 1.248906,-10.58144 -3.148711 1.305873,0.460,DnF
-2.274092 -6.966373 1.904828,-2.935884 -6.735588 2.535001,-3.507372 -6.0721 2.895225,-3.883789 -5.432107 3.203335,-4.257212 -4.945764 3.545329,-3.120791 -4.217432 2.595533,-3.336584 -3.076906 2.961843,-3.412783 -2.484084 3.242915,-3.495344 -1.928655 3.473308,-2.677091 -3.979481 2.527394,-2.775696 -2.755736 2.871164,-2.824399 -2.109477 3.145557,-2.88898 -1.571105 3.383915,-2.268146 -4.100067 2.530782,-2.283963 -2.960584 2.884406,-2.310812 -2.354852 3.224803,-2.36601 -1.84258 3.500396,-1.862804 -4.487242 2.589125,-1.732209 -3.666241 2.98882,-1.687142 -3.20733 3.300312,-1.70562 -2.820689 3.570195,-10.15768 -7.965703 0.7167892,-9.508327 -7.726315 0.8638039,-9.018484 -7.148549 1.068775,-8.699995 -6.53137 1.303359,-8.419567 -6.128105 1.518785,-9.443871 -5.380485 0.9135249,-9.246999 -4.143612 1.072544,-9.174622 -3.41538 1.22349,-9.115434 -2.807538 1.316865,-9.828821 -5.161613 0.961136,-9.704556 -3.764696 1.102923,-9.643688 -2.930742 1.283484,-9.595912 -2.247083 1.415669,-10.20083 -5.19752 1.011874,-10.10814 -3.863276 1.108322,-10.04973 -3.059791 1.216568,-9.990217 -2.398874 1.304802,-10.56061 -5.443622 1.069065,-10.61476 -4.394394 1.150615,-10.61732 -3.750488 1.248906,-10.58144 -3.148711 1.305873,0.480,DnF
-2.13454 -7.142978 1.513657,-2.816861 -6.989567 2.201897,-3.386373 -6.382085 2.606398,-3.771731 -5.801811 2.929208,-4.152655 -5.375491 3.280536,-2.967971 -4.511655 2.30544,-3.146597 -3.448814 2.698359,-3.200869 -2.862096 2.994534,-3.249411 -2.273523 3.225143,-2.513382 -4.28825 2.223411,-2.607803 -3.147101 2.566214,-2.66019 -2.509725 2.831229,-2.706978 -1.890977 3.075237,-2.092131 -4.427351 2.214486,-2.075738 -3.348155 2.543693,-2.092211 -2.758652 2.882827,-2.120052 -2.158804 3.175977,-1.687623 -4.823308 2.263491,-1.523531 -4.047671 2.618159,-1.463843 -3.571715 2.903214,-1.446753 -3.058797 3.167605,-10.1244 -7.963472 0.7865,-9.47927 -7.713281 0.9503523,-8.986988 -7.141092 1.182902,-8.675512 -6.523529 1.45165,-8.395073 -6.100318 1.705527,-9.409703 -5.360391 1.018392,-9.21151 -4.146377 1.209093,-9.141641 -3.433971 1.380352,-9.087648 -2.834407 1.480503,-9.795508 -5.144575 1.086186,-9.669683 -3.768706 1.251123,-9.609632 -2.944387 1.4382,-9.565098 -2.269742 1.573146,-10.17242 -5.187793 1.163091,-10.08158 -3.865609 1.281242,-10.02166 -3.071568 1.392181,-9.96056 -2.423793 1.48468,-10.54274 -5.444961 1.249581,-10.59289 -4.400655 1.350406,-10.59262 -3.750803 1.450742,-10.55289 -3.142635 1.510706,0.500,Object Dropped
-2.13454 -7.142978 1.513657,-2.816861 -6.989567 2.201897,-3.386373 -6.382085 2.606398,-3.771731 -5.801811 2.929208,-4.152655 -5.375491 3.280536,-2.967971 -4.511655 2.30544,-3.146597 -3.448814 2.698359,-3.200869 -2.862096 2.994534,-3.249411 -2.273523 3.225143,-2.513382 -4.28825 2.223411,-2.607803 -3.147101 2.566214,-2.66019 -2.509725 2.831229,-2.706978 -1.890977 3.075237,-2.092131 -4.427351 2.214486,-2.075738 -3.348155 2.543693,-2.092211 -2.758652 2.882827,-2.120052 -2.158804 3.175977,-1.687623 -4.823308 2.263491,-1.523531 -4.047671 2.618159,-1.463843 -3.571715 2.903214,-1.446753 -3.058797 3.167605,-10.1244 -7.963472 0.7865,-9.47927 -7.713281 0.9503523,-8.986988 -7.141092 1.182902,-8.675512 -6.523529 1.45165,-8.395073 -6.100318 1.705527,-9.409703 -5.360391 1.018392,-9.21151 -4.146377 1.209093,-9.141641 -3.433971 1.380352,-9.087648 -2.834407 1.480503,-9.795508 -5.144575 1.086186,-9.669683 -3.768706 1.251123,-9.609632 -2.944387 1.4382,-9.565098 -2.269742 1.573146,-10.17242 -5.187793 1.163091,-10.08158 -3.865609 1.281242,-10.02166 -3.071568 1.392181,-9.96056 -2.423793 1.48468,-10.54274 -5.444961 1.249581,-10.59289 -4.400655 1.350406,-10.59262 -3.750803 1.450742,-10.55289 -3.142635 1.510706,0.520,DnF
-2.13454 -7.142978 1.513657,-2.816861 -6.989567 2.201897,-3.386373 -6.382085 2.606398,-3.771731 -5.801811 2.929208,-4.152655 -5.375491 3.280536,-2.967971 -4.511655 2.30544,-3.146597 -3.448814 2.698359,-3.200869 -2.862096 2.994534,-3.249411 -2.273523 3.225143,-2.513382 -4.28825 2.223411,-2.607803 -3.147101 2.566214,-2.66019 -2.509725 2.831229,-2.706978 -1.890977 3.075237,-2.092131 -4.427351 2.214486,-2.075738 -3.348155 2.543693,-2.092211 -2.758652 2.882827,-2.120052 -2.158804 3.175977,-1.687623 -4.823308 2.263491,-1.523531 -4.047671 2.618159,-1.463843 -3.571715 2.903214,-1.446753 -3.058797 3.167605,-10.1244 -7.963472 0.7865,-9.47927 -7.713281 0.9503523,-8.986988 -7.141092 1.182902,-8.675512 -6.523529 1.45165,-8.395073 -6.100318 1.705527,-9.409703 -5.360391 1.018392,-9.21151 -4.146377 1.209093,-9.141641 -3.433971 1.380352,-9.087648 -2.834407 1.480503,-9.795508 -5.144575 1.086186,-9.669683 -3.768706 1.251123,-9.609632 -2.944387 1.4382,-9.565098 -2.269742 1.573146,-10.17242 -5.187793 1.163091,-10.08158 -3.865609 1.281242,-10.02166 -3.071568 1.392181,-9.96056 -2.423793 1.48468,-10.54274 -5.444961 1.249581,-10.59289 -4.400655 1.350406,-10.59262 -3.750803 1.450742,-10.55289 -3.142635 1.510706,0.540,DnF
-2.153289 -7.507108 1.87129,-2.769238 -7.250793 2.500828,-3.286964 -6.598485 2.850028,-3.613965 -6.001702 3.156808,-3.94048 -5.589665 3.502506,-2.888546 -4.681047 2.445028,-3.053507 -3.647415 2.785346,-3.096512 -3.079296 3.064309,-3.128418 -2.535226 3.301476,-2.445286 -4.493358 2.36593,-2.487847 -3.396998 2.652746,-2.489731 -2.751213 2.909911,-2.490283 -2.198978 3.151156,-2.038724 -4.663471 2.362302,-1.975297 -3.608871 2.664446,-1.961244 -2.999031 3.006169,-1.949372 -2.449801 3.271235,-1.6428 -5.101861 2.41221,-1.437188 -4.373849 2.742258,-1.328468 -3.911624 3.022286,-1.252224 -3.438859 3.275695,-10.12928 -7.990779 0.90335,-9.48844 -7.757465 1.131275,-8.984158 -7.168277 1.385605,-8.65759 -6.539907 1.671694,-8.360458 -6.112798 1.940716,-9.397619 -5.365226 1.183682,-9.213251 -4.187074 1.373592,-9.151673 -3.498865 1.553263,-9.104609 -2.912767 1.665315,-9.771436 -5.14475 1.23131,-9.64858 -3.788611 1.385695,-9.587396 -2.967952 1.581009,-9.538718 -2.279441 1.726312,-10.14064 -5.189102 1.295966,-10.05359 -3.886728 1.415432,-9.996259 -3.082265 1.551655,-9.934875 -2.416681 1.666414,-10.50838 -5.454794 1.376296,-10.56562 -4.418728 1.490814,-10.57158 -3.75616 1.610994,-10.54058 -3.138645 1.688062,0.560,DnF
-2.153289 -7.507108 1.87129,-2.769238 -7.250793 2.500828,-3.286964 -6.598485 2.850028,-3.613965 -6.001702 3.156808,-3.94048 -5.589665 3.502506,-2.888546 -4.681047 2.445028,-3.053507 -3.647415 2.785346,-3.096512 -3.079296 3.064309,-3.128418 -2.535226 3.301476,-2.445286 -4.493358 2.36593,-2.487847 -3.396998 2.652746,-2.489731 -2.751213 2.909911,-2.490283 -2.198978 3.151156,-2.038724 -4.663471 2.362302,-1.975297 -3.608871 2.664446,-1.961244 -2.999031 3.006169,-1.949372 -2.449801 3.271235,-1.6428 -5.101861 2.41221,-1.437188 -4.373849 2.742258,-1.328468 -3.911624 3.022286,-1.252224 -3.438859 3.275695,-10.12928 -7.990779 0.90335,-9.48844 -7.757465 1.131275,-8.984158 -7.168277 1.385605,-8.65759 -6.539907 1.671694,-8.360458 -6.112798 1.940716,-9.397619 -5.365226 1.183682,-9.213251 -4.187074 1.373592,-9.151673 -3.498865 1.553263,-9.104609 -2.912767 1.665315,-9.771436 -5.14475 1.23131,-9.64858 -3.788611 1.385695,-9.587396 -2.967952 1.581009,-9.538718 -2.279441 1.726312,-10.14064 -5.189102 1.295966,-10.05359 -3.886728 1.415432,-9.996259 -3.082265 1.551655,-9.934875 -2.416681 1.666414,-10.50838 -5.454794 1.376296,-10.56562 -4.418728 1.490814,-10.57158 -3.75616 1.610994,-10.54058 -3.138645 1.688062,0.580,DnF
-2.153289 -7.507108 1.87129,-2.769238 -7.250793 2.500828,-3.286964 -6.598485 2.850028,-3.613965 -6.001702 3.156808,-3.94048 -5.589665 3.502506,-2.888546 -4.681047 2.445028,-3.053507 -3.647415 2.785346,-3.096512 -3.079296 3.064309,-3.128418 -2.535226 3.301476,-2.445286 -4.493358 2.36593,-2.487847 -3.396998 2.652746,-2.489731 -2.751213 2.909911,-2.490283 -2.198978 3.151156,-2.038724 -4.663471 2.362302,-1.975297 -3.608871 2.664446,-1.961244 -2.999031 3.006169,-1.949372 -2.449801 3.271235,-1.6428 -5.101861 2.41221,-1.437188 -4.373849 2.742258,-1.328468 -3.911624 3.022286,-1.252224 -3.438859 3.275695,-10.12928 -7.990779 0.90335,-9.48844 -7.757465 1.131275,-8.984158 -7.168277 1.385605,-8.65759 -6.539907 1.671694,-8.360458 -6.112798 1.940716,-9.397619 -5.365226 1.183682,-9.213251 -4.187074 1.373592,-9.151673 -3.498865 1.553263,-9.104609 -2.912767 1.665315,-9.771436 -5.14475 1.23131,-9.64858 -3.788611 1.385695,-9.587396 -2.967952 1.581009,-9.538718 -2.279441 1.726312,-10.14064 -5.189102 1.295966,-10.05359 -3.886728 1.415432,-9.996259 -3.082265 1.551655,-9.934875 -2.416681 1.666414,-10.50838 -5.454794 1.376296,-10.56562 -4.418728 1.490814,-10.57158 -3.75616 1.610994,-10.54058 -3.138645 1.688062,0.600,DnF
-2.079218 -7.531719 1.670394,-2.681499 -7.334489 2.444167,-3.190718 -6.78623 2.871762,-3.520346 -6.279058 3.25002,-3.859112 -5.898113 3.69173,-2.866271 -4.807536 2.442148,-3.04427 -3.801078 2.824694,-3.103661 -3.21224 3.122903,-3.139729 -2.641153 3.363171,-2.420344 -4.607898 2.301895,-2.452355 -3.570015 2.597311,-2.454795 -2.944444 2.874858,-2.443316 -2.402683 3.136029,-2.014317 -4.766254 2.262889,-1.963987 -3.789941 2.564907,-1.958742 -3.224543 2.926487,-1.949185 -2.699775 3.219036,-1.624135 -5.192176 2.278052,-1.422654 -4.541595 2.620026,-1.305263 -4.122982 2.936938,-1.208301 -3.677625 3.22102,-10.12712 -7.981872 0.7103863,-9.472832 -7.762661 0.8124648,-8.972805 -7.182176 1.016073,-8.645778 -6.539834 1.250631,-8.358282 -6.116529 1.472116,-9.367341 -5.420574 0.9368919,-9.164215 -4.161422 1.097086,-9.101853 -3.432127 1.240605,-9.052207 -2.828223 1.335308,-9.756147 -5.189517 1.002598,-9.600924 -3.787359 1.157938,-9.536661 -2.944213 1.325622,-9.487965 -2.252742 1.450179,-10.14532 -5.215419 1.062761,-10.02201 -3.848052 1.164781,-9.95439 -3.025877 1.26104,-9.888998 -2.353323 1.34501,-10.53266 -5.460868 1.119848,-10.56903 -4.384079 1.207444,-10.5714 -3.720056 1.300598,-10.53772 -3.101583 1.362045,0.620,DnF
-2.079218 -7.531719 1.670394,-2.681499 -7.334489 2.444167,-3.190718 -6.78623 2.871762,-3.520346 -6.279058 3.25002,-3.859112 -5.898113 3.69173,-2.866271 -4.807536 2.442148,-3.04427 -3.801078 2.824694,-3.103661 -3.21224 3.122903,-3.139729 -2.641153 3.363171,-2.420344 -4.607898 2.301895,-2.452355 -3.570015 2.597311,-2.454795 -2.944444 2.874858,-2.443316 -2.402683 3.136029,-2.014317 -4.766254 2.262889,-1.963987 -3.789941 2.564907,-1.958742 -3.224543 2.926487,-1.949185 -2.699775 3.219036,-1.624135 -5.192176 2.278052,-1.422654 -4.541595 2.620026,-1.305263 -4.122982 2.936938,-1.208301 -3.677625 3.22102,-10.12712 -7.981872 0.7103863,-9.472832 -7.762661 0.8124648,-8.972805 -7.182176 1.016073,-8.645778 -6.539834 1.250631,-8.358282 -6.116529 1.472116,-9.367341 -5.420574 0.9368919,-9.164215 -4.161422 1.097086,-9.101853 -3.432127 1.240605,-9.052207 -2.828223 1.335308,-9.756147 -5.189517 1.002598,-9.600924 -3.787359 1.157938,-9.536661 -2.944213 1.325622,-9.487965 -2.252742 1.450179,-10.14532 -5.215419 1.062761,-10.02201 -3.848052 1.164781,-9.95439 -3.025877 1.26104,-9.888998 -2.353323 1.34501,-10.53266 -5.460868 1.119848,-10.56903 -4.384079 1.207444,-10.5714 -3.720056 1.300598,-10.53772 -3.101583 1.362045,0.640,Object Dropped
-2.079218 -7.531719 1.670394,-2.681499 -7.334489 2.444167,-3.190718 -6.78623 2.871762,-3.520346 -6.279058 3.25002,-3.859112 -5.898113 3.69173,-2.866271 -4.807536 2.442148,-3.04427 -3.801078 2.824694,-3.103661 -3.21224 3.122903,-3.139729 -2.641153 3.363171,-2.420344 -4.607898 2.301895,-2.452355 -3.570015 2.597311,-2.454795 -2.944444 2.874858,-2.443316 -2.402683 3.136029,-2.014317 -4.766254 2.262889,-1.963987 -3.789941 2.564907,-1.958742 -3.224543 2.926487,-1.949185 -2.699775 3.219036,-1.624135 -5.192176 2.278052,-1.422654 -4.541595 2.620026,-1.305263 -4.122982 2.936938,-1.208301 -3.677625 3.22102,-10.12712 -7.981872 0.7103863,-9.472832 -7.762661 0.8124648,-8.972805 -7.182176 1.016073,-8.645778 -6.539834 1.250631,-8.358282 -6.116529 1.472116,-9.367341 -5.420574 0.9368919,-9.164215 -4.161422 1.097086,-9.101853 -3.432127 1.240605,-9.052207 -2.828223 1.335308,-9.756147 -5.189517 1.002598,-9.600924 -3.787359 1.157938,-9.536661 -2.944213 1.325622,-9.487965 -2.252742 1.450179,-10.14532 -5.215419 1.062761,-10.02201 -3.848052 1.164781,-9.95439 -3.025877 1.26104,-9.888998 -2.353323 1.34501,-10.53266 -5.460868 1.119848,-10.56903 -4.384079 1.207444,-10.5714 -3.720056 1.300598,-10.53772 -3.101583 1.362045,0.660,DnF
-2.052652 -7.532161 1.346841,-2.664394 -7.408738 2.095835,-3.170467 -6.88611 2.479677,-3.494488 -6.386199 2.813521,-3.822287 -6.01919 3.193706,-2.852592 -4.895479 2.050119,-3.033788 -3.916969 2.413405,-3.095938 -3.322654 2.712815,-3.137578 -2.734382 2.959397,-2.411938 -4.691034 1.908032,-2.437454 -3.677444 2.182383,-2.436891 -3.049314 2.460511,-2.427024 -2.48756 2.712759,-2.007096 -4.840408 1.861923,-1.957689 -3.892632 2.133574,-1.944075 -3.325766 2.49141,-1.933138 -2.806777 2.771371,-1.616252 -5.253124 1.873744,-1.413854 -4.612064 2.184033,-1.299012 -4.210426 2.487829,-1.207295 -3.793542 2.748801,-10.12396 -7.99965 0.907951,-9.477061 -7.776636 1.085338,-8.970127 -7.194433 1.325816,-8.644452 -6.567264 1.603025,-8.353378 -6.134109 1.870401,-9.356285 -5.378954 1.129496,-9.163904 -4.171676 1.313911,-9.107368 -3.453433 1.484576,-9.061666 -2.850526 1.598765,-9.739736 -5.151632 1.198362,-9.601915 -3.799269 1.361796,-9.540812 -2.981171 1.553851,-9.494453 -2.296113 1.69249,-10.1247 -5.186245 1.282302,-10.01789 -3.86048 1.410937,-9.952875 -3.056968 1.545483,-9.888605 -2.391734 1.655092,-10.51591 -5.443162 1.374193,-10.56395 -4.394436 1.48889,-10.56993 -3.73822 1.610872,-10.53987 -3.116983 1.693656,0.680,DnF
-2.052652 -7.532161 1.346841,-2.664394 -7.408738 2.095835,-3.170467 -6.88611 2.479677,-3.494488 -6.386199 2.813521,-3.822287 -6.01919 3.193706,-2.852592 -4.895479 2.050119,-3.033788 -3.916969 2.413405,-3.095938 -3.322654 2.712815,-3.137578 -2.734382 2.959397,-2.411938 -4.691034 1.908032,-2.437454 -3.677444 2.182383,-2.436891 -3.049314 2.460511,-2.427024 -2.48756 2.712759,-2.007096 -4.840408 1.861923,-1.957689 -3.892632 2.133574,-1.944075 -3.325766 2.49141,-1.933138 -2.806777 2.771371,-1.616252 -5.253124 1.873744,-1.413854 -4.612064 2.184033,-1.299012 -4.210426 2.487829,-1.207295 -3.793542 2.748801,-10.12396 -7.99965 0.907951,-9.477061 -7.776636 1.085338,-8.970127 -7.194433 1.325816,-8.644452 -6.567264 1.603025,-8.353378 -6.134109 1.870401,-9.356285 -5.378954 1.129496,-9.163904 -4.171676 1.313911,-9.107368 -3.453433 1.484576,-9.061666 -2.850526 1.598765,-9.739736 -5.151632 1.198362,-9.601915 -3.799269 1.361796,-9.540812 -2.981171 1.553851,-9.494453 -2.296113 1.69249,-10.1247 -5.186245 1.282302,-10.01789 -3.86048 1.410937,-9.952875 -3.056968 1.545483,-9.888605 -2.391734 1.655092,-10.51591 -5.443162 1.374193,-10.56395 -4.394436 1.48889,-10.56993 -3.73822 1.610872,-10.53987 -3.116983 1.693656,0.700,DnF
-2.052652 -7.532161 1.346841,-2.664394 -7.408738 2.095835,-3.170467 -6.88611 2.479677,-3.494488 -6.386199 2.813521,-3.822287 -6.01919 3.193706,-2.852592 -4.895479 2.050119,-3.033788 -3.916969 2.413405,-3.095938 -3.322654 2.712815,-3.137578 -2.734382 2.959397,-2.411938 -4.691034 1.908032,-2.437454 -3.677444 2.182383,-2.436891 -3.049314 2.460511,-2.427024 -2.48756 2.712759,-2.007096 -4.840408 1.861923,-1.957689 -3.892632 2.133574,-1.944075 -3.325766 2.49141,-1.933138 -2.806777 2.771371,-1.616252 -5.253124 1.873744,-1.413854 -4.612064 2.184033,-1.299012 -4.210426 2.487829,-1.207295 -3.793542 2.748801,-10.12396 -7.99965 0.907951,-9.477061 -7.776636 1.085338,-8.970127 -7.194433 1.325816,-8.644452 -6.567264 1.603025,-8.353378 -6.134109 1.870401,-9.356285 -5.378954 1.129496,-9.163904 -4.171676 1.313911,-9.107368 -3.453433 1.484576,-9.061666 -2.850526 1.598765,-9.739736 -5.151632 1.198362,-9.601915 -3.799269 1.361796,-9.540812 -2.981171 1.553851,-9.494453 -2.296113 1.69249,-10.1247 -5.186245 1.282302,-10.01789 -3.86048 1.410937,-9.952875 -3.056968 1.545483,-9.888605 -2.391734 1.655092,-10.51591 -5.443162 1.374193,-10.56395 -4.394436 1.48889,-10.56993 -3.73822 1.610872,-10.53987 -3.116983 1.693656,0.720,DnF
-2.069386 -7.562271 1.321589,-2.676002 -7.40998 2.029929,-3.172346 -6.914751 2.396857,-3.48714 -6.430278 2.71941,-3.807362 -6.071637 3.089956,-2.856296 -4.91554 1.941866,-3.026554 -3.948185 2.27119,-3.08643 -3.35692 2.553106,-3.128267 -2.776401 2.792521,-2.417874 -4.712155 1.799953,-2.435778 -3.702673 2.015366,-2.437544 -3.076189 2.262984,-2.435125 -2.538879 2.486367,-2.012016 -4.853607 1.744382,-1.961072 -3.910303 1.950732,-1.946058 -3.356568 2.262494,-1.940363 -2.872855 2.505759,-1.619335 -5.254055 1.753336,-1.409631 -4.602765 2.003743,-1.294838 -4.193555 2.268193,-1.208731 -3.784932 2.494763,-10.13305 -8.027763 0.955461,-9.502612 -7.799831 1.196816,-8.995751 -7.204087 1.468902,-8.669094 -6.572679 1.767469,-8.373339 -6.140679 2.052612,-9.374989 -5.388433 1.276776,-9.165716 -4.199823 1.505844,-9.098517 -3.489829 1.7019,-9.045771 -2.87035 1.840852,-9.761025 -5.174922 1.335676,-9.618305 -3.852477 1.538963,-9.548566 -3.034958 1.770087,-9.489605 -2.333717 1.943364,-10.14546 -5.22167 1.415056,-10.04048 -3.915906 1.581719,-9.981614 -3.116066 1.754221,-9.920213 -2.441114 1.891445,-10.53712 -5.488082 1.503357,-10.60084 -4.446162 1.653237,-10.61674 -3.792318 1.804625,-10.59504 -3.167972 1.911066,0.740,DnF
-2.069386 -7.562271 1.321589,-2.676002 -7.40998 2.029929,-3.172346 -6.914751 2.396857,-3.48714 -6.430278 2.71941,-3.807362 -6.071637 3.089956,-2.856296 -4.91554 1.941866,-3.026554 -3.948185 2.27119,-3.08643 -3.35692 2.553106,-3.128267 -2.776401 2.792521,-2.417874 -4.712155 1.799953,-2.435778 -3.702673 2.015366,-2.437544 -3.076189 2.262984,-2.435125 -2.538879 2.486367,-2.012016 -4.853607 1.744382,-1.961072 -3.910303 1.950732,-1.946058 -3.356568 2.262494,-1.940363 -2.872855 2.505759,-1.619335 -5.254055 1.753336,-1.409631 -4.602765 2.003743,-1.294838 -4.193555 2.268193,-1.208731 -3.784932 2.494763,-10.13305 -8.027763 0.955461,-9.502612 -7.799831 1.196816,-8.995751 -7.204087 1.468902,-8.669094 -6.572679 1.767469,-8.373339 -6.140679 2.052612,-9.374989 -5.388433 1.276776,-9.165716 -4.199823 1.505844,-9.098517 -3.489829 1.7019,-9.045771 -2.87035 1.840852,-9.761025 -5.174922 1.335676,-9.618305 -3.852477 1.538963,-9.548566 -3.034958 1.770087,-9.489605 -2.333717 1.943364,-10.14546 -5.22167 1.415056,-10.04048 -3.915906 1.581719,-9.981614 -3.116066 1.754221,-9.920213 -2.441114 1.891445,-10.53712 -5.488082 1.503357,-10.60084 -4.446162 1.653237,-10.61674 -3.792318 1.804625,-10.59504 -3.167972 1.911066,0.760,DnF
-2.069386 -7.562271 1.321589,-2.676002 -7.40998 2.029929,-3.172346 -6.914751 2.396857,-3.48714 -6.430278 2.71941,-3.807362 -6.071637 3.089956,-2.856296 -4.91554 1.941866,-3.026554 -3.948185 2.27119,-3.08643 -3.35692 2.553106,-3.128267 -2.776401 2.792521,-2.417874 -4.712155 1.799953,-2.435778 -3.702673 2.015366,-2.437544 -3.076189 2.262984,-2.435125 -2.538879 2.486367,-2.012016 -4.853607 1.744382,-1.961072 -3.910303 1.950732,-1.946058 -3.356568 2.262494,-1.940363 -2.872855 2.505759,-1.619335 -5.254055 1.753336,-1.409631 -4.602765 2.003743,-1.294838 -4.193555 2.268193,-1.208731 -3.784932 2.494763,-10.13305 -8.027763 0.955461,-9.502612 -7.799831 1.196816,-8.995751 -7.204087 1.468902,-8.669094 -6.572679 1.767469,-8.373339 -6.140679 2.052612,-9.374989 -5.388433 1.276776,-9.165716 -4.199823 1.505844,-9.098517 -3.489829 1.7019,-9.045771 -2.87035 1.840852,-9.761025 -5.174922 1.335676,-9.618305 -3.852477 1.538963,-9.548566 -3.034958 1.770087,-9.489605 -2.333717 1.943364,-10.14546 -5.22167 1.415056,-10.04048 -3.915906 1.581719,-9.981614 -3.116066 1.754221,-9.920213 -2.441114 1.891445,-10.53712 -5.488082 1.503357,-10.60084 -4.446162 1.653237,-10.61674 -3.792318 1.804625,-10.59504 -3.167972 1.911066,0.780,DnF
-2.058973 -7.591297 1.400481,-2.67615 -7.451681 2.099726,-3.177855 -6.935512 2.466862,-3.487823 -6.437345 2.797042,-3.804079 -6.058411 3.174952,-2.851937 -4.898591 1.9958,-3.015554 -3.933551 2.319095,-3.078135 -3.351358 2.586725,-3.123116 -2.788667 2.81061,-2.413318 -4.716013 1.861241,-2.43933 -3.718666 2.071342,-2.446129 -3.106532 2.305478,-2.447887 -2.597473 2.519245,-2.008046 -4.876645 1.821342,-1.967176 -3.949436 2.025416,-1.969704 -3.405351 2.337012,-1.98032 -2.934318 2.579606,-1.613601 -5.293314 1.848451,-1.433546 -4.644997 2.097499,-1.346373 -4.226764 2.370425,-1.282588 -3.796985 2.609411,-10.16433 -8.053423 0.8576256,-9.516038 -7.835547 1.081398,-9.01363 -7.240678 1.336764,-8.692813 -6.612197 1.619912,-8.399794 -6.17132 1.888473,-9.392444 -5.439678 1.160129,-9.167233 -4.200012 1.388178,-9.099821 -3.457448 1.580993,-9.052578 -2.819236 1.713332,-9.786812 -5.226905 1.216069,-9.6385 -3.88487 1.425156,-9.577538 -3.044438 1.655025,-9.537116 -2.33589 1.82661,-10.18276 -5.278155 1.289235,-10.07145 -3.968585 1.447641,-10.01681 -3.156027 1.602832,-9.965865 -2.481752 1.735907,-10.58228 -5.548643 1.368331,-10.63938 -4.502206 1.501774,-10.65277 -3.847615 1.641072,-10.63093 -3.228004 1.745662,0.800,DnF
-2.058973 -7.591297 1.400481,-2.67615 -7.451681 2.099726,-3.177855 -6.935512 2.466862,-3.487823 -6.437345 2.797042,-3.804079 -6.058411 3.174952,-2.851937 -4.898591 1.9958,-3.015554 -3.933551 2.319095,-3.078135 -3.351358 2.586725,-3.123116 -2.788667 2.81061,-2.413318 -4.716013 1.861241,-2.43933 -3.718666 2.071342,-2.446129 -3.106532 2.305478,-2.447887 -2.597473 2.519245,-2.008046 -4.876645 1.821342,-1.967176 -3.949436 2.025416,-1.969704 -3.405351 2.337012,-1.98032 -2.934318 2.579606,-1.613601 -5.293314 1.848451,-1.433546 -4.644997 2.097499,-1.346373 -4.226764 2.370425,-1.282588 -3.796985 2.609411,-10.16433 -8.053423 0.8576256,-9.516038 -7.835547 1.081398,-9.01363 -7.240678 1.336764,-8.692813 -6.612197 1.619912,-8.399794 -6.17132 1.888473,-9.392444 -5.439678 1.160129,-9.167233 -4.200012 1.388178,-9.099821 -3.457448 1.580993,-9.052578 -2.819236 1.713332,-9.786812 -5.226905 1.216069,-9.6385 -3.88487 1.425156,-9.577538 -3.044438 1.655025,-9.537116 -2.33589 1.82661,-10.18276 -5.278155 1.289235,-10.07145 -3.968585 1.447641,-10.01681 -3.156027 1.602832,-9.965865 -2.481752 1.735907,-10.58228 -5.548643 1.368331,-10.63938 -4.502206 1.501774,-10.65277 -3.847615 1.641072,-10.63093 -3.228004 1.745662,0.820,DnF
-2.058973 -7.591297 1.400481,-2.67615 -7.451681 2.099726,-3.177855 -6.935512 2.466862,-3.487823 -6.437345 2.797042,-3.804079 -6.058411 3.174952,-2.851937 -4.898591 1.9958,-3.015554 -3.933551 2.319095,-3.078135 -3.351358 2.586725,-3.123116 -2.788667 2.81061,-2.413318 -4.716013 1.861241,-2.43933 -3.718666 2.071342,-2.446129 -3.106532 2.305478,-2.447887 -2.597473 2.519245,-2.008046 -4.876645 1.821342,-1.967176 -3.949436 2.025416,-1.969704 -3.405351 2.337012,-1.98032 -2.934318 2.579606,-1.613601 -5.293314 1.848451,-1.433546 -4.644997 2.097499,-1.346373 -4.226764 2.370425,-1.282588 -3.796985 2.609411,-10.16433 -8.053423 0.8576256,-9.516038 -7.835547 1.081398,-9.01363 -7.240678 1.336764,-8.692813 -6.612197 1.619912,-8.399794 -6.17132 1.888473,-9.392444 -5.439678 1.160129,-9.167233 -4.200012 1.388178,-9.099821 -3.457448 1.580993,-9.052578 -2.819236 1.713332,-9.786812 -5.226905 1.216069,-9.6385 -3.88487 1.425156,-9.577538 -3.044438 1.655025,-9.537116 -2.33589 1.82661,-10.18276 -5.278155 1.289235,-10.07145 -3.968585 1.447641,-10.01681 -3.156027 1.602832,-9.965865 -2.481752 1.735907,-10.58228 -5.548643 1.368331,-10.63938 -4.502206 1.501774,-10.65277 -3.847615 1.641072,-10.63093 -3.228004 1.745662,0.840,DnF
-2.068235 -7.524472 1.253713,-2.690012 -7.409512 1.933849,-3.18819 -6.895656 2.301078,-3.491978 -6.388223 2.638188,-3.804382 -5.986434 3.020854,-2.865218 -4.86668 1.815663,-3.027619 -3.909699 2.134056,-3.089886 -3.338544 2.406463,-3.138308 -2.816351 2.638289,-2.42954 -4.690813 1.702148,-2.462832 -3.70278 1.935349,-2.48 -3.11474 2.203517,-2.499893 -2.673772 2.440518,-2.02747 -4.86024 1.685824,-1.98525 -3.933971 1.918821,-1.989664 -3.423336 2.252597,-2.017187 -3.025014 2.51048,-1.635488 -5.288389 1.729053,-1.455197 -4.633748 2.019356,-1.377571 -4.253225 2.32421,-1.34367 -3.904609 2.574339,-10.12635 -8.117434 0.9693124,-9.511747 -7.878101 1.21963,-9.031668 -7.256925 1.479908,-8.738459 -6.625186 1.756874,-8.477752 -6.190162 2.02825,-9.442058 -5.434906 1.235314,-9.282716 -4.239509 1.410919,-9.260918 -3.5405 1.576464,-9.249964 -2.913791 1.699186,-9.829294 -5.242258 1.269099,-9.739067 -3.98771 1.412608,-9.720242 -3.240335 1.610989,-9.706921 -2.603204 1.755941,-10.20889 -5.300338 1.334368,-10.15859 -4.056852 1.454447,-10.15218 -3.320859 1.607862,-10.13641 -2.703715 1.737529,-10.5913 -5.575578 1.404015,-10.67464 -4.577794 1.502493,-10.71157 -3.967556 1.630541,-10.70972 -3.393027 1.720753,0.860,DnF
-2.068235 -7.524472 1.253713,-2.690012 -7.409512 1.933849,-3.18819 -6.895656 2.301078,-3.491978 -6.388223 2.638188,-3.804382 -5.986434 3.020854,-2.865218 -4.86668 1.815663,-3.027619 -3.909699 2.134056,-3.089886 -3.338544 2.406463,-3.138308 -2.816351 2.638289,-2.42954 -4.690813 1.702148,-2.462832 -3.70278 1.935349,-2.48 -3.11474 2.203517,-2.499893 -2.673772 2.440518,-2.02747 -4.86024 1.685824,-1.98525 -3.933971 1.918821,-1.989664 -3.423336 2.252597,-2.017187 -3.025014 2.51048,-1.635488 -5.288389 1.729053,-1.455197 -4.633748 2.019356,-1.377571 -4.253225 2.32421,-1.34367 -3.904609 2.574339,-10.12635 -8.117434 0.9693124,-9.511747 -7.878101 1.21963,-9.031668 -7.256925 1.479908,-8.738459 -6.625186 1.756874,-8.477752 -6.190162 2.02825,-9.442058 -5.434906 1.235314,-9.282716 -4.239509 1.410919,-9.260918 -3.5405 1.576464,-9.249964 -2.913791 1.699186,-9.829294 -5.242258 1.269099,-9.739067 -3.98771 1.412608,-9.720242 -3.240335 1.610989,-9.706921 -2.603204 1.755941,-10.20889 -5.300338 1.334368,-10.15859 -4.056852 1.454447,-10.15218 -3.320859 1.607862,-10.13641 -2.703715 1.737529,-10.5913 -5.575578 1.404015,-10.67464 -4.577794 1.502493,-10.71157 -3.967556 1.630541,-10.70972 -3.393027 1.720753,0.880,DnF
-2.068235 -7.524472 1.253713,-2.690012 -7.409512 1.933849,-3.18819 -6.895656 2.301078,-3.491978 -6.388223 2.638188,-3.804382 -5.986434 3.020854,-2.865218 -4.86668 1.815663,-3.027619 -3.909699 2.134056,-3.089886 -3.338544 2.406463,-3.138308 -2.816351 2.638289,-2.42954 -4.690813 1.702148,-2.462832 -3.70278 1.935349,-2.48 -3.11474 2.203517,-2.499893 -2.673772 2.440518,-2.02747 -4.86024 1.685824,-1.98525 -3.933971 1.918821,-1.989664 -3.423336 2.252597,-2.017187 -3.025014 2.51048,-1.635488 -5.288389 1.729053,-1.455197 -4.633748 2.019356,-1.377571 -4.253225 2.32421,-1.34367 -3.904609 2.574339,-10.12635 -8.117434 0.9693124,-9.511747 -7.878101 1.21963,-9.031668 -7.256925 1.479908,-8.738459 -6.625186 1.756874,-8.477752 -6.190162 2.02825,-9.442058 -5.434906 1.235314,-9.282716 -4.239509 1.410919,-9.260918 -3.5405 1.576464,-9.249964 -2.913791 1.699186,-9.829294 -5.242258 1.269099,-9.739067 -3.98771 1.412608,-9.720242 -3.240335 1.610989,-9.706921 -2.603204 1.755941,-10.20889 -5.300338 1.334368,-10.15859 -4.056852 1.454447,-10.15218 -3.320859 1.607862,-10.13641 -2.703715 1.737529,-10.5913 -5.575578 1.404015,-10.67464 -4.577794 1.502493,-10.71157 -3.967556 1.630541,-10.70972 -3.393027 1.720753,0.900,DnF
-2.078156 -7.479906 1.142956,-2.7019 -7.366046 1.833766,-3.192862 -6.867166 2.208492,-3.48398 -6.361543 2.547837,-3.785828 -5.947155 2.935684,-2.873593 -4.844026 1.689864,-3.0222 -3.886114 2.01707,-3.082117 -3.333988 2.311903,-3.137584 -2.837795 2.552456,-2.436647 -4.676885 1.583101,-2.465218 -3.703054 1.840405,-2.479655 -3.117703 2.153617,-2.503491 -2.712139 2.439362,-2.030683 -4.859912 1.576528,-1.99542 -3.940477 1.840534,-1.996736 -3.437719 2.228833,-2.02059 -3.090824 2.529984,-1.629733 -5.294911 1.628031,-1.462501 -4.62828 1.963667,-1.395394 -4.264623 2.320221,-1.37438 -3.980577 2.608032,-10.12635 -8.117434 0.9693124,-9.511747 -7.878101 1.21963,-9.031668 -7.256925 1.479908,-8.738459 -6.625186 1.756874,-8.477752 -6.190162 2.02825,-9.442058 -5.434906 1.235314,-9.282716 -4.239509 1.410919,-9.260918 -3.5405 1.576464,-9.249964 -2.913791 1.699186,-9.829294 -5.242258 1.269099,-9.739067 -3.98771 1.412608,-9.720242 -3.240335 1.610989,-9.706921 -2.603204 1.755941,-10.20889 -5.300338 1.334368,-10.15859 -4.056852 1.454447,-10.15218 -3.320859 1.607862,-10.13641 -2.703715 1.737529,-10.5913 -5.575578 1.404015,-10.67464 -4.577794 1.502493,-10.71157 -3.967556 1.630541,-10.70972 -3.393027 1.720753,0.920,DnF
-2.078156 -7.479906 1.142956,-2.7019 -7.366046 1.833766,-3.192862 -6.867166 2.208492,-3.48398 -6.361543 2.547837,-3.785828 -5.947155 2.935684,-2.873593 -4.844026 1.689864,-3.0222 -3.886114 2.01707,-3.082117 -3.333988 2.311903,-3.137584 -2.837795 2.552456,-2.436647 -4.676885 1.583101,-2.465218 -3.703054 1.840405,-2.479655 -3.117703 2.153617,-2.503491 -2.712139 2.439362,-2.030683 -4.859912 1.576528,-1.99542 -3.940477 1.840534,-1.996736 -3.437719 2.228833,-2.02059 -3.090824 2.529984,-1.629733 -5.294911 1.628031,-1.462501 -4.62828 1.963667,-1.395394 -4.264623 2.320221,-1.37438 -3.980577 2.608032,-10.10337 -8.067123 0.917367,-9.506842 -7.791898 1.168345,-9.04909 -7.172042 1.418131,-8.778019 -6.576744 1.700512,-8.519058 -6.154697 1.977466,-9.469864 -5.387569 1.118155,-9.311463 -4.314213 1.303296,-9.293198 -3.705677 1.500295,-9.291362 -3.152302 1.641498,-9.842356 -5.199872 1.181259,-9.767904 -4.009765 1.300784,-9.759393 -3.341597 1.504891,-9.759181 -2.758945 1.655717,-10.19969 -5.256374 1.287695,-10.18004 -4.078702 1.38394,-10.18303 -3.403898 1.544019,-10.18013 -2.829091 1.681292,-10.55714 -5.52876 1.416197,-10.65108 -4.606759 1.491998,-10.68395 -4.022497 1.593835,-10.68802 -3.468091 1.665249,0.940,DnF
-2.078156 -7.479906 1.142956,-2.7019 -7.366046 1.833766,-3.192862 -6.867166 2.208492,-3.48398 -6.361543 2.547837,-3.785828 -5.947155 2.935684,-2.873593 -4.844026 1.689864,-3.0222 -3.886114 2.01707,-3.082117 -3.333988 2.311903,-3.137584 -2.837795 2.552456,-2.436647 -4.676885 1.583101,-2.465218 -3.703054 1.840405,-2.479655 -3.117703 2.153617,-2.503491 -2.712139 2.439362,-2.030683 -4.859912 1.576528,-1.99542 -3.940477 1.840534,-1.996736 -3.437719 2.228833,-2.02059 -3.090824 2.529984,-1.629733 -5.294911 1.628031,-1.462501 -4.62828 1.963667,-1.395394 -4.264623 2.320221,-1.37438 -3.980577 2.608032,-10.10337 -8.067123 0.917367,-9.506842 -7.791898 1.168345,-9.04909 -7.172042 1.418131,-8.778019 -6.576744 1.700512,-8.519058 -6.154697 1.977466,-9.469864 -5.387569 1.118155,-9.311463 -4.314213 1.303296,-9.293198 -3.705677 1.500295,-9.291362 -3.152302 1.641498,-9.842356 -5.199872 1.181259,-9.767904 -4.009765 1.300784,-9.759393 -3.341597 1.504891,-9.759181 -2.758945 1.655717,-10.19969 -5.256374 1.287695,-10.18004 -4.078702 1.38394,-10.18303 -3.403898 1.544019,-10.18013 -2.829091 1.681292,-10.55714 -5.52876 1.416197,-10.65108 -4.606759 1.491998,-10.68395 -4.022497 1.593835,-10.68802 -3.468091 1.665249,0.960,DnF
-2.088456 -7.455581 1.123818,-2.705458 -7.376525 1.871303,-3.182581 -6.880507 2.298211,-3.455248 -6.39999 2.687606,-3.750423 -5.964965 3.131093,-2.893851 -4.845071 1.760004,-3.04191 -3.893909 2.149125,-3.102356 -3.344268 2.496095,-3.153882 -2.865876 2.766213,-2.458476 -4.676137 1.658427,-2.495704 -3.723979 1.993496,-2.520921 -3.148157 2.38683,-2.554034 -2.786817 2.729537,-2.030683 -4.859912 1.557457,-1.99542 -3.940477 1.821463,-1.996736 -3.437719 2.209762,-2.02059 -3.090824 2.510913,-1.629733 -5.294911 1.60896,-1.462501 -4.62828 1.944596,-1.395394 -4.264623 2.30115,-1.37438 -3.980577 2.588961,-10.10337 -8.067123 0.917367,-9.506842 -7.791898 1.168345,-9.04909 -7.172042 1.418131,-8.778019 -6.576744 1.700512,-8.519058 -6.154697 1.977466,-9.469864 -5.387569 1.118155,-9.311463 -4.314213 1.303296,-9.293198 -3.705677 1.500295,-9.291362 -3.152302 1.641498,-9.842356 -5.199872 1.181259,-9.767904 -4.009765 1.300784,-9.759393 -3.341597 1.504891,-9.759181 -2.758945 1.655717,-10.19969 -5.256374 1.287695,-10.18004 -4.078702 1.38394,-10.18303 -3.403898 1.544019,-10.18013 -2.829091 1.681292,-10.55714 -5.52876 1.416197,-10.65108 -4.606759 1.491998,-10.68395 -4.022497 1.593835,-10.68802 -3.468091 1.665249,0.980,DnF
-2.088456 -7.455581 1.123818,-2.705458 -7.376525 1.871303,-3.182581 -6.880507 2.298211,-3.455248 -6.39999 2.687606,-3.750423 -5.964965 3.131093,-2.893851 -4.845071 1.760004,-3.04191 -3.893909 2.149125,-3.102356 -3.344268 2.496095,-3.153882 -2.865876 2.766213,-2.458476 -4.676137 1.658427,-2.495704 -3.723979 1.993496,-2.520921 -3.148157 2.38683,-2.554034 -2.786817 2.729537,-2.050236 -4.848074 1.667981,-2.026414 -3.941417 1.990263,-2.032505 -3.47185 2.435544,-2.062785 -3.194582 2.778588,-1.644911 -5.268779 1.737566,-1.484264 -4.566999 2.136214,-1.441201 -4.236183 2.542787,-1.453339 -4.057078 2.861479,-10.13916 -7.910312 0.6358247,-9.526514 -7.734615 0.7610711,-9.067904 -7.144348 0.9367311,-8.801316 -6.550323 1.12764,-8.576111 -6.124065 1.309296,-9.489315 -5.328697 0.7163523,-9.355849 -4.266323 0.7978061,-9.371429 -3.737376 0.8900359,-9.416634 -3.361757 0.948262,-9.875383 -5.114645 0.7578748,-9.795183 -3.930731 0.7764344,-9.807211 -3.356094 0.8482524,-9.846985 -2.952789 0.886143,-10.24915 -5.167974 0.8352388,-10.232 -3.988264 0.8480211,-10.24417 -3.368392 0.9090958,-10.26844 -2.905361 0.9640809,-10.6147 -5.446405 0.9107008,-10.70116 -4.551794 0.9017797,-10.72626 -4.008249 0.9389172,-10.73137 -3.536953 0.9452856,1.000,DnF
-2.088456 -7.455581 1.123818,-2.705458 -7.376525 1.871303,-3.182581 -6.880507 2.298211,-3.455248 -6.39999 2.687606,-3.750423 -5.964965 3.131093,-2.893851 -4.845071 1.760004,-3.04191 -3.893909 2.149125,-3.102356 -3.344268 2.496095,-3.153882 -2.865876 2.766213,-2.458476 -4.676137 1.658427,-2.495704 -3.723979 1.993496,-2.520921 -3.148157 2.38683,-2.554034 -2.786817 2.729537,-2.050236 -4.848074 1.667981,-2.026414 -3.941417 1.990263,-2.032505 -3.47185 2.435544,-2.062785 -3.194582 2.778588,-1.644911 -5.268779 1.737566,-1.484264 -4.566999 2.136214,-1.441201 -4.236183 2.542787,-1.453339 -4.057078 2.861479,-10.13916 -7.910312 0.6358247,-9.526514 -7.734615 0.7610711,-9.067904 -7.144348 0.9367311,-8.801316 -6.550323 1.12764,-8.576111 -6.124065 1.309296,-9.489315 -5.328697 0.7163523,-9.355849 -4.266323 0.7978061,-9.371429 -3.737376 0.8900359,-9.416634 -3.361757 0.948262,-9.875383 -5.114645 0.7578748,-9.795183 -3.930731 0.7764344,-9.807211 -3.356094 0.8482524,-9.846985 -2.952789 0.886143,-10.24915 -5.167974 0.8352388,-10.232 -3.988264 0.8480211,-10.24417 -3.368392 0.9090958,-10.26844 -2.905361 0.9640809,-10.6147 -5.446405 0.9107008,-10.70116 -4.551794 0.9017797,-10.72626 -4.008249 0.9389172,-10.73137 -3.536953 0.9452856,1.020,DnF
-2.088456 -7.455581 1.123818,-2.705458 -7.376525 1.871303,-3.182581 -6.880507 2.298211,-3.455248 -6.39999 2.687606,-3.750423 -5.964965 3.131093,-2.893851 -4.845071 1.760004,-3.04191 -3.893909 2.149125,-3.102356 -3.344268 2.496095,-3.153882 -2.865876 2.766213,-2.458476 -4.676137 1.658427,-2.495704 -3.723979 1.993496,-2.520921 -3.148157 2.38683,-2.554034 -2.786817 2.729537,-2.050236 -4.848074 1.667981,-2.026414 -3.941417 1.990263,-2.032505 -3.47185 2.435544,-2.062785 -3.194582 2.778588,-1.644911 -5.268779 1.737566,-1.484264 -4.566999 2.136214,-1.441201 -4.236183 2.542787,-1.453339 -4.057078 2.861479,-10.13916 -7.910312 0.6358247,-9.526514 -7.734615 0.7610711,-9.067904 -7.144348 0.9367311,-8.801316 -6.550323 1.12764,-8.576111 -6.124065 1.309296,-9.489315 -5.328697 0.7163523,-9.355849 -4.266323 0.7978061,-9.371429 -3.737376 0.8900359,-9.416634 -3.361757 0.948262,-9.875383 -5.114645 0.7578748,-9.795183 -3.930731 0.7764344,-9.807211 -3.356094 0.8482524,-9.846985 -2.952789 0.886143,-10.24915 -5.167974 0.8352388,-10.232 -3.988264 0.8480211,-10.24417 -3.368392 0.9090958,-10.26844 -2.905361 0.9640809,-10.6147 -5.446405 0.9107008,-10.70116 -4.551794 0.9017797,-10.72626 -4.008249 0.9389172,-10.73137 -3.536953 0.9452856,1.040,DnF
-2.089226 -7.447498 1.032788,-2.700345 -7.377851 1.762988,-3.194749 -6.854738 2.185899,-3.475359 -6.345757 2.569715,-3.781036 -5.885875 3.013563,-2.88958 -4.869791 1.661916,-3.036978 -3.92301 2.079391,-3.09618 -3.377277 2.472598,-3.152086 -2.933328 2.777693,-2.461738 -4.699245 1.588172,-2.511138 -3.728755 1.998773,-2.539324 -3.177486 2.482682,-2.569841 -2.910789 2.880424,-2.057217 -4.865838 1.62215,-2.035201 -3.949169 2.012449,-2.033295 -3.534696 2.532527,-2.065397 -3.377146 2.921519,-1.65328 -5.286829 1.714507,-1.505382 -4.582757 2.187457,-1.489809 -4.328836 2.658998,-1.535592 -4.301404 3.02721,-10.21344 -7.833108 0.4068777,-9.595991 -7.666976 0.5851658,-9.147429 -7.097784 0.7873186,-8.878687 -6.499792 0.9680365,-8.665354 -6.066318 1.14003,-9.506823 -5.330864 0.5912378,-9.35244 -4.259367 0.7397715,-9.38378 -3.807759 0.8891143,-9.463338 -3.682428 0.9974133,-9.890762 -5.113162 0.5927691,-9.81673 -3.944644 0.6695228,-9.844293 -3.401027 0.788278,-9.903355 -3.162119 0.8741452,-10.26844 -5.169263 0.6428205,-10.2661 -4.065324 0.7051633,-10.29218 -3.499269 0.8099105,-10.32763 -3.146711 0.8890647,-10.63332 -5.446937 0.6795529,-10.72799 -4.591936 0.728774,-10.76219 -4.111604 0.7946835,-10.77024 -3.744481 0.8035232,1.060,DnF
-2.089226 -7.447498 1.032788,-2.700345 -7.377851 1.762988,-3.194749 -6.854738 2.185899,-3.475359 -6.345757 2.569715,-3.781036 -5.885875 3.013563,-2.88958 -4.869791 1.661916,-3.036978 -3.92301 2.079391,-3.09618 -3.377277 2.472598,-3.152086 -2.933328 2.777693,-2.461738 -4.699245 1.588172,-2.511138 -3.728755 1.998773,-2.539324 -3.177486 2.482682,-2.569841 -2.910789 2.880424,-2.057217 -4.865838 1.62215,-2.035201 -3.949169 2.012449,-2.033295 -3.534696 2.532527,-2.065397 -3.377146 2.921519,-1.65328 -5.286829 1.714507,-1.505382 -4.582757 2.187457,-1.489809 -4.328836 2.658998,-1.535592 -4.301404 3.02721,-10.21344 -7.833108 0.4068777,-9.595991 -7.666976 0.5851658,-9.147429 -7.097784 0.7873186,-8.878687 -6.499792 0.9680365,-8.665354 -6.066318 1.14003,-9.506823 -5.330864 0.5912378,-9.35244 -4.259367 0.7397715,-9.38378 -3.807759 0.8891143,-9.463338 -3.682428 0.9974133,-9.890762 -5.113162 0.5927691,-9.81673 -3.944644 0.6695228,-9.844293 -3.401027 0.788278,-9.903355 -3.162119 0.8741452,-10.26844 -5.169263 0.6428205,-10.2661 -4.065324 0.7051633,-10.29218 -3.499269 0.8099105,-10.32763 -3.146711 0.8890647,-10.63332 -5.446937 0.6795529,-10.72799 -4.591936 0.728774,-10.76219 -4.111604 0.7946835,-10.77024 -3.744481 0.8035232,1.080,DnF
-2.089226 -7.447498 1.032788,-2.700345 -7.377851 1.762988,-3.194749 -6.854738 2.185899,-3.475359 -6.345757 2.569715,-3.781036 -5.885875 3.013563,-2.88958 -4.869791 1.661916,-3.036978 -3.92301 2.079391,-3.09618 -3.377277 2.472598,-3.152086 -2.933328 2.777693,-2.461738 -4.699245 1.588172,-2.511138 -3.728755 1.998773,-2.539324 -3.177486 2.482682,-2.569841 -2.910789 2.880424,-2.057217 -4.865838 1.62215,-2.035201 -3.949169 2.012449,-2.033295 -3.534696 2.532527,-2.065397 -3.377146 2.921519,-1.65328 -5.286829 1.714507,-1.505382 -4.582757 2.187457,-1.489809 -4.328836 2.658998,-1.535592 -4.301404 3.02721,-10.21344 -7.833108 0.4068777,-9.595991 -7.666976 0.5851658,-9.147429 -7.097784 0.7873186,-8.878687 -6.499792 0.9680365,-8.665354 -6.066318 1.14003,-9.506823 -5.330864 0.5912378,-9.35244 -4.259367 0.7397715,-9.38378 -3.807759 0.8891143,-9.463338 -3.682428 0.9974133,-9.890762 -5.113162 0.5927691,-9.81673 -3.944644 0.6695228,-9.844293 -3.401027 0.788278,-9.903355 -3.162119 0.8741452,-10.26844 -5.169263 0.6428205,-10.2661 -4.065324 0.7051633,-10.29218 -3.499269 0.8099105,-10.32763 -3.146711 0.8890647,-10.63332 -5.446937 0.6795529,-10.72799 -4.591936 0.728774,-10.76219 -4.111604 0.7946835,-10.77024 -3.744481 0.8035232,1.100,DnF
-2.112956 -7.409933 0.9199083,-2.727943 -7.367846 1.623294,-3.206915 -6.856151 2.030532,-3.456031 -6.357814 2.407805,-3.713634 -5.88942 2.837845,-2.932031 -4.846276 1.404652,-3.054743 -3.913105 1.778427,-3.108709 -3.373222 2.169702,-3.166975 -2.969535 2.464635,-2.50678 -4.674284 1.343913,-2.54376 -3.712827 1.704005,-2.575396 -3.172096 2.190276,-2.615748 -2.971363 2.597764,-2.098551 -4.83776 1.397673,-2.060624 -3.915484 1.757701,-2.070295 -3.530223 2.275893,-2.122468 -3.454772 2.661932,-1.685718 -5.260206 1.513788,-1.529649 -4.547922 1.967946,-1.538708 -4.326265 2.438458,-1.619393 -4.378854 2.804517,-10.21937 -7.855176 0.5299692,-9.64788 -7.623204 0.9383093,-9.238458 -7.027587 1.278383,-9.002968 -6.434568 1.58566,-8.758312 -5.966561 1.904723,-9.549808 -5.30205 0.9565897,-9.420379 -4.378612 1.29056,-9.42155 -4.013103 1.670473,-9.456606 -3.952791 1.951278,-9.941834 -5.119302 0.9406359,-9.911915 -4.11317 1.190008,-9.905453 -3.617535 1.506372,-9.897981 -3.42379 1.746054,-10.31956 -5.208755 0.9932401,-10.3648 -4.215836 1.192317,-10.36204 -3.713611 1.439932,-10.33413 -3.414486 1.630332,-10.68896 -5.518527 1.061734,-10.80143 -4.7514 1.214092,-10.82902 -4.304769 1.367494,-10.8016 -3.938674 1.471461,1.120,DnF
-2.112956 -7.409933 0.9199083,-2.727943 -7.367846 1.623294,-3.206915 -6.856151 2.030532,-3.456031 -6.357814 2.407805,-3.713634 -5.88942 2.837845,-2.932031 -4.846276 1.404652,-3.054743 -3.913105 1.778427,-3.108709 -3.373222 2.169702,-3.166975 -2.969535 2.464635,-2.50678 -4.674284 1.343913,-2.54376 -3.712827 1.704005,-2.575396 -3.172096 2.190276,-2.615748 -2.971363 2.597764,-2.098551 -4.83776 1.397673,-2.060624 -3.915484 1.757701,-2.070295 -3.530223 2.275893,-2.122468 -3.454772 2.661932,-1.685718 -5.260206 1.513788,-1.529649 -4.547922 1.967946,-1.538708 -4.326265 2.438458,-1.619393 -4.378854 2.804517,-10.21937 -7.855176 0.5299692,-9.64788 -7.623204 0.9383093,-9.238458 -7.027587 1.278383,-9.002968 -6.434568 1.58566,-8.758312 -5.966561 1.904723,-9.549808 -5.30205 0.9565897,-9.420379 -4.378612 1.29056,-9.42155 -4.013103 1.670473,-9.456606 -3.952791 1.951278,-9.941834 -5.119302 0.9406359,-9.911915 -4.11317 1.190008,-9.905453 -3.617535 1.506372,-9.897981 -3.42379 1.746054,-10.31956 -5.208755 0.9932401,-10.3648 -4.215836 1.192317,-10.36204 -3.713611 1.439932,-10.33413 -3.414486 1.630332,-10.68896 -5.518527 1.061734,-10.80143 -4.7514 1.214092,-10.82902 -4.304769 1.367494,-10.8016 -3.938674 1.471461,1.140,DnF
-2.112956 -7.409933 0.9199083,-2.727943 -7.367846 1.623294,-3.206915 -6.856151 2.030532,-3.456031 -6.357814 2.407805,-3.713634 -5.88942 2.837845,-2.932031 -4.846276 1.404652,-3.054743 -3.913105 1.778427,-3.108709 -3.373222 2.169702,-3.166975 -2.969535 2.464635,-2.50678 -4.674284 1.343913,-2.54376 -3.712827 1.704005,-2.575396 -3.172096 2.190276,-2.615748 -2.971363 2.597764,-2.098551 -4.83776 1.397673,-2.060624 -3.915484 1.757701,-2.070295 -3.530223 2.275893,-2.122468 -3.454772 2.661932,-1.685718 -5.260206 1.513788,-1.529649 -4.547922 1.967946,-1.538708 -4.326265 2.438458,-1.619393 -4.378854 2.804517,-10.21937 -7.855176 0.5299692,-9.64788 -7.623204 0.9383093,-9.238458 -7.027587 1.278383,-9.002968 -6.434568 1.58566,-8.758312 -5.966561 1.904723,-9.549808 -5.30205 0.9565897,-9.420379 -4.378612 1.29056,-9.42155 -4.013103 1.670473,-9.456606 -3.952791 1.951278,-9.941834 -5.119302 0.9406359,-9.911915 -4.11317 1.190008,-9.905453 -3.617535 1.506372,-9.897981 -3.42379 1.746054,-10.31956 -5.208755 0.9932401,-10.3648 -4.215836 1.192317,-10.36204 -3.713611 1.439932,-10.33413 -3.414486 1.630332,-10.68896 -5.518527 1.061734,-10.80143 -4.7514 1.214092,-10.82902 -4.304769 1.367494,-10.8016 -3.938674 1.471461,1.160,DnF
-2.092818 -7.375717 0.8453083,-2.706976 -7.383051 1.602024,-3.184063 -6.875061 2.055373,-3.425548 -6.346579 2.454525,-3.674466 -5.850072 2.91296,-2.96559 -4.894527 1.364872,-3.091684 -3.952021 1.738265,-3.146541 -3.405097 2.143762,-3.205403 -3.051004 2.450776,-2.544045 -4.670537 1.267725,-2.581571 -3.684363 1.638307,-2.612373 -3.163589 2.153038,-2.641623 -3.052075 2.573731,-2.136376 -4.785198 1.282657,-2.116867 -3.833613 1.648408,-2.124461 -3.503282 2.170926,-2.161775 -3.538304 2.555803,-1.721681 -5.163417 1.371627,-1.596948 -4.438335 1.818005,-1.625463 -4.311563 2.290253,-1.714478 -4.503994 2.657929,-10.26691 -7.739072 0.2595959,-9.722645 -7.537718 0.7772949,-9.327832 -6.981452 1.192744,-9.096298 -6.429735 1.558345,-8.897368 -5.914838 1.946928,-9.628836 -5.270524 0.8140533,-9.536993 -4.323802 1.211913,-9.486382 -4.058176 1.668882,-9.458561 -4.257261 1.9659,-10.02148 -5.096658 0.7740756,-10.01772 -4.032644 1.195321,-9.958914 -3.736948 1.610338,-9.871725 -3.921107 1.853971,-10.39082 -5.213201 0.8013291,-10.45713 -4.177192 1.116257,-10.40576 -3.848968 1.438148,-10.31578 -3.857572 1.635688,-10.74151 -5.554676 0.8519883,-10.87283 -4.738355 1.115041,-10.85876 -4.421752 1.339043,-10.77284 -4.348213 1.458791,1.180,DnF
-2.092818 -7.375717 0.8453083,-2.706976 -7.383051 1.602024,-3.184063 -6.875061 2.055373,-3.425548 -6.346579 2.454525,-3.674466 -5.850072 2.91296,-2.96559 -4.894527 1.364872,-3.091684 -3.952021 1.738265,-3.146541 -3.405097 2.143762,-3.205403 -3.051004 2.450776,-2.544045 -4.670537 1.267725,-2.581571 -3.684363 1.638307,-2.612373 -3.163589 2.153038,-2.641623 -3.052075 2.573731,-2.136376 -4.785198 1.282657,-2.116867 -3.833613 1.648408,-2.124461 -3.503282 2.170926,-2.161775 -3.538304 2.555803,-1.721681 -5.163417 1.371627,-1.596948 -4.438335 1.818005,-1.625463 -4.311563 2.290253,-1.714478 -4.503994 2.657929,-10.26691 -7.739072 0.2595959,-9.722645 -7.537718 0.7772949,-9.327832 -6.981452 1.192744,-9.096298 -6.429735 1.558345,-8.897368 -5.914838 1.946928,-9.628836 -5.270524 0.8140533,-9.536993 -4.323802 1.211913,-9.486382 -4.058176 1.668882,-9.458561 -4.257261 1.9659,-10.02148 -5.096658 0.7740756,-10.01772 -4.032644 1.195321,-9.958914 -3.736948 1.610338,-9.871725 -3.921107 1.853971,-10.39082 -5.213201 0.8013291,-10.45713 -4.177192 1.116257,-10.40576 -3.848968 1.438148,-10.31578 -3.857572 1.635688,-10.74151 -5.554676 0.8519883,-10.87283 -4.738355 1.115041,-10.85876 -4.421752 1.339043,-10.77284 -4.348213 1.458791,1.200,DnF
-2.092818 -7.375717 0.8453083,-2.706976 -7.383051 1.602024,-3.184063 -6.875061 2.055373,-3.425548 -6.346579 2.454525,-3.674466 -5.850072 2.91296,-2.96559 -4.894527 1.364872,-3.091684 -3.952021 1.738265,-3.146541 -3.405097 2.143762,-3.205403 -3.051004 2.450776,-2.544045 -4.670537 1.267725,-2.581571 -3.684363 1.638307,-2.612373 -3.163589 2.153038,-2.641623 -3.052075 2.573731,-2.136376 -4.785198 1.282657,-2.116867 -3.833613 1.648408,-2.124461 -3.503282 2.170926,-2.161775 -3.538304 2.555803,-1.721681 -5.163417 1.371627,-1.596948 -4.438335 1.818005,-1.625463 -4.311563 2.290253,-1.714478 -4.503994 2.657929,-10.26691 -7.739072 0.2595959,-9.722645 -7.537718 0.7772949,-9.327832 -6.981452 1.192744,-9.096298 -6.429735 1.558345,-8.897368 -5.914838 1.946928,-9.628836 -5.270524 0.8140533,-9.536993 -4.323802 1.211913,-9.486382 -4.058176 1.668882,-9.458561 -4.257261 1.9659,-10.02148 -5.096658 0.7740756,-10.01772 -4.032644 1.195321,-9.958914 -3.736948 1.610338,-9.871725 -3.921107 1.853971,-10.39082 -5.213201 0.8013291,-10.45713 -4.177192 1.116257,-10.40576 -3.848968 1.438148,-10.31578 -3.857572 1.635688,-10.74151 -5.554676 0.8519883,-10.87283 -4.738355 1.115041,-10.85876 -4.421752 1.339043,-10.77284 -4.348213 1.458791,1.220,DnF
-2.081647 -7.398396 0.8475471,-2.711916 -7.349864 1.513646,-3.223001 -6.82863 1.844059,-3.486481 -6.20502 2.136905,-3.755598 -5.632196 2.478065,-2.963611 -4.899492 1.087123,-3.105613 -3.954958 1.315458,-3.174435 -3.434103 1.638094,-3.240483 -3.062115 1.89886,-2.557011 -4.666961 0.976014,-2.611618 -3.754007 1.148888,-2.660769 -3.220218 1.559061,-2.699762 -3.008152 1.936186,-2.157247 -4.763229 0.9733785,-2.134692 -3.924739 1.194142,-2.153322 -3.567095 1.666462,-2.201795 -3.526254 2.032508,-1.746646 -5.106884 1.044819,-1.620151 -4.469009 1.410304,-1.643236 -4.349216 1.8421,-1.728737 -4.505489 2.181412,-10.36381 -7.706766 -0.269336,-9.787915 -7.471492 0.134174,-9.399984 -6.923664 0.5013927,-9.197239 -6.323207 0.7897941,-9.093084 -5.73263 1.093329,-9.652242 -5.406293 0.3549565,-9.555066 -4.350944 0.6044638,-9.566801 -4.039379 0.7610354,-9.587585 -4.187786 0.8129917,-10.07135 -5.229493 0.269846,-10.04342 -4.077048 0.5155863,-10.02005 -3.728912 0.6189235,-9.970989 -3.817951 0.640173,-10.4685 -5.319364 0.2096174,-10.49104 -4.218997 0.3909615,-10.43211 -3.903762 0.4480173,-10.33608 -3.907083 0.4400668,-10.83423 -5.601524 0.1620526,-10.9421 -4.743471 0.3101897,-10.89715 -4.47857 0.337555,-10.78464 -4.471486 0.2671657,1.240,DnF
-2.081647 -7.398396 0.8475471,-2.711916 -7.349864 1.513646,-3.223001 -6.82863 1.844059,-3.486481 -6.20502 2.136905,-3.755598 -5.632196 2.478065,-2.963611 -4.899492 1.087123,-3.105613 -3.954958 1.315458,-3.174435 -3.434103 1.638094,-3.240483 -3.062115 1.89886,-2.557011 -4.666961 0.976014,-2.611618 -3.754007 1.148888,-2.660769 -3.220218 1.559061,-2.699762 -3.008152 1.936186,-2.157247 -4.763229 0.9733785,-2.134692 -3.924739 1.194142,-2.153322 -3.567095 1.666462,-2.201795 -3.526254 2.032508,-1.746646 -5.106884 1.044819,-1.620151 -4.469009 1.410304,-1.643236 -4.349216 1.8421,-1.728737 -4.505489 2.181412,-10.36381 -7.706766 -0.269336,-9.787915 -7.471492 0.134174,-9.399984 -6.923664 0.5013927,-9.197239 -6.323207 0.7897941,-9.093084 -5.73263 1.093329,-9.652242 -5.406293 0.3549565,-9.555066 -4.350944 0.6044638,-9.566801 -4.039379 0.7610354,-9.587585 -4.187786 0.8129917,-10.07135 -5.229493 0.269846,-10.04342 -4.077048 0.5155863,-10.02005 -3.728912 0.6189235,-9.970989 -3.817951 0.640173,-10.4685 -5.319364 0.2096174,-10.49104 -4.218997 0.3909615,-10.43211 -3.903762 0.4480173,-10.33608 -3.907083 0.4400668,-10.83423 -5.601524 0.1620526,-10.9421 -4.743471 0.3101897,-10.89715 -4.47857 0.337555,-10.78464 -4.471486 0.2671657,1.260,DnF
-2.081647 -7.398396 0.8475471,-2.711916 -7.349864 1.513646,-3.223001 -6.82863 1.844059,-3.486481 -6.20502 2.136905,-3.755598 -5.632196 2.478065,-2.963611 -4.899492 1.087123,-3.105613 -3.954958 1.315458,-3.174435 -3.434103 1.638094,-3.240483 -3.062115 1.89886,-2.557011 -4.666961 0.976014,-2.611618 -3.754007 1.148888,-2.660769 -3.220218 1.559061,-2.699762 -3.008152 1.936186,-2.157247 -4.763229 0.9733785,-2.134692 -3.924739 1.194142,-2.153322 -3.567095 1.666462,-2.201795 -3.526254 2.032508,-1.746646 -5.106884 1.044819,-1.620151 -4.469009 1.410304,-1.643236 -4.349216 1.8421,-1.728737 -4.505489 2.181412,-10.36381 -7.706766 -0.269336,-9.787915 -7.471492 0.134174,-9.399984 -6.923664 0.5013927,-9.197239 -6.323207 0.7897941,-9.093084 -5.73263 1.093329,-9.652242 -5.406293 0.3549565,-9.555066 -4.350944 0.6044638,-9.566801 -4.039379 0.7610354,-9.587585 -4.187786 0.8129917,-10.07135 -5.229493 0.269846,-10.04342 -4.077048 0.5155863,-10.02005 -3.728912 0.6189235,-9.970989 -3.817951 0.640173,-10.4685 -5.319364 0.2096174,-10.49104 -4.218997 0.3909615,-10.43211 -3.903762 0.4480173,-10.33608 -3.907083 0.4400668,-10.83423 -5.601524 0.1620526,-10.9421 -4.743471 0.3101897,-10.89715 -4.47857 0.337555,-10.78464 -4.471486 0.2671657,1.280,DnF
-2.070245 -7.382137 0.774684,-2.690682 -7.303501 1.334911,-3.205249 -6.772993 1.596725,-3.488779 -6.158985 1.838096,-3.759786 -5.612535 2.133296,-2.954873 -4.889892 0.8296911,-3.125948 -3.959466 1.01401,-3.185261 -3.434358 1.319643,-3.237444 -3.130688 1.574426,-2.554014 -4.670368 0.7543152,-2.624481 -3.686846 0.9227383,-2.679464 -3.168592 1.346642,-2.711737 -3.090183 1.718827,-2.159266 -4.760917 0.778748,-2.143975 -3.858888 1.007234,-2.17372 -3.54368 1.500472,-2.232922 -3.635063 1.853609,-1.74844 -5.082043 0.8714432,-1.629749 -4.398828 1.236497,-1.668179 -4.311887 1.680958,-1.778925 -4.563509 2.014551,-10.43764 -7.801045 -0.6788976,-9.863263 -7.466926 -0.2189398,-9.483155 -6.837979 0.2348766,-9.320854 -6.171992 0.604334,-9.231271 -5.489021 1.009081,-9.718504 -5.633578 0.2308253,-9.661035 -4.490133 0.6224312,-9.682291 -4.072261 0.8479637,-9.703789 -4.078901 0.9346917,-10.12827 -5.535515 0.1586693,-10.10452 -4.307661 0.5906782,-10.1159 -3.910128 0.7747283,-10.11577 -3.925123 0.8444755,-10.51558 -5.618381 0.0947755,-10.52276 -4.446996 0.4158341,-10.50953 -4.117403 0.5474174,-10.47364 -4.108907 0.5593803,-10.87391 -5.836946 0.03667587,-10.9313 -4.868381 0.2699287,-10.89193 -4.614379 0.3461187,-10.82077 -4.624746 0.3283334,1.300,DnF
-2.070245 -7.382137 0.774684,-2.690682 -7.303501 1.334911,-3.205249 -6.772993 1.596725,-3.488779 -6.158985 1.838096,-3.759786 -5.612535 2.133296,-2.954873 -4.889892 0.8296911,-3.125948 -3.959466 1.01401,-3.185261 -3.434358 1.319643,-3.237444 -3.130688 1.574426,-2.554014 -4.670368 0.7543152,-2.624481 -3.686846 0.9227383,-2.679464 -3.168592 1.346642,-2.711737 -3.090183 1.718827,-2.159266 -4.760917 0.778748,-2.143975 -3.858888 1.007234,-2.17372 -3.54368 1.500472,-2.232922 -3.635063 1.853609,-1.74844 -5.082043 0.8714432,-1.629749 -4.398828 1.236497,-1.668179 -4.311887 1.680958,-1.778925 -4.563509 2.014551,-10.43764 -7.801045 -0.6788976,-9.863263 -7.466926 -0.2189398,-9.483155 -6.837979 0.2348766,-9.320854 -6.171992 0.604334,-9.231271 -5.489021 1.009081,-9.718504 -5.633578 0.2308253,-9.661035 -4.490133 0.6224312,-9.682291 -4.072261 0.8479637,-9.703789 -4.078901 0.9346917,-10.12827 -5.535515 0.1586693,-10.10452 -4.307661 0.5906782,-10.1159 -3.910128 0.7747283,-10.11577 -3.925123 0.8444755,-10.51558 -5.618381 0.0947755,-10.52276 -4.446996 0.4158341,-10.50953 -4.117403 0.5474174,-10.47364 -4.108907 0.5593803,-10.87391 -5.836946 0.03667587,-10.9313 -4.868381 0.2699287,-10.89193 -4.614379 0.3461187,-10.82077 -4.624746 0.3283334,1.320,DnF
-2.070245 -7.382137 0.774684,-2.690682 -7.303501 1.334911,-3.205249 -6.772993 1.596725,-3.488779 -6.158985 1.838096,-3.759786 -5.612535 2.133296,-2.954873 -4.889892 0.8296911,-3.125948 -3.959466 1.01401,-3.185261 -3.434358 1.319643,-3.237444 -3.130688 1.574426,-2.554014 -4.670368 0.7543152,-2.624481 -3.686846 0.9227383,-2.679464 -3.168592 1.346642,-2.711737 -3.090183 1.718827,-2.159266 -4.760917 0.778748,-2.143975 -3.858888 1.007234,-2.17372 -3.54368 1.500472,-2.232922 -3.635063 1.853609,-1.74844 -5.082043 0.8714432,-1.629749 -4.398828 1.236497,-1.668179 -4.311887 1.680958,-1.778925 -4.563509 2.014551,-10.43764 -7.801045 -0.6788976,-9.863263 -7.466926 -0.2189398,-9.483155 -6.837979 0.2348766,-9.320854 -6.171992 0.604334,-9.231271 -5.489021 1.009081,-9.718504 -5.633578 0.2308253,-9.661035 -4.490133 0.6224312,-9.682291 -4.072261 0.8479637,-9.703789 -4.078901 0.9346917,-10.12827 -5.535515 0.1586693,-10.10452 -4.307661 0.5906782,-10.1159 -3.910128 0.7747283,-10.11577 -3.925123 0.8444755,-10.51558 -5.618381 0.0947755,-10.52276 -4.446996 0.4158341,-10.50953 -4.117403 0.5474174,-10.47364 -4.108907 0.5593803,-10.87391 -5.836946 0.03667587,-10.9313 -4.868381 0.2699287,-10.89193 -4.614379 0.3461187,-10.82077 -4.624746 0.3283334,1.340,DnF
-2.080584 -7.400725 0.8456976,-2.707073 -7.286358 1.360039,-3.228448 -6.71467 1.594015,-3.519529 -6.045488 1.815301,-3.788418 -5.441871 2.08767,-2.940816 -4.889661 0.8189549,-3.104464 -3.984038 1.010712,-3.167537 -3.464889 1.327221,-3.230387 -3.180654 1.588329,-2.544236 -4.665693 0.7734494,-2.608583 -3.666434 0.9702207,-2.67671 -3.189562 1.425258,-2.712439 -3.190216 1.808338,-2.153623 -4.746828 0.8195728,-2.123474 -3.804832 1.07561,-2.168504 -3.551334 1.589701,-2.238092 -3.720428 1.936296,-1.743925 -5.056764 0.9346521,-1.625484 -4.338078 1.324777,-1.680946 -4.306407 1.777308,-1.810841 -4.630516 2.096414,-10.43764 -7.801045 -0.6788976,-9.863263 -7.466926 -0.2189398,-9.483155 -6.837979 0.2348766,-9.320854 -6.171992 0.604334,-9.231271 -5.489021 1.009081,-9.718504 -5.633578 0.2308253,-9.661035 -4.490133 0.6224312,-9.682291 -4.072261 0.8479637,-9.703789 -4.078901 0.9346917,-10.12827 -5.535515 0.1586693,-10.10452 -4.307661 0.5906782,-10.1159 -3.910128 0.7747283,-10.11577 -3.925123 0.8444755,-10.51558 -5.618381 0.0947755,-10.52276 -4.446996 0.4158341,-10.50953 -4.117403 0.5474174,-10.47364 -4.108907 0.5593803,-10.87391 -5.836946 0.03667587,-10.9313 -4.868381 0.2699287,-10.89193 -4.614379 0.3461187,-10.82077 -4.624746 0.3283334,1.360,DnF
-2.080584 -7.400725 0.8456976,-2.707073 -7.286358 1.360039,-3.228448 -6.71467 1.594015,-3.519529 -6.045488 1.815301,-3.788418 -5.441871 2.08767,-2.940816 -4.889661 0.8189549,-3.104464 -3.984038 1.010712,-3.167537 -3.464889 1.327221,-3.230387 -3.180654 1.588329,-2.544236 -4.665693 0.7734494,-2.608583 -3.666434 0.9702207,-2.67671 -3.189562 1.425258,-2.712439 -3.190216 1.808338,-2.153623 -4.746828 0.8195728,-2.123474 -3.804832 1.07561,-2.168504 -3.551334 1.589701,-2.238092 -3.720428 1.936296,-1.743925 -5.056764 0.9346521,-1.625484 -4.338078 1.324777,-1.680946 -4.306407 1.777308,-1.810841 -4.630516 2.096414,-10.4715 -7.724761 -0.5308727,-9.899946 -7.349655 0.1398538,-9.541428 -6.696059 0.6870046,-9.419217 -6.040389 1.159714,-9.37849 -5.329691 1.672844,-9.748096 -5.48767 0.5153488,-9.72429 -4.507183 1.173105,-9.718712 -4.175424 1.793675,-9.737547 -4.268908 2.220594,-10.15745 -5.486312 0.483179,-10.14957 -4.469369 1.213067,-10.14698 -4.120988 1.768349,-10.15712 -4.177799 2.132557,-10.53715 -5.636309 0.5070449,-10.55412 -4.664508 1.119791,-10.55766 -4.348159 1.596073,-10.55019 -4.322233 1.875844,-10.90471 -5.904457 0.5540181,-10.9536 -5.071439 1.071249,-10.93673 -4.84188 1.444224,-10.8824 -4.801879 1.702066,1.380,DnF
-2.080584 -7.400725 0.8456976,-2.707073 -7.286358 1.360039,-3.228448 -6.71467 1.594015,-3.519529 -6.045488 1.815301,-3.788418 -5.441871 2.08767,-2.940816 -4.889661 0.8189549,-3.104464 -3.984038 1.010712,-3.167537 -3.464889 1.327221,-3.230387 -3.180654 1.588329,-2.544236 -4.665693 0.7734494,-2.608583 -3.666434 0.9702207,-2.67671 -3.189562 1.425258,-2.712439 -3.190216 1.808338,-2.153623 -4.746828 0.8195728,-2.123474 -3.804832 1.07561,-2.168504 -3.551334 1.589701,-2.238092 -3.720428 1.936296,-1.743925 -5.056764 0.9346521,-1.625484 -4.338078 1.324777,-1.680946 -4.306407 1.777308,-1.810841 -4.630516 2.096414,-10.4715 -7.724761 -0.5308727,-9.899946 -7.349655 0.1398538,-9.541428 -6.696059 0.6870046,-9.419217 -6.040389 1.159714,-9.37849 -5.329691 1.672844,-9.748096 -5.48767 0.5153488,-9.72429 -4.507183 1.173105,-9.718712 -4.175424 1.793675,-9.737547 -4.268908 2.220594,-10.15745 -5.486312 0.483179,-10.14957 -4.469369 1.213067,-10.14698 -4.120988 1.768349,-10.15712 -4.177799 2.132557,-10.53715 -5.636309 0.5070449,-10.55412 -4.664508 1.119791,-10.55766 -4.348159 1.596073,-10.55019 -4.322233 1.875844,-10.90471 -5.904457 0.5540181,-10.9536 -5.071439 1.071249,-10.93673 -4.84188 1.444224,-10.8824 -4.801879 1.702066,1.400,DnF
-2.080584 -7.400725 0.8456976,-2.707073 -7.286358 1.360039,-3.228448 -6.71467 1.594015,-3.519529 -6.045488 1.815301,-3.788418 -5.441871 2.08767,-2.940816 -4.889661 0.8189549,-3.104464 -3.984038 1.010712,-3.167537 -3.464889 1.327221,-3.230387 -3.180654 1.588329,-2.544236 -4.665693 0.7734494,-2.608583 -3.666434 0.9702207,-2.67671 -3.189562 1.425258,-2.712439 -3.190216 1.808338,-2.153623 -4.746828 0.8195728,-2.123474 -3.804832 1.07561,-2.168504 -3.551334 1.589701,-2.238092 -3.720428 1.936296,-1.743925 -5.056764 0.9346521,-1.625484 -4.338078 1.324777,-1.680946 -4.306407 1.777308,-1.810841 -4.630516 2.096414,-10.4715 -7.724761 -0.5308727,-9.899946 -7.349655 0.1398538,-9.541428 -6.696059 0.6870046,-9.419217 -6.040389 1.159714,-9.37849 -5.329691 1.672844,-9.748096 -5.48767 0.5153488,-9.72429 -4.507183 1.173105,-9.718712 -4.175424 1.793675,-9.737547 -4.268908 2.220594,-10.15745 -5.486312 0.483179,-10.14957 -4.469369 1.213067,-10.14698 -4.120988 1.768349,-10.15712 -4.177799 2.132557,-10.53715 -5.636309 0.5070449,-10.55412 -4.664508 1.119791,-10.55766 -4.348159 1.596073,-10.55019 -4.322233 1.875844,-10.90471 -5.904457 0.5540181,-10.9536 -5.071439 1.071249,-10.93673 -4.84188 1.444224,-10.8824 -4.801879 1.702066,1.420,DnF
-2.071121 -7.380755 0.7846661,-2.694769 -7.245322 1.263401,-3.21121 -6.673717 1.482059,-3.497108 -6.024204 1.694377,-3.754478 -5.448888 1.948137,-2.953164 -4.892275 0.7156698,-3.124396 -3.980453 0.9041851,-3.174333 -3.442738 1.259391,-3.216808 -3.201747 1.55358,-2.555584 -4.668506 0.6717851,-2.634825 -3.652589 0.8798814,-2.702262 -3.200708 1.407287,-2.723166 -3.31305 1.852268,-2.169375 -4.730589 0.7070816,-2.167091 -3.760299 0.946012,-2.211869 -3.509064 1.477503,-2.26185 -3.723771 1.844282,-1.766022 -5.018036 0.8087208,-1.657766 -4.291331 1.188807,-1.718048 -4.257371 1.650197,-1.842358 -4.585565 1.991227,-10.54996 -7.487716 -0.5162657,-10.00042 -7.250732 0.1884336,-9.644289 -6.579517 0.7190057,-9.553174 -5.862406 1.176998,-9.613611 -5.146002 1.686364,-9.810956 -5.189785 0.3086424,-9.833508 -4.279597 1.044609,-9.8237 -4.141077 1.732035,-9.846435 -4.481401 2.154745,-10.20429 -5.153282 0.2516068,-10.25424 -4.16259 1.076124,-10.22318 -4.563967 1.609473,-10.22453 -5.164824 1.861032,-10.5833 -5.285469 0.2759535,-10.63983 -4.336161 0.9692852,-10.59296 -4.78882 1.347195,-10.5683 -5.373472 1.475119,-10.95761 -5.517988 0.3283569,-11.03204 -4.747016 0.9253469,-10.96848 -4.979538 1.260031,-10.89756 -5.397565 1.422482,1.440,DnF
-2.071121 -7.380755 0.7846661,-2.694769 -7.245322 1.263401,-3.21121 -6.673717 1.482059,-3.497108 -6.024204 1.694377,-3.754478 -5.448888 1.948137,-2.953164 -4.892275 0.7156698,-3.124396 -3.980453 0.9041851,-3.174333 -3.442738 1.259391,-3.216808 -3.201747 1.55358,-2.555584 -4.668506 0.6717851,-2.634825 -3.652589 0.8798814,-2.702262 -3.200708 1.407287,-2.723166 -3.31305 1.852268,-2.169375 -4.730589 0.7070816,-2.167091 -3.760299 0.946012,-2.211869 -3.509064 1.477503,-2.26185 -3.723771 1.844282,-1.766022 -5.018036 0.8087208,-1.657766 -4.291331 1.188807,-1.718048 -4.257371 1.650197,-1.842358 -4.585565 1.991227,-10.54996 -7.487716 -0.5162657,-10.00042 -7.250732 0.1884336,-9.644289 -6.579517 0.7190057,-9.553174 -5.862406 1.176998,-9.613611 -5.146002 1.686364,-9.810956 -5.189785 0.3086424,-9.833508 -4.279597 1.044609,-9.8237 -4.141077 1.732035,-9.846435 -4.481401 2.154745,-10.20429 -5.153282 0.2516068,-10.25424 -4.16259 1.076124,-10.22318 -4.563967 1.609473,-10.22453 -5.164824 1.861032,-10.5833 -5.285469 0.2759535,-10.63983 -4.336161 0.9692852,-10.59296 -4.78882 1.347195,-10.5683 -5.373472 1.475119,-10.95761 -5.517988 0.3283569,-11.03204 -4.747016 0.9253469,-10.96848 -4.979538 1.260031,-10.89756 -5.397565 1.422482,1.460,DnF
-2.071121 -7.380755 0.7846661,-2.694769 -7.245322 1.263401,-3.21121 -6.673717 1.482059,-3.497108 -6.024204 1.694377,-3.754478 -5.448888 1.948137,-2.953164 -4.892275 0.7156698,-3.124396 -3.980453 0.9041851,-3.174333 -3.442738 1.259391,-3.216808 -3.201747 1.55358,-2.555584 -4.668506 0.6717851,-2.634825 -3.652589 0.8798814,-2.702262 -3.200708 1.407287,-2.723166 -3.31305 1.852268,-2.169375 -4.730589 0.7070816,-2.167091 -3.760299 0.946012,-2.211869 -3.509064 1.477503,-2.26185 -3.723771 1.844282,-1.766022 -5.018036 0.8087208,-1.657766 -4.291331 1.188807,-1.718048 -4.257371 1.650197,-1.842358 -4.585565 1.991227,-10.54996 -7.487716 -0.5162657,-10.00042 -7.250732 0.1884336,-9.644289 -6.579517 0.7190057,-9.553174 -5.862406 1.176998,-9.613611 -5.146002 1.686364,-9.810956 -5.189785 0.3086424,-9.833508 -4.279597 1.044609,-9.8237 -4.141077 1.732035,-9.846435 -4.481401 2.154745,-10.20429 -5.153282 0.2516068,-10.25424 -4.16259 1.076124,-10.22318 -4.563967 1.609473,-10.22453 -5.164824 1.861032,-10.5833 -5.285469 0.2759535,-10.63983 -4.336161 0.9692852,-10.59296 -4.78882 1.347195,-10.5683 -5.373472 1.475119,-10.95761 -5.517988 0.3283569,-11.03204 -4.747016 0.9253469,-10.96848 -4.979538 1.260031,-10.89756 -5.397565 1.422482,1.480,DnF
-2.083481 -7.370578 0.7218594,-2.727043 -7.205787 1.161193,-3.237289 -6.58743 1.335681,-3.530644 -5.872509 1.509463,-3.78928 -5.230376 1.71446,-2.953157 -4.884079 0.5368934,-3.115164 -3.967413 0.69807,-3.171682 -3.434469 1.039398,-3.219837 -3.206513 1.332533,-2.563097 -4.682655 0.4974911,-2.629175 -3.623725 0.6953794,-2.709445 -3.19509 1.229601,-2.737553 -3.344334 1.667228,-2.184636 -4.751571 0.5333536,-2.171724 -3.745424 0.7729585,-2.226064 -3.57093 1.307955,-2.27977 -3.867036 1.664958,-1.787117 -5.027645 0.6327098,-1.686859 -4.277997 0.9951007,-1.760531 -4.266654 1.448681,-1.886172 -4.629709 1.777425,-10.52285 -7.349761 -0.511857,-9.983896 -7.016192 0.08302826,-9.680989 -6.283525 0.580477,-9.706777 -5.476887 1.003058,-9.866472 -4.759622 1.436911,-9.916065 -4.97716 0.2539554,-9.954888 -4.046514 0.8418092,-9.957572 -4.360399 1.274703,-9.991189 -4.880958 1.471107,-10.30967 -4.980025 0.1975407,-10.32635 -4.047884 0.8234042,-10.29263 -4.691164 1.113322,-10.30388 -5.257362 1.179335,-10.68556 -5.150914 0.2156779,-10.70505 -4.212989 0.7434016,-10.6359 -4.75542 0.9546685,-10.61562 -5.284114 0.9874065,-11.04679 -5.430856 0.2553364,-11.08517 -4.680295 0.7082285,-11.00827 -4.93011 0.9327158,-10.95005 -5.28634 1.011679,1.500,Left Hand Closed
-2.083481 -7.370578 0.7218594,-2.727043 -7.205787 1.161193,-3.237289 -6.58743 1.335681,-3.530644 -5.872509 1.509463,-3.78928 -5.230376 1.71446,-2.953157 -4.884079 0.5368934,-3.115164 -3.967413 0.69807,-3.171682 -3.434469 1.039398,-3.219837 -3.206513 1.332533,-2.563097 -4.682655 0.4974911,-2.629175 -3.623725 0.6953794,-2.709445 -3.19509 1.229601,-2.737553 -3.344334 1.667228,-2.184636 -4.751571 0.5333536,-2.171724 -3.745424 0.7729585,-2.226064 -3.57093 1.307955,-2.27977 -3.867036 1.664958,-1.787117 -5.027645 0.6327098,-1.686859 -4.277997 0.9951007,-1.760531 -4.266654 1.448681,-1.886172 -4.629709 1.777425,-10.52285 -7.349761 -0.511857,-9.983896 -7.016192 0.08302826,-9.680989 -6.283525 0.580477,-9.706777 -5.476887 1.003058,-9.866472 -4.759622 1.436911,-9.916065 -4.97716 0.2539554,-9.954888 -4.046514 0.8418092,-9.957572 -4.360399 1.274703,-9.991189 -4.880958 1.471107,-10.30967 -4.980025 0.1975407,-10.32635 -4.047884 0.8234042,-10.29263 -4.691164 1.113322,-10.30388 -5.257362 1.179335,-10.68556 -5.150914 0.2156779,-10.70505 -4.212989 0.7434016,-10.6359 -4.75542 0.9546685,-10.61562 -5.284114 0.9874065,-11.04679 -5.430856 0.2553364,-11.08517 -4.680295 0.7082285,-11.00827 -4.93011 0.9327158,-10.95005 -5.28634 1.011679,1.520,DnF
-2.083481 -7.370578 0.7218594,-2.727043 -7.205787 1.161193,-3.237289 -6.58743 1.335681,-3.530644 -5.872509 1.509463,-3.78928 -5.230376 1.71446,-2.953157 -4.884079 0.5368934,-3.115164 -3.967413 0.69807,-3.171682 -3.434469 1.039398,-3.219837 -3.206513 1.332533,-2.563097 -4.682655 0.4974911,-2.629175 -3.623725 0.6953794,-2.709445 -3.19509 1.229601,-2.737553 -3.344334 1.667228,-2.184636 -4.751571 0.5333536,-2.171724 -3.745424 0.7729585,-2.226064 -3.57093 1.307955,-2.27977 -3.867036 1.664958,-1.787117 -5.027645 0.6327098,-1.686859 -4.277997 0.9951007,-1.760531 -4.266654 1.448681,-1.886172 -4.629709 1.777425,-10.52285 -7.349761 -0.511857,-9.983896 -7.016192 0.08302826,-9.680989 -6.283525 0.580477,-9.706777 -5.476887 1.003058,-9.866472 -4.759622 1.436911,-9.916065 -4.97716 0.2539554,-9.954888 -4.046514 0.8418092,-9.957572 -4.360399 1.274703,-9.991189 -4.880958 1.471107,-10.30967 -4.980025 0.1975407,-10.32635 -4.047884 0.8234042,-10.29263 -4.691164 1.113322,-10.30388 -5.257362 1.179335,-10.68556 -5.150914 0.2156779,-10.70505 -4.212989 0.7434016,-10.6359 -4.75542 0.9546685,-10.61562 -5.284114 0.9874065,-11.04679 -5.430856 0.2553364,-11.08517 -4.680295 0.7082285,-11.00827 -4.93011 0.9327158,-10.95005 -5.28634 1.011679,1.540,DnF
-2.102576 -7.378578 0.6270035,-2.724795 -7.208337 1.077512,-3.237208 -6.575092 1.317675,-3.520447 -5.894922 1.568182,-3.770356 -5.31599 1.863655,-2.956131 -4.880929 0.6000162,-3.084755 -3.952941 0.902737,-3.157511 -3.426002 1.332593,-3.225263 -3.283115 1.668908,-2.566311 -4.706144 0.6014119,-2.607024 -3.599195 0.9703968,-2.699409 -3.239587 1.560507,-2.731878 -3.521575 2.006715,-2.188293 -4.792217 0.6768796,-2.158418 -3.736793 1.053643,-2.222352 -3.646646 1.614755,-2.268269 -4.042438 1.955695,-1.78968 -5.071508 0.815425,-1.694651 -4.278269 1.265625,-1.784612 -4.306381 1.72832,-1.91279 -4.726556 2.049596,-10.59766 -7.257712 -1.01063,-10.05229 -6.89714 -0.4459966,-9.783114 -6.111145 0.03371191,-9.84925 -5.312175 0.4432244,-10.03817 -4.589378 0.8715941,-9.978294 -5.001416 -0.2312013,-10.01357 -3.959906 0.2809566,-10.03176 -4.08555 0.668956,-10.07101 -4.56731 0.8757877,-10.3729 -5.048051 -0.2732814,-10.41577 -3.954057 0.3023528,-10.38443 -4.303273 0.599748,-10.36969 -4.824707 0.7099826,-10.73921 -5.251075 -0.2578895,-10.78649 -4.193079 0.2272007,-10.73981 -4.444139 0.4640888,-10.70847 -4.877895 0.5389025,-11.08646 -5.55146 -0.2169845,-11.14375 -4.71256 0.2000538,-11.08676 -4.73567 0.4456371,-11.02277 -4.959459 0.5630922,1.560,DnF
-2.102576 -7.378578 0.6270035,-2.724795 -7.208337 1.077512,-3.237208 -6.575092 1.317675,-3.520447 -5.894922 1.568182,-3.770356 -5.31599 1.863655,-2.956131 -4.880929 0.6000162,-3.084755 -3.952941 0.902737,-3.157511 -3.426002 1.332593,-3.225263 -3.283115 1.668908,-2.566311 -4.706144 0.6014119,-2.607024 -3.599195 0.9703968,-2.699409 -3.239587 1.560507,-2.731878 -3.521575 2.006715,-2.188293 -4.792217 0.6768796,-2.158418 -3.736793 1.053643,-2.222352 -3.646646 1.614755,-2.268269 -4.042438 1.955695,-1.78968 -5.071508 0.815425,-1.694651 -4.278269 1.265625,-1.784612 -4.306381 1.72832,-1.91279 -4.726556 2.049596,-10.59766 -7.257712 -1.01063,-10.05229 -6.89714 -0.4459966,-9.783114 -6.111145 0.03371191,-9.84925 -5.312175 0.4432244,-10.03817 -4.589378 0.8715941,-9.978294 -5.001416 -0.2312013,-10.01357 -3.959906 0.2809566,-10.03176 -4.08555 0.668956,-10.07101 -4.56731 0.8757877,-10.3729 -5.048051 -0.2732814,-10.41577 -3.954057 0.3023528,-10.38443 -4.303273 0.599748,-10.36969 -4.824707 0.7099826,-10.73921 -5.251075 -0.2578895,-10.78649 -4.193079 0.2272007,-10.73981 -4.444139 0.4640888,-10.70847 -4.877895 0.5389025,-11.08646 -5.55146 -0.2169845,-11.14375 -4.71256 0.2000538,-11.08676 -4.73567 0.4456371,-11.02277 -4.959459 0.5630922,1.580,DnF
-2.102576 -7.378578 0.6270035,-2.724795 -7.208337 1.077512,-3.237208 -6.575092 1.317675,-3.520447 -5.894922 1.568182,-3.770356 -5.31599 1.863655,-2.956131 -4.880929 0.6000162,-3.084755 -3.952941 0.902737,-3.157511 -3.426002 1.332593,-3.225263 -3.283115 1.668908,-2.566311 -4.706144 0.6014119,-2.607024 -3.599195 0.9703968,-2.699409 -3.239587 1.560507,-2.731878 -3.521575 2.006715,-2.188293 -4.792217 0.6768796,-2.158418 -3.736793 1.053643,-2.222352 -3.646646 1.614755,-2.268269 -4.042438 1.955695,-1.78968 -5.071508 0.815425,-1.694651 -4.278269 1.265625,-1.784612 -4.306381 1.72832,-1.91279 -4.726556 2.049596,-10.59766 -7.257712 -1.01063,-10.05229 -6.89714 -0.4459966,-9.783114 -6.111145 0.03371191,-9.84925 -5.312175 0.4432244,-10.03817 -4.589378 0.8715941,-9.978294 -5.001416 -0.2312013,-10.01357 -3.959906 0.2809566,-10.03176 -4.08555 0.668956,-10.07101 -4.56731 0.8757877,-10.3729 -5.048051 -0.2732814,-10.41577 -3.954057 0.3023528,-10.38443 -4.303273 0.599748,-10.36969 -4.824707 0.7099826,-10.73921 -5.251075 -0.2578895,-10.78649 -4.193079 0.2272007,-10.73981 -4.444139 0.4640888,-10.70847 -4.877895 0.5389025,-11.08646 -5.55146 -0.2169845,-11.14375 -4.71256 0.2000538,-11.08676 -4.73567 0.4456371,-11.02277 -4.959459 0.5630922,1.600,DnF
-2.084908 -7.346776 0.5282726,-2.731703 -7.176235 1.025873,-3.241282 -6.561458 1.325235,-3.526356 -5.891672 1.61861,-3.764453 -5.322762 1.94288,-2.972716 -4.870555 0.5987845,-3.1004 -3.937808 0.9477053,-3.15925 -3.434895 1.440191,-3.202115 -3.352344 1.822897,-2.582387 -4.709625 0.5835602,-2.633562 -3.6009 1.02204,-2.71615 -3.304569 1.642069,-2.731081 -3.641305 2.094842,-2.197628 -4.794763 0.6497421,-2.173814 -3.754715 1.072544,-2.238499 -3.759547 1.635523,-2.276737 -4.204757 1.966537,-1.789839 -5.067324 0.7790122,-1.712344 -4.275547 1.253461,-1.816055 -4.366157 1.709099,-1.945868 -4.821354 2.022305,-10.68536 -7.139287 -0.6461393,-10.15891 -6.876091 0.04382122,-9.856401 -6.158029 0.5351894,-9.893414 -5.350281 0.974283,-10.09472 -4.598883 1.381276,-9.990191 -4.753858 -0.139323,-10.02108 -3.803274 0.54494,-10.06835 -4.239644 0.9750506,-10.11471 -4.76814 1.087932,-10.38324 -4.748976 -0.2332113,-10.4431 -3.906614 0.5505584,-10.43868 -4.776889 0.8057805,-10.42353 -5.265836 0.6962031,-10.74698 -4.913535 -0.2172995,-10.82571 -4.150416 0.4550238,-10.7446 -4.931682 0.6132486,-10.68965 -5.401337 0.4877656,-11.09727 -5.178201 -0.161775,-11.15686 -4.583528 0.3632542,-11.06951 -5.015785 0.5604497,-11.00505 -5.340539 0.5239286,1.620,DnF
-2.084908 -7.346776 0.5282726,-2.731703 -7.176235 1.025873,-3.241282 -6.561458 1.325235,-3.526356 -5.891672 1.61861,-3.764453 -5.322762 1.94288,-2.972716 -4.870555 0.5987845,-3.1004 -3.937808 0.9477053,-3.15925 -3.434895 1.440191,-3.202115 -3.352344 1.822897,-2.582387 -4.709625 0.5835602,-2.633562 -3.6009 1.02204,-2.71615 -3.304569 1.642069,-2.731081 -3.641305 2.094842,-2.197628 -4.794763 0.6497421,-2.173814 -3.754715 1.072544,-2.238499 -3.759547 1.635523,-2.276737 -4.204757 1.966537,-1.789839 -5.067324 0.7790122,-1.712344 -4.275547 1.253461,-1.816055 -4.366157 1.709099,-1.945868 -4.821354 2.022305,-10.68536 -7.139287 -0.6461393,-10.15891 -6.876091 0.04382122,-9.856401 -6.158029 0.5351894,-9.893414 -5.350281 0.974283,-10.09472 -4.598883 1.381276,-9.990191 -4.753858 -0.139323,-10.02108 -3.803274 0.54494,-10.06835 -4.239644 0.9750506,-10.11471 -4.76814 1.087932,-10.38324 -4.748976 -0.2332113,-10.4431 -3.906614 0.5505584,-10.43868 -4.776889 0.8057805,-10.42353 -5.265836 0.6962031,-10.74698 -4.913535 -0.2172995,-10.82571 -4.150416 0.4550238,-10.7446 -4.931682 0.6132486,-10.68965 -5.401337 0.4877656,-11.09727 -5.178201 -0.161775,-11.15686 -4.583528 0.3632542,-11.06951 -5.015785 0.5604497,-11.00505 -5.340539 0.5239286,1.640,DnF
