TiagoOliveira98/HandTracking/DataLogging/JointData/Logs(1636559070)_Hamilton.csv
WRIST,THUMB_CMC,THUMB_MCP,THUMB_IP,THUMB_TIP,INDEX_FINGER_MCP,INDEX_FINGER_PIP,INDEX_FINGER_DIP,INDEX_FINGER_TIP,MIDDLE_FINGER_MCP,MIDDLE_FINGER_PIP,MIDDLE_FINGER_DIP,MIDDLE_FINGER_TIP,RING_FINGER_MCP,RING_FINGER_PIP,RING_FINGER_DIP,RING_FINGER_TIP,PINKY_MCP,PINKY_PIP,PINKY_DIP,PINKY_TIP,WRIST2,THUMB_CMC2,THUMB_MCP2,THUMB_IP2,THUMB_TIP2,INDEX_FINGER_MCP2,INDEX_FINGER_PIP2,INDEX_FINGER_DIP2,INDEX_FINGER_TIP2,MIDDLE_FINGER_MCP2,MIDDLE_FINGER_PIP2,MIDDLE_FINGER_DIP2,MIDDLE_FINGER_TIP2,RING_FINGER_MCP2,RING_FINGER_PIP2,RING_FINGER_DIP2,RING_FINGER_TIP2,PINKY_MCP2,PINKY_PIP2,PINKY_DIP2,PINKY_TIP2,Timestamp,Event
10 0 0,10 7.47 0,10 7.47 0,10 7.47 0,10 7.47 0,10 7.47 0,10 7.47 0,10 7.47 0,10 7.47 0,10 7.47 0,10 7.47 0,10 7.47 0,10 7.47 0,10 7.47 0,10 7.47 0,10 7.47 0,10 7.47 0,10 7.47 0,10 7.47 0,10 7.47 0,10 7.47 0,10 0 0,10 7.47 0,10 7.47 0,10 7.47 0,10 7.47 0,10 7.47 0,10 7.47 0,10 7.47 0,10 7.47 0,10 7.47 0,10 7.47 0,10 7.47 0,10 7.47 0,10 7.47 0,10 7.47 0,10 7.47 0,10 7.47 0,10 7.47 0,10 7.47 0,10 7.47 0,10 7.47 0,0.020,Dnf
2 0 -8.069205,2 0 -8.069205,2 0 -8.069205,2 0 -8.069205,2 0 -8.069205,2 0 -8.069205,2 0 -8.069205,2 0 -8.069205,2 0 -8.069205,2 0 -8.069205,2 0 -8.069205,2 0 -8.069205,2 0 -8.069205,2 0 -8.069205,2 0 -8.069205,2 0 -8.069205,2 0 -8.069205,2 0 -8.069205,2 0 -8.069205,2 0 -8.069205,2 0 -8.069205,2 0 -8.061069,2 0 -8.061069,2 0 -8.061069,2 0 -8.061069,2 0 -8.061069,2 0 -8.061069,2 0 -8.061069,2 0 -8.061069,2 0 -8.061069,2 0 -8.061069,2 0 -8.061069,2 0 -8.061069,2 0 -8.061069,2 0 -8.061069,2 0 -8.061069,2 0 -8.061069,2 0 -8.061069,2 0 -8.061069,2 0 -8.061069,2 0 -8.061069,2 0 -8.061069,0.040,DnF
2 0 -8.069205,2 0 -8.069205,2 0 -8.069205,2 0 -8.069205,2 0 -8.069205,2 0 -8.069205,2 0 -8.069205,2 0 -8.069205,2 0 -8.069205,2 0 -8.069205,2 0 -8.069205,2 0 -8.069205,2 0 -8.069205,2 0 -8.069205,2 0 -8.069205,2 0 -8.069205,2 0 -8.069205,2 0 -8.069205,2 0 -8.069205,2 0 -8.069205,2 0 -8.069205,2 0 -8.061069,2 0 -8.061069,2 0 -8.061069,2 0 -8.061069,2 0 -8.061069,2 0 -8.061069,2 0 -8.061069,2 0 -8.061069,2 0 -8.061069,2 0 -8.061069,2 0 -8.061069,2 0 -8.061069,2 0 -8.061069,2 0 -8.061069,2 0 -8.061069,2 0 -8.061069,2 0 -8.061069,2 0 -8.061069,2 0 -8.061069,2 0 -8.061069,2 0 -8.061069,0.060,DnF
2 0 -8.069205,2 0 -8.069205,2 0 -8.069205,2 0 -8.069205,2 0 -8.069205,2 0 -8.069205,2 0 -8.069205,2 0 -8.069205,2 0 -8.069205,2 0 -8.069205,2 0 -8.069205,2 0 -8.069205,2 0 -8.069205,2 0 -8.069205,2 0 -8.069205,2 0 -8.069205,2 0 -8.069205,2 0 -8.069205,2 0 -8.069205,2 0 -8.069205,2 0 -8.069205,2 0 -8.061069,2 0 -8.061069,2 0 -8.061069,2 0 -8.061069,2 0 -8.061069,2 0 -8.061069,2 0 -8.061069,2 0 -8.061069,2 0 -8.061069,2 0 -8.061069,2 0 -8.061069,2 0 -8.061069,2 0 -8.061069,2 0 -8.061069,2 0 -8.061069,2 0 -8.061069,2 0 -8.061069,2 0 -8.061069,2 0 -8.061069,2 0 -8.061069,2 0 -8.061069,0.080,DnF
-1.539543 -5.535738 1.178692,-2.128517 -5.376462 1.424867,-2.659582 -4.72961 1.560026,-3.041229 -4.154594 1.704882,-3.40243 -3.867161 1.879873,-2.270756 -3.19612 1.630206,-2.551604 -2.152108 1.931581,-2.746427 -1.556262 2.170099,-2.924448 -1.023794 2.357033,-1.930135 -2.983111 1.738476,-2.124541 -1.663393 2.120371,-2.253076 -0.8684382 2.472291,-2.378166 -0.1056862 2.737575,-1.5784 -3.07096 1.867204,-1.675572 -1.873835 2.225918,-1.775076 -1.157934 2.53862,-1.885064 -0.5086913 2.803141,-1.236715 -3.373679 1.999804,-1.193659 -2.473916 2.341207,-1.201222 -1.887908 2.588162,-1.245881 -1.316887 2.792303,-8.733564 -6.874065 0.7636725,-8.18921 -6.765649 1.073779,-7.721 -6.305255 1.333969,-7.399415 -5.814162 1.621195,-7.112306 -5.512529 1.909002,-7.995458 -4.659701 1.070332,-7.774206 -3.731048 1.304832,-7.666846 -3.155285 1.508107,-7.598423 -2.63154 1.646198,-8.294137 -4.420097 1.139937,-8.110629 -3.292711 1.327394,-7.999547 -2.569682 1.556144,-7.923637 -1.943883 1.727825,-8.605157 -4.421787 1.242873,-8.488232 -3.363105 1.443386,-8.395339 -2.674927 1.655424,-8.305797 -2.089678 1.812296,-8.940098 -4.611836 1.386131,-8.945978 -3.778905 1.586118,-8.921748 -3.23877 1.741147,-8.864035 -2.738248 1.843634,0.100,DnF
-1.539543 -5.535738 1.178692,-2.128517 -5.376462 1.424867,-2.659582 -4.72961 1.560026,-3.041229 -4.154594 1.704882,-3.40243 -3.867161 1.879873,-2.270756 -3.19612 1.630206,-2.551604 -2.152108 1.931581,-2.746427 -1.556262 2.170099,-2.924448 -1.023794 2.357033,-1.930135 -2.983111 1.738476,-2.124541 -1.663393 2.120371,-2.253076 -0.8684382 2.472291,-2.378166 -0.1056862 2.737575,-1.5784 -3.07096 1.867204,-1.675572 -1.873835 2.225918,-1.775076 -1.157934 2.53862,-1.885064 -0.5086913 2.803141,-1.236715 -3.373679 1.999804,-1.193659 -2.473916 2.341207,-1.201222 -1.887908 2.588162,-1.245881 -1.316887 2.792303,-8.733564 -6.874065 0.7636725,-8.18921 -6.765649 1.073779,-7.721 -6.305255 1.333969,-7.399415 -5.814162 1.621195,-7.112306 -5.512529 1.909002,-7.995458 -4.659701 1.070332,-7.774206 -3.731048 1.304832,-7.666846 -3.155285 1.508107,-7.598423 -2.63154 1.646198,-8.294137 -4.420097 1.139937,-8.110629 -3.292711 1.327394,-7.999547 -2.569682 1.556144,-7.923637 -1.943883 1.727825,-8.605157 -4.421787 1.242873,-8.488232 -3.363105 1.443386,-8.395339 -2.674927 1.655424,-8.305797 -2.089678 1.812296,-8.940098 -4.611836 1.386131,-8.945978 -3.778905 1.586118,-8.921748 -3.23877 1.741147,-8.864035 -2.738248 1.843634,0.120,DnF
-1.539543 -5.535738 1.178692,-2.128517 -5.376462 1.424867,-2.659582 -4.72961 1.560026,-3.041229 -4.154594 1.704882,-3.40243 -3.867161 1.879873,-2.270756 -3.19612 1.630206,-2.551604 -2.152108 1.931581,-2.746427 -1.556262 2.170099,-2.924448 -1.023794 2.357033,-1.930135 -2.983111 1.738476,-2.124541 -1.663393 2.120371,-2.253076 -0.8684382 2.472291,-2.378166 -0.1056862 2.737575,-1.5784 -3.07096 1.867204,-1.675572 -1.873835 2.225918,-1.775076 -1.157934 2.53862,-1.885064 -0.5086913 2.803141,-1.236715 -3.373679 1.999804,-1.193659 -2.473916 2.341207,-1.201222 -1.887908 2.588162,-1.245881 -1.316887 2.792303,-8.733564 -6.874065 0.7636725,-8.18921 -6.765649 1.073779,-7.721 -6.305255 1.333969,-7.399415 -5.814162 1.621195,-7.112306 -5.512529 1.909002,-7.995458 -4.659701 1.070332,-7.774206 -3.731048 1.304832,-7.666846 -3.155285 1.508107,-7.598423 -2.63154 1.646198,-8.294137 -4.420097 1.139937,-8.110629 -3.292711 1.327394,-7.999547 -2.569682 1.556144,-7.923637 -1.943883 1.727825,-8.605157 -4.421787 1.242873,-8.488232 -3.363105 1.443386,-8.395339 -2.674927 1.655424,-8.305797 -2.089678 1.812296,-8.940098 -4.611836 1.386131,-8.945978 -3.778905 1.586118,-8.921748 -3.23877 1.741147,-8.864035 -2.738248 1.843634,0.140,DnF
-1.539543 -5.535738 1.178692,-2.128517 -5.376462 1.424867,-2.659582 -4.72961 1.560026,-3.041229 -4.154594 1.704882,-3.40243 -3.867161 1.879873,-2.270756 -3.19612 1.630206,-2.551604 -2.152108 1.931581,-2.746427 -1.556262 2.170099,-2.924448 -1.023794 2.357033,-1.930135 -2.983111 1.738476,-2.124541 -1.663393 2.120371,-2.253076 -0.8684382 2.472291,-2.378166 -0.1056862 2.737575,-1.5784 -3.07096 1.867204,-1.675572 -1.873835 2.225918,-1.775076 -1.157934 2.53862,-1.885064 -0.5086913 2.803141,-1.236715 -3.373679 1.999804,-1.193659 -2.473916 2.341207,-1.201222 -1.887908 2.588162,-1.245881 -1.316887 2.792303,-8.733564 -6.874065 0.7636725,-8.18921 -6.765649 1.073779,-7.721 -6.305255 1.333969,-7.399415 -5.814162 1.621195,-7.112306 -5.512529 1.909002,-7.995458 -4.659701 1.070332,-7.774206 -3.731048 1.304832,-7.666846 -3.155285 1.508107,-7.598423 -2.63154 1.646198,-8.294137 -4.420097 1.139937,-8.110629 -3.292711 1.327394,-7.999547 -2.569682 1.556144,-7.923637 -1.943883 1.727825,-8.605157 -4.421787 1.242873,-8.488232 -3.363105 1.443386,-8.395339 -2.674927 1.655424,-8.305797 -2.089678 1.812296,-8.940098 -4.611836 1.386131,-8.945978 -3.778905 1.586118,-8.921748 -3.23877 1.741147,-8.864035 -2.738248 1.843634,0.160,DnF
-1.339916 -5.753946 1.395402,-1.94213 -5.543973 1.729384,-2.483728 -4.907934 1.907051,-2.867618 -4.305324 2.067837,-3.227766 -3.971732 2.244991,-2.098245 -3.318502 1.823865,-2.346931 -2.285112 2.051741,-2.505844 -1.680749 2.273779,-2.64866 -1.136577 2.474941,-1.749892 -3.122845 1.866141,-1.926351 -1.865528 2.163594,-2.029968 -1.134205 2.475065,-2.123605 -0.4415631 2.73807,-1.402433 -3.216526 1.943815,-1.488547 -2.055303 2.253349,-1.566717 -1.375598 2.536677,-1.659272 -0.7542586 2.782624,-1.058498 -3.523971 2.038158,-0.994915 -2.645165 2.358996,-0.9981823 -2.114983 2.576215,-1.03854 -1.611938 2.770608,-8.689837 -6.891616 0.7820513,-8.144791 -6.771622 1.082822,-7.673852 -6.306842 1.33318,-7.350979 -5.812119 1.61085,-7.072199 -5.51251 1.880982,-7.944877 -4.664394 1.086479,-7.724071 -3.727863 1.31405,-7.615364 -3.14998 1.517337,-7.542202 -2.624676 1.652833,-8.244596 -4.431892 1.148687,-8.067197 -3.291013 1.328573,-7.955959 -2.566762 1.553187,-7.874989 -1.935529 1.715031,-8.55367 -4.440401 1.242899,-8.439526 -3.369668 1.432788,-8.345165 -2.681121 1.640397,-8.255684 -2.096568 1.790604,-8.881137 -4.635273 1.373237,-8.884019 -3.798524 1.566285,-8.863821 -3.244097 1.723418,-8.812782 -2.729584 1.81979,0.180,DnF
-1.339916 -5.753946 1.395402,-1.94213 -5.543973 1.729384,-2.483728 -4.907934 1.907051,-2.867618 -4.305324 2.067837,-3.227766 -3.971732 2.244991,-2.098245 -3.318502 1.823865,-2.346931 -2.285112 2.051741,-2.505844 -1.680749 2.273779,-2.64866 -1.136577 2.474941,-1.749892 -3.122845 1.866141,-1.926351 -1.865528 2.163594,-2.029968 -1.134205 2.475065,-2.123605 -0.4415631 2.73807,-1.402433 -3.216526 1.943815,-1.488547 -2.055303 2.253349,-1.566717 -1.375598 2.536677,-1.659272 -0.7542586 2.782624,-1.058498 -3.523971 2.038158,-0.994915 -2.645165 2.358996,-0.9981823 -2.114983 2.576215,-1.03854 -1.611938 2.770608,-8.689837 -6.891616 0.7820513,-8.144791 -6.771622 1.082822,-7.673852 -6.306842 1.33318,-7.350979 -5.812119 1.61085,-7.072199 -5.51251 1.880982,-7.944877 -4.664394 1.086479,-7.724071 -3.727863 1.31405,-7.615364 -3.14998 1.517337,-7.542202 -2.624676 1.652833,-8.244596 -4.431892 1.148687,-8.067197 -3.291013 1.328573,-7.955959 -2.566762 1.553187,-7.874989 -1.935529 1.715031,-8.55367 -4.440401 1.242899,-8.439526 -3.369668 1.432788,-8.345165 -2.681121 1.640397,-8.255684 -2.096568 1.790604,-8.881137 -4.635273 1.373237,-8.884019 -3.798524 1.566285,-8.863821 -3.244097 1.723418,-8.812782 -2.729584 1.81979,0.200,DnF
-1.339916 -5.753946 1.395402,-1.94213 -5.543973 1.729384,-2.483728 -4.907934 1.907051,-2.867618 -4.305324 2.067837,-3.227766 -3.971732 2.244991,-2.098245 -3.318502 1.823865,-2.346931 -2.285112 2.051741,-2.505844 -1.680749 2.273779,-2.64866 -1.136577 2.474941,-1.749892 -3.122845 1.866141,-1.926351 -1.865528 2.163594,-2.029968 -1.134205 2.475065,-2.123605 -0.4415631 2.73807,-1.402433 -3.216526 1.943815,-1.488547 -2.055303 2.253349,-1.566717 -1.375598 2.536677,-1.659272 -0.7542586 2.782624,-1.058498 -3.523971 2.038158,-0.994915 -2.645165 2.358996,-0.9981823 -2.114983 2.576215,-1.03854 -1.611938 2.770608,-8.689837 -6.891616 0.7820513,-8.144791 -6.771622 1.082822,-7.673852 -6.306842 1.33318,-7.350979 -5.812119 1.61085,-7.072199 -5.51251 1.880982,-7.944877 -4.664394 1.086479,-7.724071 -3.727863 1.31405,-7.615364 -3.14998 1.517337,-7.542202 -2.624676 1.652833,-8.244596 -4.431892 1.148687,-8.067197 -3.291013 1.328573,-7.955959 -2.566762 1.553187,-7.874989 -1.935529 1.715031,-8.55367 -4.440401 1.242899,-8.439526 -3.369668 1.432788,-8.345165 -2.681121 1.640397,-8.255684 -2.096568 1.790604,-8.881137 -4.635273 1.373237,-8.884019 -3.798524 1.566285,-8.863821 -3.244097 1.723418,-8.812782 -2.729584 1.81979,0.220,DnF
-1.238675 -5.957906 1.534078,-1.836622 -5.671074 1.891917,-2.367918 -5.041282 2.094085,-2.763442 -4.439599 2.280997,-3.136156 -4.136837 2.496981,-1.964774 -3.47239 1.960959,-2.197786 -2.441801 2.214693,-2.340793 -1.831739 2.442736,-2.475971 -1.267925 2.643922,-1.611442 -3.280537 2.003992,-1.771258 -2.042678 2.32234,-1.860334 -1.298354 2.629558,-1.950131 -0.5898385 2.882776,-1.264945 -3.380769 2.087777,-1.336947 -2.235215 2.419066,-1.40952 -1.532778 2.716577,-1.500997 -0.8889155 2.958637,-0.9216342 -3.708271 2.191607,-0.8506718 -2.858799 2.534684,-0.8515682 -2.308577 2.771159,-0.8944206 -1.781187 2.966981,-8.672265 -6.884712 0.8278077,-8.116356 -6.76317 1.126462,-7.640104 -6.314099 1.373759,-7.308127 -5.823436 1.646036,-7.017995 -5.527495 1.913907,-7.900727 -4.655538 1.123172,-7.682065 -3.717784 1.345465,-7.578771 -3.128727 1.549535,-7.509737 -2.603363 1.686127,-8.205126 -4.413854 1.182471,-8.028702 -3.280991 1.349679,-7.915539 -2.549275 1.564751,-7.832541 -1.918824 1.728096,-8.51673 -4.411233 1.275026,-8.408144 -3.354549 1.444969,-8.311506 -2.679508 1.632782,-8.216341 -2.112318 1.766888,-8.844342 -4.595649 1.406312,-8.851566 -3.756731 1.587017,-8.828499 -3.206142 1.728147,-8.772739 -2.689736 1.811354,0.240,DnF
-1.238675 -5.957906 1.534078,-1.836622 -5.671074 1.891917,-2.367918 -5.041282 2.094085,-2.763442 -4.439599 2.280997,-3.136156 -4.136837 2.496981,-1.964774 -3.47239 1.960959,-2.197786 -2.441801 2.214693,-2.340793 -1.831739 2.442736,-2.475971 -1.267925 2.643922,-1.611442 -3.280537 2.003992,-1.771258 -2.042678 2.32234,-1.860334 -1.298354 2.629558,-1.950131 -0.5898385 2.882776,-1.264945 -3.380769 2.087777,-1.336947 -2.235215 2.419066,-1.40952 -1.532778 2.716577,-1.500997 -0.8889155 2.958637,-0.9216342 -3.708271 2.191607,-0.8506718 -2.858799 2.534684,-0.8515682 -2.308577 2.771159,-0.8944206 -1.781187 2.966981,-8.672265 -6.884712 0.8278077,-8.116356 -6.76317 1.126462,-7.640104 -6.314099 1.373759,-7.308127 -5.823436 1.646036,-7.017995 -5.527495 1.913907,-7.900727 -4.655538 1.123172,-7.682065 -3.717784 1.345465,-7.578771 -3.128727 1.549535,-7.509737 -2.603363 1.686127,-8.205126 -4.413854 1.182471,-8.028702 -3.280991 1.349679,-7.915539 -2.549275 1.564751,-7.832541 -1.918824 1.728096,-8.51673 -4.411233 1.275026,-8.408144 -3.354549 1.444969,-8.311506 -2.679508 1.632782,-8.216341 -2.112318 1.766888,-8.844342 -4.595649 1.406312,-8.851566 -3.756731 1.587017,-8.828499 -3.206142 1.728147,-8.772739 -2.689736 1.811354,0.260,DnF
-1.238675 -5.957906 1.534078,-1.836622 -5.671074 1.891917,-2.367918 -5.041282 2.094085,-2.763442 -4.439599 2.280997,-3.136156 -4.136837 2.496981,-1.964774 -3.47239 1.960959,-2.197786 -2.441801 2.214693,-2.340793 -1.831739 2.442736,-2.475971 -1.267925 2.643922,-1.611442 -3.280537 2.003992,-1.771258 -2.042678 2.32234,-1.860334 -1.298354 2.629558,-1.950131 -0.5898385 2.882776,-1.264945 -3.380769 2.087777,-1.336947 -2.235215 2.419066,-1.40952 -1.532778 2.716577,-1.500997 -0.8889155 2.958637,-0.9216342 -3.708271 2.191607,-0.8506718 -2.858799 2.534684,-0.8515682 -2.308577 2.771159,-0.8944206 -1.781187 2.966981,-8.672265 -6.884712 0.8278077,-8.116356 -6.76317 1.126462,-7.640104 -6.314099 1.373759,-7.308127 -5.823436 1.646036,-7.017995 -5.527495 1.913907,-7.900727 -4.655538 1.123172,-7.682065 -3.717784 1.345465,-7.578771 -3.128727 1.549535,-7.509737 -2.603363 1.686127,-8.205126 -4.413854 1.182471,-8.028702 -3.280991 1.349679,-7.915539 -2.549275 1.564751,-7.832541 -1.918824 1.728096,-8.51673 -4.411233 1.275026,-8.408144 -3.354549 1.444969,-8.311506 -2.679508 1.632782,-8.216341 -2.112318 1.766888,-8.844342 -4.595649 1.406312,-8.851566 -3.756731 1.587017,-8.828499 -3.206142 1.728147,-8.772739 -2.689736 1.811354,0.280,DnF
-1.169113 -6.107824 1.610875,-1.761765 -5.775575 1.978263,-2.287701 -5.126081 2.195047,-2.685736 -4.549596 2.392354,-3.059046 -4.268358 2.631214,-1.87002 -3.580942 2.066622,-2.081079 -2.562509 2.35535,-2.212742 -1.9588 2.601243,-2.340765 -1.403179 2.816553,-1.507855 -3.409969 2.116453,-1.651338 -2.196353 2.469785,-1.736362 -1.441007 2.802167,-1.825678 -0.7158065 3.069088,-1.154695 -3.526016 2.207686,-1.218257 -2.404806 2.569225,-1.285418 -1.705112 2.890253,-1.371468 -1.070274 3.14403,-0.8053436 -3.865823 2.321297,-0.7267017 -3.042243 2.683219,-0.7152662 -2.498994 2.935006,-0.7472739 -1.972291 3.137916,-8.65533 -6.870662 0.8107667,-8.099808 -6.749424 1.093004,-7.613153 -6.305655 1.322481,-7.268227 -5.814763 1.582418,-6.983831 -5.525661 1.833622,-7.867532 -4.646323 1.062773,-7.644521 -3.699763 1.253404,-7.546978 -3.103062 1.441321,-7.483747 -2.587695 1.565895,-8.175779 -4.399337 1.105848,-7.99837 -3.256713 1.237292,-7.893726 -2.532617 1.434536,-7.821027 -1.917665 1.586433,-8.490602 -4.385011 1.179692,-8.37856 -3.321664 1.306278,-8.287136 -2.664374 1.460528,-8.199552 -2.113755 1.570451,-8.818409 -4.553545 1.293289,-8.830602 -3.720544 1.42321,-8.81135 -3.177001 1.531706,-8.762462 -2.659173 1.592837,0.300,DnF
-1.169113 -6.107824 1.610875,-1.761765 -5.775575 1.978263,-2.287701 -5.126081 2.195047,-2.685736 -4.549596 2.392354,-3.059046 -4.268358 2.631214,-1.87002 -3.580942 2.066622,-2.081079 -2.562509 2.35535,-2.212742 -1.9588 2.601243,-2.340765 -1.403179 2.816553,-1.507855 -3.409969 2.116453,-1.651338 -2.196353 2.469785,-1.736362 -1.441007 2.802167,-1.825678 -0.7158065 3.069088,-1.154695 -3.526016 2.207686,-1.218257 -2.404806 2.569225,-1.285418 -1.705112 2.890253,-1.371468 -1.070274 3.14403,-0.8053436 -3.865823 2.321297,-0.7267017 -3.042243 2.683219,-0.7152662 -2.498994 2.935006,-0.7472739 -1.972291 3.137916,-8.65533 -6.870662 0.8107667,-8.099808 -6.749424 1.093004,-7.613153 -6.305655 1.322481,-7.268227 -5.814763 1.582418,-6.983831 -5.525661 1.833622,-7.867532 -4.646323 1.062773,-7.644521 -3.699763 1.253404,-7.546978 -3.103062 1.441321,-7.483747 -2.587695 1.565895,-8.175779 -4.399337 1.105848,-7.99837 -3.256713 1.237292,-7.893726 -2.532617 1.434536,-7.821027 -1.917665 1.586433,-8.490602 -4.385011 1.179692,-8.37856 -3.321664 1.306278,-8.287136 -2.664374 1.460528,-8.199552 -2.113755 1.570451,-8.818409 -4.553545 1.293289,-8.830602 -3.720544 1.42321,-8.81135 -3.177001 1.531706,-8.762462 -2.659173 1.592837,0.320,DnF
-1.169113 -6.107824 1.610875,-1.761765 -5.775575 1.978263,-2.287701 -5.126081 2.195047,-2.685736 -4.549596 2.392354,-3.059046 -4.268358 2.631214,-1.87002 -3.580942 2.066622,-2.081079 -2.562509 2.35535,-2.212742 -1.9588 2.601243,-2.340765 -1.403179 2.816553,-1.507855 -3.409969 2.116453,-1.651338 -2.196353 2.469785,-1.736362 -1.441007 2.802167,-1.825678 -0.7158065 3.069088,-1.154695 -3.526016 2.207686,-1.218257 -2.404806 2.569225,-1.285418 -1.705112 2.890253,-1.371468 -1.070274 3.14403,-0.8053436 -3.865823 2.321297,-0.7267017 -3.042243 2.683219,-0.7152662 -2.498994 2.935006,-0.7472739 -1.972291 3.137916,-8.65533 -6.870662 0.8107667,-8.099808 -6.749424 1.093004,-7.613153 -6.305655 1.322481,-7.268227 -5.814763 1.582418,-6.983831 -5.525661 1.833622,-7.867532 -4.646323 1.062773,-7.644521 -3.699763 1.253404,-7.546978 -3.103062 1.441321,-7.483747 -2.587695 1.565895,-8.175779 -4.399337 1.105848,-7.99837 -3.256713 1.237292,-7.893726 -2.532617 1.434536,-7.821027 -1.917665 1.586433,-8.490602 -4.385011 1.179692,-8.37856 -3.321664 1.306278,-8.287136 -2.664374 1.460528,-8.199552 -2.113755 1.570451,-8.818409 -4.553545 1.293289,-8.830602 -3.720544 1.42321,-8.81135 -3.177001 1.531706,-8.762462 -2.659173 1.592837,0.340,DnF
-1.124924 -6.257247 1.641586,-1.701204 -5.950162 2.063926,-2.231581 -5.303415 2.308393,-2.633425 -4.76042 2.523885,-3.024297 -4.513999 2.774107,-1.795305 -3.725651 2.163184,-2.001318 -2.718892 2.469487,-2.122905 -2.127884 2.711604,-2.24498 -1.580215 2.916119,-1.421866 -3.553052 2.186291,-1.550121 -2.363966 2.54973,-1.627929 -1.632579 2.865383,-1.714923 -0.9412808 3.106935,-1.065845 -3.684643 2.256463,-1.095702 -2.597284 2.627461,-1.144446 -1.938343 2.937506,-1.220224 -1.35182 3.16708,-0.7174444 -4.043423 2.353789,-0.6191664 -3.261869 2.716427,-0.5919981 -2.761054 2.956222,-0.6137419 -2.276404 3.150826,-8.65533 -6.870662 0.8107667,-8.099808 -6.749424 1.093004,-7.613153 -6.305655 1.322481,-7.268227 -5.814763 1.582418,-6.983831 -5.525661 1.833622,-7.867532 -4.646323 1.062773,-7.644521 -3.699763 1.253404,-7.546978 -3.103062 1.441321,-7.483747 -2.587695 1.565895,-8.175779 -4.399337 1.105848,-7.99837 -3.256713 1.237292,-7.893726 -2.532617 1.434536,-7.821027 -1.917665 1.586433,-8.490602 -4.385011 1.179692,-8.37856 -3.321664 1.306278,-8.287136 -2.664374 1.460528,-8.199552 -2.113755 1.570451,-8.818409 -4.553545 1.293289,-8.830602 -3.720544 1.42321,-8.81135 -3.177001 1.531706,-8.762462 -2.659173 1.592837,0.360,DnF
-1.124924 -6.257247 1.641586,-1.701204 -5.950162 2.063926,-2.231581 -5.303415 2.308393,-2.633425 -4.76042 2.523885,-3.024297 -4.513999 2.774107,-1.795305 -3.725651 2.163184,-2.001318 -2.718892 2.469487,-2.122905 -2.127884 2.711604,-2.24498 -1.580215 2.916119,-1.421866 -3.553052 2.186291,-1.550121 -2.363966 2.54973,-1.627929 -1.632579 2.865383,-1.714923 -0.9412808 3.106935,-1.065845 -3.684643 2.256463,-1.095702 -2.597284 2.627461,-1.144446 -1.938343 2.937506,-1.220224 -1.35182 3.16708,-0.7174444 -4.043423 2.353789,-0.6191664 -3.261869 2.716427,-0.5919981 -2.761054 2.956222,-0.6137419 -2.276404 3.150826,-8.645327 -6.897178 0.9122813,-8.096219 -6.759341 1.168249,-7.607194 -6.3139 1.402664,-7.254897 -5.826263 1.672451,-6.965107 -5.540006 1.93476,-7.854823 -4.648733 1.162727,-7.626663 -3.7208 1.354943,-7.519275 -3.12622 1.542481,-7.442598 -2.606143 1.671727,-8.160182 -4.398422 1.217176,-7.976376 -3.268607 1.362841,-7.863155 -2.53608 1.571679,-7.785042 -1.906681 1.736441,-8.477211 -4.393288 1.30011,-8.358773 -3.344076 1.434304,-8.255466 -2.672354 1.585044,-8.161762 -2.111288 1.697313,-8.808307 -4.57909 1.419348,-8.814203 -3.739575 1.556155,-8.787337 -3.181312 1.675715,-8.735595 -2.646099 1.747192,0.380,DnF
-1.124924 -6.257247 1.641586,-1.701204 -5.950162 2.063926,-2.231581 -5.303415 2.308393,-2.633425 -4.76042 2.523885,-3.024297 -4.513999 2.774107,-1.795305 -3.725651 2.163184,-2.001318 -2.718892 2.469487,-2.122905 -2.127884 2.711604,-2.24498 -1.580215 2.916119,-1.421866 -3.553052 2.186291,-1.550121 -2.363966 2.54973,-1.627929 -1.632579 2.865383,-1.714923 -0.9412808 3.106935,-1.065845 -3.684643 2.256463,-1.095702 -2.597284 2.627461,-1.144446 -1.938343 2.937506,-1.220224 -1.35182 3.16708,-0.7174444 -4.043423 2.353789,-0.6191664 -3.261869 2.716427,-0.5919981 -2.761054 2.956222,-0.6137419 -2.276404 3.150826,-8.645327 -6.897178 0.9122813,-8.096219 -6.759341 1.168249,-7.607194 -6.3139 1.402664,-7.254897 -5.826263 1.672451,-6.965107 -5.540006 1.93476,-7.854823 -4.648733 1.162727,-7.626663 -3.7208 1.354943,-7.519275 -3.12622 1.542481,-7.442598 -2.606143 1.671727,-8.160182 -4.398422 1.217176,-7.976376 -3.268607 1.362841,-7.863155 -2.53608 1.571679,-7.785042 -1.906681 1.736441,-8.477211 -4.393288 1.30011,-8.358773 -3.344076 1.434304,-8.255466 -2.672354 1.585044,-8.161762 -2.111288 1.697313,-8.808307 -4.57909 1.419348,-8.814203 -3.739575 1.556155,-8.787337 -3.181312 1.675715,-8.735595 -2.646099 1.747192,0.400,DnF
-1.124924 -6.257247 1.641586,-1.701204 -5.950162 2.063926,-2.231581 -5.303415 2.308393,-2.633425 -4.76042 2.523885,-3.024297 -4.513999 2.774107,-1.795305 -3.725651 2.163184,-2.001318 -2.718892 2.469487,-2.122905 -2.127884 2.711604,-2.24498 -1.580215 2.916119,-1.421866 -3.553052 2.186291,-1.550121 -2.363966 2.54973,-1.627929 -1.632579 2.865383,-1.714923 -0.9412808 3.106935,-1.065845 -3.684643 2.256463,-1.095702 -2.597284 2.627461,-1.144446 -1.938343 2.937506,-1.220224 -1.35182 3.16708,-0.7174444 -4.043423 2.353789,-0.6191664 -3.261869 2.716427,-0.5919981 -2.761054 2.956222,-0.6137419 -2.276404 3.150826,-8.645327 -6.897178 0.9122813,-8.096219 -6.759341 1.168249,-7.607194 -6.3139 1.402664,-7.254897 -5.826263 1.672451,-6.965107 -5.540006 1.93476,-7.854823 -4.648733 1.162727,-7.626663 -3.7208 1.354943,-7.519275 -3.12622 1.542481,-7.442598 -2.606143 1.671727,-8.160182 -4.398422 1.217176,-7.976376 -3.268607 1.362841,-7.863155 -2.53608 1.571679,-7.785042 -1.906681 1.736441,-8.477211 -4.393288 1.30011,-8.358773 -3.344076 1.434304,-8.255466 -2.672354 1.585044,-8.161762 -2.111288 1.697313,-8.808307 -4.57909 1.419348,-8.814203 -3.739575 1.556155,-8.787337 -3.181312 1.675715,-8.735595 -2.646099 1.747192,0.420,DnF
-1.070948 -6.417531 1.555063,-1.661573 -6.143251 1.973734,-2.216245 -5.504077 2.197152,-2.625201 -4.961004 2.397675,-2.998765 -4.65922 2.630144,-1.761095 -3.90124 1.948132,-1.969893 -2.929034 2.206538,-2.080057 -2.353551 2.420165,-2.19123 -1.842406 2.599005,-1.378394 -3.712611 1.942301,-1.492821 -2.574612 2.201712,-1.562506 -1.882675 2.452243,-1.640497 -1.270535 2.636072,-1.018573 -3.830232 1.997557,-1.027281 -2.790126 2.270093,-1.065897 -2.179688 2.539827,-1.135722 -1.673639 2.736522,-0.6682062 -4.171335 2.083209,-0.5530725 -3.429745 2.367575,-0.517396 -2.979968 2.572429,-0.5321455 -2.5691 2.74549,-8.64436 -6.930596 0.9722075,-8.09813 -6.79667 1.226982,-7.60704 -6.323926 1.450201,-7.258638 -5.82291 1.708837,-6.97211 -5.54511 1.96325,-7.846314 -4.664899 1.216677,-7.61972 -3.732433 1.391182,-7.510741 -3.138921 1.569056,-7.433548 -2.619657 1.699803,-8.15165 -4.414255 1.264449,-7.974918 -3.277812 1.397394,-7.860292 -2.544052 1.597841,-7.782125 -1.912736 1.756148,-8.467098 -4.408306 1.342022,-8.350066 -3.352884 1.467735,-8.245619 -2.682441 1.612419,-8.153921 -2.12181 1.721588,-8.796748 -4.594287 1.455203,-8.802748 -3.749048 1.584216,-8.777536 -3.187662 1.698857,-8.732466 -2.647567 1.7691,0.440,DnF
-1.070948 -6.417531 1.555063,-1.661573 -6.143251 1.973734,-2.216245 -5.504077 2.197152,-2.625201 -4.961004 2.397675,-2.998765 -4.65922 2.630144,-1.761095 -3.90124 1.948132,-1.969893 -2.929034 2.206538,-2.080057 -2.353551 2.420165,-2.19123 -1.842406 2.599005,-1.378394 -3.712611 1.942301,-1.492821 -2.574612 2.201712,-1.562506 -1.882675 2.452243,-1.640497 -1.270535 2.636072,-1.018573 -3.830232 1.997557,-1.027281 -2.790126 2.270093,-1.065897 -2.179688 2.539827,-1.135722 -1.673639 2.736522,-0.6682062 -4.171335 2.083209,-0.5530725 -3.429745 2.367575,-0.517396 -2.979968 2.572429,-0.5321455 -2.5691 2.74549,-8.64436 -6.930596 0.9722075,-8.09813 -6.79667 1.226982,-7.60704 -6.323926 1.450201,-7.258638 -5.82291 1.708837,-6.97211 -5.54511 1.96325,-7.846314 -4.664899 1.216677,-7.61972 -3.732433 1.391182,-7.510741 -3.138921 1.569056,-7.433548 -2.619657 1.699803,-8.15165 -4.414255 1.264449,-7.974918 -3.277812 1.397394,-7.860292 -2.544052 1.597841,-7.782125 -1.912736 1.756148,-8.467098 -4.408306 1.342022,-8.350066 -3.352884 1.467735,-8.245619 -2.682441 1.612419,-8.153921 -2.12181 1.721588,-8.796748 -4.594287 1.455203,-8.802748 -3.749048 1.584216,-8.777536 -3.187662 1.698857,-8.732466 -2.647567 1.7691,0.460,DnF
-1.070948 -6.417531 1.555063,-1.661573 -6.143251 1.973734,-2.216245 -5.504077 2.197152,-2.625201 -4.961004 2.397675,-2.998765 -4.65922 2.630144,-1.761095 -3.90124 1.948132,-1.969893 -2.929034 2.206538,-2.080057 -2.353551 2.420165,-2.19123 -1.842406 2.599005,-1.378394 -3.712611 1.942301,-1.492821 -2.574612 2.201712,-1.562506 -1.882675 2.452243,-1.640497 -1.270535 2.636072,-1.018573 -3.830232 1.997557,-1.027281 -2.790126 2.270093,-1.065897 -2.179688 2.539827,-1.135722 -1.673639 2.736522,-0.6682062 -4.171335 2.083209,-0.5530725 -3.429745 2.367575,-0.517396 -2.979968 2.572429,-0.5321455 -2.5691 2.74549,-8.64436 -6.930596 0.9722075,-8.09813 -6.79667 1.226982,-7.60704 -6.323926 1.450201,-7.258638 -5.82291 1.708837,-6.97211 -5.54511 1.96325,-7.846314 -4.664899 1.216677,-7.61972 -3.732433 1.391182,-7.510741 -3.138921 1.569056,-7.433548 -2.619657 1.699803,-8.15165 -4.414255 1.264449,-7.974918 -3.277812 1.397394,-7.860292 -2.544052 1.597841,-7.782125 -1.912736 1.756148,-8.467098 -4.408306 1.342022,-8.350066 -3.352884 1.467735,-8.245619 -2.682441 1.612419,-8.153921 -2.12181 1.721588,-8.796748 -4.594287 1.455203,-8.802748 -3.749048 1.584216,-8.777536 -3.187662 1.698857,-8.732466 -2.647567 1.7691,0.480,DnF
-1.05864 -6.568651 1.55535,-1.628133 -6.265388 1.968903,-2.162441 -5.624635 2.197275,-2.58134 -5.103082 2.398961,-2.978867 -4.872493 2.644259,-1.723718 -4.043296 1.961332,-1.92198 -3.106186 2.226857,-2.027064 -2.545042 2.442714,-2.135136 -2.04467 2.626455,-1.343816 -3.86284 1.953808,-1.457177 -2.77951 2.206789,-1.525979 -2.120017 2.444782,-1.59912 -1.529893 2.617839,-0.985548 -4.001009 2.002433,-0.9741974 -3.001131 2.283589,-1.014324 -2.430208 2.548597,-1.082135 -1.950864 2.73421,-0.639205 -4.369697 2.083043,-0.5089312 -3.682317 2.380811,-0.4694729 -3.249237 2.58032,-0.4744873 -2.838632 2.743319,-8.638021 -6.944753 1.049253,-8.09105 -6.794473 1.292891,-7.605636 -6.323689 1.5199,-7.261969 -5.824043 1.785657,-6.981769 -5.538664 2.048215,-7.849185 -4.647549 1.286438,-7.624788 -3.720016 1.454119,-7.519158 -3.135746 1.629161,-7.4442 -2.625807 1.759752,-8.157064 -4.403913 1.344574,-7.981985 -3.266364 1.474952,-7.867001 -2.542786 1.675459,-7.788781 -1.9236 1.836743,-8.474341 -4.406429 1.432337,-8.357869 -3.349899 1.556432,-8.250653 -2.682926 1.704994,-8.156086 -2.124382 1.817546,-8.804798 -4.602684 1.553028,-8.815808 -3.763168 1.680712,-8.793153 -3.207582 1.788447,-8.7495 -2.672511 1.856147,0.500,DnF
-1.05864 -6.568651 1.55535,-1.628133 -6.265388 1.968903,-2.162441 -5.624635 2.197275,-2.58134 -5.103082 2.398961,-2.978867 -4.872493 2.644259,-1.723718 -4.043296 1.961332,-1.92198 -3.106186 2.226857,-2.027064 -2.545042 2.442714,-2.135136 -2.04467 2.626455,-1.343816 -3.86284 1.953808,-1.457177 -2.77951 2.206789,-1.525979 -2.120017 2.444782,-1.59912 -1.529893 2.617839,-0.985548 -4.001009 2.002433,-0.9741974 -3.001131 2.283589,-1.014324 -2.430208 2.548597,-1.082135 -1.950864 2.73421,-0.639205 -4.369697 2.083043,-0.5089312 -3.682317 2.380811,-0.4694729 -3.249237 2.58032,-0.4744873 -2.838632 2.743319,-8.638021 -6.944753 1.049253,-8.09105 -6.794473 1.292891,-7.605636 -6.323689 1.5199,-7.261969 -5.824043 1.785657,-6.981769 -5.538664 2.048215,-7.849185 -4.647549 1.286438,-7.624788 -3.720016 1.454119,-7.519158 -3.135746 1.629161,-7.4442 -2.625807 1.759752,-8.157064 -4.403913 1.344574,-7.981985 -3.266364 1.474952,-7.867001 -2.542786 1.675459,-7.788781 -1.9236 1.836743,-8.474341 -4.406429 1.432337,-8.357869 -3.349899 1.556432,-8.250653 -2.682926 1.704994,-8.156086 -2.124382 1.817546,-8.804798 -4.602684 1.553028,-8.815808 -3.763168 1.680712,-8.793153 -3.207582 1.788447,-8.7495 -2.672511 1.856147,0.520,DnF
-1.05864 -6.568651 1.55535,-1.628133 -6.265388 1.968903,-2.162441 -5.624635 2.197275,-2.58134 -5.103082 2.398961,-2.978867 -4.872493 2.644259,-1.723718 -4.043296 1.961332,-1.92198 -3.106186 2.226857,-2.027064 -2.545042 2.442714,-2.135136 -2.04467 2.626455,-1.343816 -3.86284 1.953808,-1.457177 -2.77951 2.206789,-1.525979 -2.120017 2.444782,-1.59912 -1.529893 2.617839,-0.985548 -4.001009 2.002433,-0.9741974 -3.001131 2.283589,-1.014324 -2.430208 2.548597,-1.082135 -1.950864 2.73421,-0.639205 -4.369697 2.083043,-0.5089312 -3.682317 2.380811,-0.4694729 -3.249237 2.58032,-0.4744873 -2.838632 2.743319,-8.638021 -6.944753 1.049253,-8.09105 -6.794473 1.292891,-7.605636 -6.323689 1.5199,-7.261969 -5.824043 1.785657,-6.981769 -5.538664 2.048215,-7.849185 -4.647549 1.286438,-7.624788 -3.720016 1.454119,-7.519158 -3.135746 1.629161,-7.4442 -2.625807 1.759752,-8.157064 -4.403913 1.344574,-7.981985 -3.266364 1.474952,-7.867001 -2.542786 1.675459,-7.788781 -1.9236 1.836743,-8.474341 -4.406429 1.432337,-8.357869 -3.349899 1.556432,-8.250653 -2.682926 1.704994,-8.156086 -2.124382 1.817546,-8.804798 -4.602684 1.553028,-8.815808 -3.763168 1.680712,-8.793153 -3.207582 1.788447,-8.7495 -2.672511 1.856147,0.540,DnF
-1.013621 -6.622991 1.473429,-1.589807 -6.34301 1.870927,-2.137543 -5.694757 2.07618,-2.556294 -5.15378 2.262376,-2.94267 -4.904168 2.482344,-1.688099 -4.120102 1.849556,-1.877913 -3.189027 2.101254,-1.981487 -2.643011 2.292971,-2.092313 -2.159776 2.459005,-1.308489 -3.936675 1.834146,-1.407279 -2.872306 2.064236,-1.473074 -2.2358 2.266655,-1.542951 -1.694346 2.408012,-0.9520302 -4.069791 1.876483,-0.9418607 -3.095716 2.131098,-0.9881201 -2.561832 2.365012,-1.058642 -2.131464 2.520404,-0.6073847 -4.428729 1.951094,-0.4803705 -3.754767 2.224333,-0.4435225 -3.348268 2.409365,-0.4468699 -2.966971 2.553364,-8.648622 -6.939825 1.049633,-8.09938 -6.798851 1.302188,-7.611373 -6.332242 1.532904,-7.266718 -5.828037 1.800853,-6.986996 -5.528774 2.061096,-7.853937 -4.649795 1.299546,-7.622487 -3.734569 1.476406,-7.512189 -3.157017 1.656203,-7.436267 -2.646811 1.786868,-8.161549 -4.401363 1.355894,-7.984404 -3.262672 1.492844,-7.870933 -2.535717 1.693835,-7.794748 -1.912861 1.849802,-8.477197 -4.396547 1.443063,-8.36392 -3.338493 1.569196,-8.259327 -2.669384 1.71508,-8.166774 -2.109834 1.826487,-8.803701 -4.582437 1.563035,-8.810069 -3.731755 1.690041,-8.787048 -3.172458 1.797927,-8.742378 -2.638299 1.862553,0.560,DnF
-1.013621 -6.622991 1.473429,-1.589807 -6.34301 1.870927,-2.137543 -5.694757 2.07618,-2.556294 -5.15378 2.262376,-2.94267 -4.904168 2.482344,-1.688099 -4.120102 1.849556,-1.877913 -3.189027 2.101254,-1.981487 -2.643011 2.292971,-2.092313 -2.159776 2.459005,-1.308489 -3.936675 1.834146,-1.407279 -2.872306 2.064236,-1.473074 -2.2358 2.266655,-1.542951 -1.694346 2.408012,-0.9520302 -4.069791 1.876483,-0.9418607 -3.095716 2.131098,-0.9881201 -2.561832 2.365012,-1.058642 -2.131464 2.520404,-0.6073847 -4.428729 1.951094,-0.4803705 -3.754767 2.224333,-0.4435225 -3.348268 2.409365,-0.4468699 -2.966971 2.553364,-8.648622 -6.939825 1.049633,-8.09938 -6.798851 1.302188,-7.611373 -6.332242 1.532904,-7.266718 -5.828037 1.800853,-6.986996 -5.528774 2.061096,-7.853937 -4.649795 1.299546,-7.622487 -3.734569 1.476406,-7.512189 -3.157017 1.656203,-7.436267 -2.646811 1.786868,-8.161549 -4.401363 1.355894,-7.984404 -3.262672 1.492844,-7.870933 -2.535717 1.693835,-7.794748 -1.912861 1.849802,-8.477197 -4.396547 1.443063,-8.36392 -3.338493 1.569196,-8.259327 -2.669384 1.71508,-8.166774 -2.109834 1.826487,-8.803701 -4.582437 1.563035,-8.810069 -3.731755 1.690041,-8.787048 -3.172458 1.797927,-8.742378 -2.638299 1.862553,0.580,DnF
-1.013621 -6.622991 1.473429,-1.589807 -6.34301 1.870927,-2.137543 -5.694757 2.07618,-2.556294 -5.15378 2.262376,-2.94267 -4.904168 2.482344,-1.688099 -4.120102 1.849556,-1.877913 -3.189027 2.101254,-1.981487 -2.643011 2.292971,-2.092313 -2.159776 2.459005,-1.308489 -3.936675 1.834146,-1.407279 -2.872306 2.064236,-1.473074 -2.2358 2.266655,-1.542951 -1.694346 2.408012,-0.9520302 -4.069791 1.876483,-0.9418607 -3.095716 2.131098,-0.9881201 -2.561832 2.365012,-1.058642 -2.131464 2.520404,-0.6073847 -4.428729 1.951094,-0.4803705 -3.754767 2.224333,-0.4435225 -3.348268 2.409365,-0.4468699 -2.966971 2.553364,-8.648622 -6.939825 1.049633,-8.09938 -6.798851 1.302188,-7.611373 -6.332242 1.532904,-7.266718 -5.828037 1.800853,-6.986996 -5.528774 2.061096,-7.853937 -4.649795 1.299546,-7.622487 -3.734569 1.476406,-7.512189 -3.157017 1.656203,-7.436267 -2.646811 1.786868,-8.161549 -4.401363 1.355894,-7.984404 -3.262672 1.492844,-7.870933 -2.535717 1.693835,-7.794748 -1.912861 1.849802,-8.477197 -4.396547 1.443063,-8.36392 -3.338493 1.569196,-8.259327 -2.669384 1.71508,-8.166774 -2.109834 1.826487,-8.803701 -4.582437 1.563035,-8.810069 -3.731755 1.690041,-8.787048 -3.172458 1.797927,-8.742378 -2.638299 1.862553,0.600,DnF
-1.013621 -6.622991 1.473429,-1.589807 -6.34301 1.870927,-2.137543 -5.694757 2.07618,-2.556294 -5.15378 2.262376,-2.94267 -4.904168 2.482344,-1.688099 -4.120102 1.849556,-1.877913 -3.189027 2.101254,-1.981487 -2.643011 2.292971,-2.092313 -2.159776 2.459005,-1.308489 -3.936675 1.834146,-1.407279 -2.872306 2.064236,-1.473074 -2.2358 2.266655,-1.542951 -1.694346 2.408012,-0.9520302 -4.069791 1.876483,-0.9418607 -3.095716 2.131098,-0.9881201 -2.561832 2.365012,-1.058642 -2.131464 2.520404,-0.6073847 -4.428729 1.951094,-0.4803705 -3.754767 2.224333,-0.4435225 -3.348268 2.409365,-0.4468699 -2.966971 2.553364,-8.648622 -6.939825 1.049633,-8.09938 -6.798851 1.302188,-7.611373 -6.332242 1.532904,-7.266718 -5.828037 1.800853,-6.986996 -5.528774 2.061096,-7.853937 -4.649795 1.299546,-7.622487 -3.734569 1.476406,-7.512189 -3.157017 1.656203,-7.436267 -2.646811 1.786868,-8.161549 -4.401363 1.355894,-7.984404 -3.262672 1.492844,-7.870933 -2.535717 1.693835,-7.794748 -1.912861 1.849802,-8.477197 -4.396547 1.443063,-8.36392 -3.338493 1.569196,-8.259327 -2.669384 1.71508,-8.166774 -2.109834 1.826487,-8.803701 -4.582437 1.563035,-8.810069 -3.731755 1.690041,-8.787048 -3.172458 1.797927,-8.742378 -2.638299 1.862553,0.620,DnF
-0.9785047 -6.64664 1.525486,-1.551907 -6.3874 1.937427,-2.099717 -5.751792 2.154665,-2.514691 -5.199319 2.357975,-2.898746 -4.922874 2.592841,-1.658466 -4.125893 1.885183,-1.83519 -3.197052 2.120547,-1.92728 -2.671389 2.293777,-2.034224 -2.203371 2.439687,-1.269612 -3.942638 1.869434,-1.363022 -2.883132 2.090531,-1.424407 -2.265934 2.282598,-1.495275 -1.754755 2.421685,-0.9082003 -4.080749 1.916492,-0.895905 -3.110221 2.169296,-0.9468355 -2.593817 2.407955,-1.025739 -2.188316 2.572888,-0.5587597 -4.442661 1.998339,-0.4393578 -3.765277 2.270426,-0.4136381 -3.374111 2.457304,-0.4318876 -3.014753 2.602212,-8.651166 -6.964395 1.171244,-8.104972 -6.804189 1.420006,-7.621227 -6.313594 1.648168,-7.283613 -5.806978 1.910633,-7.013648 -5.497975 2.165659,-7.86921 -4.626553 1.425403,-7.659365 -3.704327 1.598376,-7.56326 -3.125138 1.774388,-7.492909 -2.618636 1.905943,-8.179219 -4.38831 1.484299,-8.016422 -3.24731 1.630127,-7.910567 -2.527518 1.836531,-7.833447 -1.909657 2.003156,-8.496729 -4.403273 1.57269,-8.390176 -3.340609 1.711242,-8.29024 -2.66922 1.869739,-8.197006 -2.104896 1.993732,-8.82643 -4.619855 1.688754,-8.83982 -3.783109 1.824903,-8.819228 -3.230701 1.933759,-8.775501 -2.702387 2.004393,0.640,DnF
-0.9785047 -6.64664 1.525486,-1.551907 -6.3874 1.937427,-2.099717 -5.751792 2.154665,-2.514691 -5.199319 2.357975,-2.898746 -4.922874 2.592841,-1.658466 -4.125893 1.885183,-1.83519 -3.197052 2.120547,-1.92728 -2.671389 2.293777,-2.034224 -2.203371 2.439687,-1.269612 -3.942638 1.869434,-1.363022 -2.883132 2.090531,-1.424407 -2.265934 2.282598,-1.495275 -1.754755 2.421685,-0.9082003 -4.080749 1.916492,-0.895905 -3.110221 2.169296,-0.9468355 -2.593817 2.407955,-1.025739 -2.188316 2.572888,-0.5587597 -4.442661 1.998339,-0.4393578 -3.765277 2.270426,-0.4136381 -3.374111 2.457304,-0.4318876 -3.014753 2.602212,-8.651166 -6.964395 1.171244,-8.104972 -6.804189 1.420006,-7.621227 -6.313594 1.648168,-7.283613 -5.806978 1.910633,-7.013648 -5.497975 2.165659,-7.86921 -4.626553 1.425403,-7.659365 -3.704327 1.598376,-7.56326 -3.125138 1.774388,-7.492909 -2.618636 1.905943,-8.179219 -4.38831 1.484299,-8.016422 -3.24731 1.630127,-7.910567 -2.527518 1.836531,-7.833447 -1.909657 2.003156,-8.496729 -4.403273 1.57269,-8.390176 -3.340609 1.711242,-8.29024 -2.66922 1.869739,-8.197006 -2.104896 1.993732,-8.82643 -4.619855 1.688754,-8.83982 -3.783109 1.824903,-8.819228 -3.230701 1.933759,-8.775501 -2.702387 2.004393,0.660,DnF
-0.9785047 -6.64664 1.525486,-1.551907 -6.3874 1.937427,-2.099717 -5.751792 2.154665,-2.514691 -5.199319 2.357975,-2.898746 -4.922874 2.592841,-1.658466 -4.125893 1.885183,-1.83519 -3.197052 2.120547,-1.92728 -2.671389 2.293777,-2.034224 -2.203371 2.439687,-1.269612 -3.942638 1.869434,-1.363022 -2.883132 2.090531,-1.424407 -2.265934 2.282598,-1.495275 -1.754755 2.421685,-0.9082003 -4.080749 1.916492,-0.895905 -3.110221 2.169296,-0.9468355 -2.593817 2.407955,-1.025739 -2.188316 2.572888,-0.5587597 -4.442661 1.998339,-0.4393578 -3.765277 2.270426,-0.4136381 -3.374111 2.457304,-0.4318876 -3.014753 2.602212,-8.651166 -6.964395 1.171244,-8.104972 -6.804189 1.420006,-7.621227 -6.313594 1.648168,-7.283613 -5.806978 1.910633,-7.013648 -5.497975 2.165659,-7.86921 -4.626553 1.425403,-7.659365 -3.704327 1.598376,-7.56326 -3.125138 1.774388,-7.492909 -2.618636 1.905943,-8.179219 -4.38831 1.484299,-8.016422 -3.24731 1.630127,-7.910567 -2.527518 1.836531,-7.833447 -1.909657 2.003156,-8.496729 -4.403273 1.57269,-8.390176 -3.340609 1.711242,-8.29024 -2.66922 1.869739,-8.197006 -2.104896 1.993732,-8.82643 -4.619855 1.688754,-8.83982 -3.783109 1.824903,-8.819228 -3.230701 1.933759,-8.775501 -2.702387 2.004393,0.680,DnF
-0.9771004 -6.653242 1.563166,-1.553233 -6.413908 1.953244,-2.113129 -5.796244 2.161899,-2.522264 -5.237409 2.361135,-2.885874 -4.923231 2.584784,-1.657386 -4.126801 1.901577,-1.82673 -3.205045 2.13071,-1.921999 -2.674535 2.290907,-2.034204 -2.206681 2.423215,-1.272242 -3.936841 1.891408,-1.35688 -2.896029 2.111176,-1.417088 -2.288959 2.299865,-1.483775 -1.785659 2.439195,-0.9129152 -4.063805 1.946046,-0.9023447 -3.115383 2.185827,-0.9466419 -2.598147 2.406138,-1.015919 -2.186512 2.557413,-0.5605321 -4.414598 2.031545,-0.4455304 -3.738754 2.281457,-0.41852 -3.337343 2.454459,-0.4309645 -2.968306 2.590564,-8.675447 -6.968282 1.143138,-8.127679 -6.795549 1.390636,-7.642797 -6.31624 1.622673,-7.298957 -5.810319 1.886787,-7.020144 -5.514649 2.147015,-7.888615 -4.644067 1.409736,-7.664619 -3.729642 1.592665,-7.563277 -3.153713 1.770852,-7.494068 -2.644137 1.900627,-8.200432 -4.402805 1.470617,-8.027267 -3.262498 1.62026,-7.919435 -2.537591 1.827688,-7.848121 -1.914525 1.988652,-8.517264 -4.415666 1.560671,-8.411643 -3.359188 1.704282,-8.312339 -2.688465 1.862712,-8.224985 -2.129261 1.980198,-8.845243 -4.623731 1.679122,-8.852362 -3.777741 1.828259,-8.831521 -3.223957 1.950054,-8.790695 -2.69784 2.025903,0.700,DnF
-0.9771004 -6.653242 1.563166,-1.553233 -6.413908 1.953244,-2.113129 -5.796244 2.161899,-2.522264 -5.237409 2.361135,-2.885874 -4.923231 2.584784,-1.657386 -4.126801 1.901577,-1.82673 -3.205045 2.13071,-1.921999 -2.674535 2.290907,-2.034204 -2.206681 2.423215,-1.272242 -3.936841 1.891408,-1.35688 -2.896029 2.111176,-1.417088 -2.288959 2.299865,-1.483775 -1.785659 2.439195,-0.9129152 -4.063805 1.946046,-0.9023447 -3.115383 2.185827,-0.9466419 -2.598147 2.406138,-1.015919 -2.186512 2.557413,-0.5605321 -4.414598 2.031545,-0.4455304 -3.738754 2.281457,-0.41852 -3.337343 2.454459,-0.4309645 -2.968306 2.590564,-8.675447 -6.968282 1.143138,-8.127679 -6.795549 1.390636,-7.642797 -6.31624 1.622673,-7.298957 -5.810319 1.886787,-7.020144 -5.514649 2.147015,-7.888615 -4.644067 1.409736,-7.664619 -3.729642 1.592665,-7.563277 -3.153713 1.770852,-7.494068 -2.644137 1.900627,-8.200432 -4.402805 1.470617,-8.027267 -3.262498 1.62026,-7.919435 -2.537591 1.827688,-7.848121 -1.914525 1.988652,-8.517264 -4.415666 1.560671,-8.411643 -3.359188 1.704282,-8.312339 -2.688465 1.862712,-8.224985 -2.129261 1.980198,-8.845243 -4.623731 1.679122,-8.852362 -3.777741 1.828259,-8.831521 -3.223957 1.950054,-8.790695 -2.69784 2.025903,0.720,DnF
-0.9771004 -6.653242 1.563166,-1.553233 -6.413908 1.953244,-2.113129 -5.796244 2.161899,-2.522264 -5.237409 2.361135,-2.885874 -4.923231 2.584784,-1.657386 -4.126801 1.901577,-1.82673 -3.205045 2.13071,-1.921999 -2.674535 2.290907,-2.034204 -2.206681 2.423215,-1.272242 -3.936841 1.891408,-1.35688 -2.896029 2.111176,-1.417088 -2.288959 2.299865,-1.483775 -1.785659 2.439195,-0.9129152 -4.063805 1.946046,-0.9023447 -3.115383 2.185827,-0.9466419 -2.598147 2.406138,-1.015919 -2.186512 2.557413,-0.5605321 -4.414598 2.031545,-0.4455304 -3.738754 2.281457,-0.41852 -3.337343 2.454459,-0.4309645 -2.968306 2.590564,-8.675447 -6.968282 1.143138,-8.127679 -6.795549 1.390636,-7.642797 -6.31624 1.622673,-7.298957 -5.810319 1.886787,-7.020144 -5.514649 2.147015,-7.888615 -4.644067 1.409736,-7.664619 -3.729642 1.592665,-7.563277 -3.153713 1.770852,-7.494068 -2.644137 1.900627,-8.200432 -4.402805 1.470617,-8.027267 -3.262498 1.62026,-7.919435 -2.537591 1.827688,-7.848121 -1.914525 1.988652,-8.517264 -4.415666 1.560671,-8.411643 -3.359188 1.704282,-8.312339 -2.688465 1.862712,-8.224985 -2.129261 1.980198,-8.845243 -4.623731 1.679122,-8.852362 -3.777741 1.828259,-8.831521 -3.223957 1.950054,-8.790695 -2.69784 2.025903,0.740,DnF
-0.995966 -6.678405 1.642512,-1.572516 -6.436553 2.02886,-2.130712 -5.818556 2.24632,-2.540402 -5.280724 2.452296,-2.907415 -4.98174 2.685427,-1.678289 -4.128646 2.001777,-1.84861 -3.187597 2.231734,-1.946777 -2.647998 2.388163,-2.061025 -2.171717 2.52043,-1.288733 -3.943717 2.009371,-1.368281 -2.889583 2.24931,-1.429537 -2.27495 2.454163,-1.500885 -1.777638 2.604886,-0.9262762 -4.072484 2.078196,-0.9159498 -3.098506 2.338922,-0.958662 -2.560861 2.568557,-1.031771 -2.137516 2.723851,-0.5722461 -4.435163 2.176389,-0.4500017 -3.7366 2.43539,-0.4131494 -3.30845 2.609156,-0.419076 -2.90737 2.745181,-8.683337 -6.969501 1.120931,-8.137167 -6.799212 1.356212,-7.652081 -6.319873 1.586144,-7.305384 -5.811044 1.850059,-7.026499 -5.497661 2.112942,-7.902077 -4.641932 1.359148,-7.678 -3.726697 1.537457,-7.573447 -3.148721 1.713611,-7.502622 -2.639168 1.841067,-8.207949 -4.407866 1.426312,-8.037376 -3.266144 1.566639,-7.928055 -2.534782 1.769986,-7.854189 -1.91255 1.928747,-8.521745 -4.428415 1.525263,-8.423869 -3.378732 1.660182,-8.325681 -2.705533 1.822395,-8.235658 -2.14655 1.944075,-8.84659 -4.646427 1.653586,-8.862473 -3.801289 1.802251,-8.843954 -3.244781 1.928666,-8.799844 -2.722273 2.004998,0.760,DnF
-0.995966 -6.678405 1.642512,-1.572516 -6.436553 2.02886,-2.130712 -5.818556 2.24632,-2.540402 -5.280724 2.452296,-2.907415 -4.98174 2.685427,-1.678289 -4.128646 2.001777,-1.84861 -3.187597 2.231734,-1.946777 -2.647998 2.388163,-2.061025 -2.171717 2.52043,-1.288733 -3.943717 2.009371,-1.368281 -2.889583 2.24931,-1.429537 -2.27495 2.454163,-1.500885 -1.777638 2.604886,-0.9262762 -4.072484 2.078196,-0.9159498 -3.098506 2.338922,-0.958662 -2.560861 2.568557,-1.031771 -2.137516 2.723851,-0.5722461 -4.435163 2.176389,-0.4500017 -3.7366 2.43539,-0.4131494 -3.30845 2.609156,-0.419076 -2.90737 2.745181,-8.683337 -6.969501 1.120931,-8.137167 -6.799212 1.356212,-7.652081 -6.319873 1.586144,-7.305384 -5.811044 1.850059,-7.026499 -5.497661 2.112942,-7.902077 -4.641932 1.359148,-7.678 -3.726697 1.537457,-7.573447 -3.148721 1.713611,-7.502622 -2.639168 1.841067,-8.207949 -4.407866 1.426312,-8.037376 -3.266144 1.566639,-7.928055 -2.534782 1.769986,-7.854189 -1.91255 1.928747,-8.521745 -4.428415 1.525263,-8.423869 -3.378732 1.660182,-8.325681 -2.705533 1.822395,-8.235658 -2.14655 1.944075,-8.84659 -4.646427 1.653586,-8.862473 -3.801289 1.802251,-8.843954 -3.244781 1.928666,-8.799844 -2.722273 2.004998,0.780,DnF
-0.995966 -6.678405 1.642512,-1.572516 -6.436553 2.02886,-2.130712 -5.818556 2.24632,-2.540402 -5.280724 2.452296,-2.907415 -4.98174 2.685427,-1.678289 -4.128646 2.001777,-1.84861 -3.187597 2.231734,-1.946777 -2.647998 2.388163,-2.061025 -2.171717 2.52043,-1.288733 -3.943717 2.009371,-1.368281 -2.889583 2.24931,-1.429537 -2.27495 2.454163,-1.500885 -1.777638 2.604886,-0.9262762 -4.072484 2.078196,-0.9159498 -3.098506 2.338922,-0.958662 -2.560861 2.568557,-1.031771 -2.137516 2.723851,-0.5722461 -4.435163 2.176389,-0.4500017 -3.7366 2.43539,-0.4131494 -3.30845 2.609156,-0.419076 -2.90737 2.745181,-8.683337 -6.969501 1.120931,-8.137167 -6.799212 1.356212,-7.652081 -6.319873 1.586144,-7.305384 -5.811044 1.850059,-7.026499 -5.497661 2.112942,-7.902077 -4.641932 1.359148,-7.678 -3.726697 1.537457,-7.573447 -3.148721 1.713611,-7.502622 -2.639168 1.841067,-8.207949 -4.407866 1.426312,-8.037376 -3.266144 1.566639,-7.928055 -2.534782 1.769986,-7.854189 -1.91255 1.928747,-8.521745 -4.428415 1.525263,-8.423869 -3.378732 1.660182,-8.325681 -2.705533 1.822395,-8.235658 -2.14655 1.944075,-8.84659 -4.646427 1.653586,-8.862473 -3.801289 1.802251,-8.843954 -3.244781 1.928666,-8.799844 -2.722273 2.004998,0.800,DnF
-1.012539 -6.679767 1.63005,-1.598604 -6.428525 2.009126,-2.153806 -5.845327 2.229693,-2.558342 -5.311124 2.439286,-2.89688 -4.985412 2.663842,-1.695403 -4.136835 1.998675,-1.874711 -3.155233 2.222149,-1.980505 -2.583406 2.383594,-2.09214 -2.075219 2.523343,-1.311037 -3.949613 1.998919,-1.405416 -2.843 2.229837,-1.469452 -2.178957 2.435879,-1.534908 -1.643119 2.584982,-0.9512682 -4.058336 2.056829,-0.9551563 -3.036414 2.303897,-0.9923038 -2.45641 2.51407,-1.054755 -1.993569 2.654118,-0.5936146 -4.39186 2.144155,-0.4782391 -3.640201 2.375017,-0.4359159 -3.181103 2.532554,-0.4366741 -2.744864 2.653681,-8.683337 -6.969501 1.120931,-8.137167 -6.799212 1.356212,-7.652081 -6.319873 1.586144,-7.305384 -5.811044 1.850059,-7.026499 -5.497661 2.112942,-7.902077 -4.641932 1.359148,-7.678 -3.726697 1.537457,-7.573447 -3.148721 1.713611,-7.502622 -2.639168 1.841067,-8.207949 -4.407866 1.426312,-8.037376 -3.266144 1.566639,-7.928055 -2.534782 1.769986,-7.854189 -1.91255 1.928747,-8.521745 -4.428415 1.525263,-8.423869 -3.378732 1.660182,-8.325681 -2.705533 1.822395,-8.235658 -2.14655 1.944075,-8.84659 -4.646427 1.653586,-8.862473 -3.801289 1.802251,-8.843954 -3.244781 1.928666,-8.799844 -2.722273 2.004998,0.820,DnF
-1.012539 -6.679767 1.63005,-1.598604 -6.428525 2.009126,-2.153806 -5.845327 2.229693,-2.558342 -5.311124 2.439286,-2.89688 -4.985412 2.663842,-1.695403 -4.136835 1.998675,-1.874711 -3.155233 2.222149,-1.980505 -2.583406 2.383594,-2.09214 -2.075219 2.523343,-1.311037 -3.949613 1.998919,-1.405416 -2.843 2.229837,-1.469452 -2.178957 2.435879,-1.534908 -1.643119 2.584982,-0.9512682 -4.058336 2.056829,-0.9551563 -3.036414 2.303897,-0.9923038 -2.45641 2.51407,-1.054755 -1.993569 2.654118,-0.5936146 -4.39186 2.144155,-0.4782391 -3.640201 2.375017,-0.4359159 -3.181103 2.532554,-0.4366741 -2.744864 2.653681,-8.698207 -6.938834 1.049953,-8.147142 -6.757848 1.291168,-7.665518 -6.282781 1.526071,-7.321405 -5.784553 1.788608,-7.04407 -5.48347 2.055212,-7.913094 -4.63074 1.308203,-7.695322 -3.676828 1.499787,-7.596207 -3.090854 1.681158,-7.526502 -2.567171 1.816339,-8.222984 -4.400978 1.37959,-8.042996 -3.242697 1.540109,-7.926029 -2.513163 1.756277,-7.841397 -1.88488 1.927867,-8.539801 -4.418603 1.47849,-8.4317 -3.350884 1.628604,-8.328557 -2.679564 1.802308,-8.230337 -2.117107 1.93344,-8.869008 -4.627464 1.606475,-8.884802 -3.777051 1.765335,-8.859179 -3.224707 1.894082,-8.807205 -2.705751 1.972317,0.840,DnF
-1.012539 -6.679767 1.63005,-1.598604 -6.428525 2.009126,-2.153806 -5.845327 2.229693,-2.558342 -5.311124 2.439286,-2.89688 -4.985412 2.663842,-1.695403 -4.136835 1.998675,-1.874711 -3.155233 2.222149,-1.980505 -2.583406 2.383594,-2.09214 -2.075219 2.523343,-1.311037 -3.949613 1.998919,-1.405416 -2.843 2.229837,-1.469452 -2.178957 2.435879,-1.534908 -1.643119 2.584982,-0.9512682 -4.058336 2.056829,-0.9551563 -3.036414 2.303897,-0.9923038 -2.45641 2.51407,-1.054755 -1.993569 2.654118,-0.5936146 -4.39186 2.144155,-0.4782391 -3.640201 2.375017,-0.4359159 -3.181103 2.532554,-0.4366741 -2.744864 2.653681,-8.698207 -6.938834 1.049953,-8.147142 -6.757848 1.291168,-7.665518 -6.282781 1.526071,-7.321405 -5.784553 1.788608,-7.04407 -5.48347 2.055212,-7.913094 -4.63074 1.308203,-7.695322 -3.676828 1.499787,-7.596207 -3.090854 1.681158,-7.526502 -2.567171 1.816339,-8.222984 -4.400978 1.37959,-8.042996 -3.242697 1.540109,-7.926029 -2.513163 1.756277,-7.841397 -1.88488 1.927867,-8.539801 -4.418603 1.47849,-8.4317 -3.350884 1.628604,-8.328557 -2.679564 1.802308,-8.230337 -2.117107 1.93344,-8.869008 -4.627464 1.606475,-8.884802 -3.777051 1.765335,-8.859179 -3.224707 1.894082,-8.807205 -2.705751 1.972317,0.860,DnF
-1.012539 -6.679767 1.63005,-1.598604 -6.428525 2.009126,-2.153806 -5.845327 2.229693,-2.558342 -5.311124 2.439286,-2.89688 -4.985412 2.663842,-1.695403 -4.136835 1.998675,-1.874711 -3.155233 2.222149,-1.980505 -2.583406 2.383594,-2.09214 -2.075219 2.523343,-1.311037 -3.949613 1.998919,-1.405416 -2.843 2.229837,-1.469452 -2.178957 2.435879,-1.534908 -1.643119 2.584982,-0.9512682 -4.058336 2.056829,-0.9551563 -3.036414 2.303897,-0.9923038 -2.45641 2.51407,-1.054755 -1.993569 2.654118,-0.5936146 -4.39186 2.144155,-0.4782391 -3.640201 2.375017,-0.4359159 -3.181103 2.532554,-0.4366741 -2.744864 2.653681,-8.698207 -6.938834 1.049953,-8.147142 -6.757848 1.291168,-7.665518 -6.282781 1.526071,-7.321405 -5.784553 1.788608,-7.04407 -5.48347 2.055212,-7.913094 -4.63074 1.308203,-7.695322 -3.676828 1.499787,-7.596207 -3.090854 1.681158,-7.526502 -2.567171 1.816339,-8.222984 -4.400978 1.37959,-8.042996 -3.242697 1.540109,-7.926029 -2.513163 1.756277,-7.841397 -1.88488 1.927867,-8.539801 -4.418603 1.47849,-8.4317 -3.350884 1.628604,-8.328557 -2.679564 1.802308,-8.230337 -2.117107 1.93344,-8.869008 -4.627464 1.606475,-8.884802 -3.777051 1.765335,-8.859179 -3.224707 1.894082,-8.807205 -2.705751 1.972317,0.880,DnF
-1.026646 -6.641626 1.55111,-1.623106 -6.423122 2.000051,-2.181685 -5.873495 2.260409,-2.580442 -5.339918 2.48679,-2.899321 -4.992954 2.71779,-1.721707 -4.153249 2.058422,-1.91427 -3.130896 2.307896,-2.023752 -2.522074 2.49542,-2.128444 -1.975005 2.66161,-1.339195 -3.952692 2.026816,-1.445374 -2.780246 2.295302,-1.511859 -2.054339 2.530467,-1.576495 -1.465181 2.704191,-0.9790306 -4.039096 2.051449,-0.9914699 -2.963475 2.328623,-1.024656 -2.321794 2.556714,-1.082743 -1.797367 2.721509,-0.6186323 -4.347044 2.106764,-0.4950809 -3.556279 2.353195,-0.4359307 -3.063334 2.532863,-0.4233313 -2.595335 2.68028,-8.737583 -6.907548 1.070754,-8.184162 -6.724796 1.319301,-7.697323 -6.236882 1.550227,-7.349386 -5.740377 1.812296,-7.065388 -5.445699 2.08092,-7.945357 -4.600908 1.331169,-7.729541 -3.642848 1.522884,-7.624211 -3.048901 1.704466,-7.544847 -2.514324 1.84384,-8.254779 -4.365312 1.402387,-8.066189 -3.219141 1.564038,-7.938826 -2.489632 1.785646,-7.841135 -1.858786 1.965735,-8.572914 -4.367765 1.501729,-8.455666 -3.310245 1.652232,-8.349218 -2.639413 1.823375,-8.245127 -2.078727 1.955598,-8.905171 -4.560792 1.629049,-8.919687 -3.719873 1.793766,-8.888339 -3.17663 1.917932,-8.832569 -2.669755 1.993589,0.900,DnF
-1.026646 -6.641626 1.55111,-1.623106 -6.423122 2.000051,-2.181685 -5.873495 2.260409,-2.580442 -5.339918 2.48679,-2.899321 -4.992954 2.71779,-1.721707 -4.153249 2.058422,-1.91427 -3.130896 2.307896,-2.023752 -2.522074 2.49542,-2.128444 -1.975005 2.66161,-1.339195 -3.952692 2.026816,-1.445374 -2.780246 2.295302,-1.511859 -2.054339 2.530467,-1.576495 -1.465181 2.704191,-0.9790306 -4.039096 2.051449,-0.9914699 -2.963475 2.328623,-1.024656 -2.321794 2.556714,-1.082743 -1.797367 2.721509,-0.6186323 -4.347044 2.106764,-0.4950809 -3.556279 2.353195,-0.4359307 -3.063334 2.532863,-0.4233313 -2.595335 2.68028,-8.737583 -6.907548 1.070754,-8.184162 -6.724796 1.319301,-7.697323 -6.236882 1.550227,-7.349386 -5.740377 1.812296,-7.065388 -5.445699 2.08092,-7.945357 -4.600908 1.331169,-7.729541 -3.642848 1.522884,-7.624211 -3.048901 1.704466,-7.544847 -2.514324 1.84384,-8.254779 -4.365312 1.402387,-8.066189 -3.219141 1.564038,-7.938826 -2.489632 1.785646,-7.841135 -1.858786 1.965735,-8.572914 -4.367765 1.501729,-8.455666 -3.310245 1.652232,-8.349218 -2.639413 1.823375,-8.245127 -2.078727 1.955598,-8.905171 -4.560792 1.629049,-8.919687 -3.719873 1.793766,-8.888339 -3.17663 1.917932,-8.832569 -2.669755 1.993589,0.920,DnF
-1.026646 -6.641626 1.55111,-1.623106 -6.423122 2.000051,-2.181685 -5.873495 2.260409,-2.580442 -5.339918 2.48679,-2.899321 -4.992954 2.71779,-1.721707 -4.153249 2.058422,-1.91427 -3.130896 2.307896,-2.023752 -2.522074 2.49542,-2.128444 -1.975005 2.66161,-1.339195 -3.952692 2.026816,-1.445374 -2.780246 2.295302,-1.511859 -2.054339 2.530467,-1.576495 -1.465181 2.704191,-0.9790306 -4.039096 2.051449,-0.9914699 -2.963475 2.328623,-1.024656 -2.321794 2.556714,-1.082743 -1.797367 2.721509,-0.6186323 -4.347044 2.106764,-0.4950809 -3.556279 2.353195,-0.4359307 -3.063334 2.532863,-0.4233313 -2.595335 2.68028,-8.737583 -6.907548 1.070754,-8.184162 -6.724796 1.319301,-7.697323 -6.236882 1.550227,-7.349386 -5.740377 1.812296,-7.065388 -5.445699 2.08092,-7.945357 -4.600908 1.331169,-7.729541 -3.642848 1.522884,-7.624211 -3.048901 1.704466,-7.544847 -2.514324 1.84384,-8.254779 -4.365312 1.402387,-8.066189 -3.219141 1.564038,-7.938826 -2.489632 1.785646,-7.841135 -1.858786 1.965735,-8.572914 -4.367765 1.501729,-8.455666 -3.310245 1.652232,-8.349218 -2.639413 1.823375,-8.245127 -2.078727 1.955598,-8.905171 -4.560792 1.629049,-8.919687 -3.719873 1.793766,-8.888339 -3.17663 1.917932,-8.832569 -2.669755 1.993589,0.940,DnF
-1.049178 -6.625158 1.578525,-1.650387 -6.40325 2.028829,-2.216716 -5.858509 2.292746,-2.616862 -5.328804 2.523393,-2.935297 -4.987146 2.759253,-1.748992 -4.125749 2.081881,-1.948909 -3.079002 2.340471,-2.059201 -2.456279 2.541606,-2.160371 -1.896318 2.716969,-1.364614 -3.928985 2.05656,-1.466149 -2.723326 2.331733,-1.524581 -1.96378 2.582426,-1.578934 -1.340797 2.769967,-1.002851 -4.009857 2.088748,-1.021129 -2.911128 2.370458,-1.049011 -2.235225 2.609422,-1.096081 -1.674151 2.779824,-0.6414752 -4.304166 2.152698,-0.5256839 -3.480535 2.401754,-0.4689493 -2.971685 2.58778,-0.4545207 -2.484805 2.739474,-8.773461 -6.867326 1.007705,-8.21471 -6.690945 1.25905,-7.729626 -6.19514 1.477245,-7.387338 -5.697595 1.729577,-7.09828 -5.398623 1.985207,-7.976248 -4.577547 1.239351,-7.767184 -3.601067 1.441344,-7.661318 -2.992767 1.630769,-7.58388 -2.446933 1.77494,-8.283288 -4.341766 1.314019,-8.09971 -3.184503 1.475473,-7.970611 -2.458025 1.700689,-7.871312 -1.829694 1.878817,-8.598948 -4.332437 1.422104,-8.484791 -3.258605 1.580501,-8.380672 -2.594169 1.760457,-8.276794 -2.037377 1.89831,-8.930378 -4.508406 1.556998,-8.947635 -3.657113 1.738938,-8.916053 -3.107152 1.872231,-8.856364 -2.600548 1.950728,0.960,DnF
-1.049178 -6.625158 1.578525,-1.650387 -6.40325 2.028829,-2.216716 -5.858509 2.292746,-2.616862 -5.328804 2.523393,-2.935297 -4.987146 2.759253,-1.748992 -4.125749 2.081881,-1.948909 -3.079002 2.340471,-2.059201 -2.456279 2.541606,-2.160371 -1.896318 2.716969,-1.364614 -3.928985 2.05656,-1.466149 -2.723326 2.331733,-1.524581 -1.96378 2.582426,-1.578934 -1.340797 2.769967,-1.002851 -4.009857 2.088748,-1.021129 -2.911128 2.370458,-1.049011 -2.235225 2.609422,-1.096081 -1.674151 2.779824,-0.6414752 -4.304166 2.152698,-0.5256839 -3.480535 2.401754,-0.4689493 -2.971685 2.58778,-0.4545207 -2.484805 2.739474,-8.773461 -6.867326 1.007705,-8.21471 -6.690945 1.25905,-7.729626 -6.19514 1.477245,-7.387338 -5.697595 1.729577,-7.09828 -5.398623 1.985207,-7.976248 -4.577547 1.239351,-7.767184 -3.601067 1.441344,-7.661318 -2.992767 1.630769,-7.58388 -2.446933 1.77494,-8.283288 -4.341766 1.314019,-8.09971 -3.184503 1.475473,-7.970611 -2.458025 1.700689,-7.871312 -1.829694 1.878817,-8.598948 -4.332437 1.422104,-8.484791 -3.258605 1.580501,-8.380672 -2.594169 1.760457,-8.276794 -2.037377 1.89831,-8.930378 -4.508406 1.556998,-8.947635 -3.657113 1.738938,-8.916053 -3.107152 1.872231,-8.856364 -2.600548 1.950728,0.980,DnF
-1.049178 -6.625158 1.578525,-1.650387 -6.40325 2.028829,-2.216716 -5.858509 2.292746,-2.616862 -5.328804 2.523393,-2.935297 -4.987146 2.759253,-1.748992 -4.125749 2.081881,-1.948909 -3.079002 2.340471,-2.059201 -2.456279 2.541606,-2.160371 -1.896318 2.716969,-1.364614 -3.928985 2.05656,-1.466149 -2.723326 2.331733,-1.524581 -1.96378 2.582426,-1.578934 -1.340797 2.769967,-1.002851 -4.009857 2.088748,-1.021129 -2.911128 2.370458,-1.049011 -2.235225 2.609422,-1.096081 -1.674151 2.779824,-0.6414752 -4.304166 2.152698,-0.5256839 -3.480535 2.401754,-0.4689493 -2.971685 2.58778,-0.4545207 -2.484805 2.739474,-8.773461 -6.867326 1.007705,-8.21471 -6.690945 1.25905,-7.729626 -6.19514 1.477245,-7.387338 -5.697595 1.729577,-7.09828 -5.398623 1.985207,-7.976248 -4.577547 1.239351,-7.767184 -3.601067 1.441344,-7.661318 -2.992767 1.630769,-7.58388 -2.446933 1.77494,-8.283288 -4.341766 1.314019,-8.09971 -3.184503 1.475473,-7.970611 -2.458025 1.700689,-7.871312 -1.829694 1.878817,-8.598948 -4.332437 1.422104,-8.484791 -3.258605 1.580501,-8.380672 -2.594169 1.760457,-8.276794 -2.037377 1.89831,-8.930378 -4.508406 1.556998,-8.947635 -3.657113 1.738938,-8.916053 -3.107152 1.872231,-8.856364 -2.600548 1.950728,1.000,DnF
-1.057238 -6.579456 1.590295,-1.658746 -6.35659 2.05355,-2.219468 -5.820816 2.322655,-2.623207 -5.300095 2.559045,-2.945815 -4.978633 2.798619,-1.758961 -4.078973 2.109358,-1.965214 -3.023624 2.368929,-2.074573 -2.403396 2.574549,-2.168048 -1.848115 2.752671,-1.375256 -3.880786 2.07185,-1.478425 -2.650025 2.344524,-1.534518 -1.876396 2.595155,-1.582294 -1.233673 2.779955,-1.013618 -3.961349 2.091927,-1.032584 -2.846919 2.364985,-1.061141 -2.163707 2.593318,-1.102236 -1.589139 2.757261,-0.6508541 -4.250655 2.147317,-0.5318832 -3.412874 2.381443,-0.4660444 -2.894485 2.563694,-0.4387341 -2.388318 2.715648,-8.828506 -6.830732 1.014585,-8.273925 -6.662082 1.250824,-7.773572 -6.149892 1.460924,-7.420398 -5.656617 1.707691,-7.125066 -5.361871 1.965293,-8.022515 -4.539758 1.221996,-7.804847 -3.565277 1.416688,-7.695103 -2.9545 1.594754,-7.614522 -2.409054 1.730018,-8.329613 -4.303587 1.310412,-8.136235 -3.144642 1.464632,-8.003481 -2.417749 1.682255,-7.901635 -1.786093 1.858148,-8.646729 -4.299863 1.433617,-8.521299 -3.218913 1.590621,-8.409166 -2.550051 1.772835,-8.299567 -1.9861 1.915945,-8.981847 -4.487565 1.583146,-8.999041 -3.635429 1.759239,-8.966131 -3.086118 1.895315,-8.9044 -2.579144 1.984119,1.020,DnF
-1.057238 -6.579456 1.590295,-1.658746 -6.35659 2.05355,-2.219468 -5.820816 2.322655,-2.623207 -5.300095 2.559045,-2.945815 -4.978633 2.798619,-1.758961 -4.078973 2.109358,-1.965214 -3.023624 2.368929,-2.074573 -2.403396 2.574549,-2.168048 -1.848115 2.752671,-1.375256 -3.880786 2.07185,-1.478425 -2.650025 2.344524,-1.534518 -1.876396 2.595155,-1.582294 -1.233673 2.779955,-1.013618 -3.961349 2.091927,-1.032584 -2.846919 2.364985,-1.061141 -2.163707 2.593318,-1.102236 -1.589139 2.757261,-0.6508541 -4.250655 2.147317,-0.5318832 -3.412874 2.381443,-0.4660444 -2.894485 2.563694,-0.4387341 -2.388318 2.715648,-8.828506 -6.830732 1.014585,-8.273925 -6.662082 1.250824,-7.773572 -6.149892 1.460924,-7.420398 -5.656617 1.707691,-7.125066 -5.361871 1.965293,-8.022515 -4.539758 1.221996,-7.804847 -3.565277 1.416688,-7.695103 -2.9545 1.594754,-7.614522 -2.409054 1.730018,-8.329613 -4.303587 1.310412,-8.136235 -3.144642 1.464632,-8.003481 -2.417749 1.682255,-7.901635 -1.786093 1.858148,-8.646729 -4.299863 1.433617,-8.521299 -3.218913 1.590621,-8.409166 -2.550051 1.772835,-8.299567 -1.9861 1.915945,-8.981847 -4.487565 1.583146,-8.999041 -3.635429 1.759239,-8.966131 -3.086118 1.895315,-8.9044 -2.579144 1.984119,1.040,DnF
-1.057238 -6.579456 1.590295,-1.658746 -6.35659 2.05355,-2.219468 -5.820816 2.322655,-2.623207 -5.300095 2.559045,-2.945815 -4.978633 2.798619,-1.758961 -4.078973 2.109358,-1.965214 -3.023624 2.368929,-2.074573 -2.403396 2.574549,-2.168048 -1.848115 2.752671,-1.375256 -3.880786 2.07185,-1.478425 -2.650025 2.344524,-1.534518 -1.876396 2.595155,-1.582294 -1.233673 2.779955,-1.013618 -3.961349 2.091927,-1.032584 -2.846919 2.364985,-1.061141 -2.163707 2.593318,-1.102236 -1.589139 2.757261,-0.6508541 -4.250655 2.147317,-0.5318832 -3.412874 2.381443,-0.4660444 -2.894485 2.563694,-0.4387341 -2.388318 2.715648,-8.828506 -6.830732 1.014585,-8.273925 -6.662082 1.250824,-7.773572 -6.149892 1.460924,-7.420398 -5.656617 1.707691,-7.125066 -5.361871 1.965293,-8.022515 -4.539758 1.221996,-7.804847 -3.565277 1.416688,-7.695103 -2.9545 1.594754,-7.614522 -2.409054 1.730018,-8.329613 -4.303587 1.310412,-8.136235 -3.144642 1.464632,-8.003481 -2.417749 1.682255,-7.901635 -1.786093 1.858148,-8.646729 -4.299863 1.433617,-8.521299 -3.218913 1.590621,-8.409166 -2.550051 1.772835,-8.299567 -1.9861 1.915945,-8.981847 -4.487565 1.583146,-8.999041 -3.635429 1.759239,-8.966131 -3.086118 1.895315,-8.9044 -2.579144 1.984119,1.060,DnF
-1.066297 -6.580736 1.678446,-1.661999 -6.360454 2.120688,-2.216238 -5.810993 2.373965,-2.622184 -5.286722 2.59994,-2.950244 -4.96383 2.83537,-1.765401 -4.047838 2.129093,-1.974941 -2.990324 2.367107,-2.082205 -2.357557 2.568572,-2.16742 -1.788979 2.752337,-1.386474 -3.846766 2.101013,-1.484611 -2.61519 2.33981,-1.538311 -1.836937 2.582754,-1.578466 -1.192781 2.76464,-1.027218 -3.921078 2.13205,-1.040383 -2.799375 2.376019,-1.070179 -2.104829 2.598366,-1.10708 -1.516876 2.763648,-0.6660137 -4.213247 2.198625,-0.5374088 -3.362968 2.417298,-0.4656391 -2.827941 2.596528,-0.4250331 -2.302604 2.75383,-8.853376 -6.807194 1.059566,-8.303961 -6.65039 1.276161,-7.806016 -6.126733 1.475294,-7.453525 -5.618284 1.709422,-7.15717 -5.325876 1.956882,-8.061539 -4.498792 1.244527,-7.845171 -3.528227 1.435176,-7.734657 -2.920228 1.617334,-7.65013 -2.380783 1.758593,-8.367725 -4.262233 1.337263,-8.172852 -3.105241 1.486413,-8.038286 -2.375377 1.707547,-7.933713 -1.738976 1.887175,-8.686179 -4.262078 1.462993,-8.552245 -3.179437 1.615751,-8.436299 -2.513207 1.795837,-8.325038 -1.947979 1.939243,-9.026493 -4.460154 1.613937,-9.044987 -3.610197 1.791365,-9.015766 -3.050892 1.930466,-8.957911 -2.525292 2.028088,1.080,DnF
-1.066297 -6.580736 1.678446,-1.661999 -6.360454 2.120688,-2.216238 -5.810993 2.373965,-2.622184 -5.286722 2.59994,-2.950244 -4.96383 2.83537,-1.765401 -4.047838 2.129093,-1.974941 -2.990324 2.367107,-2.082205 -2.357557 2.568572,-2.16742 -1.788979 2.752337,-1.386474 -3.846766 2.101013,-1.484611 -2.61519 2.33981,-1.538311 -1.836937 2.582754,-1.578466 -1.192781 2.76464,-1.027218 -3.921078 2.13205,-1.040383 -2.799375 2.376019,-1.070179 -2.104829 2.598366,-1.10708 -1.516876 2.763648,-0.6660137 -4.213247 2.198625,-0.5374088 -3.362968 2.417298,-0.4656391 -2.827941 2.596528,-0.4250331 -2.302604 2.75383,-8.853376 -6.807194 1.059566,-8.303961 -6.65039 1.276161,-7.806016 -6.126733 1.475294,-7.453525 -5.618284 1.709422,-7.15717 -5.325876 1.956882,-8.061539 -4.498792 1.244527,-7.845171 -3.528227 1.435176,-7.734657 -2.920228 1.617334,-7.65013 -2.380783 1.758593,-8.367725 -4.262233 1.337263,-8.172852 -3.105241 1.486413,-8.038286 -2.375377 1.707547,-7.933713 -1.738976 1.887175,-8.686179 -4.262078 1.462993,-8.552245 -3.179437 1.615751,-8.436299 -2.513207 1.795837,-8.325038 -1.947979 1.939243,-9.026493 -4.460154 1.613937,-9.044987 -3.610197 1.791365,-9.015766 -3.050892 1.930466,-8.957911 -2.525292 2.028088,1.100,DnF
-1.066297 -6.580736 1.678446,-1.661999 -6.360454 2.120688,-2.216238 -5.810993 2.373965,-2.622184 -5.286722 2.59994,-2.950244 -4.96383 2.83537,-1.765401 -4.047838 2.129093,-1.974941 -2.990324 2.367107,-2.082205 -2.357557 2.568572,-2.16742 -1.788979 2.752337,-1.386474 -3.846766 2.101013,-1.484611 -2.61519 2.33981,-1.538311 -1.836937 2.582754,-1.578466 -1.192781 2.76464,-1.027218 -3.921078 2.13205,-1.040383 -2.799375 2.376019,-1.070179 -2.104829 2.598366,-1.10708 -1.516876 2.763648,-0.6660137 -4.213247 2.198625,-0.5374088 -3.362968 2.417298,-0.4656391 -2.827941 2.596528,-0.4250331 -2.302604 2.75383,-8.853376 -6.807194 1.059566,-8.303961 -6.65039 1.276161,-7.806016 -6.126733 1.475294,-7.453525 -5.618284 1.709422,-7.15717 -5.325876 1.956882,-8.061539 -4.498792 1.244527,-7.845171 -3.528227 1.435176,-7.734657 -2.920228 1.617334,-7.65013 -2.380783 1.758593,-8.367725 -4.262233 1.337263,-8.172852 -3.105241 1.486413,-8.038286 -2.375377 1.707547,-7.933713 -1.738976 1.887175,-8.686179 -4.262078 1.462993,-8.552245 -3.179437 1.615751,-8.436299 -2.513207 1.795837,-8.325038 -1.947979 1.939243,-9.026493 -4.460154 1.613937,-9.044987 -3.610197 1.791365,-9.015766 -3.050892 1.930466,-8.957911 -2.525292 2.028088,1.120,DnF
-1.063964 -6.558534 1.602697,-1.660228 -6.33653 2.05232,-2.218361 -5.804774 2.314366,-2.626256 -5.293026 2.545286,-2.957133 -4.957458 2.784891,-1.775284 -4.047771 2.063283,-1.980257 -2.983243 2.307092,-2.083784 -2.344874 2.512028,-2.166235 -1.770866 2.701754,-1.397145 -3.850359 2.039167,-1.495972 -2.61701 2.290429,-1.546642 -1.837024 2.546592,-1.586869 -1.187657 2.739433,-1.036836 -3.92029 2.073307,-1.055409 -2.791 2.328204,-1.082879 -2.08996 2.558889,-1.12149 -1.496809 2.731099,-0.6725764 -4.203806 2.143339,-0.5408859 -3.346406 2.372126,-0.4649372 -2.809537 2.555772,-0.424983 -2.284227 2.716737,-8.882428 -6.8088 1.084587,-8.326294 -6.652813 1.320603,-7.827704 -6.131291 1.529666,-7.475376 -5.61421 1.771473,-7.176785 -5.306449 2.021865,-8.08749 -4.495115 1.288114,-7.845171 -3.528227 1.460125,-7.734657 -2.920228 1.642284,-7.65013 -2.380783 1.783542,-8.367725 -4.262233 1.362212,-8.172852 -3.105241 1.511363,-8.038286 -2.375377 1.732497,-7.933713 -1.738976 1.912124,-8.686179 -4.262078 1.487943,-8.552245 -3.179437 1.6407,-8.436299 -2.513207 1.820787,-8.325038 -1.947979 1.964193,-9.026493 -4.460154 1.638886,-9.044987 -3.610197 1.816314,-9.015766 -3.050892 1.955416,-8.957911 -2.525292 2.053038,1.140,DnF
-1.063964 -6.558534 1.602697,-1.660228 -6.33653 2.05232,-2.218361 -5.804774 2.314366,-2.626256 -5.293026 2.545286,-2.957133 -4.957458 2.784891,-1.775284 -4.047771 2.063283,-1.980257 -2.983243 2.307092,-2.083784 -2.344874 2.512028,-2.166235 -1.770866 2.701754,-1.397145 -3.850359 2.039167,-1.495972 -2.61701 2.290429,-1.546642 -1.837024 2.546592,-1.586869 -1.187657 2.739433,-1.036836 -3.92029 2.073307,-1.055409 -2.791 2.328204,-1.082879 -2.08996 2.558889,-1.12149 -1.496809 2.731099,-0.6725764 -4.203806 2.143339,-0.5408859 -3.346406 2.372126,-0.4649372 -2.809537 2.555772,-0.424983 -2.284227 2.716737,-8.882428 -6.8088 1.074081,-8.326294 -6.652813 1.310097,-7.827704 -6.131291 1.519161,-7.475376 -5.61421 1.760968,-7.176785 -5.306449 2.01136,-8.08749 -4.495115 1.277609,-7.879579 -3.51276 1.465919,-7.769504 -2.896934 1.653043,-7.685381 -2.350769 1.79319,-8.394595 -4.260382 1.354981,-8.207479 -3.086005 1.506085,-8.0783 -2.348787 1.730852,-7.97724 -1.709113 1.903529,-8.714575 -4.267032 1.463464,-8.586536 -3.161109 1.61246,-8.474367 -2.477928 1.791951,-8.364862 -1.900352 1.927652,-9.054159 -4.469732 1.596293,-9.078217 -3.603151 1.765225,-9.049563 -3.032523 1.906994,-8.992805 -2.491223 1.997997,1.160,DnF
-1.063964 -6.558534 1.602697,-1.660228 -6.33653 2.05232,-2.218361 -5.804774 2.314366,-2.626256 -5.293026 2.545286,-2.957133 -4.957458 2.784891,-1.775284 -4.047771 2.063283,-1.980257 -2.983243 2.307092,-2.083784 -2.344874 2.512028,-2.166235 -1.770866 2.701754,-1.397145 -3.850359 2.039167,-1.495972 -2.61701 2.290429,-1.546642 -1.837024 2.546592,-1.586869 -1.187657 2.739433,-1.036836 -3.92029 2.073307,-1.055409 -2.791 2.328204,-1.082879 -2.08996 2.558889,-1.12149 -1.496809 2.731099,-0.6725764 -4.203806 2.143339,-0.5408859 -3.346406 2.372126,-0.4649372 -2.809537 2.555772,-0.424983 -2.284227 2.716737,-8.882428 -6.8088 1.074081,-8.326294 -6.652813 1.310097,-7.827704 -6.131291 1.519161,-7.475376 -5.61421 1.760968,-7.176785 -5.306449 2.01136,-8.08749 -4.495115 1.277609,-7.879579 -3.51276 1.465919,-7.769504 -2.896934 1.653043,-7.685381 -2.350769 1.79319,-8.394595 -4.260382 1.354981,-8.207479 -3.086005 1.506085,-8.0783 -2.348787 1.730852,-7.97724 -1.709113 1.903529,-8.714575 -4.267032 1.463464,-8.586536 -3.161109 1.61246,-8.474367 -2.477928 1.791951,-8.364862 -1.900352 1.927652,-9.054159 -4.469732 1.596293,-9.078217 -3.603151 1.765225,-9.049563 -3.032523 1.906994,-8.992805 -2.491223 1.997997,1.180,DnF
-1.063964 -6.558534 1.602697,-1.660228 -6.33653 2.05232,-2.218361 -5.804774 2.314366,-2.626256 -5.293026 2.545286,-2.957133 -4.957458 2.784891,-1.775284 -4.047771 2.063283,-1.980257 -2.983243 2.307092,-2.083784 -2.344874 2.512028,-2.166235 -1.770866 2.701754,-1.397145 -3.850359 2.039167,-1.495972 -2.61701 2.290429,-1.546642 -1.837024 2.546592,-1.586869 -1.187657 2.739433,-1.036836 -3.92029 2.073307,-1.055409 -2.791 2.328204,-1.082879 -2.08996 2.558889,-1.12149 -1.496809 2.731099,-0.6725764 -4.203806 2.143339,-0.5408859 -3.346406 2.372126,-0.4649372 -2.809537 2.555772,-0.424983 -2.284227 2.716737,-8.882428 -6.8088 1.074081,-8.326294 -6.652813 1.310097,-7.827704 -6.131291 1.519161,-7.475376 -5.61421 1.760968,-7.176785 -5.306449 2.01136,-8.08749 -4.495115 1.277609,-7.879579 -3.51276 1.465919,-7.769504 -2.896934 1.653043,-7.685381 -2.350769 1.79319,-8.394595 -4.260382 1.354981,-8.207479 -3.086005 1.506085,-8.0783 -2.348787 1.730852,-7.97724 -1.709113 1.903529,-8.714575 -4.267032 1.463464,-8.586536 -3.161109 1.61246,-8.474367 -2.477928 1.791951,-8.364862 -1.900352 1.927652,-9.054159 -4.469732 1.596293,-9.078217 -3.603151 1.765225,-9.049563 -3.032523 1.906994,-8.992805 -2.491223 1.997997,1.200,DnF
-1.073718 -6.581845 1.620577,-1.681565 -6.354341 2.048556,-2.245731 -5.812947 2.293377,-2.65353 -5.293746 2.512328,-2.978492 -4.956187 2.738141,-1.787827 -4.064148 2.049139,-1.989153 -3.001722 2.287096,-2.086391 -2.364111 2.485878,-2.160235 -1.792247 2.669199,-1.410168 -3.864126 2.026309,-1.507231 -2.631168 2.262273,-1.555034 -1.855852 2.511133,-1.58742 -1.218624 2.698479,-1.050217 -3.935186 2.061373,-1.062689 -2.804832 2.29762,-1.086788 -2.114192 2.520163,-1.117249 -1.53985 2.688905,-0.6840563 -4.21932 2.132552,-0.548192 -3.35779 2.346325,-0.4693723 -2.825127 2.524973,-0.4255104 -2.313581 2.678939,-8.895769 -6.828203 1.14789,-8.337605 -6.666952 1.381555,-7.841358 -6.142326 1.600124,-7.487848 -5.630512 1.856851,-7.186732 -5.322241 2.129266,-8.101209 -4.485342 1.343556,-7.895149 -3.510277 1.532191,-7.785113 -2.892984 1.727931,-7.701725 -2.352924 1.877794,-8.410697 -4.257888 1.431008,-8.226784 -3.08483 1.584959,-8.097801 -2.335483 1.817395,-7.99813 -1.688438 1.995984,-8.734387 -4.271989 1.549423,-8.609839 -3.17068 1.700483,-8.496728 -2.48488 1.882584,-8.387207 -1.903328 2.018931,-9.077476 -4.481538 1.696457,-9.101668 -3.613025 1.866941,-9.073683 -3.031723 2.007103,-9.014168 -2.469881 2.096128,1.220,DnF
-1.073718 -6.581845 1.620577,-1.681565 -6.354341 2.048556,-2.245731 -5.812947 2.293377,-2.65353 -5.293746 2.512328,-2.978492 -4.956187 2.738141,-1.787827 -4.064148 2.049139,-1.989153 -3.001722 2.287096,-2.086391 -2.364111 2.485878,-2.160235 -1.792247 2.669199,-1.410168 -3.864126 2.026309,-1.507231 -2.631168 2.262273,-1.555034 -1.855852 2.511133,-1.58742 -1.218624 2.698479,-1.050217 -3.935186 2.061373,-1.062689 -2.804832 2.29762,-1.086788 -2.114192 2.520163,-1.117249 -1.53985 2.688905,-0.6840563 -4.21932 2.132552,-0.548192 -3.35779 2.346325,-0.4693723 -2.825127 2.524973,-0.4255104 -2.313581 2.678939,-8.895769 -6.828203 1.14789,-8.337605 -6.666952 1.381555,-7.841358 -6.142326 1.600124,-7.487848 -5.630512 1.856851,-7.186732 -5.322241 2.129266,-8.101209 -4.485342 1.343556,-7.895149 -3.510277 1.532191,-7.785113 -2.892984 1.727931,-7.701725 -2.352924 1.877794,-8.410697 -4.257888 1.431008,-8.226784 -3.08483 1.584959,-8.097801 -2.335483 1.817395,-7.99813 -1.688438 1.995984,-8.734387 -4.271989 1.549423,-8.609839 -3.17068 1.700483,-8.496728 -2.48488 1.882584,-8.387207 -1.903328 2.018931,-9.077476 -4.481538 1.696457,-9.101668 -3.613025 1.866941,-9.073683 -3.031723 2.007103,-9.014168 -2.469881 2.096128,1.240,DnF
-1.073718 -6.581845 1.620577,-1.681565 -6.354341 2.048556,-2.245731 -5.812947 2.293377,-2.65353 -5.293746 2.512328,-2.978492 -4.956187 2.738141,-1.787827 -4.064148 2.049139,-1.989153 -3.001722 2.287096,-2.086391 -2.364111 2.485878,-2.160235 -1.792247 2.669199,-1.410168 -3.864126 2.026309,-1.507231 -2.631168 2.262273,-1.555034 -1.855852 2.511133,-1.58742 -1.218624 2.698479,-1.050217 -3.935186 2.061373,-1.062689 -2.804832 2.29762,-1.086788 -2.114192 2.520163,-1.117249 -1.53985 2.688905,-0.6840563 -4.21932 2.132552,-0.548192 -3.35779 2.346325,-0.4693723 -2.825127 2.524973,-0.4255104 -2.313581 2.678939,-8.895769 -6.828203 1.14789,-8.337605 -6.666952 1.381555,-7.841358 -6.142326 1.600124,-7.487848 -5.630512 1.856851,-7.186732 -5.322241 2.129266,-8.101209 -4.485342 1.343556,-7.895149 -3.510277 1.532191,-7.785113 -2.892984 1.727931,-7.701725 -2.352924 1.877794,-8.410697 -4.257888 1.431008,-8.226784 -3.08483 1.584959,-8.097801 -2.335483 1.817395,-7.99813 -1.688438 1.995984,-8.734387 -4.271989 1.549423,-8.609839 -3.17068 1.700483,-8.496728 -2.48488 1.882584,-8.387207 -1.903328 2.018931,-9.077476 -4.481538 1.696457,-9.101668 -3.613025 1.866941,-9.073683 -3.031723 2.007103,-9.014168 -2.469881 2.096128,1.260,DnF
-1.077514 -6.60754 1.654266,-1.679488 -6.376014 2.114846,-2.240707 -5.842427 2.383709,-2.641919 -5.311698 2.616958,-2.965021 -4.967773 2.85674,-1.790863 -4.094369 2.163244,-1.994349 -3.027212 2.418337,-2.088314 -2.385915 2.626558,-2.160299 -1.807485 2.815826,-1.40766 -3.889846 2.125698,-1.508541 -2.64223 2.388478,-1.556373 -1.868882 2.645906,-1.589667 -1.224433 2.83622,-1.046821 -3.950431 2.143318,-1.059496 -2.81544 2.396069,-1.082459 -2.126735 2.623134,-1.112662 -1.547801 2.793777,-0.681776 -4.217157 2.198915,-0.5460153 -3.352802 2.418445,-0.4662943 -2.818083 2.596786,-0.420146 -2.301187 2.755271,-8.892035 -6.852741 1.172261,-8.336346 -6.667238 1.395025,-7.839992 -6.150339 1.614649,-7.481296 -5.648771 1.877882,-7.17468 -5.357415 2.162213,-8.107026 -4.495967 1.351128,-7.895124 -3.514951 1.536787,-7.783112 -2.890342 1.732419,-7.699774 -2.352897 1.880718,-8.420417 -4.271514 1.443431,-8.230495 -3.09063 1.595036,-8.100248 -2.333689 1.826377,-8.004433 -1.6863 2.003759,-8.745829 -4.285028 1.562723,-8.618117 -3.183374 1.711599,-8.50211 -2.496915 1.8822,-8.391049 -1.918005 2.008295,-9.087931 -4.492422 1.713149,-9.11542 -3.622384 1.877712,-9.086987 -3.042187 2.010817,-9.027772 -2.477623 2.093549,1.280,DnF
-1.077514 -6.60754 1.654266,-1.679488 -6.376014 2.114846,-2.240707 -5.842427 2.383709,-2.641919 -5.311698 2.616958,-2.965021 -4.967773 2.85674,-1.790863 -4.094369 2.163244,-1.994349 -3.027212 2.418337,-2.088314 -2.385915 2.626558,-2.160299 -1.807485 2.815826,-1.40766 -3.889846 2.125698,-1.508541 -2.64223 2.388478,-1.556373 -1.868882 2.645906,-1.589667 -1.224433 2.83622,-1.046821 -3.950431 2.143318,-1.059496 -2.81544 2.396069,-1.082459 -2.126735 2.623134,-1.112662 -1.547801 2.793777,-0.681776 -4.217157 2.198915,-0.5460153 -3.352802 2.418445,-0.4662943 -2.818083 2.596786,-0.420146 -2.301187 2.755271,-8.892035 -6.852741 1.172261,-8.336346 -6.667238 1.395025,-7.839992 -6.150339 1.614649,-7.481296 -5.648771 1.877882,-7.17468 -5.357415 2.162213,-8.107026 -4.495967 1.351128,-7.895124 -3.514951 1.536787,-7.783112 -2.890342 1.732419,-7.699774 -2.352897 1.880718,-8.420417 -4.271514 1.443431,-8.230495 -3.09063 1.595036,-8.100248 -2.333689 1.826377,-8.004433 -1.6863 2.003759,-8.745829 -4.285028 1.562723,-8.618117 -3.183374 1.711599,-8.50211 -2.496915 1.8822,-8.391049 -1.918005 2.008295,-9.087931 -4.492422 1.713149,-9.11542 -3.622384 1.877712,-9.086987 -3.042187 2.010817,-9.027772 -2.477623 2.093549,1.300,DnF
-1.077514 -6.60754 1.654266,-1.679488 -6.376014 2.114846,-2.240707 -5.842427 2.383709,-2.641919 -5.311698 2.616958,-2.965021 -4.967773 2.85674,-1.790863 -4.094369 2.163244,-1.994349 -3.027212 2.418337,-2.088314 -2.385915 2.626558,-2.160299 -1.807485 2.815826,-1.40766 -3.889846 2.125698,-1.508541 -2.64223 2.388478,-1.556373 -1.868882 2.645906,-1.589667 -1.224433 2.83622,-1.046821 -3.950431 2.143318,-1.059496 -2.81544 2.396069,-1.082459 -2.126735 2.623134,-1.112662 -1.547801 2.793777,-0.681776 -4.217157 2.198915,-0.5460153 -3.352802 2.418445,-0.4662943 -2.818083 2.596786,-0.420146 -2.301187 2.755271,-8.892035 -6.852741 1.172261,-8.336346 -6.667238 1.395025,-7.839992 -6.150339 1.614649,-7.481296 -5.648771 1.877882,-7.17468 -5.357415 2.162213,-8.107026 -4.495967 1.351128,-7.895124 -3.514951 1.536787,-7.783112 -2.890342 1.732419,-7.699774 -2.352897 1.880718,-8.420417 -4.271514 1.443431,-8.230495 -3.09063 1.595036,-8.100248 -2.333689 1.826377,-8.004433 -1.6863 2.003759,-8.745829 -4.285028 1.562723,-8.618117 -3.183374 1.711599,-8.50211 -2.496915 1.8822,-8.391049 -1.918005 2.008295,-9.087931 -4.492422 1.713149,-9.11542 -3.622384 1.877712,-9.086987 -3.042187 2.010817,-9.027772 -2.477623 2.093549,1.320,DnF
-1.072465 -6.598279 1.682789,-1.678533 -6.388036 2.128047,-2.233838 -5.848688 2.380852,-2.62857 -5.315269 2.603494,-2.949374 -4.977128 2.829128,-1.793477 -4.072586 2.128999,-1.998162 -3.011262 2.361931,-2.09435 -2.378639 2.560765,-2.164658 -1.812988 2.742123,-1.411003 -3.863273 2.092247,-1.506214 -2.612287 2.323582,-1.546294 -1.839362 2.569135,-1.567826 -1.197017 2.744267,-1.049478 -3.926298 2.110977,-1.054879 -2.789856 2.336137,-1.071461 -2.106296 2.55218,-1.093013 -1.528703 2.709887,-0.685082 -4.20138 2.16897,-0.5457902 -3.343371 2.371569,-0.4629202 -2.81137 2.546632,-0.4121733 -2.296705 2.696215,-8.888326 -6.857969 1.170686,-8.330874 -6.672784 1.392932,-7.836606 -6.166469 1.610522,-7.477215 -5.661755 1.868685,-7.172448 -5.361095 2.143019,-8.111531 -4.500031 1.359012,-7.898427 -3.511311 1.544797,-7.784103 -2.887954 1.732677,-7.699234 -2.344917 1.875515,-8.420755 -4.278003 1.455997,-8.236119 -3.092442 1.60961,-8.105368 -2.335232 1.841347,-8.00908 -1.687057 2.016251,-8.742533 -4.296397 1.581353,-8.624115 -3.19931 1.737998,-8.510523 -2.510863 1.918152,-8.400153 -1.932962 2.051187,-9.081005 -4.507555 1.734787,-9.116472 -3.642334 1.91745,-9.09277 -3.064126 2.06381,-9.034633 -2.506143 2.153507,1.340,DnF
-1.072465 -6.598279 1.682789,-1.678533 -6.388036 2.128047,-2.233838 -5.848688 2.380852,-2.62857 -5.315269 2.603494,-2.949374 -4.977128 2.829128,-1.793477 -4.072586 2.128999,-1.998162 -3.011262 2.361931,-2.09435 -2.378639 2.560765,-2.164658 -1.812988 2.742123,-1.411003 -3.863273 2.092247,-1.506214 -2.612287 2.323582,-1.546294 -1.839362 2.569135,-1.567826 -1.197017 2.744267,-1.049478 -3.926298 2.110977,-1.054879 -2.789856 2.336137,-1.071461 -2.106296 2.55218,-1.093013 -1.528703 2.709887,-0.685082 -4.20138 2.16897,-0.5457902 -3.343371 2.371569,-0.4629202 -2.81137 2.546632,-0.4121733 -2.296705 2.696215,-8.888326 -6.857969 1.170686,-8.330874 -6.672784 1.392932,-7.836606 -6.166469 1.610522,-7.477215 -5.661755 1.868685,-7.172448 -5.361095 2.143019,-8.111531 -4.500031 1.359012,-7.898427 -3.511311 1.544797,-7.784103 -2.887954 1.732677,-7.699234 -2.344917 1.875515,-8.420755 -4.278003 1.455997,-8.236119 -3.092442 1.60961,-8.105368 -2.335232 1.841347,-8.00908 -1.687057 2.016251,-8.742533 -4.296397 1.581353,-8.624115 -3.19931 1.737998,-8.510523 -2.510863 1.918152,-8.400153 -1.932962 2.051187,-9.081005 -4.507555 1.734787,-9.116472 -3.642334 1.91745,-9.09277 -3.064126 2.06381,-9.034633 -2.506143 2.153507,1.360,DnF
-1.072465 -6.598279 1.682789,-1.678533 -6.388036 2.128047,-2.233838 -5.848688 2.380852,-2.62857 -5.315269 2.603494,-2.949374 -4.977128 2.829128,-1.793477 -4.072586 2.128999,-1.998162 -3.011262 2.361931,-2.09435 -2.378639 2.560765,-2.164658 -1.812988 2.742123,-1.411003 -3.863273 2.092247,-1.506214 -2.612287 2.323582,-1.546294 -1.839362 2.569135,-1.567826 -1.197017 2.744267,-1.049478 -3.926298 2.110977,-1.054879 -2.789856 2.336137,-1.071461 -2.106296 2.55218,-1.093013 -1.528703 2.709887,-0.685082 -4.20138 2.16897,-0.5457902 -3.343371 2.371569,-0.4629202 -2.81137 2.546632,-0.4121733 -2.296705 2.696215,-8.888326 -6.857969 1.170686,-8.330874 -6.672784 1.392932,-7.836606 -6.166469 1.610522,-7.477215 -5.661755 1.868685,-7.172448 -5.361095 2.143019,-8.111531 -4.500031 1.359012,-7.898427 -3.511311 1.544797,-7.784103 -2.887954 1.732677,-7.699234 -2.344917 1.875515,-8.420755 -4.278003 1.455997,-8.236119 -3.092442 1.60961,-8.105368 -2.335232 1.841347,-8.00908 -1.687057 2.016251,-8.742533 -4.296397 1.581353,-8.624115 -3.19931 1.737998,-8.510523 -2.510863 1.918152,-8.400153 -1.932962 2.051187,-9.081005 -4.507555 1.734787,-9.116472 -3.642334 1.91745,-9.09277 -3.064126 2.06381,-9.034633 -2.506143 2.153507,1.380,DnF
-1.066379 -6.628691 1.651582,-1.672136 -6.411176 2.101223,-2.232941 -5.867049 2.353515,-2.629204 -5.325243 2.574916,-2.948732 -4.976862 2.800642,-1.790529 -4.114271 2.103343,-1.9916 -3.046193 2.341671,-2.087058 -2.397217 2.542677,-2.159349 -1.818502 2.729095,-1.411808 -3.904073 2.063998,-1.507697 -2.658928 2.288917,-1.552736 -1.879989 2.535079,-1.579489 -1.234664 2.722208,-1.053694 -3.961111 2.081497,-1.061625 -2.823927 2.299327,-1.082414 -2.135624 2.518261,-1.105379 -1.558368 2.685863,-0.6891584 -4.228018 2.137075,-0.5503407 -3.357062 2.33775,-0.4706874 -2.820816 2.513728,-0.4205384 -2.304019 2.670723,-8.885176 -6.854223 1.163941,-8.329464 -6.658664 1.390377,-7.833549 -6.15355 1.608997,-7.475513 -5.643369 1.867466,-7.173953 -5.340023 2.139413,-8.10614 -4.503147 1.35395,-7.895005 -3.518782 1.542955,-7.782356 -2.895442 1.732504,-7.696527 -2.349231 1.875367,-8.414056 -4.276918 1.449637,-8.229094 -3.091624 1.607899,-8.100491 -2.333649 1.840593,-8.002995 -1.682154 2.016316,-8.734962 -4.286349 1.57349,-8.611582 -3.180746 1.73224,-8.499154 -2.486351 1.9157,-8.384429 -1.904358 2.05178,-9.074373 -4.487939 1.725387,-9.108866 -3.617202 1.907116,-9.086372 -3.038611 2.05284,-9.026775 -2.4803 2.144007,1.400,DnF
-1.066379 -6.628691 1.651582,-1.672136 -6.411176 2.101223,-2.232941 -5.867049 2.353515,-2.629204 -5.325243 2.574916,-2.948732 -4.976862 2.800642,-1.790529 -4.114271 2.103343,-1.9916 -3.046193 2.341671,-2.087058 -2.397217 2.542677,-2.159349 -1.818502 2.729095,-1.411808 -3.904073 2.063998,-1.507697 -2.658928 2.288917,-1.552736 -1.879989 2.535079,-1.579489 -1.234664 2.722208,-1.053694 -3.961111 2.081497,-1.061625 -2.823927 2.299327,-1.082414 -2.135624 2.518261,-1.105379 -1.558368 2.685863,-0.6891584 -4.228018 2.137075,-0.5503407 -3.357062 2.33775,-0.4706874 -2.820816 2.513728,-0.4205384 -2.304019 2.670723,-8.885176 -6.854223 1.163941,-8.329464 -6.658664 1.390377,-7.833549 -6.15355 1.608997,-7.475513 -5.643369 1.867466,-7.173953 -5.340023 2.139413,-8.10614 -4.503147 1.35395,-7.895005 -3.518782 1.542955,-7.782356 -2.895442 1.732504,-7.696527 -2.349231 1.875367,-8.414056 -4.276918 1.449637,-8.229094 -3.091624 1.607899,-8.100491 -2.333649 1.840593,-8.002995 -1.682154 2.016316,-8.734962 -4.286349 1.57349,-8.611582 -3.180746 1.73224,-8.499154 -2.486351 1.9157,-8.384429 -1.904358 2.05178,-9.074373 -4.487939 1.725387,-9.108866 -3.617202 1.907116,-9.086372 -3.038611 2.05284,-9.026775 -2.4803 2.144007,1.420,DnF
-1.066379 -6.628691 1.651582,-1.672136 -6.411176 2.101223,-2.232941 -5.867049 2.353515,-2.629204 -5.325243 2.574916,-2.948732 -4.976862 2.800642,-1.790529 -4.114271 2.103343,-1.9916 -3.046193 2.341671,-2.087058 -2.397217 2.542677,-2.159349 -1.818502 2.729095,-1.411808 -3.904073 2.063998,-1.507697 -2.658928 2.288917,-1.552736 -1.879989 2.535079,-1.579489 -1.234664 2.722208,-1.053694 -3.961111 2.081497,-1.061625 -2.823927 2.299327,-1.082414 -2.135624 2.518261,-1.105379 -1.558368 2.685863,-0.6891584 -4.228018 2.137075,-0.5503407 -3.357062 2.33775,-0.4706874 -2.820816 2.513728,-0.4205384 -2.304019 2.670723,-8.885176 -6.854223 1.163941,-8.329464 -6.658664 1.390377,-7.833549 -6.15355 1.608997,-7.475513 -5.643369 1.867466,-7.173953 -5.340023 2.139413,-8.10614 -4.503147 1.35395,-7.895005 -3.518782 1.542955,-7.782356 -2.895442 1.732504,-7.696527 -2.349231 1.875367,-8.414056 -4.276918 1.449637,-8.229094 -3.091624 1.607899,-8.100491 -2.333649 1.840593,-8.002995 -1.682154 2.016316,-8.734962 -4.286349 1.57349,-8.611582 -3.180746 1.73224,-8.499154 -2.486351 1.9157,-8.384429 -1.904358 2.05178,-9.074373 -4.487939 1.725387,-9.108866 -3.617202 1.907116,-9.086372 -3.038611 2.05284,-9.026775 -2.4803 2.144007,1.440,DnF
-1.066379 -6.628691 1.651582,-1.672136 -6.411176 2.101223,-2.232941 -5.867049 2.353515,-2.629204 -5.325243 2.574916,-2.948732 -4.976862 2.800642,-1.790529 -4.114271 2.103343,-1.9916 -3.046193 2.341671,-2.087058 -2.397217 2.542677,-2.159349 -1.818502 2.729095,-1.411808 -3.904073 2.063998,-1.507697 -2.658928 2.288917,-1.552736 -1.879989 2.535079,-1.579489 -1.234664 2.722208,-1.053694 -3.961111 2.081497,-1.061625 -2.823927 2.299327,-1.082414 -2.135624 2.518261,-1.105379 -1.558368 2.685863,-0.6891584 -4.228018 2.137075,-0.5503407 -3.357062 2.33775,-0.4706874 -2.820816 2.513728,-0.4205384 -2.304019 2.670723,-8.885176 -6.854223 1.163941,-8.329464 -6.658664 1.390377,-7.833549 -6.15355 1.608997,-7.475513 -5.643369 1.867466,-7.173953 -5.340023 2.139413,-8.10614 -4.503147 1.35395,-7.895005 -3.518782 1.542955,-7.782356 -2.895442 1.732504,-7.696527 -2.349231 1.875367,-8.414056 -4.276918 1.449637,-8.229094 -3.091624 1.607899,-8.100491 -2.333649 1.840593,-8.002995 -1.682154 2.016316,-8.734962 -4.286349 1.57349,-8.611582 -3.180746 1.73224,-8.499154 -2.486351 1.9157,-8.384429 -1.904358 2.05178,-9.074373 -4.487939 1.725387,-9.108866 -3.617202 1.907116,-9.086372 -3.038611 2.05284,-9.026775 -2.4803 2.144007,1.460,DnF
-1.091207 -6.610128 1.636883,-1.69379 -6.396942 2.078289,-2.247676 -5.862288 2.333721,-2.639942 -5.325841 2.559972,-2.951066 -4.994455 2.787747,-1.804681 -4.08823 2.068259,-2.001488 -3.022091 2.300964,-2.095657 -2.385475 2.499388,-2.164949 -1.821802 2.682305,-1.423244 -3.88561 2.032396,-1.516539 -2.63534 2.254799,-1.558368 -1.845974 2.49623,-1.580386 -1.200773 2.671363,-1.063578 -3.953047 2.053381,-1.067385 -2.806705 2.272558,-1.083453 -2.106753 2.485076,-1.10428 -1.523356 2.640006,-0.699935 -4.234556 2.113618,-0.5555649 -3.366955 2.308857,-0.4723349 -2.829053 2.47967,-0.4194345 -2.311185 2.621015,-8.897764 -6.851626 1.186614,-8.334976 -6.671588 1.424798,-7.83479 -6.15957 1.644407,-7.475386 -5.644988 1.900971,-7.172793 -5.34102 2.166966,-8.109243 -4.498052 1.379929,-7.894598 -3.514862 1.56909,-7.782298 -2.891576 1.759666,-7.697629 -2.347188 1.900739,-8.419332 -4.268262 1.465164,-8.231297 -3.081643 1.617965,-8.101735 -2.32584 1.844564,-8.002836 -1.676875 2.016535,-8.743162 -4.277641 1.580222,-8.618206 -3.170014 1.731982,-8.506403 -2.478842 1.907022,-8.394094 -1.898151 2.035,-9.084265 -4.482925 1.725503,-9.113388 -3.618455 1.895061,-9.089312 -3.043729 2.032849,-9.030529 -2.48885 2.118771,1.480,DnF
-1.091207 -6.610128 1.636883,-1.69379 -6.396942 2.078289,-2.247676 -5.862288 2.333721,-2.639942 -5.325841 2.559972,-2.951066 -4.994455 2.787747,-1.804681 -4.08823 2.068259,-2.001488 -3.022091 2.300964,-2.095657 -2.385475 2.499388,-2.164949 -1.821802 2.682305,-1.423244 -3.88561 2.032396,-1.516539 -2.63534 2.254799,-1.558368 -1.845974 2.49623,-1.580386 -1.200773 2.671363,-1.063578 -3.953047 2.053381,-1.067385 -2.806705 2.272558,-1.083453 -2.106753 2.485076,-1.10428 -1.523356 2.640006,-0.699935 -4.234556 2.113618,-0.5555649 -3.366955 2.308857,-0.4723349 -2.829053 2.47967,-0.4194345 -2.311185 2.621015,-8.897764 -6.851626 1.186614,-8.334976 -6.671588 1.424798,-7.83479 -6.15957 1.644407,-7.475386 -5.644988 1.900971,-7.172793 -5.34102 2.166966,-8.109243 -4.498052 1.379929,-7.894598 -3.514862 1.56909,-7.782298 -2.891576 1.759666,-7.697629 -2.347188 1.900739,-8.419332 -4.268262 1.465164,-8.231297 -3.081643 1.617965,-8.101735 -2.32584 1.844564,-8.002836 -1.676875 2.016535,-8.743162 -4.277641 1.580222,-8.618206 -3.170014 1.731982,-8.506403 -2.478842 1.907022,-8.394094 -1.898151 2.035,-9.084265 -4.482925 1.725503,-9.113388 -3.618455 1.895061,-9.089312 -3.043729 2.032849,-9.030529 -2.48885 2.118771,1.500,DnF
-1.091207 -6.610128 1.636883,-1.69379 -6.396942 2.078289,-2.247676 -5.862288 2.333721,-2.639942 -5.325841 2.559972,-2.951066 -4.994455 2.787747,-1.804681 -4.08823 2.068259,-2.001488 -3.022091 2.300964,-2.095657 -2.385475 2.499388,-2.164949 -1.821802 2.682305,-1.423244 -3.88561 2.032396,-1.516539 -2.63534 2.254799,-1.558368 -1.845974 2.49623,-1.580386 -1.200773 2.671363,-1.063578 -3.953047 2.053381,-1.067385 -2.806705 2.272558,-1.083453 -2.106753 2.485076,-1.10428 -1.523356 2.640006,-0.699935 -4.234556 2.113618,-0.5555649 -3.366955 2.308857,-0.4723349 -2.829053 2.47967,-0.4194345 -2.311185 2.621015,-8.897764 -6.851626 1.186614,-8.334976 -6.671588 1.424798,-7.83479 -6.15957 1.644407,-7.475386 -5.644988 1.900971,-7.172793 -5.34102 2.166966,-8.109243 -4.498052 1.379929,-7.894598 -3.514862 1.56909,-7.782298 -2.891576 1.759666,-7.697629 -2.347188 1.900739,-8.419332 -4.268262 1.465164,-8.231297 -3.081643 1.617965,-8.101735 -2.32584 1.844564,-8.002836 -1.676875 2.016535,-8.743162 -4.277641 1.580222,-8.618206 -3.170014 1.731982,-8.506403 -2.478842 1.907022,-8.394094 -1.898151 2.035,-9.084265 -4.482925 1.725503,-9.113388 -3.618455 1.895061,-9.089312 -3.043729 2.032849,-9.030529 -2.48885 2.118771,1.520,DnF
-1.085815 -6.610063 1.650542,-1.686007 -6.399116 2.105675,-2.23798 -5.862502 2.366524,-2.626189 -5.328332 2.5973,-2.948942 -4.995222 2.835251,-1.802376 -4.09048 2.118066,-2.006541 -3.032176 2.363825,-2.102282 -2.392767 2.567045,-2.173628 -1.819648 2.755213,-1.426246 -3.888486 2.084576,-1.526638 -2.651013 2.329343,-1.572314 -1.877072 2.578686,-1.601379 -1.234651 2.761248,-1.069582 -3.955436 2.111056,-1.085859 -2.810534 2.353691,-1.11091 -2.115885 2.576129,-1.139081 -1.528063 2.742713,-0.7047291 -4.235563 2.176232,-0.5688667 -3.365179 2.396428,-0.4903431 -2.822112 2.584115,-0.4420128 -2.295897 2.744973,-8.900163 -6.863355 1.201721,-8.336714 -6.674137 1.426379,-7.8372 -6.157143 1.641926,-7.476641 -5.641436 1.898219,-7.172548 -5.33993 2.170984,-8.110036 -4.499189 1.39167,-7.896494 -3.507595 1.580602,-7.782769 -2.884043 1.773139,-7.696008 -2.340065 1.916603,-8.420419 -4.276639 1.487764,-8.231997 -3.084606 1.645148,-8.098678 -2.323973 1.877688,-7.997786 -1.668699 2.053861,-8.743871 -4.293184 1.610853,-8.617702 -3.181119 1.768086,-8.499266 -2.487331 1.945262,-8.383334 -1.903792 2.075791,-9.083908 -4.502244 1.763113,-9.113812 -3.627379 1.941667,-9.087562 -3.04561 2.080612,-9.028117 -2.480021 2.166077,1.540,DnF
-1.085815 -6.610063 1.650542,-1.686007 -6.399116 2.105675,-2.23798 -5.862502 2.366524,-2.626189 -5.328332 2.5973,-2.948942 -4.995222 2.835251,-1.802376 -4.09048 2.118066,-2.006541 -3.032176 2.363825,-2.102282 -2.392767 2.567045,-2.173628 -1.819648 2.755213,-1.426246 -3.888486 2.084576,-1.526638 -2.651013 2.329343,-1.572314 -1.877072 2.578686,-1.601379 -1.234651 2.761248,-1.069582 -3.955436 2.111056,-1.085859 -2.810534 2.353691,-1.11091 -2.115885 2.576129,-1.139081 -1.528063 2.742713,-0.7047291 -4.235563 2.176232,-0.5688667 -3.365179 2.396428,-0.4903431 -2.822112 2.584115,-0.4420128 -2.295897 2.744973,-8.900163 -6.863355 1.201721,-8.336714 -6.674137 1.426379,-7.8372 -6.157143 1.641926,-7.476641 -5.641436 1.898219,-7.172548 -5.33993 2.170984,-8.110036 -4.499189 1.39167,-7.896494 -3.507595 1.580602,-7.782769 -2.884043 1.773139,-7.696008 -2.340065 1.916603,-8.420419 -4.276639 1.487764,-8.231997 -3.084606 1.645148,-8.098678 -2.323973 1.877688,-7.997786 -1.668699 2.053861,-8.743871 -4.293184 1.610853,-8.617702 -3.181119 1.768086,-8.499266 -2.487331 1.945262,-8.383334 -1.903792 2.075791,-9.083908 -4.502244 1.763113,-9.113812 -3.627379 1.941667,-9.087562 -3.04561 2.080612,-9.028117 -2.480021 2.166077,1.560,DnF
-1.085815 -6.610063 1.650542,-1.686007 -6.399116 2.105675,-2.23798 -5.862502 2.366524,-2.626189 -5.328332 2.5973,-2.948942 -4.995222 2.835251,-1.802376 -4.09048 2.118066,-2.006541 -3.032176 2.363825,-2.102282 -2.392767 2.567045,-2.173628 -1.819648 2.755213,-1.426246 -3.888486 2.084576,-1.526638 -2.651013 2.329343,-1.572314 -1.877072 2.578686,-1.601379 -1.234651 2.761248,-1.069582 -3.955436 2.111056,-1.085859 -2.810534 2.353691,-1.11091 -2.115885 2.576129,-1.139081 -1.528063 2.742713,-0.7047291 -4.235563 2.176232,-0.5688667 -3.365179 2.396428,-0.4903431 -2.822112 2.584115,-0.4420128 -2.295897 2.744973,-8.900163 -6.863355 1.201721,-8.336714 -6.674137 1.426379,-7.8372 -6.157143 1.641926,-7.476641 -5.641436 1.898219,-7.172548 -5.33993 2.170984,-8.110036 -4.499189 1.39167,-7.896494 -3.507595 1.580602,-7.782769 -2.884043 1.773139,-7.696008 -2.340065 1.916603,-8.420419 -4.276639 1.487764,-8.231997 -3.084606 1.645148,-8.098678 -2.323973 1.877688,-7.997786 -1.668699 2.053861,-8.743871 -4.293184 1.610853,-8.617702 -3.181119 1.768086,-8.499266 -2.487331 1.945262,-8.383334 -1.903792 2.075791,-9.083908 -4.502244 1.763113,-9.113812 -3.627379 1.941667,-9.087562 -3.04561 2.080612,-9.028117 -2.480021 2.166077,1.580,DnF
-1.071509 -6.6399 1.587913,-1.6696 -6.430643 2.054626,-2.223079 -5.888637 2.310114,-2.605286 -5.325061 2.531132,-2.916151 -4.956924 2.753863,-1.804838 -4.145935 2.063018,-2.005131 -3.084802 2.30656,-2.09832 -2.439125 2.509346,-2.165393 -1.858831 2.695732,-1.429769 -3.938086 2.016992,-1.533486 -2.699784 2.259747,-1.583763 -1.919883 2.512126,-1.616783 -1.274349 2.700727,-1.075201 -3.99588 2.031528,-1.090741 -2.849758 2.269741,-1.114681 -2.156129 2.495443,-1.143819 -1.57084 2.664283,-0.7141294 -4.266601 2.084846,-0.5812416 -3.402757 2.295776,-0.508069 -2.877077 2.479594,-0.4670353 -2.374052 2.638524,-8.884574 -6.863437 1.227938,-8.32567 -6.662302 1.450424,-7.831224 -6.15109 1.667805,-7.479291 -5.635693 1.925246,-7.17853 -5.332378 2.200565,-8.104179 -4.489706 1.421894,-7.892451 -3.499059 1.611682,-7.780081 -2.876968 1.805076,-7.694949 -2.331271 1.950752,-8.415795 -4.267582 1.518782,-8.22823 -3.07726 1.677045,-8.09597 -2.318429 1.913244,-7.996885 -1.666745 2.093646,-8.73912 -4.280471 1.642027,-8.613101 -3.171892 1.798773,-8.498973 -2.477583 1.980715,-8.385976 -1.895491 2.116905,-9.078589 -4.485921 1.794576,-9.110533 -3.612754 1.968069,-9.085691 -3.032596 2.108214,-9.026236 -2.467795 2.197634,1.600,DnF
-1.071509 -6.6399 1.587913,-1.6696 -6.430643 2.054626,-2.223079 -5.888637 2.310114,-2.605286 -5.325061 2.531132,-2.916151 -4.956924 2.753863,-1.804838 -4.145935 2.063018,-2.005131 -3.084802 2.30656,-2.09832 -2.439125 2.509346,-2.165393 -1.858831 2.695732,-1.429769 -3.938086 2.016992,-1.533486 -2.699784 2.259747,-1.583763 -1.919883 2.512126,-1.616783 -1.274349 2.700727,-1.075201 -3.99588 2.031528,-1.090741 -2.849758 2.269741,-1.114681 -2.156129 2.495443,-1.143819 -1.57084 2.664283,-0.7141294 -4.266601 2.084846,-0.5812416 -3.402757 2.295776,-0.508069 -2.877077 2.479594,-0.4670353 -2.374052 2.638524,-8.884574 -6.863437 1.227938,-8.32567 -6.662302 1.450424,-7.831224 -6.15109 1.667805,-7.479291 -5.635693 1.925246,-7.17853 -5.332378 2.200565,-8.104179 -4.489706 1.421894,-7.892451 -3.499059 1.611682,-7.780081 -2.876968 1.805076,-7.694949 -2.331271 1.950752,-8.415795 -4.267582 1.518782,-8.22823 -3.07726 1.677045,-8.09597 -2.318429 1.913244,-7.996885 -1.666745 2.093646,-8.73912 -4.280471 1.642027,-8.613101 -3.171892 1.798773,-8.498973 -2.477583 1.980715,-8.385976 -1.895491 2.116905,-9.078589 -4.485921 1.794576,-9.110533 -3.612754 1.968069,-9.085691 -3.032596 2.108214,-9.026236 -2.467795 2.197634,1.620,DnF
-1.071509 -6.6399 1.587913,-1.6696 -6.430643 2.054626,-2.223079 -5.888637 2.310114,-2.605286 -5.325061 2.531132,-2.916151 -4.956924 2.753863,-1.804838 -4.145935 2.063018,-2.005131 -3.084802 2.30656,-2.09832 -2.439125 2.509346,-2.165393 -1.858831 2.695732,-1.429769 -3.938086 2.016992,-1.533486 -2.699784 2.259747,-1.583763 -1.919883 2.512126,-1.616783 -1.274349 2.700727,-1.075201 -3.99588 2.031528,-1.090741 -2.849758 2.269741,-1.114681 -2.156129 2.495443,-1.143819 -1.57084 2.664283,-0.7141294 -4.266601 2.084846,-0.5812416 -3.402757 2.295776,-0.508069 -2.877077 2.479594,-0.4670353 -2.374052 2.638524,-8.884574 -6.863437 1.227938,-8.32567 -6.662302 1.450424,-7.831224 -6.15109 1.667805,-7.479291 -5.635693 1.925246,-7.17853 -5.332378 2.200565,-8.104179 -4.489706 1.421894,-7.892451 -3.499059 1.611682,-7.780081 -2.876968 1.805076,-7.694949 -2.331271 1.950752,-8.415795 -4.267582 1.518782,-8.22823 -3.07726 1.677045,-8.09597 -2.318429 1.913244,-7.996885 -1.666745 2.093646,-8.73912 -4.280471 1.642027,-8.613101 -3.171892 1.798773,-8.498973 -2.477583 1.980715,-8.385976 -1.895491 2.116905,-9.078589 -4.485921 1.794576,-9.110533 -3.612754 1.968069,-9.085691 -3.032596 2.108214,-9.026236 -2.467795 2.197634,1.640,DnF
-1.065297 -6.6749 1.747636,-1.648095 -6.425424 2.210342,-2.180315 -5.858224 2.456308,-2.517292 -5.237173 2.680462,-2.810119 -4.836504 2.910432,-1.815715 -4.126089 2.113599,-2.003389 -3.114936 2.33894,-2.082152 -2.50218 2.544234,-2.13901 -1.928362 2.728136,-1.446284 -3.915622 2.075202,-1.542475 -2.735222 2.278701,-1.578885 -2.022105 2.513539,-1.602442 -1.410371 2.699187,-1.095668 -3.980958 2.104463,-1.098534 -2.909719 2.30764,-1.11493 -2.29714 2.53692,-1.143365 -1.770865 2.70917,-0.74055 -4.26041 2.184009,-0.6097746 -3.472301 2.378665,-0.544673 -3.004116 2.557003,-0.5142365 -2.55882 2.704768,-8.884574 -6.863437 1.227938,-8.32567 -6.662302 1.450424,-7.831224 -6.15109 1.667805,-7.479291 -5.635693 1.925246,-7.17853 -5.332378 2.200565,-8.104179 -4.489706 1.421894,-7.892451 -3.499059 1.611682,-7.780081 -2.876968 1.805076,-7.694949 -2.331271 1.950752,-8.415795 -4.267582 1.518782,-8.22823 -3.07726 1.677045,-8.09597 -2.318429 1.913244,-7.996885 -1.666745 2.093646,-8.73912 -4.280471 1.642027,-8.613101 -3.171892 1.798773,-8.498973 -2.477583 1.980715,-8.385976 -1.895491 2.116905,-9.078589 -4.485921 1.794576,-9.110533 -3.612754 1.968069,-9.085691 -3.032596 2.108214,-9.026236 -2.467795 2.197634,1.660,DnF
