TiagoOliveira98/HandTracking/DataLogging/JointData/Logs(1642777790)_Tiago_Calculator.csv
WRIST,THUMB_CMC,THUMB_MCP,THUMB_IP,THUMB_TIP,INDEX_FINGER_MCP,INDEX_FINGER_PIP,INDEX_FINGER_DIP,INDEX_FINGER_TIP,MIDDLE_FINGER_MCP,MIDDLE_FINGER_PIP,MIDDLE_FINGER_DIP,MIDDLE_FINGER_TIP,RING_FINGER_MCP,RING_FINGER_PIP,RING_FINGER_DIP,RING_FINGER_TIP,PINKY_MCP,PINKY_PIP,PINKY_DIP,PINKY_TIP,WRIST2,THUMB_CMC2,THUMB_MCP2,THUMB_IP2,THUMB_TIP2,INDEX_FINGER_MCP2,INDEX_FINGER_PIP2,INDEX_FINGER_DIP2,INDEX_FINGER_TIP2,MIDDLE_FINGER_MCP2,MIDDLE_FINGER_PIP2,MIDDLE_FINGER_DIP2,MIDDLE_FINGER_TIP2,RING_FINGER_MCP2,RING_FINGER_PIP2,RING_FINGER_DIP2,RING_FINGER_TIP2,PINKY_MCP2,PINKY_PIP2,PINKY_DIP2,PINKY_TIP2,Timestamp,Event
10 0 0,10 7.47 0,10 7.47 0,10 7.47 0,10 7.47 0,10 7.47 0,10 7.47 0,10 7.47 0,10 7.47 0,10 7.47 0,10 7.47 0,10 7.47 0,10 7.47 0,10 7.47 0,10 7.47 0,10 7.47 0,10 7.47 0,10 7.47 0,10 7.47 0,10 7.47 0,10 7.47 0,10 0 0,10 7.47 0,10 7.47 0,10 7.47 0,10 7.47 0,10 7.47 0,10 7.47 0,10 7.47 0,10 7.47 0,10 7.47 0,10 7.47 0,10 7.47 0,10 7.47 0,10 7.47 0,10 7.47 0,10 7.47 0,10 7.47 0,10 7.47 0,10 7.47 0,10 7.47 0,10 7.47 0,0.010,
2 0 -9.153271,2 0 -9.153271,2 0 -9.153271,2 0 -9.153271,2 0 -9.153271,2 0 -9.153271,2 0 -9.153271,2 0 -9.153271,2 0 -9.153271,2 0 -9.153271,2 0 -9.153271,2 0 -9.153271,2 0 -9.153271,2 0 -9.153271,2 0 -9.153271,2 0 -9.153271,2 0 -9.153271,2 0 -9.153271,2 0 -9.153271,2 0 -9.153271,2 0 -9.153271,2 0 -10.43492,2 0 -10.43492,2 0 -10.43492,2 0 -10.43492,2 0 -10.43492,2 0 -10.43492,2 0 -10.43492,2 0 -10.43492,2 0 -10.43492,2 0 -10.43492,2 0 -10.43492,2 0 -10.43492,2 0 -10.43492,2 0 -10.43492,2 0 -10.43492,2 0 -10.43492,2 0 -10.43492,2 0 -10.43492,2 0 -10.43492,2 0 -10.43492,2 0 -10.43492,0.110,
2 0 -9.153271,2 0 -9.153271,2 0 -9.153271,2 0 -9.153271,2 0 -9.153271,2 0 -9.153271,2 0 -9.153271,2 0 -9.153271,2 0 -9.153271,2 0 -9.153271,2 0 -9.153271,2 0 -9.153271,2 0 -9.153271,2 0 -9.153271,2 0 -9.153271,2 0 -9.153271,2 0 -9.153271,2 0 -9.153271,2 0 -9.153271,2 0 -9.153271,2 0 -9.153271,2 0 -10.43492,2 0 -10.43492,2 0 -10.43492,2 0 -10.43492,2 0 -10.43492,2 0 -10.43492,2 0 -10.43492,2 0 -10.43492,2 0 -10.43492,2 0 -10.43492,2 0 -10.43492,2 0 -10.43492,2 0 -10.43492,2 0 -10.43492,2 0 -10.43492,2 0 -10.43492,2 0 -10.43492,2 0 -10.43492,2 0 -10.43492,2 0 -10.43492,2 0 -10.43492,0.210,
2 0 -9.153271,2 0 -9.153271,2 0 -9.153271,2 0 -9.153271,2 0 -9.153271,2 0 -9.153271,2 0 -9.153271,2 0 -9.153271,2 0 -9.153271,2 0 -9.153271,2 0 -9.153271,2 0 -9.153271,2 0 -9.153271,2 0 -9.153271,2 0 -9.153271,2 0 -9.153271,2 0 -9.153271,2 0 -9.153271,2 0 -9.153271,2 0 -9.153271,2 0 -9.153271,2 0 -10.43492,2 0 -10.43492,2 0 -10.43492,2 0 -10.43492,2 0 -10.43492,2 0 -10.43492,2 0 -10.43492,2 0 -10.43492,2 0 -10.43492,2 0 -10.43492,2 0 -10.43492,2 0 -10.43492,2 0 -10.43492,2 0 -10.43492,2 0 -10.43492,2 0 -10.43492,2 0 -10.43492,2 0 -10.43492,2 0 -10.43492,2 0 -10.43492,2 0 -10.43492,0.310,
2 0 -9.153271,2 0 -9.153271,2 0 -9.153271,2 0 -9.153271,2 0 -9.153271,2 0 -9.153271,2 0 -9.153271,2 0 -9.153271,2 0 -9.153271,2 0 -9.153271,2 0 -9.153271,2 0 -9.153271,2 0 -9.153271,2 0 -9.153271,2 0 -9.153271,2 0 -9.153271,2 0 -9.153271,2 0 -9.153271,2 0 -9.153271,2 0 -9.153271,2 0 -9.153271,2 0 -10.43492,2 0 -10.43492,2 0 -10.43492,2 0 -10.43492,2 0 -10.43492,2 0 -10.43492,2 0 -10.43492,2 0 -10.43492,2 0 -10.43492,2 0 -10.43492,2 0 -10.43492,2 0 -10.43492,2 0 -10.43492,2 0 -10.43492,2 0 -10.43492,2 0 -10.43492,2 0 -10.43492,2 0 -10.43492,2 0 -10.43492,2 0 -10.43492,2 0 -10.43492,0.410,
2 0 -9.153271,2 0 -9.153271,2 0 -9.153271,2 0 -9.153271,2 0 -9.153271,2 0 -9.153271,2 0 -9.153271,2 0 -9.153271,2 0 -9.153271,2 0 -9.153271,2 0 -9.153271,2 0 -9.153271,2 0 -9.153271,2 0 -9.153271,2 0 -9.153271,2 0 -9.153271,2 0 -9.153271,2 0 -9.153271,2 0 -9.153271,2 0 -9.153271,2 0 -9.153271,2 0 -10.43492,2 0 -10.43492,2 0 -10.43492,2 0 -10.43492,2 0 -10.43492,2 0 -10.43492,2 0 -10.43492,2 0 -10.43492,2 0 -10.43492,2 0 -10.43492,2 0 -10.43492,2 0 -10.43492,2 0 -10.43492,2 0 -10.43492,2 0 -10.43492,2 0 -10.43492,2 0 -10.43492,2 0 -10.43492,2 0 -10.43492,2 0 -10.43492,2 0 -10.43492,0.510,
2 0 -9.153271,2 0 -9.153271,2 0 -9.153271,2 0 -9.153271,2 0 -9.153271,2 0 -9.153271,2 0 -9.153271,2 0 -9.153271,2 0 -9.153271,2 0 -9.153271,2 0 -9.153271,2 0 -9.153271,2 0 -9.153271,2 0 -9.153271,2 0 -9.153271,2 0 -9.153271,2 0 -9.153271,2 0 -9.153271,2 0 -9.153271,2 0 -9.153271,2 0 -9.153271,2 0 -10.43492,2 0 -10.43492,2 0 -10.43492,2 0 -10.43492,2 0 -10.43492,2 0 -10.43492,2 0 -10.43492,2 0 -10.43492,2 0 -10.43492,2 0 -10.43492,2 0 -10.43492,2 0 -10.43492,2 0 -10.43492,2 0 -10.43492,2 0 -10.43492,2 0 -10.43492,2 0 -10.43492,2 0 -10.43492,2 0 -10.43492,2 0 -10.43492,2 0 -10.43492,0.610,
2 0 -9.153271,2 0 -9.153271,2 0 -9.153271,2 0 -9.153271,2 0 -9.153271,2 0 -9.153271,2 0 -9.153271,2 0 -9.153271,2 0 -9.153271,2 0 -9.153271,2 0 -9.153271,2 0 -9.153271,2 0 -9.153271,2 0 -9.153271,2 0 -9.153271,2 0 -9.153271,2 0 -9.153271,2 0 -9.153271,2 0 -9.153271,2 0 -9.153271,2 0 -9.153271,2 0 -10.43492,2 0 -10.43492,2 0 -10.43492,2 0 -10.43492,2 0 -10.43492,2 0 -10.43492,2 0 -10.43492,2 0 -10.43492,2 0 -10.43492,2 0 -10.43492,2 0 -10.43492,2 0 -10.43492,2 0 -10.43492,2 0 -10.43492,2 0 -10.43492,2 0 -10.43492,2 0 -10.43492,2 0 -10.43492,2 0 -10.43492,2 0 -10.43492,2 0 -10.43492,0.710,
2 0 -9.153271,2 0 -9.153271,2 0 -9.153271,2 0 -9.153271,2 0 -9.153271,2 0 -9.153271,2 0 -9.153271,2 0 -9.153271,2 0 -9.153271,2 0 -9.153271,2 0 -9.153271,2 0 -9.153271,2 0 -9.153271,2 0 -9.153271,2 0 -9.153271,2 0 -9.153271,2 0 -9.153271,2 0 -9.153271,2 0 -9.153271,2 0 -9.153271,2 0 -9.153271,2 0 -10.43492,2 0 -10.43492,2 0 -10.43492,2 0 -10.43492,2 0 -10.43492,2 0 -10.43492,2 0 -10.43492,2 0 -10.43492,2 0 -10.43492,2 0 -10.43492,2 0 -10.43492,2 0 -10.43492,2 0 -10.43492,2 0 -10.43492,2 0 -10.43492,2 0 -10.43492,2 0 -10.43492,2 0 -10.43492,2 0 -10.43492,2 0 -10.43492,2 0 -10.43492,0.810,
2 0 -9.153271,2 0 -9.153271,2 0 -9.153271,2 0 -9.153271,2 0 -9.153271,2 0 -9.153271,2 0 -9.153271,2 0 -9.153271,2 0 -9.153271,2 0 -9.153271,2 0 -9.153271,2 0 -9.153271,2 0 -9.153271,2 0 -9.153271,2 0 -9.153271,2 0 -9.153271,2 0 -9.153271,2 0 -9.153271,2 0 -9.153271,2 0 -9.153271,2 0 -9.153271,2 0 -10.43492,2 0 -10.43492,2 0 -10.43492,2 0 -10.43492,2 0 -10.43492,2 0 -10.43492,2 0 -10.43492,2 0 -10.43492,2 0 -10.43492,2 0 -10.43492,2 0 -10.43492,2 0 -10.43492,2 0 -10.43492,2 0 -10.43492,2 0 -10.43492,2 0 -10.43492,2 0 -10.43492,2 0 -10.43492,2 0 -10.43492,2 0 -10.43492,2 0 -10.43492,0.910,
2 0 -9.153271,2 0 -9.153271,2 0 -9.153271,2 0 -9.153271,2 0 -9.153271,2 0 -9.153271,2 0 -9.153271,2 0 -9.153271,2 0 -9.153271,2 0 -9.153271,2 0 -9.153271,2 0 -9.153271,2 0 -9.153271,2 0 -9.153271,2 0 -9.153271,2 0 -9.153271,2 0 -9.153271,2 0 -9.153271,2 0 -9.153271,2 0 -9.153271,2 0 -9.153271,2 0 -10.43492,2 0 -10.43492,2 0 -10.43492,2 0 -10.43492,2 0 -10.43492,2 0 -10.43492,2 0 -10.43492,2 0 -10.43492,2 0 -10.43492,2 0 -10.43492,2 0 -10.43492,2 0 -10.43492,2 0 -10.43492,2 0 -10.43492,2 0 -10.43492,2 0 -10.43492,2 0 -10.43492,2 0 -10.43492,2 0 -10.43492,2 0 -10.43492,2 0 -10.43492,1.010,
2 0 -9.153271,2 0 -9.153271,2 0 -9.153271,2 0 -9.153271,2 0 -9.153271,2 0 -9.153271,2 0 -9.153271,2 0 -9.153271,2 0 -9.153271,2 0 -9.153271,2 0 -9.153271,2 0 -9.153271,2 0 -9.153271,2 0 -9.153271,2 0 -9.153271,2 0 -9.153271,2 0 -9.153271,2 0 -9.153271,2 0 -9.153271,2 0 -9.153271,2 0 -9.153271,2 0 -10.43492,2 0 -10.43492,2 0 -10.43492,2 0 -10.43492,2 0 -10.43492,2 0 -10.43492,2 0 -10.43492,2 0 -10.43492,2 0 -10.43492,2 0 -10.43492,2 0 -10.43492,2 0 -10.43492,2 0 -10.43492,2 0 -10.43492,2 0 -10.43492,2 0 -10.43492,2 0 -10.43492,2 0 -10.43492,2 0 -10.43492,2 0 -10.43492,2 0 -10.43492,1.110,
2 0 -9.153271,2 0 -9.153271,2 0 -9.153271,2 0 -9.153271,2 0 -9.153271,2 0 -9.153271,2 0 -9.153271,2 0 -9.153271,2 0 -9.153271,2 0 -9.153271,2 0 -9.153271,2 0 -9.153271,2 0 -9.153271,2 0 -9.153271,2 0 -9.153271,2 0 -9.153271,2 0 -9.153271,2 0 -9.153271,2 0 -9.153271,2 0 -9.153271,2 0 -9.153271,2 0 -10.43492,2 0 -10.43492,2 0 -10.43492,2 0 -10.43492,2 0 -10.43492,2 0 -10.43492,2 0 -10.43492,2 0 -10.43492,2 0 -10.43492,2 0 -10.43492,2 0 -10.43492,2 0 -10.43492,2 0 -10.43492,2 0 -10.43492,2 0 -10.43492,2 0 -10.43492,2 0 -10.43492,2 0 -10.43492,2 0 -10.43492,2 0 -10.43492,2 0 -10.43492,1.210,
2 0 -9.153271,2 0 -9.153271,2 0 -9.153271,2 0 -9.153271,2 0 -9.153271,2 0 -9.153271,2 0 -9.153271,2 0 -9.153271,2 0 -9.153271,2 0 -9.153271,2 0 -9.153271,2 0 -9.153271,2 0 -9.153271,2 0 -9.153271,2 0 -9.153271,2 0 -9.153271,2 0 -9.153271,2 0 -9.153271,2 0 -9.153271,2 0 -9.153271,2 0 -9.153271,2 0 -10.43492,2 0 -10.43492,2 0 -10.43492,2 0 -10.43492,2 0 -10.43492,2 0 -10.43492,2 0 -10.43492,2 0 -10.43492,2 0 -10.43492,2 0 -10.43492,2 0 -10.43492,2 0 -10.43492,2 0 -10.43492,2 0 -10.43492,2 0 -10.43492,2 0 -10.43492,2 0 -10.43492,2 0 -10.43492,2 0 -10.43492,2 0 -10.43492,2 0 -10.43492,1.310,
2 0 -9.153271,2 0 -9.153271,2 0 -9.153271,2 0 -9.153271,2 0 -9.153271,2 0 -9.153271,2 0 -9.153271,2 0 -9.153271,2 0 -9.153271,2 0 -9.153271,2 0 -9.153271,2 0 -9.153271,2 0 -9.153271,2 0 -9.153271,2 0 -9.153271,2 0 -9.153271,2 0 -9.153271,2 0 -9.153271,2 0 -9.153271,2 0 -9.153271,2 0 -9.153271,2 0 -10.43492,2 0 -10.43492,2 0 -10.43492,2 0 -10.43492,2 0 -10.43492,2 0 -10.43492,2 0 -10.43492,2 0 -10.43492,2 0 -10.43492,2 0 -10.43492,2 0 -10.43492,2 0 -10.43492,2 0 -10.43492,2 0 -10.43492,2 0 -10.43492,2 0 -10.43492,2 0 -10.43492,2 0 -10.43492,2 0 -10.43492,2 0 -10.43492,2 0 -10.43492,1.410,
2 0 -9.153271,2 0 -9.153271,2 0 -9.153271,2 0 -9.153271,2 0 -9.153271,2 0 -9.153271,2 0 -9.153271,2 0 -9.153271,2 0 -9.153271,2 0 -9.153271,2 0 -9.153271,2 0 -9.153271,2 0 -9.153271,2 0 -9.153271,2 0 -9.153271,2 0 -9.153271,2 0 -9.153271,2 0 -9.153271,2 0 -9.153271,2 0 -9.153271,2 0 -9.153271,2 0 -10.43492,2 0 -10.43492,2 0 -10.43492,2 0 -10.43492,2 0 -10.43492,2 0 -10.43492,2 0 -10.43492,2 0 -10.43492,2 0 -10.43492,2 0 -10.43492,2 0 -10.43492,2 0 -10.43492,2 0 -10.43492,2 0 -10.43492,2 0 -10.43492,2 0 -10.43492,2 0 -10.43492,2 0 -10.43492,2 0 -10.43492,2 0 -10.43492,2 0 -10.43492,1.510,
2 0 -9.153271,2 0 -9.153271,2 0 -9.153271,2 0 -9.153271,2 0 -9.153271,2 0 -9.153271,2 0 -9.153271,2 0 -9.153271,2 0 -9.153271,2 0 -9.153271,2 0 -9.153271,2 0 -9.153271,2 0 -9.153271,2 0 -9.153271,2 0 -9.153271,2 0 -9.153271,2 0 -9.153271,2 0 -9.153271,2 0 -9.153271,2 0 -9.153271,2 0 -9.153271,2 0 -10.43492,2 0 -10.43492,2 0 -10.43492,2 0 -10.43492,2 0 -10.43492,2 0 -10.43492,2 0 -10.43492,2 0 -10.43492,2 0 -10.43492,2 0 -10.43492,2 0 -10.43492,2 0 -10.43492,2 0 -10.43492,2 0 -10.43492,2 0 -10.43492,2 0 -10.43492,2 0 -10.43492,2 0 -10.43492,2 0 -10.43492,2 0 -10.43492,2 0 -10.43492,1.610,
-2.919401 -17.21587 2.113772,-3.504859 -16.30735 2.021672,-3.82037 -15.30695 2.003778,-3.990911 -14.54309 2.074955,-4.23115 -13.93258 2.19918,-3.358906 -13.95989 1.806509,-3.466091 -12.88843 1.652477,-3.563079 -12.3852 1.593977,-3.687364 -12.11952 1.600292,-2.967192 -14.00358 1.911907,-3.017659 -12.8285 1.773583,-3.153194 -12.47035 1.710764,-3.307438 -12.36263 1.658037,-2.612047 -14.2821 2.022183,-2.636003 -13.30615 1.888458,-2.769979 -13.16627 1.802886,-2.899035 -13.2247 1.754884,-2.273767 -14.75077 2.155467,-2.317401 -14.08763 2.097461,-2.481979 -14.00169 2.06795,-2.625913 -14.09492 2.038912,-10.73968 -13.31919 -7.131495,-11.08298 -13.21687 -6.576918,-11.28498 -13.34943 -6.171436,-11.42474 -13.47495 -5.830216,-11.43645 -13.49161 -5.460399,-10.877 -12.96268 -6.136643,-10.90634 -13.64426 -5.597995,-11.00002 -13.97014 -5.332046,-11.05199 -14.1468 -5.226752,-10.65391 -13.19163 -6.200219,-10.72066 -13.97291 -5.520616,-10.87015 -14.3238 -5.120707,-10.93462 -14.49876 -4.928329,-10.5141 -13.41249 -6.278561,-10.62949 -14.2111 -5.675844,-10.77251 -14.48313 -5.297068,-10.81985 -14.58107 -5.122004,-10.42316 -13.63405 -6.332765,-10.57799 -14.23703 -5.854207,-10.73639 -14.49153 -5.490293,-10.81064 -14.60742 -5.322267,1.710,
-2.89042 -14.44066 0.2934618,-3.565673 -14.1092 0.5357392,-4.110479 -13.29335 0.7060362,-4.439593 -12.5755 0.9058891,-4.698621 -11.82203 1.112733,-3.728001 -11.82361 0.3038359,-3.939544 -10.88205 0.2668768,-4.099125 -10.32089 0.3245856,-4.242242 -9.819897 0.4180249,-3.328644 -11.77774 0.3275973,-3.45545 -10.84111 0.3644615,-3.590466 -10.70968 0.5232942,-3.691345 -10.84067 0.6257997,-2.960599 -11.9242 0.3718451,-3.004205 -11.12142 0.4124472,-3.159391 -11.08952 0.547374,-3.280809 -11.30171 0.664394,-2.620483 -12.23053 0.454447,-2.668296 -11.6825 0.6023661,-2.810941 -11.67682 0.7714206,-2.923122 -11.84617 0.8783723,-9.013533 -14.24757 -0.8042606,-8.217988 -14.2654 -0.5062944,-7.623949 -13.89145 -0.308042,-7.258072 -13.43516 -0.09016979,-6.991426 -12.76408 0.1285647,-7.64576 -12.05623 -1.383681,-7.353564 -11.2499 -1.526523,-7.172959 -10.74251 -1.455582,-7.071995 -10.40102 -1.342937,-7.973276 -11.78191 -1.443097,-7.635656 -10.89681 -1.627976,-7.453757 -10.41555 -1.542493,-7.338603 -10.15446 -1.464966,-8.281702 -11.6495 -1.427973,-7.966835 -10.85495 -1.569398,-7.762781 -10.47336 -1.388276,-7.638777 -10.36526 -1.242684,-8.59026 -11.61322 -1.346865,-8.327867 -10.97027 -1.401654,-8.162184 -10.66222 -1.25205,-8.043802 -10.57607 -1.107195,1.810,
-3.148769 -12.86039 2.33023,-3.833288 -12.29501 2.500838,-4.387321 -11.42941 2.725453,-4.699566 -10.66698 3.048459,-4.86152 -9.805441 3.356802,-3.968677 -9.688194 2.156288,-4.197632 -8.506979 2.307971,-4.368608 -7.868765 2.466239,-4.525418 -7.347297 2.565408,-3.608027 -9.611889 2.326587,-3.743254 -8.297079 2.463797,-3.907185 -7.591436 2.655798,-4.067766 -7.090543 2.779843,-3.275293 -9.784634 2.570093,-3.343699 -8.602388 2.768928,-3.50016 -7.955413 2.979784,-3.670758 -7.552981 3.146351,-2.937413 -10.17255 2.860669,-2.944976 -9.31595 3.092368,-3.08326 -8.884647 3.279786,-3.244423 -8.648909 3.432808,-8.935281 -12.48178 1.061212,-8.08863 -12.29915 0.6603928,-7.486918 -11.58284 0.5395815,-7.100747 -10.9 0.4921534,-6.8433 -10.3286 0.3634638,-7.577988 -9.637938 0.4366044,-7.303515 -8.268116 0.3054582,-7.198039 -7.607528 0.1542921,-7.171389 -7.223479 0.02843451,-7.91868 -9.393564 0.5951056,-7.605763 -7.839471 0.4425061,-7.531073 -7.171787 0.2150147,-7.51051 -6.815345 -0.01276422,-8.291929 -9.370462 0.7320753,-8.083046 -7.939434 0.5927421,-7.994124 -7.3675 0.378656,-7.922681 -7.085446 0.1766903,-8.707433 -9.563692 0.8395102,-8.637896 -8.461056 0.6708599,-8.542809 -7.977602 0.4700176,-8.447644 -7.707431 0.2587327,1.910,
-3.018668 -12.37958 2.266912,-3.799175 -11.64214 2.299548,-4.350649 -10.81851 2.416484,-4.661027 -10.03492 2.64401,-4.825425 -9.263256 2.928212,-3.980118 -9.292669 2.015721,-4.189602 -8.217615 2.167669,-4.351057 -7.564579 2.401468,-4.500766 -6.960643 2.569518,-3.634767 -9.175886 2.217731,-3.784124 -8.014162 2.335341,-3.908548 -7.262674 2.585348,-4.004519 -6.582784 2.758532,-3.315001 -9.274008 2.476954,-3.361204 -8.166822 2.613436,-3.436841 -7.518728 2.830443,-3.525896 -6.957346 3.000873,-2.996238 -9.558603 2.773386,-2.992403 -8.709846 2.920682,-3.048826 -8.18012 3.062153,-3.126629 -7.674841 3.172507,-8.961744 -12.06388 0.9610471,-8.093554 -11.62194 0.943476,-7.468884 -10.83034 1.079559,-7.095684 -10.07759 1.324825,-6.788706 -9.431278 1.591954,-7.688356 -9.130003 0.770445,-7.453499 -7.940321 0.9632645,-7.321609 -7.289434 1.164757,-7.206572 -6.686668 1.313972,-8.006676 -8.952557 1.045041,-7.782044 -7.641085 1.182516,-7.64461 -6.867446 1.375186,-7.526752 -6.180847 1.488194,-8.349902 -9.000525 1.368009,-8.231664 -7.767559 1.531083,-8.144269 -6.996006 1.767325,-8.021826 -6.340065 1.900091,-8.724706 -9.281513 1.700936,-8.765358 -8.310371 1.862673,-8.755107 -7.674598 1.99953,-8.692413 -7.082853 2.084019,2.010,
-2.836555 -10.26965 1.617425,-3.544869 -9.731771 1.667761,-4.127811 -8.96862 1.739325,-4.452713 -8.221361 1.874243,-4.699484 -7.592157 2.046945,-3.818314 -7.498872 1.519629,-4.070002 -6.468149 1.677648,-4.204336 -5.894491 1.814167,-4.334665 -5.367345 1.90773,-3.482805 -7.26251 1.706666,-3.642073 -6.033438 1.88908,-3.763527 -5.309776 2.101359,-3.877287 -4.677952 2.265418,-3.161301 -7.23756 1.945438,-3.241734 -6.064338 2.119743,-3.335375 -5.400453 2.347791,-3.445787 -4.843458 2.535059,-2.820759 -7.399091 2.209537,-2.850394 -6.487094 2.372326,-2.908389 -5.950963 2.527881,-2.998344 -5.470365 2.660944,-8.970389 -10.75475 1.43397,-8.143881 -10.19467 1.281316,-7.583454 -9.292179 1.316634,-7.239239 -8.550747 1.482992,-6.878837 -7.999698 1.70731,-7.825274 -7.644067 1.106919,-7.594325 -6.562633 1.154031,-7.44599 -5.903623 1.268884,-7.336771 -5.313646 1.388827,-8.169586 -7.459947 1.42075,-7.959457 -6.175378 1.423929,-7.798014 -5.348354 1.537295,-7.686344 -4.610189 1.624161,-8.504827 -7.469892 1.756686,-8.398375 -6.269639 1.797346,-8.259027 -5.533926 1.922412,-8.123 -4.888603 1.985624,-8.852075 -7.680908 2.098328,-8.841892 -6.685983 2.186985,-8.784655 -6.093317 2.237802,-8.703839 -5.53236 2.28065,2.110,
-2.735659 -9.920042 1.395834,-3.395936 -9.482298 1.434647,-3.945353 -8.743162 1.458378,-4.262867 -8.00419 1.560964,-4.539468 -7.43584 1.703227,-3.655752 -7.20908 1.148529,-3.913687 -6.204065 1.207528,-4.06601 -5.622589 1.304026,-4.188106 -5.083286 1.36621,-3.348291 -6.970316 1.313517,-3.551518 -5.79833 1.386983,-3.693851 -5.094026 1.543895,-3.808563 -4.470969 1.658196,-3.042261 -6.944827 1.537683,-3.156245 -5.813871 1.626913,-3.276899 -5.179502 1.791209,-3.399555 -4.612524 1.929641,-2.714088 -7.110256 1.790748,-2.745118 -6.246991 1.903877,-2.818978 -5.723133 2.028373,-2.914388 -5.21588 2.142989,-8.886547 -10.30982 1.029662,-8.121134 -9.81127 0.9690778,-7.568725 -9.004324 1.052762,-7.257901 -8.26675 1.254779,-6.936521 -7.694749 1.486942,-7.840769 -7.311012 0.833086,-7.649979 -6.182101 0.9368017,-7.537773 -5.503139 1.084471,-7.440959 -4.891931 1.185716,-8.185209 -7.111051 1.085107,-8.002034 -5.758676 1.129544,-7.865301 -4.968679 1.296309,-7.758596 -4.259908 1.404827,-8.528334 -7.115926 1.356516,-8.432938 -5.854502 1.42486,-8.315885 -5.14253 1.597732,-8.180243 -4.525033 1.695199,-8.883584 -7.308164 1.631444,-8.869774 -6.331743 1.733461,-8.806492 -5.790987 1.81377,-8.713848 -5.297513 1.853119,2.210,
-2.583952 -9.301508 1.029694,-3.232804 -8.90687 1.115149,-3.796579 -8.232435 1.180983,-4.13595 -7.520893 1.319868,-4.418451 -6.936256 1.50002,-3.518535 -6.709173 0.8588576,-3.779159 -5.722982 0.9120132,-3.938993 -5.144681 0.9955446,-4.075144 -4.609853 1.054827,-3.208145 -6.460136 1.002582,-3.420242 -5.325889 1.068584,-3.576859 -4.643869 1.211827,-3.704202 -4.037471 1.311074,-2.892231 -6.418016 1.200103,-3.026411 -5.323477 1.295569,-3.168873 -4.69064 1.452144,-3.31435 -4.127811 1.591677,-2.554862 -6.556238 1.429997,-2.608453 -5.712212 1.554432,-2.702043 -5.18213 1.691884,-2.818627 -4.674693 1.810611,-8.79346 -9.714464 0.4515296,-8.071856 -9.302494 0.5042294,-7.519588 -8.499239 0.6129265,-7.190943 -7.762218 0.8126753,-6.844524 -7.278146 1.046303,-7.8476 -6.864604 0.4584637,-7.654423 -5.715598 0.6308752,-7.548747 -5.039582 0.809976,-7.471575 -4.435076 0.9253725,-8.188632 -6.670028 0.6475941,-8.000639 -5.318439 0.7655509,-7.873549 -4.516067 0.9658129,-7.781317 -3.790937 1.116545,-8.527675 -6.693941 0.8625013,-8.402076 -5.421644 1.003522,-8.284741 -4.666389 1.205971,-8.16706 -3.997707 1.356911,-8.885799 -6.899221 1.078135,-8.886146 -5.925903 1.235665,-8.852021 -5.336467 1.342153,-8.789733 -4.76773 1.416552,2.310,
-2.543846 -8.997229 0.9412975,-3.192801 -8.669462 1.077677,-3.752625 -8.009283 1.158491,-4.102373 -7.301867 1.304193,-4.388449 -6.707825 1.491914,-3.493717 -6.454623 0.7880656,-3.749166 -5.479587 0.856059,-3.902201 -4.894071 0.9175249,-4.031895 -4.362844 0.9593786,-3.179049 -6.184441 0.8991845,-3.392544 -5.033531 0.9741564,-3.553933 -4.344385 1.101618,-3.68119 -3.736833 1.198408,-2.856686 -6.131431 1.075771,-2.990143 -5.023443 1.177224,-3.125351 -4.363784 1.331542,-3.258244 -3.787715 1.461749,-2.503861 -6.272382 1.288872,-2.578787 -5.386304 1.404855,-2.672398 -4.846328 1.561043,-2.786824 -4.360768 1.687344,-8.661386 -9.332993 0.1291486,-7.970639 -9.034193 0.241131,-7.43268 -8.246052 0.3422754,-7.107344 -7.517846 0.5234399,-6.785923 -7.011291 0.7187379,-7.771173 -6.597101 0.06527446,-7.552636 -5.509382 0.2222442,-7.429881 -4.865831 0.3971402,-7.343829 -4.297698 0.5107706,-8.092989 -6.37014 0.2152747,-7.892211 -5.093687 0.2994087,-7.763143 -4.315685 0.5036048,-7.665248 -3.625779 0.6518682,-8.417889 -6.369489 0.403908,-8.268869 -5.151004 0.5229843,-8.155807 -4.410402 0.7240755,-8.045356 -3.765604 0.8806033,-8.770151 -6.559158 0.6100678,-8.74501 -5.600688 0.758853,-8.703781 -5.001523 0.8754591,-8.633641 -4.429489 0.9574967,2.410,
-2.534709 -8.784142 0.9984323,-3.16928 -8.490164 1.142329,-3.726204 -7.79834 1.215793,-4.077502 -7.086461 1.357197,-4.387559 -6.526441 1.540071,-3.489358 -6.218149 0.8521149,-3.755211 -5.235233 0.9043441,-3.907185 -4.650941 0.9519856,-4.034204 -4.112899 0.9824083,-3.170982 -5.954832 0.9562141,-3.381464 -4.807273 1.019047,-3.532266 -4.121891 1.141065,-3.646021 -3.512764 1.229527,-2.842692 -5.91081 1.125246,-2.980754 -4.812735 1.226062,-3.121032 -4.157491 1.377898,-3.254476 -3.572844 1.512357,-2.482297 -6.066149 1.331398,-2.56247 -5.195997 1.451049,-2.662247 -4.665285 1.611509,-2.779181 -4.161852 1.745383,-8.60331 -9.107826 0.01203144,-7.941618 -8.850569 0.1476956,-7.386696 -8.112556 0.2607999,-7.038881 -7.413288 0.4521491,-6.726175 -6.922892 0.6635439,-7.705361 -6.423486 -0.06175893,-7.483921 -5.374284 0.07982844,-7.36033 -4.76594 0.2589245,-7.2644 -4.223444 0.3773086,-8.016392 -6.182292 0.08497341,-7.806715 -4.94522 0.1542257,-7.67234 -4.192813 0.3460587,-7.562154 -3.526411 0.4850519,-8.337095 -6.173611 0.2744358,-8.17921 -4.982762 0.3921694,-8.061012 -4.258454 0.6018433,-7.941505 -3.631599 0.7627748,-8.690388 -6.362334 0.4896883,-8.678951 -5.442056 0.6217281,-8.657548 -4.860643 0.7402559,-8.605317 -4.288569 0.8269042,2.510,
-2.532281 -8.652506 0.9471931,-3.182821 -8.378296 1.161129,-3.7598 -7.737092 1.259561,-4.121393 -7.050609 1.41083,-4.405106 -6.455289 1.599599,-3.488948 -6.115134 0.8658812,-3.75992 -5.128387 0.952483,-3.926958 -4.533546 1.017683,-4.066187 -3.999179 1.06916,-3.171959 -5.838731 0.9385066,-3.397449 -4.693882 1.002771,-3.559181 -3.994104 1.123735,-3.683018 -3.384444 1.217317,-2.849008 -5.779788 1.079281,-2.993136 -4.681573 1.196727,-3.129554 -4.008488 1.350435,-3.258778 -3.426755 1.477086,-2.494874 -5.911985 1.266269,-2.57899 -5.02382 1.39643,-2.671851 -4.482976 1.548741,-2.780206 -3.996303 1.669911,-8.630953 -8.985537 -0.06452695,-7.957549 -8.761715 0.1165153,-7.416327 -8.018934 0.2505037,-7.081307 -7.318386 0.4502966,-6.760013 -6.851424 0.6696722,-7.699085 -6.342976 -0.1178888,-7.496038 -5.330995 0.005656876,-7.372633 -4.690869 0.1721524,-7.270903 -4.142032 0.2985783,-8.009764 -6.089076 -0.01089676,-7.839808 -4.869823 0.04443543,-7.715004 -4.103466 0.2390858,-7.613646 -3.443045 0.3812464,-8.331634 -6.079326 0.1442203,-8.208694 -4.927528 0.232341,-8.091799 -4.229351 0.4150043,-7.980152 -3.64035 0.553528,-8.689288 -6.272134 0.3219182,-8.709307 -5.385408 0.4637568,-8.691681 -4.812517 0.5895729,-8.649874 -4.277374 0.6708634,2.610,
-2.574868 -8.46994 0.837583,-3.226581 -8.221947 0.9944417,-3.805236 -7.584068 1.06657,-4.161869 -6.907608 1.202441,-4.440109 -6.347211 1.370477,-3.55714 -5.979708 0.7414932,-3.829391 -5.006009 0.8171195,-3.988918 -4.444135 0.8547565,-4.123866 -3.955138 0.8810915,-3.245918 -5.695667 0.839462,-3.486444 -4.558432 0.9129438,-3.649542 -3.874528 1.035759,-3.778688 -3.271871 1.137851,-2.924428 -5.631735 0.9941238,-3.092095 -4.528846 1.113612,-3.232307 -3.87472 1.254336,-3.363661 -3.307926 1.37089,-2.568871 -5.754976 1.190058,-2.663342 -4.871946 1.312569,-2.75637 -4.338727 1.452154,-2.862029 -3.845552 1.573542,-8.637821 -8.95891 -0.1068371,-7.976354 -8.746265 0.08369663,-7.445934 -7.981589 0.2355318,-7.122895 -7.25723 0.4557019,-6.804671 -6.780307 0.6991284,-7.743564 -6.31522 -0.1354012,-7.563257 -5.26436 0.001018643,-7.462106 -4.606914 0.1585776,-7.376451 -4.047407 0.2713346,-8.060847 -6.066148 -0.03093805,-7.897977 -4.814516 0.0446092,-7.7782 -4.038596 0.2274904,-7.675485 -3.372208 0.3542451,-8.38519 -6.062999 0.1224887,-8.277919 -4.888471 0.2328174,-8.169415 -4.184671 0.4093694,-8.056896 -3.578076 0.5339374,-8.739544 -6.268218 0.2974339,-8.761237 -5.358095 0.4602076,-8.741235 -4.789098 0.5884311,-8.692533 -4.261297 0.6638175,2.710,
-2.590305 -8.320114 0.7419559,-3.230172 -8.092285 0.9689033,-3.818685 -7.509088 1.06657,-4.189047 -6.851978 1.212231,-4.467999 -6.271476 1.385925,-3.594622 -5.890564 0.6540025,-3.882143 -4.952579 0.7331342,-4.049679 -4.391236 0.7901365,-4.188868 -3.88599 0.8337772,-3.291382 -5.581648 0.7121305,-3.547235 -4.481819 0.7544274,-3.719786 -3.818942 0.8725882,-3.855011 -3.239471 0.9663267,-2.976842 -5.49246 0.8406943,-3.152554 -4.434659 0.9401528,-3.301363 -3.787354 1.091569,-3.441526 -3.228045 1.219881,-2.621854 -5.590756 1.018222,-2.725658 -4.744312 1.138803,-2.826779 -4.227636 1.288553,-2.935957 -3.76322 1.413594,-8.695915 -8.917347 -0.05013918,-8.025409 -8.670708 0.1368192,-7.494484 -7.927331 0.2856947,-7.171721 -7.217905 0.496507,-6.848472 -6.751522 0.7308864,-7.790428 -6.258237 -0.05854468,-7.605148 -5.211784 0.0792935,-7.495171 -4.56159 0.2429838,-7.403685 -4.018043 0.3590443,-8.10511 -6.011215 0.03895372,-7.938757 -4.769926 0.1174486,-7.823277 -3.99064 0.3150429,-7.727509 -3.32032 0.4608632,-8.427315 -6.012685 0.1821938,-8.30905 -4.848499 0.2869952,-8.206061 -4.140773 0.4596063,-8.10249 -3.546044 0.5856138,-8.781771 -6.219154 0.343006,-8.794542 -5.327137 0.4996044,-8.771005 -4.782567 0.6130347,-8.722565 -4.293389 0.6801336,2.810,
-2.566699 -8.237566 0.5531734,-3.222355 -8.00956 0.7514461,-3.814789 -7.416793 0.8208445,-4.182961 -6.746627 0.9275644,-4.457128 -6.180995 1.044972,-3.594505 -5.880374 0.4673887,-3.884312 -4.935586 0.5408978,-4.041676 -4.366397 0.5869558,-4.167225 -3.859962 0.6182451,-3.292866 -5.561615 0.5164755,-3.555006 -4.453166 0.5570948,-3.719298 -3.782105 0.6595994,-3.847029 -3.194955 0.739625,-2.9788 -5.451087 0.6344627,-3.167454 -4.391452 0.7215668,-3.315574 -3.733928 0.8488802,-3.455822 -3.165113 0.9596763,-2.622862 -5.518249 0.7937372,-2.72767 -4.668405 0.8915349,-2.825324 -4.153476 1.018443,-2.932718 -3.689989 1.126047,-8.725224 -8.897612 -0.06871205,-8.050808 -8.645164 0.1262585,-7.51834 -7.889299 0.2732804,-7.198269 -7.173105 0.4771759,-6.883673 -6.712821 0.698658,-7.819594 -6.247135 -0.04218724,-7.64064 -5.198486 0.1072791,-7.53507 -4.552902 0.2714044,-7.447964 -4.009176 0.3914662,-8.13084 -5.998836 0.05266681,-7.968292 -4.761091 0.1528411,-7.850874 -3.990108 0.359811,-7.751506 -3.312952 0.5181108,-8.449913 -5.993487 0.1930545,-8.338362 -4.837385 0.3124301,-8.236618 -4.134662 0.4919634,-8.133711 -3.531991 0.6235091,-8.800779 -6.194168 0.3501443,-8.826618 -5.300254 0.5076275,-8.81384 -4.750982 0.6239967,-8.777251 -4.247415 0.6959092,2.910,
-2.484257 -8.116905 0.5555796,-3.126352 -7.858333 0.7360728,-3.701292 -7.263109 0.795921,-4.067118 -6.604041 0.9002318,-4.362467 -6.041595 1.028306,-3.491714 -5.740507 0.443726,-3.792554 -4.817716 0.5007529,-3.954638 -4.270891 0.5490268,-4.084535 -3.769453 0.5906205,-3.196587 -5.43672 0.5064687,-3.453583 -4.353853 0.5430816,-3.616996 -3.689283 0.6523099,-3.740481 -3.100621 0.7416126,-2.882706 -5.344678 0.6385999,-3.068491 -4.286848 0.719642,-3.222769 -3.626585 0.8693923,-3.362894 -3.052993 1.001886,-2.520233 -5.438817 0.8044274,-2.63117 -4.58245 0.9092011,-2.739481 -4.055444 1.052141,-2.856098 -3.579607 1.168982,-8.787107 -8.868382 -0.0546996,-8.128185 -8.584011 0.145275,-7.618325 -7.821541 0.2912545,-7.314614 -7.103286 0.4904745,-7.000513 -6.660501 0.7089639,-7.928117 -6.181192 0.005004495,-7.749889 -5.115654 0.1414855,-7.642572 -4.478012 0.3003514,-7.552977 -3.92827 0.4186,-8.246992 -5.956436 0.09904093,-8.096931 -4.701123 0.1871172,-7.982388 -3.945914 0.3829493,-7.886512 -3.288627 0.5255086,-8.567168 -5.971305 0.2390516,-8.471925 -4.787438 0.3499993,-8.378419 -4.075866 0.5483544,-8.282223 -3.462682 0.691216,-8.91455 -6.184097 0.389345,-8.951325 -5.278318 0.5500842,-8.943786 -4.703325 0.6903879,-8.911276 -4.164566 0.7812163,3.010,
-2.471683 -8.118071 0.5156029,-3.12075 -7.866433 0.6640752,-3.696686 -7.256176 0.706801,-4.067167 -6.610715 0.7974555,-4.357475 -6.068156 0.9057069,-3.461178 -5.733718 0.3610809,-3.757491 -4.795005 0.4047942,-3.92127 -4.235231 0.4369269,-4.048018 -3.727789 0.4671028,-3.165853 -5.445724 0.4350236,-3.421267 -4.343995 0.453169,-3.586727 -3.660093 0.5443713,-3.707143 -3.072052 0.6246282,-2.851089 -5.37145 0.5766759,-3.033325 -4.299708 0.660156,-3.186481 -3.622066 0.802562,-3.324108 -3.04778 0.9291884,-2.490772 -5.483932 0.7537186,-2.601293 -4.633032 0.8676487,-2.712971 -4.112223 1.016413,-2.833961 -3.647659 1.134093,-8.808461 -8.864452 -0.1027976,-8.140607 -8.58779 0.07037686,-7.622683 -7.830525 0.1906913,-7.31639 -7.115356 0.3654992,-7.014341 -6.671901 0.5513597,-7.947158 -6.19048 -0.08824559,-7.765322 -5.132205 0.03696647,-7.656716 -4.498533 0.1930103,-7.567129 -3.951602 0.308737,-8.263271 -5.965576 0.009978317,-8.113292 -4.702487 0.08012871,-8.004205 -3.936335 0.2739266,-7.912944 -3.269367 0.4177016,-8.584194 -5.976409 0.1521283,-8.478209 -4.792453 0.2558896,-8.382985 -4.086604 0.4508389,-8.287593 -3.483884 0.5918046,-8.933364 -6.188903 0.3077398,-8.959463 -5.287673 0.458558,-8.952431 -4.717241 0.5923763,-8.924503 -4.183054 0.6830816,3.110,
-2.408618 -8.160267 0.4611287,-3.057745 -7.908704 0.674166,-3.637445 -7.329422 0.7392212,-4.010737 -6.684156 0.8378211,-4.304804 -6.120785 0.9608914,-3.41595 -5.796321 0.3420657,-3.717419 -4.859888 0.3810187,-3.875025 -4.285608 0.4338835,-3.990433 -3.771226 0.4897409,-3.118217 -5.508308 0.3736172,-3.385696 -4.409696 0.3669752,-3.546036 -3.732717 0.4648787,-3.657239 -3.14659 0.5559208,-2.804538 -5.428354 0.4735906,-2.992442 -4.377994 0.5248649,-3.140968 -3.72686 0.6650753,-3.268417 -3.173542 0.7911365,-2.449224 -5.528018 0.6167153,-2.566019 -4.715044 0.7138468,-2.679747 -4.217312 0.8594198,-2.796098 -3.769924 0.9785004,-8.847046 -8.901752 -0.1715387,-8.181314 -8.619244 0.0104827,-7.664097 -7.845032 0.1385556,-7.353072 -7.126701 0.3163515,-7.043227 -6.699803 0.5053792,-7.983162 -6.25355 -0.07782244,-7.781082 -5.184866 0.07836545,-7.664536 -4.555395 0.241975,-7.571794 -4.008277 0.3565148,-8.303898 -6.026966 0.02494873,-8.135618 -4.754552 0.1332155,-8.020397 -3.987422 0.3416353,-7.928858 -3.312313 0.4985704,-8.628242 -6.043128 0.1691547,-8.509645 -4.833538 0.312218,-8.40709 -4.114185 0.5201511,-8.307844 -3.491937 0.6664342,-8.980186 -6.25995 0.3236237,-8.999394 -5.339307 0.5072695,-8.989305 -4.758372 0.6539934,-8.95994 -4.206914 0.7518119,3.210,
-2.423079 -8.15839 0.4079849,-3.074286 -7.893363 0.5791073,-3.644173 -7.318359 0.6338076,-4.009866 -6.683784 0.7365643,-4.29382 -6.139015 0.8642704,-3.419081 -5.794204 0.2375597,-3.718521 -4.866076 0.2766374,-3.880655 -4.309352 0.3167784,-4.003843 -3.814888 0.3549707,-3.119409 -5.519481 0.2976797,-3.378841 -4.418632 0.2955842,-3.53668 -3.749006 0.3875007,-3.648031 -3.164611 0.4763042,-2.803625 -5.449896 0.427799,-2.986076 -4.400483 0.4893931,-3.132943 -3.748457 0.630016,-3.258192 -3.190046 0.7536496,-2.446369 -5.559223 0.5970049,-2.560603 -4.738336 0.7009041,-2.674084 -4.238502 0.8494924,-2.789428 -3.784584 0.9673614,-8.847229 -8.86595 -0.2067865,-8.181136 -8.580973 -0.0509178,-7.672137 -7.816791 0.06842703,-7.369034 -7.10472 0.2426052,-7.061611 -6.66658 0.4339296,-7.987839 -6.217079 -0.1357033,-7.794988 -5.116457 0.01484144,-7.691618 -4.480975 0.1782488,-7.612319 -3.936064 0.2917731,-8.309451 -5.999827 -0.01877266,-8.146163 -4.705652 0.07635364,-8.037617 -3.928211 0.2719851,-7.954796 -3.247516 0.4210681,-8.635057 -6.023487 0.1377531,-8.523921 -4.803607 0.2673298,-8.428036 -4.073699 0.4706067,-8.335385 -3.442162 0.6186599,-8.988628 -6.250308 0.3021977,-9.007964 -5.319425 0.4772638,-8.996896 -4.744277 0.6207598,-8.965684 -4.204784 0.7196998,3.310,
-2.384408 -8.159569 0.3131699,-3.023089 -7.902126 0.4858789,-3.586946 -7.332603 0.5376917,-3.946791 -6.694622 0.6348307,-4.24307 -6.159797 0.7555217,-3.387524 -5.827108 0.1665827,-3.689204 -4.914049 0.2169325,-3.844235 -4.35421 0.2675681,-3.958334 -3.840086 0.3172805,-3.093586 -5.551216 0.2277853,-3.359715 -4.468008 0.2500697,-3.515192 -3.809607 0.3539716,-3.623308 -3.226793 0.452307,-2.781301 -5.478032 0.359208,-2.971087 -4.437925 0.4362642,-3.1153 -3.793169 0.5918223,-3.238641 -3.233512 0.7268951,-2.424878 -5.584623 0.5272702,-2.536551 -4.775606 0.6448974,-2.64639 -4.284059 0.80041,-2.758111 -3.835914 0.925275,-8.871041 -8.883642 -0.02865606,-8.212592 -8.581347 0.1329058,-7.703051 -7.804498 0.2473501,-7.396432 -7.084142 0.4188062,-7.078151 -6.64516 0.6051072,-8.017057 -6.183311 0.006444145,-7.822141 -5.112388 0.1394392,-7.705925 -4.484308 0.2935105,-7.611003 -3.939557 0.4018136,-8.336574 -5.962677 0.1167856,-8.185046 -4.693557 0.1925233,-8.071945 -3.930152 0.3888004,-7.979259 -3.266807 0.5325623,-8.657131 -5.99348 0.271318,-8.559029 -4.79919 0.3958902,-8.4693 -4.077976 0.6018143,-8.373621 -3.457177 0.7447231,-8.99975 -6.234979 0.4333639,-9.032898 -5.325485 0.6066092,-9.030133 -4.755935 0.7518939,-9.002213 -4.225231 0.8417166,3.410,
-2.332752 -8.167109 0.2810043,-2.967017 -7.883286 0.4430588,-3.520935 -7.319879 0.501258,-3.890564 -6.675988 0.6022416,-4.195583 -6.132276 0.7356929,-3.315696 -5.853179 0.1156541,-3.617723 -4.938138 0.1563441,-3.772159 -4.38865 0.2067247,-3.892401 -3.88143 0.2580607,-3.032629 -5.566411 0.1776788,-3.291805 -4.494377 0.185769,-3.444441 -3.84455 0.2913145,-3.559587 -3.257612 0.390035,-2.728896 -5.472279 0.3055704,-2.916327 -4.437861 0.356676,-3.06271 -3.80633 0.5012801,-3.196154 -3.248331 0.6325674,-2.379493 -5.5464 0.4674175,-2.490221 -4.715646 0.5595526,-2.600576 -4.207733 0.7001134,-2.722747 -3.740804 0.8129425,-8.863585 -8.846333 -0.06439575,-8.202511 -8.557299 0.09234823,-7.69723 -7.782028 0.2124598,-7.400578 -7.063667 0.3891967,-7.092925 -6.629806 0.5814954,-8.01454 -6.151653 -0.00676183,-7.836134 -5.056589 0.1301546,-7.735503 -4.419849 0.2805035,-7.655023 -3.870906 0.381247,-8.335424 -5.936279 0.1113163,-8.190126 -4.646731 0.1948895,-8.084841 -3.87487 0.3817629,-8.002511 -3.204265 0.5148142,-8.660261 -5.97155 0.2716801,-8.56493 -4.765138 0.3958384,-8.475823 -4.041627 0.5958905,-8.385035 -3.413478 0.7348539,-9.010024 -6.21438 0.4403628,-9.04345 -5.301194 0.6154722,-9.039625 -4.734389 0.7585354,-9.012498 -4.202656 0.8488501,3.510,
-2.284541 -8.113876 0.1888705,-2.922266 -7.837289 0.3906071,-3.486144 -7.273626 0.4675982,-3.861168 -6.639744 0.5784551,-4.162301 -6.083317 0.7198281,-3.268265 -5.815721 0.1070547,-3.560257 -4.894443 0.1658291,-3.705706 -4.335986 0.2235858,-3.812618 -3.828407 0.2850306,-2.973953 -5.53598 0.1459062,-3.229632 -4.448831 0.1750387,-3.37698 -3.789164 0.2800702,-3.480492 -3.216972 0.3689174,-2.664412 -5.454776 0.2503796,-2.845136 -4.40618 0.3275248,-2.985491 -3.768066 0.4801132,-3.107752 -3.210992 0.6166327,-2.310994 -5.545906 0.391222,-2.420639 -4.711193 0.4999634,-2.524268 -4.204172 0.6559981,-2.636608 -3.735713 0.7757513,-8.879239 -8.858356 -0.14342,-8.217491 -8.55275 0.03418063,-7.705977 -7.795396 0.1655379,-7.399 -7.078355 0.3495128,-7.097301 -6.637331 0.5419302,-8.03089 -6.186056 -0.03414908,-7.835393 -5.092494 0.1289412,-7.722182 -4.462099 0.2903675,-7.634103 -3.90656 0.3996842,-8.352612 -5.97418 0.07819103,-8.200106 -4.677166 0.1931593,-8.091118 -3.904726 0.4017176,-8.008553 -3.229095 0.5507764,-8.677042 -6.016759 0.2314675,-8.574651 -4.796612 0.3880856,-8.483393 -4.063627 0.604752,-8.390525 -3.426424 0.7588083,-9.023776 -6.267665 0.3929034,-9.049336 -5.34604 0.5872533,-9.043842 -4.764501 0.7534851,-9.013075 -4.213272 0.8645693,3.610,
-2.271478 -8.110167 0.138806,-2.919686 -7.825155 0.3339131,-3.476638 -7.282402 0.4132332,-3.855049 -6.656124 0.5307252,-4.149273 -6.085475 0.6739318,-3.241266 -5.817638 0.02118436,-3.533422 -4.895635 0.07942346,-3.680422 -4.339727 0.1388344,-3.790852 -3.837221 0.2027079,-2.947376 -5.5442 0.06355852,-3.195825 -4.455055 0.08226258,-3.341532 -3.789899 0.1867495,-3.443882 -3.21551 0.2787438,-2.6406 -5.465417 0.1698264,-2.813918 -4.41801 0.2357714,-2.955452 -3.772124 0.3821868,-3.075376 -3.217246 0.5114919,-2.290278 -5.556032 0.3132632,-2.392671 -4.719453 0.4189706,-2.496288 -4.209331 0.5761252,-2.606726 -3.744512 0.6951398,-8.879682 -8.891731 -0.007697071,-8.218768 -8.592564 0.1440603,-7.715868 -7.803728 0.2534162,-7.413228 -7.08009 0.4209211,-7.095262 -6.64956 0.6037604,-8.023045 -6.184732 0.01518649,-7.830669 -5.114583 0.1465183,-7.715492 -4.48585 0.2957533,-7.62497 -3.939367 0.3957027,-8.347121 -5.963968 0.1307264,-8.201147 -4.691745 0.2006841,-8.086822 -3.927222 0.3865576,-7.999039 -3.270276 0.5188696,-8.672456 -6.000333 0.2900519,-8.580267 -4.80279 0.4083293,-8.488715 -4.082142 0.6092941,-8.395202 -3.463471 0.7487819,-9.01935 -6.249815 0.4569166,-9.050688 -5.343009 0.6312717,-9.04018 -4.774565 0.7779785,-9.005937 -4.244502 0.8703136,3.710,
-2.275081 -8.097208 0.0925925,-2.929735 -7.837875 0.2968898,-3.493076 -7.294493 0.3651198,-3.863331 -6.667039 0.4668325,-4.134912 -6.094745 0.5932015,-3.257749 -5.817447 -0.02088258,-3.549169 -4.886053 0.01794551,-3.703049 -4.318879 0.07110298,-3.812008 -3.814123 0.1334784,-2.957778 -5.54706 0.007336959,-3.205734 -4.44996 0.002494633,-3.353487 -3.770834 0.1002676,-3.449448 -3.186389 0.1914451,-2.648385 -5.469011 0.1002116,-2.821995 -4.423146 0.1489364,-2.962741 -3.771799 0.284406,-3.077925 -3.213033 0.4058491,-2.30011 -5.553439 0.2335125,-2.41045 -4.728987 0.3139727,-2.515808 -4.236006 0.4545096,-2.622605 -3.78319 0.5662721,-8.907223 -8.860363 -0.06186563,-8.242722 -8.566107 0.09620276,-7.740868 -7.790435 0.2198357,-7.446676 -7.065776 0.4018289,-7.132086 -6.635499 0.5986557,-8.04863 -6.168647 0.015239,-7.869574 -5.070359 0.1767109,-7.765831 -4.43859 0.3479388,-7.68089 -3.888338 0.4642603,-8.373199 -5.952686 0.1451046,-8.230928 -4.659915 0.2534849,-8.12299 -3.893831 0.4603443,-8.038879 -3.225913 0.6048968,-8.702048 -5.987995 0.3172589,-8.610476 -4.778228 0.4632633,-8.51722 -4.059095 0.6743146,-8.42175 -3.436876 0.8168525,-9.055768 -6.232155 0.496632,-9.08356 -5.30523 0.6920277,-9.069975 -4.733356 0.8417969,-9.034621 -4.19658 0.933944,3.810,
-2.302531 -8.105871 0.210003,-2.938847 -7.854309 0.4095394,-3.495475 -7.278955 0.4749166,-3.864812 -6.63869 0.5820798,-4.152851 -6.07023 0.7191559,-3.267785 -5.795048 0.08895648,-3.559933 -4.881771 0.1406426,-3.712567 -4.322431 0.1943483,-3.821787 -3.81464 0.2522416,-2.97332 -5.517522 0.1348198,-3.219197 -4.43695 0.1444627,-3.365629 -3.763371 0.2383466,-3.460665 -3.181193 0.316159,-2.66241 -5.445607 0.2498407,-2.832665 -4.403699 0.3214228,-2.97577 -3.750933 0.4682919,-3.094262 -3.186472 0.5931766,-2.307284 -5.55389 0.4049452,-2.416619 -4.719188 0.5126663,-2.5256 -4.210006 0.6744942,-2.636509 -3.741367 0.7995465,-8.90019 -8.892736 -0.0007525855,-8.24598 -8.588444 0.1597322,-7.739019 -7.802484 0.2857341,-7.439012 -7.079883 0.4666972,-7.126871 -6.646922 0.6579323,-8.067268 -6.180486 0.07829543,-7.881107 -5.096927 0.2423856,-7.76728 -4.468055 0.4066638,-7.670765 -3.91704 0.5225139,-8.390763 -5.962676 0.202904,-8.247396 -4.669071 0.3220982,-8.136869 -3.890788 0.5375274,-8.047437 -3.221444 0.6911693,-8.713034 -6.005844 0.3695746,-8.619146 -4.794103 0.5261651,-8.529064 -4.05759 0.7461192,-8.431425 -3.428216 0.9012132,-9.056515 -6.269289 0.5392834,-9.085439 -5.348307 0.7425681,-9.078092 -4.77096 0.9074494,-9.044489 -4.23858 1.016138,3.910,
-2.31375 -8.121737 0.2391164,-2.960977 -7.862196 0.4334564,-3.526205 -7.285689 0.4960656,-3.899346 -6.647964 0.5999171,-4.177866 -6.079065 0.7257475,-3.281923 -5.797462 0.1176429,-3.578403 -4.876318 0.1566399,-3.733812 -4.314456 0.1959213,-3.84618 -3.815017 0.2397005,-2.983343 -5.524723 0.1563727,-3.234839 -4.436645 0.1480479,-3.388523 -3.76375 0.2293008,-3.491519 -3.188968 0.301879,-2.673161 -5.452675 0.2597304,-2.842848 -4.406417 0.3167126,-2.986458 -3.761253 0.449473,-3.108953 -3.208275 0.5639432,-2.32439 -5.555428 0.4052909,-2.432828 -4.732129 0.4986006,-2.538716 -4.235105 0.6420493,-2.650149 -3.778636 0.7527397,-8.897015 -8.906517 0.01828601,-8.236175 -8.613565 0.1956831,-7.725402 -7.82618 0.3210899,-7.4232 -7.103837 0.5031148,-7.103246 -6.669848 0.6965293,-8.043508 -6.195731 0.09844477,-7.848103 -5.124948 0.2559771,-7.732915 -4.49924 0.4142585,-7.638644 -3.948385 0.5238161,-8.36575 -5.974161 0.2129114,-8.217882 -4.696592 0.3239834,-8.105261 -3.926892 0.5325043,-8.017019 -3.257287 0.6775503,-8.688211 -6.00922 0.3716236,-8.590931 -4.803504 0.521373,-8.496742 -4.082531 0.7345034,-8.397346 -3.46091 0.8855981,-9.034281 -6.256795 0.5387189,-9.064382 -5.347158 0.7300798,-9.057238 -4.78215 0.8860511,-9.02598 -4.255697 0.9874631,4.010,
-2.307779 -8.150326 0.2425193,-2.961473 -7.853347 0.4554222,-3.521879 -7.285638 0.529646,-3.90139 -6.65698 0.6410128,-4.190735 -6.083017 0.7865064,-3.274075 -5.821979 0.1212824,-3.569935 -4.892172 0.1610314,-3.725941 -4.321165 0.2145363,-3.840693 -3.813901 0.2762402,-2.973974 -5.551707 0.151455,-3.22578 -4.455177 0.1379276,-3.38198 -3.777339 0.2315436,-3.489265 -3.206684 0.318104,-2.663733 -5.472135 0.248686,-2.834853 -4.423336 0.2898489,-2.982933 -3.76972 0.4302391,-3.110325 -3.219226 0.5597135,-2.317138 -5.56021 0.3878654,-2.423559 -4.72653 0.4706481,-2.53164 -4.213259 0.6142879,-2.646557 -3.751528 0.7282068,-8.89678 -8.908834 -0.07986517,-8.241127 -8.609301 0.09321629,-7.733137 -7.839548 0.2266884,-7.428984 -7.117971 0.4171832,-7.110638 -6.681522 0.6194249,-8.04679 -6.219812 0.02060504,-7.8543 -5.120565 0.1814635,-7.740495 -4.482437 0.3367166,-7.648335 -3.923604 0.4417543,-8.368781 -6.00634 0.1409302,-8.216813 -4.708454 0.2560332,-8.104395 -3.931936 0.4633315,-8.016562 -3.257329 0.6079603,-8.692577 -6.049774 0.3027006,-8.595234 -4.830507 0.4602472,-8.505646 -4.095018 0.6768726,-8.409093 -3.456963 0.8244664,-9.039313 -6.302134 0.4701751,-9.063834 -5.375183 0.6765661,-9.051909 -4.806709 0.8381611,-9.012877 -4.280166 0.9364156,4.110,
-2.279101 -8.098408 0.1618291,-2.91545 -7.823438 0.3756153,-3.467519 -7.249204 0.4659772,-3.838554 -6.583679 0.5848645,-4.115602 -5.98267 0.7248934,-3.245104 -5.797409 0.06339682,-3.524274 -4.861849 0.1137846,-3.665348 -4.290349 0.1717257,-3.754729 -3.788838 0.2380786,-2.945424 -5.523127 0.08680326,-3.188644 -4.431174 0.08943482,-3.326775 -3.76073 0.1707765,-3.404977 -3.181616 0.2428049,-2.630827 -5.447834 0.1775644,-2.801833 -4.409124 0.2197054,-2.934834 -3.765644 0.3391533,-3.032912 -3.208465 0.4462118,-2.27713 -5.533323 0.3091277,-2.365871 -4.71623 0.373606,-2.45427 -4.221296 0.494784,-2.531893 -3.766547 0.5946308,-8.9049 -8.920765 -0.06628785,-8.2479 -8.614622 0.1193057,-7.738796 -7.85198 0.2522915,-7.435862 -7.126112 0.4368548,-7.124367 -6.689525 0.6253607,-8.059642 -6.236468 0.02478372,-7.874655 -5.139028 0.185895,-7.766792 -4.492858 0.3432733,-7.676281 -3.931093 0.4542704,-8.381602 -6.011978 0.1340421,-8.224997 -4.718124 0.2472595,-8.120037 -3.940603 0.4570487,-8.036532 -3.262777 0.610795,-8.704343 -6.045487 0.2870106,-8.596622 -4.829496 0.4402142,-8.509294 -4.097248 0.6517445,-8.41813 -3.461077 0.8011729,-9.052782 -6.292692 0.4476604,-9.077683 -5.379193 0.6442437,-9.071931 -4.808837 0.80244,-9.041308 -4.272976 0.9080076,4.210,
-2.28914 -8.107101 0.1832462,-2.920896 -7.828594 0.4130711,-3.472179 -7.250154 0.510069,-3.828938 -6.584972 0.6374195,-4.080324 -5.964863 0.7750252,-3.209824 -5.774654 0.1171578,-3.482407 -4.835756 0.1872692,-3.617645 -4.263999 0.2675774,-3.70245 -3.751848 0.3551408,-2.905115 -5.512195 0.1468478,-3.131216 -4.419479 0.187255,-3.258804 -3.72038 0.3075176,-3.328612 -3.123388 0.4129121,-2.590009 -5.4563 0.2438254,-2.743162 -4.414254 0.3234661,-2.871683 -3.740341 0.4788083,-2.968154 -3.161531 0.6130252,-2.236817 -5.575159 0.3813968,-2.300328 -4.736518 0.4875009,-2.378531 -4.220161 0.6423424,-2.453332 -3.754228 0.7678624,-8.902869 -8.942564 -0.004181493,-8.239688 -8.629904 0.1578926,-7.734955 -7.851322 0.2794473,-7.435434 -7.12961 0.4608698,-7.121195 -6.697551 0.651881,-8.058435 -6.231236 0.03835859,-7.888718 -5.129467 0.1898109,-7.785847 -4.478673 0.3507223,-7.699302 -3.914206 0.4632049,-8.381113 -6.013065 0.1582433,-8.235659 -4.721612 0.2624995,-8.128858 -3.939291 0.4702581,-8.044933 -3.262517 0.6170437,-8.705575 -6.046095 0.3219061,-8.606931 -4.835855 0.4628674,-8.515285 -4.103604 0.6640891,-8.421244 -3.474474 0.8009482,-9.054876 -6.291936 0.4936196,-9.083312 -5.376363 0.6868064,-9.074123 -4.802227 0.8359517,-9.041796 -4.267683 0.9283083,4.310,
-2.293918 -8.110327 0.1804121,-2.93748 -7.823293 0.3723121,-3.488902 -7.227216 0.4416845,-3.841516 -6.551796 0.548238,-4.073704 -5.934701 0.6654727,-3.211594 -5.772317 0.06162523,-3.475777 -4.811738 0.102361,-3.606621 -4.234901 0.1587508,-3.686878 -3.728867 0.2287859,-2.902072 -5.515411 0.09920614,-3.116163 -4.398532 0.1044301,-3.237013 -3.687461 0.1977755,-3.302155 -3.08976 0.2841442,-2.584174 -5.45837 0.2045986,-2.72883 -4.39575 0.2514021,-2.852035 -3.717832 0.3725345,-2.944571 -3.140617 0.4833294,-2.231153 -5.57526 0.3494437,-2.285004 -4.724725 0.4276333,-2.355556 -4.207717 0.5524288,-2.423282 -3.745319 0.6562815,-8.895093 -8.96324 -0.004203828,-8.244851 -8.640015 0.1660209,-7.737818 -7.862315 0.3004009,-7.436227 -7.140933 0.4937875,-7.123983 -6.699598 0.6969656,-8.063755 -6.245591 0.07098682,-7.889977 -5.1396 0.2292096,-7.787168 -4.491523 0.3884945,-7.698961 -3.92448 0.4994392,-8.387603 -6.033356 0.1920904,-8.241388 -4.73212 0.3078579,-8.135122 -3.947977 0.5202631,-8.049661 -3.264887 0.6689629,-8.711868 -6.075668 0.3549471,-8.613112 -4.857395 0.5102853,-8.526322 -4.11465 0.7208931,-8.432724 -3.473774 0.8659986,-9.061198 -6.330967 0.5239,-9.082977 -5.403362 0.7279695,-9.072074 -4.828823 0.8862718,-9.036436 -4.299572 0.9836878,4.410,
-2.297366 -8.183353 0.3393058,-2.93498 -7.889799 0.5537373,-3.486349 -7.273273 0.6354663,-3.846916 -6.598538 0.7518436,-4.084492 -5.972824 0.8797221,-3.19109 -5.7866 0.2319996,-3.451194 -4.819166 0.2718071,-3.583618 -4.234692 0.3223053,-3.666548 -3.726791 0.3869296,-2.883436 -5.536741 0.2608172,-3.099927 -4.416586 0.2615859,-3.225451 -3.703009 0.3507547,-3.295315 -3.113023 0.4326161,-2.568079 -5.487847 0.3598414,-2.711156 -4.409809 0.4037774,-2.835788 -3.715928 0.5314242,-2.934751 -3.131252 0.6456963,-2.215986 -5.618165 0.5002965,-2.263786 -4.753288 0.5683348,-2.3296 -4.224885 0.6926339,-2.393661 -3.754981 0.798929,-8.903322 -9.015898 0.1159165,-8.236574 -8.684422 0.2436866,-7.72991 -7.887274 0.3498759,-7.437435 -7.158158 0.519542,-7.12996 -6.719578 0.6928841,-8.065344 -6.257889 0.1391705,-7.913315 -5.147747 0.2770864,-7.82479 -4.503568 0.4232693,-7.749346 -3.946003 0.5257837,-8.388929 -6.049844 0.271036,-8.260364 -4.753356 0.3595599,-8.166377 -3.979608 0.5599064,-8.093022 -3.300615 0.6972274,-8.71268 -6.094244 0.4405687,-8.628394 -4.884803 0.5660565,-8.549599 -4.160925 0.7667595,-8.467286 -3.537241 0.9033167,-9.060342 -6.351535 0.614609,-9.090579 -5.442438 0.7895492,-9.083402 -4.884874 0.9309345,-9.052797 -4.369774 1.018708,4.510,
-2.297041 -8.185801 0.3512588,-2.945772 -7.880727 0.5500265,-3.496809 -7.281234 0.6352149,-3.853197 -6.611305 0.7571545,-4.09053 -5.993268 0.8911974,-3.197974 -5.780807 0.2426738,-3.459931 -4.812601 0.2838733,-3.591084 -4.232942 0.3288805,-3.672585 -3.723582 0.386241,-2.887725 -5.536457 0.2826284,-3.102405 -4.417575 0.2936568,-3.224859 -3.710716 0.3830616,-3.290205 -3.118413 0.4700589,-2.570025 -5.491731 0.3910893,-2.71229 -4.417074 0.4410374,-2.833883 -3.731922 0.5632766,-2.925803 -3.152083 0.6781142,-2.216291 -5.622516 0.5378901,-2.256848 -4.759051 0.6084424,-2.321031 -4.234615 0.7325864,-2.382498 -3.76344 0.8389995,-8.893472 -9.039492 0.1098737,-8.233843 -8.693829 0.2224181,-7.733007 -7.894195 0.3212861,-7.440954 -7.163707 0.4864974,-7.133101 -6.733582 0.653965,-8.075361 -6.275739 0.1058994,-7.932182 -5.163768 0.2353735,-7.84297 -4.513221 0.3763692,-7.765659 -3.946901 0.4772993,-8.397899 -6.071022 0.2453639,-8.273449 -4.767196 0.3309274,-8.176838 -3.995977 0.5303779,-8.100209 -3.31985 0.6648388,-8.719103 -6.117568 0.4212461,-8.639136 -4.903518 0.5505626,-8.559448 -4.180561 0.7475601,-8.474911 -3.553405 0.8763107,-9.061988 -6.374241 0.6005051,-9.101582 -5.460824 0.7815564,-9.097497 -4.901409 0.922549,-9.069391 -4.381465 1.00327,4.610,
-2.319528 -8.143183 0.3205111,-2.961369 -7.880497 0.5402822,-3.51918 -7.289775 0.6355172,-3.871737 -6.625226 0.759774,-4.12081 -6.031747 0.892763,-3.192183 -5.748563 0.2732222,-3.460218 -4.775774 0.3356907,-3.595309 -4.188844 0.3940563,-3.684008 -3.665164 0.4618323,-2.876303 -5.494636 0.3010616,-3.086315 -4.356861 0.356733,-3.204375 -3.627626 0.4734471,-3.272091 -3.015553 0.5824656,-2.558403 -5.452915 0.3956003,-2.692756 -4.365411 0.4710946,-2.808898 -3.664586 0.6091821,-2.90015 -3.0716 0.7389855,-2.210509 -5.596017 0.5240991,-2.232923 -4.725155 0.6030529,-2.285202 -4.185525 0.7372513,-2.341891 -3.703477 0.8565485,-8.879405 -9.058004 0.1146266,-8.221948 -8.705006 0.2673362,-7.721664 -7.921558 0.3985692,-7.419374 -7.197696 0.5862338,-7.108196 -6.758527 0.7784159,-8.077629 -6.2864 0.1953806,-7.923951 -5.169593 0.3559249,-7.832169 -4.528721 0.5190823,-7.753882 -3.966873 0.6321055,-8.404512 -6.088954 0.3225951,-8.275709 -4.779115 0.445446,-8.185462 -4.010273 0.6607217,-8.115843 -3.334083 0.8099352,-8.728171 -6.148878 0.4870563,-8.643381 -4.927336 0.6405947,-8.56829 -4.201328 0.8465803,-8.488548 -3.566928 0.9858261,-9.072522 -6.425687 0.6577864,-9.09851 -5.512099 0.8480981,-9.091083 -4.948647 0.9953335,-9.062412 -4.418013 1.090647,4.710,
-2.327698 -8.150532 0.3433793,-2.978022 -7.865219 0.5475726,-3.52981 -7.266794 0.6433119,-3.878706 -6.605074 0.7706056,-4.135596 -6.017221 0.9092767,-3.207174 -5.739236 0.2896867,-3.466072 -4.751661 0.3461127,-3.597572 -4.154403 0.3903705,-3.68235 -3.628686 0.4465877,-2.88753 -5.49595 0.3243338,-3.099764 -4.351979 0.3674895,-3.218618 -3.627898 0.4683254,-3.286962 -3.027112 0.5647641,-2.565422 -5.457477 0.4266376,-2.70243 -4.358053 0.5029094,-2.820022 -3.652197 0.6314451,-2.913277 -3.05491 0.7499026,-2.21254 -5.600828 0.5626094,-2.23483 -4.722944 0.6361881,-2.285655 -4.181682 0.7626365,-2.339648 -3.693746 0.8744842,-8.875601 -9.085175 0.1620856,-8.222144 -8.73189 0.3049985,-7.72744 -7.930166 0.4320022,-7.430326 -7.200673 0.6228856,-7.11076 -6.752553 0.8228213,-8.070954 -6.298183 0.2002865,-7.929592 -5.182085 0.3416811,-7.844502 -4.527624 0.4974725,-7.769675 -3.956311 0.6079642,-8.397964 -6.10061 0.3353442,-8.279389 -4.79862 0.4372534,-8.188953 -4.019283 0.6443951,-8.116928 -3.340561 0.7851399,-8.721977 -6.158849 0.5093789,-8.648472 -4.942231 0.6509078,-8.577362 -4.209415 0.8496312,-8.498844 -3.575035 0.9807914,-9.065919 -6.431461 0.6885195,-9.100617 -5.506733 0.8803861,-9.096907 -4.941738 1.021833,-9.07093 -4.418822 1.100348,4.810,
-2.324131 -8.190418 0.4982854,-2.981733 -7.889809 0.6777368,-3.533951 -7.289361 0.7633643,-3.887197 -6.631174 0.8924282,-4.140059 -6.034342 1.041511,-3.199245 -5.732975 0.383866,-3.459918 -4.750672 0.436068,-3.596313 -4.159545 0.4867968,-3.682986 -3.637092 0.5473234,-2.886795 -5.491865 0.4355348,-3.104541 -4.358936 0.4658169,-3.224515 -3.639522 0.5671654,-3.290168 -3.034728 0.665002,-2.570157 -5.461421 0.5548617,-2.716399 -4.36111 0.6166574,-2.839216 -3.659665 0.73427,-2.931304 -3.069379 0.8494302,-2.218618 -5.620594 0.7074081,-2.249339 -4.739074 0.7775221,-2.311673 -4.194108 0.9027171,-2.371451 -3.710515 1.008659,-8.888998 -9.111078 0.1519175,-8.228251 -8.754461 0.2717285,-7.726184 -7.956031 0.3846567,-7.428701 -7.225733 0.5653148,-7.114744 -6.783707 0.7527896,-8.075342 -6.330084 0.1590136,-7.946877 -5.214773 0.2893167,-7.866738 -4.564529 0.4375974,-7.79803 -4.001422 0.5455956,-8.401441 -6.129708 0.3006554,-8.282626 -4.83012 0.3930033,-8.187177 -4.054518 0.5957072,-8.1133 -3.380464 0.7358847,-8.725908 -6.180748 0.480931,-8.645939 -4.967337 0.6117702,-8.56582 -4.238712 0.8086943,-8.484016 -3.612129 0.9416016,-9.072209 -6.445368 0.6655391,-9.106661 -5.522187 0.8480503,-9.100945 -4.953592 0.9905344,-9.073466 -4.428102 1.075702,4.910,
-2.33594 -8.198441 0.4848005,-2.997116 -7.896482 0.6696311,-3.549654 -7.295336 0.7545587,-3.8965 -6.625627 0.873898,-4.147881 -6.038105 1.00459,-3.212029 -5.752054 0.4079992,-3.477538 -4.76601 0.4509194,-3.614494 -4.169512 0.4921178,-3.702581 -3.645562 0.5475947,-2.897941 -5.503211 0.4476934,-3.118324 -4.359491 0.4739717,-3.24024 -3.637588 0.5699986,-3.311918 -3.031649 0.6688583,-2.582116 -5.465827 0.5528729,-2.725684 -4.366503 0.6146005,-2.847193 -3.663804 0.7345703,-2.944621 -3.069184 0.8550763,-2.235136 -5.613397 0.689109,-2.267431 -4.738153 0.7564229,-2.325191 -4.198261 0.8818375,-2.387282 -3.713407 0.9925874,-8.884143 -9.097044 0.1410744,-8.215362 -8.749159 0.2771775,-7.713231 -7.955749 0.3880213,-7.413706 -7.2296 0.5605763,-7.108657 -6.789989 0.7385514,-8.069104 -6.315784 0.1448041,-7.93524 -5.20296 0.2722675,-7.850256 -4.557537 0.4181625,-7.77157 -3.996269 0.5181979,-8.399154 -6.117622 0.2733739,-8.286858 -4.815172 0.3551618,-8.197732 -4.044641 0.5470684,-8.127181 -3.378107 0.6744338,-8.72542 -6.171617 0.4437549,-8.648554 -4.957197 0.5662426,-8.57441 -4.235759 0.7532381,-8.496997 -3.615098 0.8775109,-9.07031 -6.438547 0.6201726,-9.105865 -5.527412 0.7925848,-9.100596 -4.966219 0.9272747,-9.074995 -4.445521 1.006407,5.010,
-2.329412 -8.233564 0.5988479,-2.977698 -7.953247 0.7887813,-3.538586 -7.325848 0.8628382,-3.891972 -6.645267 0.9756708,-4.161772 -6.070901 1.109692,-3.224669 -5.764869 0.4955386,-3.490152 -4.784873 0.5346536,-3.621456 -4.190813 0.5736769,-3.704263 -3.663161 0.6252191,-2.913556 -5.510183 0.5351091,-3.135254 -4.371992 0.5511788,-3.257718 -3.657145 0.6373109,-3.327857 -3.059309 0.7215527,-2.596511 -5.466541 0.6419724,-2.736722 -4.370826 0.7000782,-2.853717 -3.674796 0.8143386,-2.945805 -3.082969 0.923504,-2.244572 -5.608542 0.7855026,-2.276509 -4.739721 0.8519983,-2.332912 -4.204906 0.9714431,-2.390045 -3.721447 1.07379,-8.885585 -9.123209 0.148989,-8.214137 -8.764996 0.2858659,-7.711058 -7.959548 0.3973039,-7.410143 -7.224684 0.5734646,-7.100223 -6.780506 0.7552299,-8.074757 -6.339353 0.1525639,-7.945558 -5.228669 0.2846256,-7.864571 -4.573255 0.4360681,-7.790236 -3.999111 0.5411325,-8.404519 -6.140871 0.2814388,-8.29384 -4.84114 0.3700403,-8.203598 -4.060876 0.5679733,-8.131762 -3.383002 0.6984951,-8.730535 -6.188832 0.4521482,-8.658979 -4.97315 0.5804098,-8.588707 -4.24451 0.7659183,-8.512547 -3.62066 0.8868664,-9.075087 -6.445792 0.6271204,-9.107126 -5.521743 0.807861,-9.100941 -4.950628 0.9409347,-9.073685 -4.426315 1.014102,5.110,
-2.332994 -8.229971 0.5807154,-2.986227 -7.936006 0.7603574,-3.546556 -7.318959 0.8396221,-3.902224 -6.65019 0.9566051,-4.163401 -6.07724 1.087823,-3.220835 -5.755211 0.4971118,-3.488127 -4.768423 0.5398239,-3.625395 -4.175594 0.5736906,-3.711973 -3.647592 0.62096,-2.908922 -5.509653 0.5457697,-3.134306 -4.364257 0.5751527,-3.258533 -3.647892 0.6641216,-3.328099 -3.046991 0.7525681,-2.591491 -5.470619 0.6603866,-2.742623 -4.369424 0.7306066,-2.864298 -3.667825 0.8480695,-2.957891 -3.071427 0.9619167,-2.239301 -5.615364 0.8073057,-2.273959 -4.735918 0.8823767,-2.330592 -4.198177 1.006427,-2.388129 -3.709884 1.113277,-8.89046 -9.104132 0.1112112,-8.219942 -8.763903 0.2432509,-7.712357 -7.965079 0.3579989,-7.407421 -7.238971 0.5367546,-7.0927 -6.79904 0.7239304,-8.069304 -6.334482 0.1158706,-7.938614 -5.221536 0.2528712,-7.856958 -4.570985 0.4048012,-7.783798 -4.002458 0.5103936,-8.39803 -6.134947 0.251478,-8.282476 -4.827046 0.346264,-8.192736 -4.052711 0.5395062,-8.123122 -3.377095 0.6677014,-8.723968 -6.184677 0.4293714,-8.643671 -4.962902 0.562996,-8.566187 -4.24131 0.7474564,-8.487045 -3.615222 0.8699856,-9.070123 -6.446363 0.6128019,-9.099375 -5.52335 0.7959718,-9.093223 -4.957712 0.9278887,-9.069051 -4.432664 1.003969,5.210,
-2.32098 -8.248913 0.5574472,-2.974675 -7.948783 0.7580802,-3.535032 -7.341547 0.8558537,-3.893464 -6.677156 0.9859437,-4.155842 -6.090204 1.132911,-3.216534 -5.787961 0.5056832,-3.486997 -4.799091 0.5623597,-3.620392 -4.202848 0.6124389,-3.703829 -3.672182 0.6761896,-2.904423 -5.536773 0.546614,-3.129865 -4.387706 0.5906136,-3.253332 -3.667267 0.6960867,-3.32552 -3.05677 0.8000934,-2.587708 -5.496904 0.6525657,-2.735461 -4.392723 0.7304183,-2.857942 -3.688953 0.8600818,-2.95322 -3.089443 0.9861115,-2.237037 -5.642866 0.79251,-2.269679 -4.767003 0.8766701,-2.329985 -4.228167 1.010137,-2.392997 -3.742198 1.124702,-8.883203 -9.139393 0.1715993,-8.215572 -8.781195 0.2977095,-7.712692 -7.979707 0.4114069,-7.408517 -7.250408 0.5922843,-7.091423 -6.804964 0.7799563,-8.063076 -6.34958 0.187386,-7.936493 -5.236619 0.3265953,-7.855324 -4.579967 0.4761945,-7.780831 -4.009508 0.5797081,-8.39199 -6.15343 0.3300194,-8.284059 -4.852396 0.4329112,-8.193655 -4.073749 0.6339484,-8.123072 -3.397847 0.7685577,-8.718516 -6.215131 0.5133342,-8.648006 -4.995622 0.6593708,-8.575462 -4.265167 0.8593741,-8.498149 -3.635295 0.9913988,-9.063295 -6.492041 0.7000741,-9.098953 -5.579031 0.8958966,-9.092477 -5.009695 1.042459,-9.064043 -4.48089 1.129947,5.310,
-2.337866 -8.248955 0.5780529,-2.984813 -7.950025 0.755444,-3.539818 -7.332445 0.8358573,-3.893746 -6.66337 0.9550022,-4.152308 -6.083051 1.08791,-3.210313 -5.776191 0.4976735,-3.481447 -4.80369 0.5450183,-3.613806 -4.221707 0.5834154,-3.696632 -3.702091 0.6331547,-2.901179 -5.5267 0.5492994,-3.119062 -4.386652 0.5969299,-3.236931 -3.673379 0.6967769,-3.304359 -3.066671 0.7894849,-2.58675 -5.486167 0.6633681,-2.730849 -4.392578 0.7458481,-2.849303 -3.699203 0.8676704,-2.939441 -3.104326 0.9825271,-2.238906 -5.631143 0.8092815,-2.270706 -4.751651 0.8948451,-2.328897 -4.213785 1.022866,-2.389987 -3.728835 1.1311,-8.876702 -9.148932 0.2170771,-8.214313 -8.796057 0.3554867,-7.712018 -7.990135 0.4780703,-7.411159 -7.259964 0.6670409,-7.092138 -6.818109 0.8668926,-8.061687 -6.352031 0.2334642,-7.933719 -5.246363 0.3704185,-7.859417 -4.593547 0.5231405,-7.794168 -4.021643 0.6300939,-8.389951 -6.148765 0.370584,-8.275406 -4.851022 0.4638617,-8.188553 -4.071035 0.6618725,-8.120458 -3.388084 0.7972813,-8.7176 -6.200734 0.5498852,-8.642781 -4.992591 0.6765261,-8.57156 -4.263443 0.8623773,-8.49751 -3.632626 0.9908141,-9.066605 -6.466853 0.7360754,-9.095025 -5.548169 0.9142886,-9.090123 -4.985522 1.046444,-9.065657 -4.467504 1.123562,5.410,
-2.323964 -8.227417 0.5899461,-2.975653 -7.928064 0.7809207,-3.532303 -7.32008 0.8692107,-3.885662 -6.645008 0.9926038,-4.135599 -6.056558 1.129951,-3.211439 -5.755487 0.5130062,-3.473591 -4.772008 0.558992,-3.605959 -4.190324 0.5973586,-3.695938 -3.67196 0.649505,-2.89831 -5.504045 0.5556113,-3.11474 -4.361462 0.5882421,-3.237972 -3.651411 0.6825609,-3.317363 -3.050794 0.7774695,-2.58124 -5.466077 0.6629733,-2.72374 -4.366605 0.7357701,-2.843198 -3.673982 0.855119,-2.943495 -3.084667 0.9684478,-2.228814 -5.614342 0.8050336,-2.253835 -4.735881 0.8798487,-2.30613 -4.199138 1.002028,-2.365879 -3.715492 1.109335,-8.875317 -9.166109 0.1956079,-8.214143 -8.802742 0.3356193,-7.714808 -8.002735 0.4640804,-7.415749 -7.266845 0.6571962,-7.101415 -6.823898 0.8623224,-8.072607 -6.369892 0.2366347,-7.946711 -5.260011 0.3803016,-7.86859 -4.606245 0.5364651,-7.799862 -4.032255 0.6449289,-8.403139 -6.171178 0.3728707,-8.289177 -4.866231 0.4787782,-8.199799 -4.080456 0.6868211,-8.131969 -3.391471 0.8310542,-8.730567 -6.230023 0.5483368,-8.656059 -5.017684 0.688666,-8.585252 -4.282874 0.8847693,-8.512305 -3.646843 1.016439,-9.07825 -6.503042 0.7302541,-9.109109 -5.57566 0.9227498,-9.101667 -5.005291 1.065338,-9.074908 -4.476797 1.151897,5.510,
-2.323531 -8.246237 0.5904981,-2.974395 -7.932401 0.7878075,-3.533554 -7.319625 0.8805168,-3.891626 -6.653419 1.006175,-4.151419 -6.074437 1.147399,-3.209402 -5.767831 0.5327592,-3.472652 -4.769054 0.584421,-3.603621 -4.167739 0.6289278,-3.687562 -3.63683 0.6842169,-2.895601 -5.522053 0.5735248,-3.117271 -4.36664 0.6096063,-3.237022 -3.647739 0.7045413,-3.306985 -3.046929 0.7974336,-2.577149 -5.486093 0.6812015,-2.726718 -4.378324 0.7561478,-2.846786 -3.676031 0.8795988,-2.943428 -3.082506 0.9957656,-2.223475 -5.635478 0.8227344,-2.259453 -4.756498 0.899536,-2.316434 -4.221218 1.024329,-2.376468 -3.739501 1.133913,-8.889569 -9.153528 0.1099809,-8.222835 -8.809883 0.2827879,-7.717563 -8.025179 0.421633,-7.413101 -7.295185 0.616876,-7.100836 -6.842847 0.8187655,-8.069208 -6.389241 0.1677715,-7.933765 -5.27835 0.3197179,-7.850964 -4.630912 0.4816281,-7.77874 -4.065198 0.5952824,-8.399205 -6.186409 0.2883747,-8.280548 -4.885992 0.3997681,-8.190477 -4.106939 0.6140894,-8.122492 -3.423293 0.7639238,-8.727814 -6.239114 0.4514637,-8.64699 -5.020605 0.5940861,-8.567143 -4.289699 0.8009256,-8.486566 -3.656782 0.9449233,-9.079185 -6.505167 0.6249545,-9.10717 -5.596569 0.8129551,-9.097045 -5.030769 0.9620407,-9.0675 -4.502923 1.058048,5.610,
-2.316376 -8.248468 0.6251723,-2.967144 -7.949842 0.829573,-3.529108 -7.338041 0.9264966,-3.892757 -6.668622 1.057284,-4.157644 -6.080249 1.202767,-3.210608 -5.769261 0.5562928,-3.473372 -4.784242 0.6017225,-3.603775 -4.187 0.6418717,-3.688477 -3.658203 0.6968173,-2.899472 -5.516605 0.5960927,-3.123695 -4.366964 0.6272065,-3.248148 -3.651998 0.7202598,-3.322266 -3.053975 0.8094385,-2.582359 -5.474765 0.7041625,-2.73145 -4.364343 0.7745987,-2.855405 -3.661289 0.895862,-2.954054 -3.066731 1.010716,-2.229642 -5.621738 0.8470378,-2.26216 -4.738983 0.9195364,-2.319662 -4.197496 1.044219,-2.38049 -3.713263 1.154589,-8.872828 -9.162365 0.1052498,-8.214112 -8.819368 0.2425275,-7.717246 -8.018318 0.3639218,-7.421302 -7.287436 0.5510385,-7.107856 -6.85021 0.7491151,-8.066871 -6.393459 0.1246735,-7.935204 -5.284454 0.2617694,-7.85288 -4.635223 0.4168372,-7.78104 -4.069507 0.5255094,-8.393045 -6.193658 0.2620158,-8.275275 -4.894 0.3568978,-8.180818 -4.112653 0.5622659,-8.108755 -3.43247 0.7009436,-8.718962 -6.245296 0.4397453,-8.642241 -5.030721 0.573436,-8.56296 -4.298063 0.770452,-8.483213 -3.663204 0.9005889,-9.0658 -6.507793 0.624234,-9.101463 -5.57777 0.80638,-9.096408 -5.00082 0.9467341,-9.070784 -4.465184 1.030959,5.710,
-2.317876 -8.232899 0.583563,-2.965381 -7.934883 0.7930275,-3.527787 -7.324782 0.8940778,-3.89134 -6.652009 1.028091,-4.151047 -6.061182 1.176589,-3.205368 -5.761541 0.5309699,-3.463077 -4.774841 0.5919471,-3.592396 -4.190366 0.6435974,-3.678104 -3.667626 0.701093,-2.894053 -5.511577 0.5755476,-3.112267 -4.363578 0.6320584,-3.232922 -3.648639 0.7433338,-3.308846 -3.039476 0.8482751,-2.576666 -5.474723 0.6867315,-2.727285 -4.378141 0.7777258,-2.849549 -3.682235 0.9086291,-2.950306 -3.086662 1.031712,-2.222027 -5.623172 0.8328379,-2.257131 -4.7383 0.9236195,-2.313355 -4.197921 1.054298,-2.373925 -3.708208 1.17007,-8.875437 -9.166592 0.08145947,-8.211714 -8.818018 0.2261336,-7.714044 -8.023684 0.3545668,-7.414332 -7.291988 0.5453993,-7.1027 -6.841506 0.7483448,-8.078472 -6.398695 0.1187624,-7.947454 -5.279563 0.2618027,-7.863799 -4.623474 0.422473,-7.793302 -4.051595 0.5347534,-8.408815 -6.203273 0.2488395,-8.292732 -4.897828 0.3549871,-8.196095 -4.112106 0.564554,-8.123967 -3.427649 0.7100827,-8.736074 -6.25764 0.4172212,-8.654227 -5.031147 0.553117,-8.5715 -4.296639 0.7515734,-8.488975 -3.662349 0.8871323,-9.082129 -6.524187 0.5944721,-9.113308 -5.593856 0.7754485,-9.102993 -5.015445 0.9225494,-9.072882 -4.476248 1.013938,5.810,
-2.322839 -8.232643 0.5859658,-2.963497 -7.930469 0.796554,-3.520237 -7.321937 0.8968365,-3.883809 -6.648384 1.031095,-4.146661 -6.049271 1.180009,-3.205652 -5.758686 0.5109805,-3.462981 -4.780298 0.561525,-3.58505 -4.197865 0.6084682,-3.662918 -3.677952 0.6669073,-2.893734 -5.509758 0.5484118,-3.105326 -4.368452 0.5866797,-3.219864 -3.656628 0.6885964,-3.286919 -3.05399 0.7828674,-2.575538 -5.469081 0.6505263,-2.712559 -4.374938 0.7257154,-2.828535 -3.684635 0.8516136,-2.919877 -3.093628 0.9667181,-2.222095 -5.610628 0.7902159,-2.249745 -4.735561 0.8710885,-2.303653 -4.199704 0.9995303,-2.360084 -3.715896 1.108949,-8.881229 -9.159321 0.05387956,-8.215427 -8.814449 0.2079849,-7.712401 -8.028318 0.339849,-7.412619 -7.291877 0.5327283,-7.100457 -6.834144 0.7339922,-8.074142 -6.406153 0.1090102,-7.943665 -5.283867 0.2565893,-7.868246 -4.622124 0.4147297,-7.803678 -4.04249 0.5227424,-8.403325 -6.20644 0.2321224,-8.284912 -4.904493 0.343387,-8.192677 -4.11837 0.5538084,-8.121767 -3.428397 0.6973486,-8.730761 -6.258339 0.3934582,-8.650912 -5.036312 0.5286492,-8.574552 -4.301813 0.7256477,-8.494523 -3.665113 0.8627466,-9.07855 -6.519977 0.5619011,-9.106066 -5.592202 0.7447643,-9.094644 -5.01915 0.8930832,-9.061133 -4.482645 0.9867247,5.910,
-2.327991 -8.235928 0.5871865,-2.980086 -7.938323 0.774865,-3.532291 -7.312805 0.8558902,-3.881572 -6.631747 0.9730226,-4.144869 -6.04432 1.10303,-3.203653 -5.760839 0.5024617,-3.463428 -4.772218 0.5503406,-3.595196 -4.179647 0.5920247,-3.680664 -3.651226 0.6462637,-2.892217 -5.511306 0.5490894,-3.105539 -4.36223 0.590198,-3.226378 -3.640922 0.6908464,-3.298563 -3.025821 0.790066,-2.575519 -5.472987 0.6626433,-2.719044 -4.369668 0.7425991,-2.841002 -3.663211 0.8694361,-2.937002 -3.056312 0.9913609,-2.224675 -5.621415 0.8092637,-2.254325 -4.740581 0.894604,-2.313154 -4.196716 1.027945,-2.374573 -3.706113 1.144805,-8.867893 -9.15914 0.04003581,-8.20352 -8.805912 0.1867048,-7.708991 -8.01079 0.3153055,-7.414213 -7.277602 0.5056392,-7.102377 -6.833271 0.7088333,-8.069384 -6.408958 0.08391967,-7.93408 -5.299384 0.2308879,-7.853464 -4.645381 0.3936893,-7.787659 -4.071058 0.5065306,-8.400543 -6.208034 0.2094628,-8.276565 -4.908544 0.3144317,-8.182375 -4.123441 0.5207871,-8.113232 -3.437006 0.6634205,-8.728328 -6.252563 0.3720336,-8.641101 -5.033911 0.5034701,-8.560611 -4.305593 0.6932315,-8.480798 -3.676528 0.822385,-9.075703 -6.507711 0.5445638,-9.099854 -5.579504 0.7236944,-9.089453 -5.007471 0.8611184,-9.060675 -4.475659 0.9453834,6.010,
-2.328552 -8.19908 0.576072,-2.985019 -7.914838 0.7476305,-3.540382 -7.301252 0.8202886,-3.894463 -6.623044 0.9344654,-4.140547 -6.036182 1.058465,-3.207937 -5.731676 0.4500701,-3.471921 -4.749942 0.4831289,-3.601366 -4.158029 0.5159147,-3.683804 -3.634788 0.558109,-2.897931 -5.479594 0.4999168,-3.119041 -4.330825 0.5230684,-3.240108 -3.613876 0.6071081,-3.313077 -3.014655 0.6899061,-2.582448 -5.436466 0.6168466,-2.729663 -4.33031 0.682015,-2.849742 -3.628793 0.7894374,-2.949037 -3.033802 0.8939819,-2.230712 -5.575538 0.7676501,-2.263801 -4.693423 0.8324028,-2.320114 -4.155824 0.9475152,-2.382807 -3.67333 1.050499,-8.868018 -9.150412 0.05669045,-8.204234 -8.813381 0.2002726,-7.706973 -8.008633 0.3234518,-7.413534 -7.276323 0.5091327,-7.104327 -6.821883 0.7067939,-8.064451 -6.390568 0.09103496,-7.932977 -5.282327 0.2343463,-7.85056 -4.631954 0.3902358,-7.776529 -4.06451 0.4958709,-8.394546 -6.195196 0.2211544,-8.278128 -4.900722 0.3238722,-8.185627 -4.12586 0.5218906,-8.11407 -3.443604 0.653046,-8.721826 -6.246311 0.3906754,-8.638856 -5.028995 0.5282974,-8.557321 -4.300994 0.7180736,-8.474399 -3.669319 0.846971,-9.067696 -6.507398 0.5682212,-9.096116 -5.586883 0.7513528,-9.088678 -5.013308 0.8913243,-9.061467 -4.471992 0.9773602,6.110,
-2.304182 -8.1742 0.5079057,-2.947359 -7.851888 0.7036435,-3.505007 -7.25357 0.8048733,-3.87029 -6.594738 0.9429111,-4.126947 -6.000034 1.094525,-3.185611 -5.71628 0.439527,-3.443806 -4.727132 0.4961017,-3.570986 -4.141347 0.5388646,-3.654477 -3.620485 0.5879731,-2.874535 -5.473814 0.4867613,-3.091265 -4.324532 0.5260127,-3.210361 -3.615656 0.6232868,-3.285039 -3.022502 0.7148831,-2.556669 -5.437368 0.6011869,-2.700517 -4.328763 0.6781431,-2.819883 -3.629911 0.8015617,-2.921113 -3.035707 0.916295,-2.201959 -5.587768 0.7509025,-2.22706 -4.702518 0.8304953,-2.278428 -4.160768 0.9517552,-2.337231 -3.67354 1.058486,-8.84938 -9.149939 0.06414726,-8.198977 -8.808107 0.2236494,-7.701505 -8.017004 0.3599655,-7.399394 -7.288671 0.5559344,-7.079211 -6.851033 0.7642909,-8.054321 -6.393209 0.1398732,-7.911542 -5.283903 0.295395,-7.825518 -4.628265 0.4542606,-7.751534 -4.052598 0.5651658,-8.381184 -6.193938 0.2640782,-8.258817 -4.903927 0.3773623,-8.168515 -4.124065 0.5842187,-8.098488 -3.437416 0.724599,-8.705791 -6.248837 0.4281166,-8.625716 -5.0409 0.5742222,-8.55367 -4.307628 0.7700556,-8.477718 -3.671002 0.9027103,-9.050285 -6.518215 0.5987697,-9.077715 -5.59653 0.7920092,-9.071906 -5.025588 0.9390119,-9.043192 -4.493529 1.029398,6.210,
-2.300919 -8.177279 0.5304198,-2.951796 -7.876354 0.743052,-3.506979 -7.267604 0.8433749,-3.862694 -6.596906 0.975137,-4.103337 -5.995256 1.118418,-3.185929 -5.713491 0.4683712,-3.439945 -4.715134 0.5207362,-3.572508 -4.122342 0.5670125,-3.65799 -3.596313 0.6234615,-2.869677 -5.470022 0.503891,-3.085342 -4.315178 0.5386275,-3.210608 -3.594237 0.6384795,-3.285683 -2.987721 0.7344004,-2.549714 -5.439411 0.6085405,-2.695102 -4.32768 0.6799009,-2.822968 -3.620961 0.8064749,-2.925341 -3.020334 0.9252717,-2.193459 -5.598276 0.7492541,-2.229085 -4.713345 0.8271957,-2.291488 -4.171009 0.9569416,-2.355837 -3.682517 1.071219,-8.84355 -9.123121 0.02795335,-8.189283 -8.77824 0.1685992,-7.695883 -7.994728 0.3020497,-7.395037 -7.277038 0.5001457,-7.079719 -6.84268 0.7149255,-8.049047 -6.377368 0.06295942,-7.911475 -5.267491 0.214559,-7.824345 -4.614328 0.3825691,-7.749174 -4.048275 0.4997227,-8.373898 -6.176162 0.2019545,-8.248216 -4.873334 0.3156825,-8.150746 -4.095996 0.5193861,-8.076581 -3.418283 0.6603025,-8.697724 -6.221316 0.3808688,-8.60487 -4.996957 0.5216112,-8.515436 -4.265785 0.709527,-8.427878 -3.636561 0.8381749,-9.043745 -6.479633 0.570992,-9.067781 -5.548212 0.7512345,-9.057108 -4.973325 0.8868613,-9.028812 -4.435041 0.9732345,6.310,
-2.287659 -8.181881 0.5224102,-2.929299 -7.862467 0.7314543,-3.483902 -7.262898 0.8379683,-3.851725 -6.60649 0.9777737,-4.119888 -6.032802 1.136345,-3.172615 -5.723289 0.4671993,-3.434406 -4.734302 0.5251439,-3.558281 -4.150411 0.5754358,-3.634876 -3.630084 0.6349936,-2.862059 -5.478063 0.5068868,-3.0807 -4.319585 0.5466462,-3.196659 -3.60238 0.65056,-3.263279 -2.998592 0.7503622,-2.545451 -5.443496 0.6141279,-2.690531 -4.330806 0.6896827,-2.81068 -3.627122 0.8221187,-2.904995 -3.029377 0.9444813,-2.193487 -5.598136 0.7559116,-2.222069 -4.723275 0.8375725,-2.280007 -4.183218 0.9657048,-2.340264 -3.694295 1.076957,-8.85038 -9.108116 0.03176776,-8.186222 -8.773363 0.1701471,-7.687761 -7.992622 0.2946819,-7.38859 -7.27206 0.4807806,-7.07137 -6.840002 0.6759824,-8.043457 -6.36058 0.09455253,-7.895183 -5.247964 0.2426769,-7.802329 -4.606546 0.3998987,-7.721233 -4.04607 0.5074066,-8.370768 -6.163034 0.2271497,-8.250099 -4.860017 0.3372428,-8.154943 -4.085061 0.5364052,-8.07874 -3.410316 0.6714038,-8.693758 -6.216596 0.396807,-8.614174 -5.000956 0.5361981,-8.538057 -4.271042 0.7255971,-8.454856 -3.642099 0.8555796,-9.035123 -6.481184 0.5736345,-9.062076 -5.557493 0.7522884,-9.053536 -4.9808 0.8936691,-9.021676 -4.444095 0.9818398,6.410,
-2.297649 -8.174807 0.5543687,-2.941262 -7.846049 0.7338907,-3.491697 -7.234187 0.8239014,-3.852561 -6.577209 0.9527298,-4.104427 -5.994325 1.098447,-3.169538 -5.699071 0.4708493,-3.430875 -4.704769 0.5206839,-3.559479 -4.116767 0.5665209,-3.641504 -3.598276 0.620334,-2.862372 -5.459753 0.5253329,-3.084236 -4.302394 0.5634387,-3.206758 -3.589634 0.664037,-3.281479 -2.989866 0.7579486,-2.548751 -5.427307 0.6453145,-2.696812 -4.311698 0.7215015,-2.820941 -3.60963 0.8445095,-2.922231 -3.011528 0.9580349,-2.198 -5.581331 0.799551,-2.227093 -4.695201 0.8760321,-2.28307 -4.156164 0.9962819,-2.34353 -3.671344 1.10268,-8.844828 -9.117714 0.0902525,-8.182207 -8.776066 0.2286592,-7.681491 -7.998226 0.3481874,-7.378405 -7.270599 0.5324115,-7.057344 -6.842322 0.729113,-8.023902 -6.360258 0.09912775,-7.879393 -5.265113 0.2192722,-7.793566 -4.614404 0.3597131,-7.718803 -4.050321 0.456933,-8.347742 -6.154888 0.2192781,-8.224106 -4.875062 0.2895794,-8.134892 -4.101787 0.4725167,-8.064958 -3.430215 0.5972138,-8.670387 -6.198922 0.3795626,-8.589515 -5.011084 0.4905346,-8.519468 -4.289938 0.6605625,-8.444415 -3.669211 0.7762818,-9.013685 -6.454248 0.5494651,-9.043219 -5.541696 0.7134256,-9.040315 -4.975971 0.8389915,-9.013572 -4.452287 0.9136753,6.510,
-2.298635 -8.175026 0.5544207,-2.953337 -7.853387 0.7324364,-3.508056 -7.241218 0.8184404,-3.859836 -6.569035 0.9449179,-4.103429 -5.977103 1.08757,-3.181372 -5.703304 0.4635543,-3.441324 -4.711679 0.5092686,-3.573177 -4.119411 0.5502998,-3.65608 -3.595498 0.5999624,-2.868643 -5.461222 0.5139086,-3.087469 -4.307737 0.5431563,-3.208092 -3.591804 0.6365316,-3.277823 -2.989185 0.7275783,-2.552538 -5.423345 0.6338449,-2.698551 -4.311126 0.6965878,-2.820118 -3.614086 0.8127989,-2.918135 -3.020113 0.9268242,-2.202725 -5.568775 0.7857822,-2.23117 -4.683078 0.8545462,-2.287057 -4.145605 0.9731565,-2.348857 -3.659259 1.078692,-8.8505 -9.106152 0.03678209,-8.19622 -8.767162 0.1754445,-7.693692 -8.009737 0.3037697,-7.387195 -7.294092 0.4979324,-7.069663 -6.857913 0.7056982,-8.031281 -6.365869 0.05038991,-7.885282 -5.262577 0.1806391,-7.796924 -4.608461 0.3255489,-7.722307 -4.049689 0.4245408,-8.352899 -6.159471 0.1778958,-8.223922 -4.869377 0.2597413,-8.129484 -4.096988 0.4433408,-8.057046 -3.430715 0.566548,-8.674678 -6.200035 0.3464254,-8.589711 -5.001142 0.4633021,-8.511465 -4.276281 0.6360862,-8.429502 -3.653499 0.7537219,-9.018977 -6.451845 0.5247785,-9.049131 -5.533025 0.6905665,-9.041577 -4.964609 0.820548,-9.009353 -4.436771 0.9008994,6.610,
-2.316352 -8.175259 0.55026,-2.974497 -7.851532 0.7289957,-3.52635 -7.241957 0.8193116,-3.878518 -6.57183 0.9483725,-4.135431 -5.980995 1.096252,-3.189257 -5.699731 0.4693509,-3.449226 -4.701197 0.5228611,-3.576511 -4.107774 0.5668074,-3.658072 -3.581446 0.6200877,-2.875568 -5.460279 0.5215884,-3.092135 -4.300308 0.5640012,-3.208508 -3.580798 0.6659951,-3.274233 -2.972192 0.7674475,-2.559045 -5.426494 0.6421418,-2.706409 -4.308197 0.7151002,-2.828108 -3.606866 0.8399782,-2.923219 -3.006756 0.9616,-2.20789 -5.578739 0.7938422,-2.239375 -4.686601 0.8747318,-2.297149 -4.149187 1.001897,-2.356494 -3.66242 1.115537,-8.869978 -9.096907 0.09453002,-8.216296 -8.760382 0.2523308,-7.710075 -8.000183 0.389645,-7.399734 -7.282751 0.5925986,-7.075526 -6.834808 0.8098553,-8.041302 -6.340616 0.1104555,-7.896944 -5.238282 0.232213,-7.809427 -4.586275 0.3759429,-7.733513 -4.028509 0.4783807,-8.363824 -6.134897 0.2349895,-8.235428 -4.848083 0.3113531,-8.140265 -4.076927 0.4993608,-8.06651 -3.414021 0.6296976,-8.687146 -6.182595 0.4037324,-8.598619 -4.982566 0.519547,-8.51658 -4.257705 0.7023137,-8.430293 -3.63775 0.8294521,-9.035692 -6.444414 0.5852283,-9.063516 -5.531465 0.7552831,-9.052051 -4.973062 0.8899989,-9.017105 -4.457843 0.9748335,6.710,
-2.324016 -8.155079 0.5267575,-2.975749 -7.851879 0.738652,-3.526267 -7.257943 0.8406909,-3.874796 -6.586071 0.9752516,-4.120575 -5.988037 1.120431,-3.195461 -5.693131 0.4729824,-3.453442 -4.701431 0.5247198,-3.583318 -4.110154 0.5720637,-3.668455 -3.585586 0.627228,-2.882823 -5.446794 0.5058625,-3.098984 -4.292339 0.5423293,-3.215957 -3.579991 0.640557,-3.286928 -2.973947 0.7380067,-2.569973 -5.40961 0.6086359,-2.712378 -4.303743 0.6790769,-2.829907 -3.607031 0.8003533,-2.926732 -3.010036 0.9202603,-2.223011 -5.55583 0.7469619,-2.252067 -4.673362 0.8196167,-2.306673 -4.139574 0.9447694,-2.366829 -3.658404 1.056225,-8.858727 -9.117188 0.1453898,-8.203698 -8.773855 0.2802579,-7.702571 -7.990784 0.4000382,-7.398909 -7.264635 0.5867271,-7.077462 -6.837659 0.7879879,-8.043228 -6.343393 0.1524176,-7.89647 -5.247753 0.27295,-7.809284 -4.59929 0.413396,-7.734131 -4.038467 0.5154051,-8.365202 -6.138004 0.279689,-8.233477 -4.856554 0.3532571,-8.139359 -4.091279 0.5341686,-8.063817 -3.425153 0.6590403,-8.686644 -6.185267 0.4470237,-8.598759 -4.988865 0.5627196,-8.521572 -4.262163 0.7394947,-8.440303 -3.634888 0.8572271,-9.03004 -6.448642 0.6226357,-9.060541 -5.534965 0.7890822,-9.058685 -4.970008 0.9153683,-9.034614 -4.444108 0.9914623,6.810,
-2.320961 -8.150208 0.5361878,-2.958794 -7.84174 0.7615771,-3.513779 -7.236001 0.8755506,-3.871588 -6.561746 1.022318,-4.119555 -5.952857 1.187488,-3.20664 -5.692175 0.5051873,-3.458169 -4.705955 0.5770616,-3.579746 -4.120856 0.6378107,-3.656923 -3.596186 0.7032251,-2.895394 -5.442344 0.5426899,-3.109781 -4.289529 0.6018343,-3.22691 -3.575429 0.7181121,-3.297209 -2.969423 0.8211204,-2.578772 -5.406669 0.6492943,-2.723495 -4.297876 0.740549,-2.845144 -3.600157 0.8776708,-2.943392 -3.002845 1.001887,-2.224884 -5.559066 0.7920076,-2.256459 -4.675348 0.8875396,-2.314888 -4.134502 1.025378,-2.378431 -3.647855 1.140648,-8.846834 -9.104528 0.09389011,-8.183755 -8.76623 0.2306352,-7.679993 -7.988821 0.3487203,-7.379369 -7.267694 0.5313125,-7.061958 -6.84053 0.7265654,-8.022429 -6.344591 0.128887,-7.874459 -5.228094 0.2627882,-7.78679 -4.57246 0.402898,-7.711461 -4.005324 0.4998836,-8.344114 -6.143278 0.2570724,-8.217899 -4.855775 0.3437742,-8.125982 -4.087521 0.5335532,-8.05375 -3.415683 0.6634595,-8.666265 -6.190958 0.4242829,-8.583293 -4.997516 0.5507503,-8.510253 -4.279886 0.7322816,-8.432922 -3.657889 0.8577238,-9.011433 -6.45019 0.5988843,-9.039757 -5.540422 0.7698525,-9.03492 -4.98236 0.9008826,-9.006315 -4.464773 0.9818748,6.910,
-2.330476 -8.148657 0.5169427,-2.975136 -7.827453 0.7292489,-3.52702 -7.227842 0.8320625,-3.879622 -6.556736 0.9662307,-4.120947 -5.952796 1.110769,-3.20659 -5.691448 0.4563131,-3.462314 -4.705614 0.5151837,-3.585224 -4.117977 0.5722398,-3.663985 -3.594653 0.6362919,-2.895387 -5.444547 0.4928789,-3.112191 -4.293518 0.5362411,-3.229396 -3.580865 0.639998,-3.299263 -2.973799 0.7396755,-2.57998 -5.405549 0.5993474,-2.72363 -4.300518 0.6725167,-2.843431 -3.60815 0.7960536,-2.939844 -3.014378 0.911564,-2.228934 -5.550073 0.7432387,-2.256621 -4.667814 0.8239585,-2.311891 -4.132274 0.9491534,-2.372621 -3.646898 1.058406,-8.845565 -9.103771 0.1014991,-8.179303 -8.778002 0.2482114,-7.674881 -7.997869 0.3709286,-7.373688 -7.266077 0.55711,-7.056013 -6.833585 0.7563049,-8.02182 -6.343038 0.1167248,-7.870193 -5.233867 0.2402025,-7.780183 -4.576001 0.3800584,-7.702753 -4.010463 0.4783948,-8.348598 -6.137762 0.232822,-8.219107 -4.842714 0.3071174,-8.126183 -4.068382 0.488091,-8.052188 -3.399468 0.6121601,-8.673097 -6.181252 0.3907834,-8.583459 -4.979942 0.5026088,-8.507055 -4.25745 0.6747498,-8.425749 -3.635631 0.7919141,-9.017982 -6.436958 0.5573494,-9.041162 -5.517107 0.7216721,-9.036395 -4.949222 0.848823,-9.008768 -4.419311 0.9265855,7.010,
-2.342191 -8.129438 0.4752129,-2.983794 -7.815897 0.6814685,-3.53497 -7.224087 0.7865348,-3.893003 -6.558464 0.9253402,-4.142593 -5.95903 1.075927,-3.213479 -5.682413 0.4197254,-3.46887 -4.696294 0.4847079,-3.591764 -4.116178 0.5387269,-3.670694 -3.59893 0.5968734,-2.906308 -5.437238 0.4610698,-3.122737 -4.285829 0.5120207,-3.237715 -3.568588 0.6193721,-3.30644 -2.959203 0.7181095,-2.593792 -5.402815 0.5704268,-2.736196 -4.296165 0.6543611,-2.854186 -3.598897 0.7825345,-2.949758 -3.00416 0.900085,-2.24485 -5.553729 0.7144302,-2.273737 -4.677728 0.8024615,-2.331452 -4.139768 0.9347438,-2.39492 -3.656852 1.041049,-8.847371 -9.108109 0.1115505,-8.18156 -8.776243 0.2518219,-7.67662 -8.005962 0.3737963,-7.375396 -7.286693 0.5621907,-7.056875 -6.846406 0.7654978,-8.007934 -6.350894 0.1319807,-7.843399 -5.251125 0.2639802,-7.747021 -4.603057 0.4083634,-7.666818 -4.045352 0.5044427,-8.331088 -6.143109 0.2562722,-8.19682 -4.855796 0.3311026,-8.10361 -4.079624 0.5153804,-8.029856 -3.400611 0.639957,-8.654256 -6.184996 0.4205978,-8.565875 -4.992345 0.5341991,-8.491988 -4.264829 0.7130781,-8.411542 -3.6354 0.8383565,-9.001114 -6.438035 0.59448,-9.028166 -5.528085 0.7561152,-9.024651 -4.966625 0.8840274,-8.995212 -4.442348 0.9649325,7.110,
-2.330532 -8.152996 0.5386124,-2.97111 -7.854599 0.7565024,-3.52597 -7.239471 0.8527205,-3.880864 -6.56484 0.9850028,-4.138655 -5.965381 1.134208,-3.220081 -5.695877 0.4629583,-3.471407 -4.714432 0.5170122,-3.594512 -4.131629 0.5673524,-3.672794 -3.6092 0.6294721,-2.910712 -5.445953 0.4972422,-3.123537 -4.307773 0.5303876,-3.241871 -3.595238 0.6285564,-3.31128 -2.991323 0.7223338,-2.594756 -5.409747 0.6035938,-2.735254 -4.311756 0.6749479,-2.855048 -3.617416 0.7994943,-2.950573 -3.026147 0.9168606,-2.241583 -5.560775 0.747708,-2.274648 -4.685147 0.8319983,-2.334469 -4.146813 0.9619196,-2.397777 -3.664917 1.073175,-8.841605 -9.11235 0.1635267,-8.184686 -8.78747 0.3216581,-7.683595 -8.02014 0.4544316,-7.38375 -7.297487 0.6507869,-7.06734 -6.860326 0.8627417,-8.017648 -6.340683 0.2073953,-7.849657 -5.248475 0.3395786,-7.755599 -4.60775 0.4868011,-7.679522 -4.054052 0.5861549,-8.340525 -6.130298 0.3211183,-8.205648 -4.848756 0.3993047,-8.114463 -4.083043 0.5845735,-8.044208 -3.412128 0.7133211,-8.6627 -6.175823 0.4774261,-8.580091 -4.993255 0.5900208,-8.509543 -4.273159 0.7653537,-8.43341 -3.647059 0.8898447,-9.007166 -6.436133 0.6435248,-9.037218 -5.536157 0.7996544,-9.033703 -4.979208 0.9234386,-9.003949 -4.457938 1.002727,7.210,
-2.337423 -8.185335 0.4996915,-2.983366 -7.878839 0.7141237,-3.533985 -7.260013 0.815836,-3.883108 -6.584447 0.9528974,-4.131184 -5.979179 1.108234,-3.22036 -5.737432 0.4629435,-3.478878 -4.74003 0.5290576,-3.607044 -4.148473 0.587484,-3.68808 -3.629977 0.6509337,-2.908953 -5.487532 0.5003456,-3.122128 -4.321043 0.5562898,-3.240088 -3.590988 0.6621802,-3.308033 -2.975791 0.7578185,-2.592007 -5.450654 0.609,-2.73353 -4.327905 0.6971779,-2.853556 -3.613315 0.8269802,-2.94845 -3.001625 0.9489009,-2.238634 -5.600774 0.7515049,-2.273422 -4.708108 0.8396379,-2.333102 -4.163955 0.9710379,-2.396347 -3.673191 1.08212,-8.860555 -9.142403 0.1834584,-8.207759 -8.801395 0.3370498,-7.702764 -8.032833 0.4712403,-7.39906 -7.308893 0.6702108,-7.080994 -6.86527 0.8796177,-8.038815 -6.362638 0.2324034,-7.882404 -5.258636 0.3753836,-7.792236 -4.603111 0.5292541,-7.713581 -4.029724 0.6369905,-8.36391 -6.154804 0.3581836,-8.234485 -4.867511 0.4495024,-8.143365 -4.101923 0.6433792,-8.068621 -3.429785 0.7779484,-8.687522 -6.204826 0.5269173,-8.601886 -5.010412 0.6548483,-8.530009 -4.287298 0.8440396,-8.44881 -3.656366 0.9755237,-9.03305 -6.470431 0.7026109,-9.060593 -5.561189 0.8790601,-9.05585 -4.999311 1.01789,-9.025055 -4.475005 1.105209,7.310,
-2.337941 -8.175278 0.5139723,-2.986513 -7.862661 0.7181483,-3.538679 -7.245425 0.8145095,-3.890628 -6.567903 0.9462978,-4.139456 -5.959819 1.091196,-3.224829 -5.719762 0.4460006,-3.477422 -4.726144 0.4919749,-3.599725 -4.138521 0.5338691,-3.676807 -3.624409 0.5850289,-2.913484 -5.474349 0.4813866,-3.125731 -4.31627 0.5114236,-3.238987 -3.595828 0.602169,-3.304632 -2.988512 0.6879234,-2.596434 -5.434569 0.5862547,-2.737761 -4.321205 0.6532328,-2.853897 -3.621429 0.7689904,-2.948038 -3.021393 0.8780249,-2.243996 -5.575037 0.7269667,-2.27666 -4.686787 0.7975512,-2.331139 -4.14936 0.9155725,-2.389178 -3.663542 1.016997,-8.863361 -9.141001 0.1413178,-8.195232 -8.789177 0.2897403,-7.689749 -8.016499 0.4179414,-7.386063 -7.292345 0.6068748,-7.073581 -6.846063 0.805131,-8.035573 -6.364299 0.176661,-7.873714 -5.260673 0.3159083,-7.775537 -4.62008 0.4667777,-7.689406 -4.06393 0.5664504,-8.364923 -6.164729 0.2938168,-8.235625 -4.869879 0.3800864,-8.143674 -4.112052 0.5648459,-8.069248 -3.444888 0.6879336,-8.688498 -6.215753 0.4519243,-8.601344 -5.009537 0.5691606,-8.530159 -4.299776 0.7387225,-8.452477 -3.681766 0.8531801,-9.029874 -6.477424 0.6193417,-9.055354 -5.566617 0.773591,-9.052473 -5.006485 0.8928242,-9.027777 -4.480144 0.9642049,7.410,
-2.366313 -8.158215 0.4594156,-3.013595 -7.835704 0.6735092,-3.56041 -7.23382 0.7796378,-3.907129 -6.559206 0.9209373,-4.155331 -5.939369 1.078546,-3.237253 -5.710835 0.4124815,-3.491974 -4.713341 0.4810035,-3.616278 -4.122819 0.5419166,-3.69693 -3.603782 0.604986,-2.926882 -5.469881 0.4536059,-3.135518 -4.306283 0.5121396,-3.249237 -3.581996 0.6209278,-3.316536 -2.965613 0.7191497,-2.610539 -5.434598 0.5649424,-2.750532 -4.321477 0.6547581,-2.869843 -3.61518 0.7885718,-2.96351 -3.00808 0.9103925,-2.257462 -5.580649 0.71146,-2.294455 -4.689952 0.8051532,-2.354967 -4.14816 0.9413351,-2.417064 -3.659342 1.053823,-8.867032 -9.120424 0.1422161,-8.20381 -8.776402 0.2719453,-7.701093 -8.005039 0.3980699,-7.398212 -7.282217 0.5907976,-7.076284 -6.843219 0.8019516,-8.039436 -6.345369 0.1689243,-7.877604 -5.22805 0.2961533,-7.779845 -4.586526 0.4341202,-7.695632 -4.035495 0.5295091,-8.369459 -6.144102 0.3020064,-8.237556 -4.845813 0.3779096,-8.144579 -4.0942 0.5539933,-8.070469 -3.439167 0.6735157,-8.695045 -6.196729 0.4717726,-8.606829 -4.99073 0.5889912,-8.532328 -4.273719 0.7622675,-8.450171 -3.650979 0.8802965,-9.040391 -6.462898 0.6490807,-9.066895 -5.54178 0.812387,-9.060141 -4.979841 0.9378629,-9.028667 -4.458721 1.015527,7.510,
-2.355657 -8.155451 0.5022238,-3.003868 -7.85918 0.714206,-3.556273 -7.246381 0.8195586,-3.908308 -6.574424 0.9646681,-4.161975 -5.960595 1.132455,-3.238173 -5.70634 0.4407938,-3.495596 -4.717861 0.5048378,-3.623741 -4.128471 0.5596381,-3.70466 -3.608465 0.6170287,-2.927939 -5.45712 0.485746,-3.142673 -4.30396 0.5356753,-3.262879 -3.58106 0.6398395,-3.331161 -2.967398 0.7334997,-2.61078 -5.419139 0.6033567,-2.749904 -4.308675 0.688603,-2.870503 -3.599118 0.8212873,-2.96446 -2.988403 0.9446028,-2.257951 -5.566591 0.7551904,-2.293839 -4.681597 0.8457755,-2.35755 -4.142293 0.9813112,-2.422548 -3.656568 1.094283,-8.871976 -9.12133 0.1305348,-8.204817 -8.802572 0.2856193,-7.693857 -8.023983 0.4093087,-7.391595 -7.296299 0.5929275,-7.077669 -6.861572 0.7896662,-8.031292 -6.36049 0.1838414,-7.868763 -5.255473 0.3217086,-7.776122 -4.611999 0.467903,-7.695577 -4.055752 0.570461,-8.359 -6.151502 0.2996547,-8.22412 -4.850063 0.3841434,-8.135058 -4.086542 0.5652307,-8.061995 -3.415572 0.6917145,-8.684692 -6.196472 0.4560406,-8.59411 -4.990762 0.5728148,-8.522117 -4.277984 0.7444646,-8.441987 -3.657971 0.8688576,-9.031311 -6.457249 0.6224797,-9.058313 -5.554151 0.7785786,-9.057786 -5.000343 0.9014972,-9.032051 -4.483853 0.9806457,7.610,
-2.35629 -8.171289 0.5190937,-2.995448 -7.863721 0.747928,-3.54439 -7.247461 0.8555447,-3.896664 -6.561141 0.9917947,-4.148169 -5.946391 1.141292,-3.237041 -5.718233 0.4711241,-3.484806 -4.732546 0.5273096,-3.605799 -4.148946 0.5826416,-3.686763 -3.632402 0.6487526,-2.926678 -5.46766 0.4964436,-3.133396 -4.31977 0.5360312,-3.247295 -3.601717 0.6427395,-3.316811 -2.990018 0.7447404,-2.612103 -5.429235 0.5912417,-2.746997 -4.328346 0.6657815,-2.86467 -3.632746 0.796962,-2.960474 -3.036684 0.918833,-2.262963 -5.57337 0.7240128,-2.291546 -4.696273 0.8077595,-2.350081 -4.161174 0.9421492,-2.413787 -3.68118 1.056284,-8.870622 -9.128998 0.169626,-8.210573 -8.796366 0.3240468,-7.704535 -8.031858 0.4606035,-7.403707 -7.307684 0.6608045,-7.083758 -6.863573 0.8714998,-8.033151 -6.3504 0.2316693,-7.876656 -5.240463 0.3695732,-7.783462 -4.596694 0.5154276,-7.702185 -4.039924 0.6157526,-8.360742 -6.148012 0.3506989,-8.23379 -4.860136 0.4373402,-8.143236 -4.107454 0.6235038,-8.069988 -3.447673 0.751562,-8.685414 -6.200199 0.5103513,-8.602057 -5.004785 0.6301763,-8.52989 -4.295347 0.8056058,-8.448297 -3.677818 0.9258626,-9.031232 -6.463718 0.6788419,-9.057531 -5.554157 0.8382415,-9.052476 -4.997056 0.9622316,-9.021202 -4.472745 1.040097,7.710,
-2.356632 -8.189438 0.5712237,-3.001859 -7.878316 0.809671,-3.550289 -7.252228 0.9201478,-3.898817 -6.56608 1.060038,-4.153474 -5.947942 1.218253,-3.226792 -5.712398 0.5370336,-3.482372 -4.718322 0.5923399,-3.610473 -4.12703 0.6437064,-3.692348 -3.60535 0.7047684,-2.914381 -5.467882 0.5614573,-3.121861 -4.31992 0.5985398,-3.238331 -3.595918 0.6980965,-3.301389 -2.982977 0.7918133,-2.598311 -5.43597 0.6575547,-2.731404 -4.331188 0.7280174,-2.851687 -3.627812 0.8587816,-2.942766 -3.024774 0.9811525,-2.248199 -5.59 0.7932956,-2.280087 -4.711255 0.8751081,-2.341913 -4.171686 1.010725,-2.403985 -3.688048 1.122672,-8.883339 -9.120012 0.1373999,-8.211511 -8.790554 0.2879797,-7.704415 -8.020809 0.4139362,-7.403183 -7.295803 0.6056982,-7.080521 -6.850026 0.8093482,-8.036559 -6.356343 0.1787147,-7.870032 -5.248949 0.3146667,-7.774731 -4.60893 0.4625315,-7.692977 -4.056945 0.5634862,-8.362114 -6.149302 0.3001795,-8.228301 -4.855836 0.3829724,-8.138538 -4.094779 0.5699834,-8.065576 -3.428388 0.7004341,-8.686258 -6.197195 0.4633807,-8.599988 -4.998636 0.5842479,-8.531631 -4.286972 0.7603199,-8.453237 -3.666152 0.8852959,-9.032304 -6.458341 0.6356365,-9.056279 -5.554945 0.8015907,-9.051189 -5.000606 0.927778,-9.019838 -4.483591 1.005955,7.810,
-2.34279 -8.173908 0.5129094,-2.982074 -7.863241 0.7515693,-3.532253 -7.249206 0.8698813,-3.883345 -6.570729 1.019225,-4.141403 -5.954982 1.189826,-3.232386 -5.71739 0.4938405,-3.485298 -4.72536 0.5702928,-3.60446 -4.132625 0.6369714,-3.676454 -3.606437 0.7087052,-2.920577 -5.473592 0.5262299,-3.128311 -4.315368 0.5828522,-3.238789 -3.593303 0.6941239,-3.297661 -2.975295 0.8003646,-2.602019 -5.439294 0.6293657,-2.738097 -4.329172 0.7172971,-2.854323 -3.629691 0.8563218,-2.942944 -3.026476 0.9844934,-2.248329 -5.589045 0.7708352,-2.276019 -4.708356 0.8672458,-2.331664 -4.17017 1.00805,-2.387896 -3.682733 1.127133,-8.889959 -9.129255 0.1372265,-8.218328 -8.794039 0.2893507,-7.703495 -8.022305 0.4162424,-7.393233 -7.295373 0.6044012,-7.07627 -6.857089 0.8065617,-8.039527 -6.370938 0.1753075,-7.868676 -5.281717 0.3128453,-7.768454 -4.656528 0.4676754,-7.680873 -4.116964 0.5742934,-8.370517 -6.15772 0.2890985,-8.22926 -4.870306 0.3726324,-8.135047 -4.118345 0.5591198,-8.058596 -3.453623 0.6907828,-8.696801 -6.199404 0.4452828,-8.602642 -5.004061 0.5636092,-8.530188 -4.292442 0.7335436,-8.452607 -3.672386 0.8524027,-9.042586 -6.453626 0.6099373,-9.063848 -5.545167 0.7669707,-9.057931 -4.97966 0.8868252,-9.030706 -4.450398 0.9631789,7.910,
-2.338737 -8.166027 0.507525,-2.984199 -7.844559 0.711712,-3.530156 -7.228149 0.8103063,-3.878378 -6.554185 0.9439478,-4.12556 -5.950188 1.098652,-3.223772 -5.712102 0.4479114,-3.476089 -4.723133 0.5108612,-3.599821 -4.135777 0.566602,-3.678205 -3.615667 0.6311459,-2.911509 -5.46625 0.4908191,-3.117493 -4.316232 0.5386739,-3.2323 -3.599937 0.6418952,-3.298453 -2.989483 0.7385961,-2.59513 -5.427822 0.6038768,-2.733901 -4.322598 0.6823074,-2.85428 -3.6268 0.8109528,-2.948916 -3.030042 0.9315466,-2.245974 -5.572048 0.7528962,-2.272809 -4.690315 0.8404483,-2.329331 -4.150575 0.971016,-2.389874 -3.663187 1.082966,-8.878202 -9.12743 0.1333651,-8.212042 -8.796455 0.2946768,-7.704108 -8.030991 0.4289512,-7.39889 -7.303139 0.6222037,-7.078578 -6.876428 0.8339864,-8.035511 -6.372689 0.1973152,-7.858907 -5.292444 0.3396347,-7.758219 -4.664207 0.498047,-7.674634 -4.115768 0.6100138,-8.364377 -6.157302 0.3086615,-8.216818 -4.867994 0.3977829,-8.119804 -4.102766 0.5920322,-8.041135 -3.431013 0.7286483,-8.69115 -6.198031 0.4612112,-8.596652 -5.00431 0.5782003,-8.524387 -4.286596 0.7501822,-8.445671 -3.662036 0.873187,-9.039463 -6.453229 0.6247691,-9.062232 -5.543433 0.7821972,-9.056574 -4.983661 0.9039325,-9.027275 -4.466128 0.9799987,8.010,
-2.351925 -8.161585 0.4959698,-2.998312 -7.853261 0.690919,-3.543489 -7.233345 0.7839242,-3.886908 -6.557971 0.9154307,-4.13539 -5.954916 1.062462,-3.22245 -5.704052 0.4099731,-3.478152 -4.718264 0.4704573,-3.605841 -4.133087 0.5200804,-3.688896 -3.617275 0.5754508,-2.913812 -5.463086 0.4606967,-3.121249 -4.304473 0.5153269,-3.237431 -3.580539 0.6232468,-3.306211 -2.961813 0.7252327,-2.600535 -5.432334 0.5837572,-2.739258 -4.316345 0.6755588,-2.857039 -3.603261 0.81528,-2.951939 -2.988654 0.946044,-2.252399 -5.591197 0.7393304,-2.277761 -4.702152 0.8337811,-2.334952 -4.159191 0.9754422,-2.396332 -3.670577 1.097461,-8.869805 -9.143057 0.1615325,-8.215815 -8.797174 0.3092434,-7.713293 -8.024788 0.4456427,-7.403541 -7.295099 0.6426445,-7.083471 -6.851125 0.8571432,-8.0523 -6.367111 0.2207208,-7.878465 -5.256274 0.353586,-7.781033 -4.611007 0.5030472,-7.700788 -4.053558 0.6060979,-8.381941 -6.160343 0.3353953,-8.23807 -4.855232 0.4199814,-8.138564 -4.08466 0.6073787,-8.061626 -3.408247 0.7366559,-8.707826 -6.207794 0.4878671,-8.617023 -4.995599 0.6031573,-8.541105 -4.271032 0.77694,-8.461796 -3.63723 0.8996649,-9.052881 -6.46768 0.6487831,-9.075966 -5.546111 0.8130769,-9.066994 -4.978076 0.9434748,-9.036617 -4.447217 1.026679,8.110,
-2.355606 -8.174919 0.5087124,-3.006321 -7.890573 0.73027,-3.554554 -7.256686 0.8198529,-3.889937 -6.561213 0.942121,-4.136101 -5.950424 1.082523,-3.232343 -5.719787 0.4468727,-3.490104 -4.724552 0.5107768,-3.619243 -4.127132 0.5711315,-3.701147 -3.596112 0.6400871,-2.92088 -5.473309 0.4790374,-3.125751 -4.316772 0.5308768,-3.240432 -3.582702 0.6475,-3.305433 -2.954209 0.75798,-2.60639 -5.442816 0.5838729,-2.739717 -4.337824 0.667695,-2.855675 -3.629231 0.8127027,-2.946807 -3.019872 0.9503036,-2.259747 -5.601102 0.7231907,-2.287386 -4.727026 0.8266934,-2.346354 -4.187946 0.9763321,-2.408108 -3.708348 1.101222,-8.86358 -9.165874 0.1357325,-8.21142 -8.817621 0.2976732,-7.713975 -8.042505 0.4364032,-7.410125 -7.309837 0.6328921,-7.090281 -6.853347 0.8435323,-8.049112 -6.394126 0.2048575,-7.862998 -5.287111 0.3496836,-7.753721 -4.650238 0.5020033,-7.664834 -4.097541 0.6015764,-8.377131 -6.190951 0.3190616,-8.233848 -4.876874 0.4163522,-8.132316 -4.105813 0.6096827,-8.05521 -3.430025 0.7405905,-8.700948 -6.239907 0.4724843,-8.613647 -5.021858 0.5982307,-8.540751 -4.296347 0.7758983,-8.461715 -3.662248 0.9010537,-9.042169 -6.500041 0.6339091,-9.066595 -5.582344 0.8076385,-9.060719 -5.02128 0.9396764,-9.030936 -4.501863 1.019082,8.210,
-2.350862 -8.17873 0.5524503,-2.988621 -7.871046 0.7849877,-3.539164 -7.238719 0.8956406,-3.88766 -6.547018 1.036005,-4.146124 -5.931226 1.193986,-3.231909 -5.719701 0.5307512,-3.480055 -4.730524 0.6031421,-3.598806 -4.143745 0.6649445,-3.675602 -3.616842 0.7300657,-2.91885 -5.464799 0.562751,-3.122788 -4.319797 0.6271375,-3.23652 -3.601878 0.7438846,-3.302283 -2.982625 0.8496218,-2.599335 -5.424324 0.6644422,-2.735469 -4.328393 0.7578354,-2.853467 -3.631752 0.8982272,-2.945586 -3.024033 1.029423,-2.242428 -5.569047 0.8017812,-2.272433 -4.688188 0.9008121,-2.331163 -4.14722 1.041741,-2.391231 -3.656032 1.161048,-8.89117 -9.144693 0.2036445,-8.232539 -8.802336 0.3486021,-7.730736 -8.023796 0.4676886,-7.430287 -7.294757 0.6471546,-7.110723 -6.858439 0.836524,-8.056456 -6.36273 0.2505956,-7.879437 -5.276622 0.387842,-7.773612 -4.648897 0.5393549,-7.683793 -4.102583 0.6420642,-8.386207 -6.152019 0.3677978,-8.251352 -4.862203 0.4452628,-8.15309 -4.11147 0.6297907,-8.074819 -3.455513 0.7539335,-8.711163 -6.200383 0.5265745,-8.627019 -5.009563 0.6376421,-8.557908 -4.30462 0.810331,-8.483409 -3.688737 0.9283559,-9.054012 -6.460621 0.6916118,-9.077657 -5.554535 0.8487464,-9.07076 -5.00342 0.969034,-9.042958 -4.493769 1.039527,8.310,
-2.349949 -8.16856 0.4869795,-2.994623 -7.855352 0.689411,-3.540993 -7.235292 0.7871475,-3.886494 -6.556722 0.9186782,-4.131573 -5.948063 1.065154,-3.216116 -5.716955 0.4501523,-3.473545 -4.708547 0.5149773,-3.602427 -4.11584 0.5691273,-3.687061 -3.591436 0.6302508,-2.90773 -5.471593 0.4910286,-3.116602 -4.302557 0.5461054,-3.23096 -3.574718 0.6526861,-3.298866 -2.956194 0.7505257,-2.594528 -5.437732 0.6011024,-2.73415 -4.317 0.6864382,-2.852393 -3.608123 0.818902,-2.948158 -2.999741 0.9442965,-2.245793 -5.591434 0.7434517,-2.275802 -4.698654 0.8360485,-2.333369 -4.155433 0.9742802,-2.395873 -3.66644 1.090123,-8.908385 -9.132593 0.1339056,-8.244905 -8.794962 0.2903266,-7.742582 -8.020033 0.4271497,-7.438575 -7.294411 0.6241066,-7.117277 -6.855604 0.8376518,-8.073005 -6.373149 0.2072943,-7.894142 -5.275311 0.3584666,-7.7884 -4.646851 0.5214654,-7.701795 -4.101085 0.6323671,-8.402042 -6.162174 0.3275014,-8.25926 -4.855733 0.4237487,-8.158941 -4.09778 0.6167723,-8.079796 -3.431214 0.7491456,-8.727715 -6.209366 0.4879815,-8.636939 -5.001785 0.6149502,-8.563709 -4.287103 0.7950723,-8.485119 -3.658544 0.9191418,-9.072863 -6.469276 0.6567723,-9.098854 -5.549915 0.8267562,-9.091994 -4.997112 0.9550086,-9.063158 -4.488286 1.031739,8.410,
-2.367153 -8.181475 0.5662511,-3.018094 -7.880077 0.7897302,-3.565282 -7.253013 0.8905857,-3.908394 -6.567568 1.030337,-4.157825 -5.951725 1.191254,-3.244684 -5.704823 0.4919257,-3.499823 -4.719954 0.5564298,-3.626352 -4.131838 0.6151621,-3.706697 -3.608875 0.676671,-2.931705 -5.462989 0.5309188,-3.136076 -4.312788 0.5729842,-3.25062 -3.588668 0.6782373,-3.314135 -2.968951 0.7789766,-2.615118 -5.439888 0.6461544,-2.745668 -4.336285 0.7259432,-2.863259 -3.632234 0.8656433,-2.953696 -3.02808 0.9973618,-2.264382 -5.606035 0.7985402,-2.294772 -4.73611 0.8937675,-2.35953 -4.199686 1.039817,-2.424242 -3.71982 1.159046,-8.913176 -9.144236 0.1395826,-8.244969 -8.810297 0.3030059,-7.735736 -8.040335 0.4294198,-7.43333 -7.309221 0.6151894,-7.118751 -6.862728 0.8133481,-8.069119 -6.382014 0.1996858,-7.896054 -5.280112 0.3413893,-7.796232 -4.645595 0.4966157,-7.713547 -4.087846 0.6051096,-8.396162 -6.17274 0.3130264,-8.255933 -4.874599 0.4006262,-8.162176 -4.109145 0.6038194,-8.087403 -3.430498 0.7477633,-8.721374 -6.221485 0.4670964,-8.634109 -5.022214 0.5879911,-8.566217 -4.307003 0.7773716,-8.492851 -3.678831 0.9138871,-9.068791 -6.482441 0.6323545,-9.093041 -5.584733 0.798113,-9.088539 -5.035537 0.9324347,-9.06271 -4.521287 1.019762,8.510,
-2.354611 -8.196074 0.5913594,-2.99526 -7.888702 0.817228,-3.544918 -7.248884 0.9195421,-3.896087 -6.557888 1.054023,-4.14722 -5.941264 1.21063,-3.241866 -5.721771 0.519784,-3.484247 -4.739509 0.5726481,-3.60714 -4.155521 0.6295841,-3.69051 -3.637865 0.6967471,-2.927987 -5.47216 0.5510142,-3.132244 -4.329399 0.5853442,-3.251665 -3.611183 0.6919214,-3.324404 -3.000692 0.7896413,-2.608761 -5.434187 0.6537442,-2.745351 -4.339288 0.7232588,-2.868502 -3.64076 0.8569937,-2.965825 -3.046103 0.9834732,-2.25448 -5.582271 0.7961143,-2.287093 -4.711734 0.880811,-2.349797 -4.171824 1.018735,-2.414924 -3.689228 1.13633,-8.915644 -9.13707 0.1337993,-8.244235 -8.80204 0.2819931,-7.735356 -8.028345 0.407662,-7.4251 -7.301302 0.5931994,-7.106301 -6.86891 0.796075,-8.066018 -6.383607 0.1945015,-7.889984 -5.303673 0.3327793,-7.786084 -4.683187 0.4931923,-7.697001 -4.144964 0.6037705,-8.397201 -6.167629 0.3092639,-8.251128 -4.874055 0.3930751,-8.149146 -4.118667 0.5858968,-8.067244 -3.452604 0.7231478,-8.726109 -6.20936 0.4635725,-8.633529 -5.013137 0.5807323,-8.558842 -4.296649 0.7575094,-8.480373 -3.668417 0.8846497,-9.074358 -6.464572 0.6252505,-9.09762 -5.555437 0.7835841,-9.088436 -4.989055 0.9077493,-9.057726 -4.463211 0.9894495,8.610,
-2.348401 -8.161352 0.4839398,-2.994716 -7.833404 0.6751909,-3.532935 -7.206993 0.7632409,-3.873324 -6.52082 0.8849015,-4.11466 -5.911046 1.022919,-3.213184 -5.70767 0.4108338,-3.46442 -4.714162 0.456836,-3.588707 -4.123781 0.5022802,-3.668889 -3.605516 0.5555613,-2.900567 -5.464321 0.4517706,-3.104414 -4.304195 0.4850019,-3.217968 -3.583305 0.5797749,-3.283405 -2.970506 0.6670669,-2.584806 -5.426222 0.5612505,-2.721159 -4.317106 0.630289,-2.839633 -3.61792 0.7531205,-2.934507 -3.016633 0.8693673,-2.234126 -5.57264 0.7056025,-2.265785 -4.689605 0.7848785,-2.323385 -4.151025 0.9149173,-2.385748 -3.663136 1.027486,-8.91678 -9.136013 0.1748012,-8.249865 -8.793615 0.3340925,-7.740829 -8.023687 0.4696408,-7.434227 -7.299093 0.6642863,-7.112421 -6.863336 0.8778,-8.069568 -6.366427 0.2537453,-7.899563 -5.274834 0.3988343,-7.802554 -4.647941 0.5565597,-7.719982 -4.102838 0.6641383,-8.399904 -6.155866 0.3736776,-8.255424 -4.867502 0.4684367,-8.156537 -4.116168 0.6668379,-8.075108 -3.451265 0.8062487,-8.727008 -6.204196 0.5325824,-8.635003 -5.007705 0.6632227,-8.56236 -4.286546 0.8547924,-8.483086 -3.65737 0.9903219,-9.075975 -6.468186 0.6991166,-9.096814 -5.563495 0.8716349,-9.089272 -5.007267 1.004555,-9.058519 -4.491179 1.092324,8.710,
