TiagoOliveira98/HandTracking/DataLogging/JointData/Logs(1642649560)_TOO_Calculator.csv
WRIST,THUMB_CMC,THUMB_MCP,THUMB_IP,THUMB_TIP,INDEX_FINGER_MCP,INDEX_FINGER_PIP,INDEX_FINGER_DIP,INDEX_FINGER_TIP,MIDDLE_FINGER_MCP,MIDDLE_FINGER_PIP,MIDDLE_FINGER_DIP,MIDDLE_FINGER_TIP,RING_FINGER_MCP,RING_FINGER_PIP,RING_FINGER_DIP,RING_FINGER_TIP,PINKY_MCP,PINKY_PIP,PINKY_DIP,PINKY_TIP,WRIST2,THUMB_CMC2,THUMB_MCP2,THUMB_IP2,THUMB_TIP2,INDEX_FINGER_MCP2,INDEX_FINGER_PIP2,INDEX_FINGER_DIP2,INDEX_FINGER_TIP2,MIDDLE_FINGER_MCP2,MIDDLE_FINGER_PIP2,MIDDLE_FINGER_DIP2,MIDDLE_FINGER_TIP2,RING_FINGER_MCP2,RING_FINGER_PIP2,RING_FINGER_DIP2,RING_FINGER_TIP2,PINKY_MCP2,PINKY_PIP2,PINKY_DIP2,PINKY_TIP2,Timestamp,Event
2 0 -7.258568,2 0 -7.258568,2 0 -7.258568,2 0 -7.258568,2 0 -7.258568,2 0 -7.258568,2 0 -7.258568,2 0 -7.258568,2 0 -7.258568,2 0 -7.258568,2 0 -7.258568,2 0 -7.258568,2 0 -7.258568,2 0 -7.258568,2 0 -7.258568,2 0 -7.258568,2 0 -7.258568,2 0 -7.258568,2 0 -7.258568,2 0 -7.258568,2 0 -7.258568,2 0 -9.001208,2 0 -9.001208,2 0 -9.001208,2 0 -9.001208,2 0 -9.001208,2 0 -9.001208,2 0 -9.001208,2 0 -9.001208,2 0 -9.001208,2 0 -9.001208,2 0 -9.001208,2 0 -9.001208,2 0 -9.001208,2 0 -9.001208,2 0 -9.001208,2 0 -9.001208,2 0 -9.001208,2 0 -9.001208,2 0 -9.001208,2 0 -9.001208,2 0 -9.001208,0.010,
2 0 -7.258568,2 0 -7.258568,2 0 -7.258568,2 0 -7.258568,2 0 -7.258568,2 0 -7.258568,2 0 -7.258568,2 0 -7.258568,2 0 -7.258568,2 0 -7.258568,2 0 -7.258568,2 0 -7.258568,2 0 -7.258568,2 0 -7.258568,2 0 -7.258568,2 0 -7.258568,2 0 -7.258568,2 0 -7.258568,2 0 -7.258568,2 0 -7.258568,2 0 -7.258568,2 0 -9.001208,2 0 -9.001208,2 0 -9.001208,2 0 -9.001208,2 0 -9.001208,2 0 -9.001208,2 0 -9.001208,2 0 -9.001208,2 0 -9.001208,2 0 -9.001208,2 0 -9.001208,2 0 -9.001208,2 0 -9.001208,2 0 -9.001208,2 0 -9.001208,2 0 -9.001208,2 0 -9.001208,2 0 -9.001208,2 0 -9.001208,2 0 -9.001208,2 0 -9.001208,0.110,
2 0 -7.258568,2 0 -7.258568,2 0 -7.258568,2 0 -7.258568,2 0 -7.258568,2 0 -7.258568,2 0 -7.258568,2 0 -7.258568,2 0 -7.258568,2 0 -7.258568,2 0 -7.258568,2 0 -7.258568,2 0 -7.258568,2 0 -7.258568,2 0 -7.258568,2 0 -7.258568,2 0 -7.258568,2 0 -7.258568,2 0 -7.258568,2 0 -7.258568,2 0 -7.258568,2 0 -9.001208,2 0 -9.001208,2 0 -9.001208,2 0 -9.001208,2 0 -9.001208,2 0 -9.001208,2 0 -9.001208,2 0 -9.001208,2 0 -9.001208,2 0 -9.001208,2 0 -9.001208,2 0 -9.001208,2 0 -9.001208,2 0 -9.001208,2 0 -9.001208,2 0 -9.001208,2 0 -9.001208,2 0 -9.001208,2 0 -9.001208,2 0 -9.001208,2 0 -9.001208,0.210,
2 0 -7.258568,2 0 -7.258568,2 0 -7.258568,2 0 -7.258568,2 0 -7.258568,2 0 -7.258568,2 0 -7.258568,2 0 -7.258568,2 0 -7.258568,2 0 -7.258568,2 0 -7.258568,2 0 -7.258568,2 0 -7.258568,2 0 -7.258568,2 0 -7.258568,2 0 -7.258568,2 0 -7.258568,2 0 -7.258568,2 0 -7.258568,2 0 -7.258568,2 0 -7.258568,2 0 -9.001208,2 0 -9.001208,2 0 -9.001208,2 0 -9.001208,2 0 -9.001208,2 0 -9.001208,2 0 -9.001208,2 0 -9.001208,2 0 -9.001208,2 0 -9.001208,2 0 -9.001208,2 0 -9.001208,2 0 -9.001208,2 0 -9.001208,2 0 -9.001208,2 0 -9.001208,2 0 -9.001208,2 0 -9.001208,2 0 -9.001208,2 0 -9.001208,2 0 -9.001208,0.310,
2 0 -7.258568,2 0 -7.258568,2 0 -7.258568,2 0 -7.258568,2 0 -7.258568,2 0 -7.258568,2 0 -7.258568,2 0 -7.258568,2 0 -7.258568,2 0 -7.258568,2 0 -7.258568,2 0 -7.258568,2 0 -7.258568,2 0 -7.258568,2 0 -7.258568,2 0 -7.258568,2 0 -7.258568,2 0 -7.258568,2 0 -7.258568,2 0 -7.258568,2 0 -7.258568,2 0 -9.001208,2 0 -9.001208,2 0 -9.001208,2 0 -9.001208,2 0 -9.001208,2 0 -9.001208,2 0 -9.001208,2 0 -9.001208,2 0 -9.001208,2 0 -9.001208,2 0 -9.001208,2 0 -9.001208,2 0 -9.001208,2 0 -9.001208,2 0 -9.001208,2 0 -9.001208,2 0 -9.001208,2 0 -9.001208,2 0 -9.001208,2 0 -9.001208,2 0 -9.001208,0.410,
2 0 -7.258568,2 0 -7.258568,2 0 -7.258568,2 0 -7.258568,2 0 -7.258568,2 0 -7.258568,2 0 -7.258568,2 0 -7.258568,2 0 -7.258568,2 0 -7.258568,2 0 -7.258568,2 0 -7.258568,2 0 -7.258568,2 0 -7.258568,2 0 -7.258568,2 0 -7.258568,2 0 -7.258568,2 0 -7.258568,2 0 -7.258568,2 0 -7.258568,2 0 -7.258568,2 0 -9.001208,2 0 -9.001208,2 0 -9.001208,2 0 -9.001208,2 0 -9.001208,2 0 -9.001208,2 0 -9.001208,2 0 -9.001208,2 0 -9.001208,2 0 -9.001208,2 0 -9.001208,2 0 -9.001208,2 0 -9.001208,2 0 -9.001208,2 0 -9.001208,2 0 -9.001208,2 0 -9.001208,2 0 -9.001208,2 0 -9.001208,2 0 -9.001208,2 0 -9.001208,0.510,
2 0 -7.258568,2 0 -7.258568,2 0 -7.258568,2 0 -7.258568,2 0 -7.258568,2 0 -7.258568,2 0 -7.258568,2 0 -7.258568,2 0 -7.258568,2 0 -7.258568,2 0 -7.258568,2 0 -7.258568,2 0 -7.258568,2 0 -7.258568,2 0 -7.258568,2 0 -7.258568,2 0 -7.258568,2 0 -7.258568,2 0 -7.258568,2 0 -7.258568,2 0 -7.258568,2 0 -9.001208,2 0 -9.001208,2 0 -9.001208,2 0 -9.001208,2 0 -9.001208,2 0 -9.001208,2 0 -9.001208,2 0 -9.001208,2 0 -9.001208,2 0 -9.001208,2 0 -9.001208,2 0 -9.001208,2 0 -9.001208,2 0 -9.001208,2 0 -9.001208,2 0 -9.001208,2 0 -9.001208,2 0 -9.001208,2 0 -9.001208,2 0 -9.001208,2 0 -9.001208,0.610,
-1.209867 -14.24326 0.001164793,-1.579521 -13.48776 -0.3377736,-1.816953 -12.85292 -0.4417538,-1.938052 -12.40184 -0.4798107,-1.990645 -12.07843 -0.4353414,-1.840264 -12.22421 -0.3146458,-2.130067 -11.87148 -0.4537968,-2.130948 -11.95949 -0.4581943,-2.090983 -12.06141 -0.4282052,-1.796117 -12.26273 -0.1881151,-2.067275 -12.11024 -0.4625553,-2.00913 -12.3906 -0.4279888,-1.939413 -12.6802 -0.3064815,-1.758318 -12.44779 -0.1143801,-2.01554 -12.3329 -0.4148849,-1.93606 -12.65826 -0.388883,-1.850732 -12.9776 -0.2765913,-1.721306 -12.70853 -0.04876278,-1.961067 -12.54485 -0.3114203,-1.929938 -12.76088 -0.3519396,-1.877084 -12.98687 -0.3342439,2 0 -9.001208,2 0 -9.001208,2 0 -9.001208,2 0 -9.001208,2 0 -9.001208,2 0 -9.001208,2 0 -9.001208,2 0 -9.001208,2 0 -9.001208,2 0 -9.001208,2 0 -9.001208,2 0 -9.001208,2 0 -9.001208,2 0 -9.001208,2 0 -9.001208,2 0 -9.001208,2 0 -9.001208,2 0 -9.001208,2 0 -9.001208,2 0 -9.001208,2 0 -9.001208,0.710,Right Hand Closed 
-1.209867 -14.24326 0.001164793,-1.579521 -13.48776 -0.3377736,-1.816953 -12.85292 -0.4417538,-1.938052 -12.40184 -0.4798107,-1.990645 -12.07843 -0.4353414,-1.840264 -12.22421 -0.3146458,-2.130067 -11.87148 -0.4537968,-2.130948 -11.95949 -0.4581943,-2.090983 -12.06141 -0.4282052,-1.796117 -12.26273 -0.1881151,-2.067275 -12.11024 -0.4625553,-2.00913 -12.3906 -0.4279888,-1.939413 -12.6802 -0.3064815,-1.758318 -12.44779 -0.1143801,-2.01554 -12.3329 -0.4148849,-1.93606 -12.65826 -0.388883,-1.850732 -12.9776 -0.2765913,-1.721306 -12.70853 -0.04876278,-1.961067 -12.54485 -0.3114203,-1.929938 -12.76088 -0.3519396,-1.877084 -12.98687 -0.3342439,2 0 -9.001208,2 0 -9.001208,2 0 -9.001208,2 0 -9.001208,2 0 -9.001208,2 0 -9.001208,2 0 -9.001208,2 0 -9.001208,2 0 -9.001208,2 0 -9.001208,2 0 -9.001208,2 0 -9.001208,2 0 -9.001208,2 0 -9.001208,2 0 -9.001208,2 0 -9.001208,2 0 -9.001208,2 0 -9.001208,2 0 -9.001208,2 0 -9.001208,2 0 -9.001208,0.810,Right Hand Closed 
-1.209867 -14.24326 0.001164793,-1.579521 -13.48776 -0.3377736,-1.816953 -12.85292 -0.4417538,-1.938052 -12.40184 -0.4798107,-1.990645 -12.07843 -0.4353414,-1.840264 -12.22421 -0.3146458,-2.130067 -11.87148 -0.4537968,-2.130948 -11.95949 -0.4581943,-2.090983 -12.06141 -0.4282052,-1.796117 -12.26273 -0.1881151,-2.067275 -12.11024 -0.4625553,-2.00913 -12.3906 -0.4279888,-1.939413 -12.6802 -0.3064815,-1.758318 -12.44779 -0.1143801,-2.01554 -12.3329 -0.4148849,-1.93606 -12.65826 -0.388883,-1.850732 -12.9776 -0.2765913,-1.721306 -12.70853 -0.04876278,-1.961067 -12.54485 -0.3114203,-1.929938 -12.76088 -0.3519396,-1.877084 -12.98687 -0.3342439,2 0 -9.001208,2 0 -9.001208,2 0 -9.001208,2 0 -9.001208,2 0 -9.001208,2 0 -9.001208,2 0 -9.001208,2 0 -9.001208,2 0 -9.001208,2 0 -9.001208,2 0 -9.001208,2 0 -9.001208,2 0 -9.001208,2 0 -9.001208,2 0 -9.001208,2 0 -9.001208,2 0 -9.001208,2 0 -9.001208,2 0 -9.001208,2 0 -9.001208,2 0 -9.001208,0.910,Right Hand Closed 
-3.828482 -8.255194 2.782063,-4.600266 -8.261604 2.676966,-5.082816 -7.763706 2.602224,-5.453079 -7.146755 2.458423,-5.775074 -6.614414 2.170023,-4.780575 -5.809424 2.825219,-5.137112 -4.399366 2.636322,-5.252235 -3.98582 2.305855,-5.303396 -3.920462 2.016722,-4.399332 -5.444646 2.724853,-4.745783 -3.872313 2.490568,-4.862825 -3.573448 2.036251,-4.933889 -3.60038 1.657541,-4.067257 -5.349302 2.58928,-4.355864 -3.961177 2.298037,-4.518791 -3.656893 1.886993,-4.61019 -3.661568 1.604729,-3.778843 -5.446663 2.427854,-3.948929 -4.359024 2.117962,-4.127466 -4.058252 1.806921,-4.257582 -4.049019 1.565383,2 0 -9.001208,2 0 -9.001208,2 0 -9.001208,2 0 -9.001208,2 0 -9.001208,2 0 -9.001208,2 0 -9.001208,2 0 -9.001208,2 0 -9.001208,2 0 -9.001208,2 0 -9.001208,2 0 -9.001208,2 0 -9.001208,2 0 -9.001208,2 0 -9.001208,2 0 -9.001208,2 0 -9.001208,2 0 -9.001208,2 0 -9.001208,2 0 -9.001208,2 0 -9.001208,1.010,
-4.000064 -8.854168 3.20806,-4.640838 -8.390688 3.142468,-5.077116 -7.611356 3.139492,-5.385492 -6.846498 3.216767,-5.706096 -6.304487 3.289219,-4.698204 -6.058546 3.003276,-4.982838 -4.853905 3.074389,-5.16856 -4.259098 3.119973,-5.306849 -3.801187 3.180035,-4.414579 -5.892728 3.202451,-4.617628 -4.49156 3.306121,-4.800997 -3.7653 3.431272,-4.93321 -3.217454 3.522668,-4.13357 -5.966626 3.436034,-4.224649 -4.603275 3.579105,-4.392426 -3.872805 3.704541,-4.535135 -3.272719 3.810208,-3.845545 -6.250423 3.673213,-3.837612 -5.210152 3.850195,-3.929977 -4.589509 3.981573,-4.038939 -4.022727 4.101679,-9.530165 -9.152916 2.43919,-8.850328 -8.244953 1.931882,-8.438646 -7.344814 1.73212,-8.195096 -6.680283 1.668541,-7.967673 -6.146625 1.525428,-8.43132 -6.206447 1.808778,-8.191298 -4.87814 1.705466,-8.070762 -4.244426 1.731597,-7.951734 -3.698788 1.719356,-8.715621 -6.006555 2.091438,-8.445599 -4.556235 1.965921,-8.320889 -3.85979 1.943813,-8.203635 -3.338521 1.900569,-9.011326 -5.995023 2.351221,-8.827505 -4.697376 2.196006,-8.69505 -4.031709 2.205534,-8.54641 -3.472169 2.20644,-9.358333 -6.146728 2.613092,-9.308619 -5.168527 2.434273,-9.22055 -4.687517 2.31938,-9.086602 -4.31764 2.240596,1.110,
-4.010078 -8.017252 1.961694,-4.659847 -7.760038 1.991213,-5.057913 -7.110625 2.032008,-5.360107 -6.459007 2.115172,-5.659712 -5.956043 2.169909,-4.68217 -5.57428 1.935227,-4.992418 -4.342422 2.033114,-5.159025 -3.811063 2.051009,-5.293363 -3.455055 2.037339,-4.363761 -5.409765 2.081245,-4.615631 -3.969957 2.162445,-4.763685 -3.325124 2.244787,-4.877842 -2.885495 2.301605,-4.057554 -5.498126 2.255922,-4.192506 -4.193731 2.342916,-4.343303 -3.543602 2.435572,-4.478853 -3.066056 2.560914,-3.76203 -5.776493 2.411533,-3.749786 -4.741102 2.530297,-3.836645 -4.166151 2.671999,-3.977943 -3.701694 2.83403,-8.992893 -9.054487 2.525299,-8.223753 -8.457855 2.512823,-7.720547 -7.653856 2.615719,-7.44988 -6.781511 2.798629,-7.216038 -6.087627 3.004181,-8.108723 -5.998401 2.238516,-7.940404 -4.742464 2.294546,-7.848859 -4.030916 2.365069,-7.756675 -3.454101 2.399543,-8.4624 -5.807342 2.385879,-8.292015 -4.380056 2.39849,-8.204702 -3.520229 2.52697,-8.108486 -2.79939 2.603902,-8.807878 -5.846614 2.546617,-8.700811 -4.535491 2.572212,-8.650618 -3.717411 2.677286,-8.55725 -3.039096 2.7533,-9.161015 -6.097399 2.712317,-9.170961 -5.11662 2.784439,-9.13106 -4.512882 2.866312,-9.041569 -4.012455 2.901405,1.210,
-3.946844 -8.340885 2.613835,-4.565504 -7.979564 2.725761,-5.00293 -7.223758 2.786011,-5.291174 -6.467039 2.890647,-5.590101 -5.900374 3.019079,-4.615608 -5.745029 2.538839,-4.852279 -4.671609 2.654323,-5.02582 -4.052161 2.758986,-5.190582 -3.492702 2.862625,-4.341135 -5.548959 2.687431,-4.530827 -4.275243 2.846202,-4.688988 -3.519091 3.055262,-4.825996 -2.824769 3.246039,-4.060947 -5.586483 2.893711,-4.180906 -4.33193 3.059381,-4.327421 -3.599298 3.296658,-4.46909 -2.956365 3.498075,-3.754366 -5.855473 3.112308,-3.785276 -4.866012 3.309224,-3.860388 -4.226715 3.52647,-3.951666 -3.629853 3.71448,-8.889897 -8.952909 2.504305,-8.161699 -8.295992 2.501861,-7.668951 -7.459398 2.637496,-7.409794 -6.6347 2.886096,-7.139149 -5.975461 3.179838,-8.094522 -5.834192 2.222407,-7.95086 -4.643342 2.320818,-7.85538 -3.964021 2.450435,-7.758815 -3.385622 2.532833,-8.422512 -5.699884 2.437255,-8.276196 -4.349461 2.512571,-8.19355 -3.52893 2.697026,-8.098654 -2.797749 2.824075,-8.748023 -5.788982 2.681341,-8.665934 -4.53583 2.764044,-8.621356 -3.731392 2.905541,-8.527657 -3.029754 3.014275,-9.0955 -6.090328 2.936059,-9.122479 -5.105672 3.079808,-9.09491 -4.476396 3.197792,-9.016424 -3.929597 3.266758,1.310,
-3.843706 -8.390177 3.0031,-4.491159 -7.981382 2.976287,-4.947845 -7.206243 2.982155,-5.248283 -6.472591 3.091098,-5.557014 -5.881416 3.261747,-4.522169 -5.686029 2.726435,-4.740619 -4.613185 2.783805,-4.912708 -3.986359 2.851514,-5.07103 -3.413008 2.916313,-4.244013 -5.486879 2.929205,-4.389515 -4.272642 3.050944,-4.54102 -3.518988 3.213102,-4.672456 -2.83728 3.352808,-3.960133 -5.520072 3.188385,-4.043892 -4.312924 3.329643,-4.19598 -3.564041 3.510244,-4.342888 -2.919358 3.670051,-3.653348 -5.77013 3.45564,-3.641436 -4.785341 3.615409,-3.722035 -4.12311 3.787717,-3.826255 -3.513304 3.93171,-8.832351 -8.651171 2.066183,-8.120415 -8.082426 2.096193,-7.644135 -7.26238 2.203948,-7.386593 -6.470661 2.422948,-7.120539 -5.848596 2.65985,-8.057895 -5.659183 1.739484,-7.903655 -4.494152 1.795018,-7.799175 -3.813551 1.904944,-7.70775 -3.243987 1.973595,-8.384108 -5.525018 1.910213,-8.247677 -4.222958 1.919772,-8.160949 -3.440615 2.070846,-8.070481 -2.742227 2.171567,-8.70442 -5.600896 2.122861,-8.626648 -4.370245 2.156418,-8.574944 -3.606135 2.298284,-8.489408 -2.932391 2.401071,-9.040178 -5.864548 2.345082,-9.080034 -4.917145 2.457276,-9.060057 -4.306594 2.580421,-8.998413 -3.752389 2.646742,1.410,
-3.806112 -8.313629 3.04625,-4.450335 -7.901491 3.004672,-4.898253 -7.123594 3.005402,-5.196263 -6.389709 3.110112,-5.502609 -5.826567 3.273121,-4.476538 -5.594982 2.751538,-4.689291 -4.513774 2.808218,-4.853025 -3.877242 2.878516,-5.00466 -3.302043 2.94499,-4.199777 -5.396994 2.969954,-4.340527 -4.155872 3.103428,-4.48532 -3.393556 3.277007,-4.616341 -2.710784 3.422758,-3.918354 -5.433948 3.243995,-3.990488 -4.202001 3.402244,-4.13585 -3.445253 3.5954,-4.282086 -2.791717 3.758752,-3.614576 -5.690385 3.522817,-3.574871 -4.70632 3.695882,-3.638405 -4.040206 3.872391,-3.729481 -3.415789 4.021447,-8.787323 -8.456793 1.623305,-8.114823 -7.975364 1.689212,-7.655653 -7.188278 1.817826,-7.409051 -6.383199 2.043236,-7.133982 -5.768236 2.283918,-8.076092 -5.614435 1.432082,-7.929363 -4.426315 1.542203,-7.830353 -3.726458 1.679206,-7.744675 -3.146379 1.765475,-8.391218 -5.447423 1.591364,-8.243885 -4.118253 1.669585,-8.144731 -3.296745 1.847543,-8.053026 -2.583639 1.962538,-8.709286 -5.504436 1.790178,-8.618318 -4.243598 1.882807,-8.549043 -3.463195 2.022572,-8.454771 -2.799729 2.123786,-9.047216 -5.75414 1.99589,-9.078745 -4.775167 2.165978,-9.060315 -4.160402 2.29488,-8.996019 -3.613721 2.357723,1.510,
-3.828401 -8.305527 3.085002,-4.449671 -7.884408 3.044583,-4.885649 -7.095567 3.053625,-5.179842 -6.372492 3.170129,-5.478593 -5.819326 3.346318,-4.458725 -5.567861 2.810406,-4.664408 -4.481759 2.890063,-4.824428 -3.842411 2.967803,-4.971183 -3.268911 3.032405,-4.184208 -5.372332 3.03812,-4.324652 -4.125265 3.187702,-4.475559 -3.35079 3.378439,-4.616674 -2.666473 3.531775,-3.904745 -5.412936 3.319139,-3.96839 -4.167647 3.484611,-4.116829 -3.399558 3.684926,-4.270903 -2.747846 3.854305,-3.603159 -5.675462 3.608573,-3.557693 -4.673982 3.784294,-3.619376 -3.996482 3.95561,-3.710518 -3.374439 4.104544,-8.78685 -8.39262 1.512517,-8.123194 -7.934099 1.622935,-7.66562 -7.175834 1.769073,-7.429067 -6.437002 2.013335,-7.144584 -5.888933 2.267362,-8.069502 -5.583779 1.376966,-7.923078 -4.417207 1.495978,-7.828329 -3.744653 1.63911,-7.743381 -3.178556 1.728341,-8.387344 -5.415563 1.537351,-8.253526 -4.098621 1.630339,-8.159528 -3.294837 1.817752,-8.072695 -2.590581 1.941117,-8.704414 -5.472089 1.742169,-8.616301 -4.231094 1.855894,-8.547136 -3.464396 2.006905,-8.453657 -2.805906 2.119936,-9.046065 -5.721334 1.961239,-9.073009 -4.750302 2.146193,-9.052284 -4.138477 2.283539,-8.990444 -3.586904 2.361132,1.610,
-3.759144 -8.334431 3.011011,-4.402594 -7.894447 2.963184,-4.839257 -7.111817 2.957515,-5.138908 -6.384245 3.057238,-5.445757 -5.855501 3.20971,-4.421781 -5.621644 2.699691,-4.647795 -4.549795 2.761394,-4.817216 -3.925098 2.820315,-4.973598 -3.365666 2.876699,-4.150722 -5.428073 2.920273,-4.299282 -4.195045 3.059268,-4.450287 -3.428024 3.250771,-4.58859 -2.742117 3.416098,-3.876264 -5.467659 3.198873,-3.951204 -4.232328 3.362611,-4.095824 -3.465167 3.586496,-4.248679 -2.801831 3.779195,-3.579654 -5.722121 3.476902,-3.53558 -4.735788 3.663077,-3.597026 -4.082312 3.847154,-3.688616 -3.486171 4.004404,-8.785604 -8.369743 1.214421,-8.136024 -7.944865 1.367504,-7.687776 -7.241763 1.53415,-7.446151 -6.506921 1.777456,-7.174566 -5.961123 2.02953,-8.092941 -5.650738 1.232075,-7.947742 -4.480701 1.380025,-7.857774 -3.805217 1.539567,-7.775561 -3.219189 1.644168,-8.416431 -5.478906 1.373299,-8.29102 -4.154843 1.516108,-8.198513 -3.343419 1.745922,-8.10622 -2.636251 1.90465,-8.734248 -5.541734 1.553148,-8.655329 -4.302431 1.708086,-8.597095 -3.526785 1.904614,-8.504066 -2.867401 2.053049,-9.07064 -5.804439 1.74187,-9.11989 -4.84972 1.948734,-9.114931 -4.240915 2.1198,-9.055101 -3.689271 2.219631,1.710,
-3.69541 -8.348148 3.031606,-4.341614 -7.929774 2.999368,-4.793796 -7.139572 2.988516,-5.092804 -6.402904 3.078773,-5.403465 -5.849992 3.219181,-4.390533 -5.633055 2.700029,-4.607269 -4.575769 2.759325,-4.777325 -3.949131 2.821943,-4.931649 -3.386599 2.885193,-4.11395 -5.440662 2.912892,-4.258718 -4.222333 3.040061,-4.406689 -3.465585 3.210525,-4.537456 -2.789236 3.360477,-3.831705 -5.473389 3.190219,-3.904352 -4.259681 3.346157,-4.0406 -3.498712 3.552089,-4.178919 -2.837446 3.734068,-3.527233 -5.719182 3.472417,-3.490469 -4.758012 3.651045,-3.553709 -4.103807 3.832905,-3.641995 -3.500144 3.991086,-8.775305 -8.348869 1.154109,-8.141614 -7.926212 1.271215,-7.694683 -7.235601 1.429497,-7.445238 -6.535162 1.676358,-7.173706 -6.008608 1.930672,-8.117194 -5.636465 1.104449,-7.977396 -4.476057 1.246186,-7.883195 -3.805099 1.409331,-7.797591 -3.231467 1.519192,-8.428221 -5.470594 1.268864,-8.297546 -4.165793 1.413034,-8.201354 -3.361244 1.645358,-8.111372 -2.671938 1.799048,-8.740434 -5.5324 1.471655,-8.654983 -4.298021 1.618451,-8.590288 -3.518751 1.792445,-8.498093 -2.855351 1.926045,-9.07267 -5.792148 1.681167,-9.115406 -4.812126 1.885613,-9.1006 -4.189313 2.037065,-9.039987 -3.630225 2.124558,1.810,
-3.556465 -8.395857 2.900033,-4.187876 -7.98875 2.923782,-4.659556 -7.218688 2.950075,-4.957017 -6.498516 3.060518,-5.25021 -5.939777 3.201942,-4.27656 -5.716512 2.657799,-4.486453 -4.643123 2.740345,-4.645595 -4.014873 2.806587,-4.789293 -3.454874 2.870793,-3.992645 -5.527116 2.844088,-4.141043 -4.315952 2.98088,-4.283766 -3.581367 3.142118,-4.405741 -2.915803 3.294155,-3.700506 -5.560359 3.100047,-3.791002 -4.366371 3.265182,-3.917043 -3.61909 3.463033,-4.044172 -2.96313 3.639217,-3.381075 -5.810428 3.368355,-3.36134 -4.864103 3.554732,-3.417955 -4.237091 3.728771,-3.494942 -3.654494 3.882033,-8.780889 -8.348097 1.041246,-8.153746 -7.942502 1.165563,-7.712193 -7.250724 1.307486,-7.466512 -6.557907 1.533809,-7.200956 -6.030925 1.758556,-8.131599 -5.668691 0.9954455,-8.002779 -4.519463 1.13446,-7.908566 -3.85658 1.290756,-7.816163 -3.283993 1.397036,-8.443741 -5.501003 1.152565,-8.33017 -4.214717 1.297332,-8.236901 -3.414447 1.521083,-8.144535 -2.735392 1.673054,-8.752493 -5.5656 1.350688,-8.683956 -4.354722 1.505488,-8.630962 -3.581475 1.677619,-8.547604 -2.919813 1.811484,-9.075747 -5.837876 1.55475,-9.130093 -4.875475 1.762165,-9.123317 -4.259881 1.921291,-9.069752 -3.703695 2.010327,1.910,
-3.373839 -8.744696 2.381525,-4.012838 -8.378126 2.509266,-4.49441 -7.636652 2.609149,-4.812538 -6.881635 2.726332,-5.084341 -6.294214 2.84693,-4.106262 -6.236914 2.39586,-4.330711 -5.104238 2.43184,-4.47725 -4.475385 2.433004,-4.594885 -3.939489 2.452066,-3.800642 -6.02494 2.459146,-3.985302 -4.749637 2.542088,-4.135618 -4.009362 2.63817,-4.235199 -3.370361 2.758079,-3.501077 -6.031013 2.567296,-3.633352 -4.782923 2.66477,-3.773914 -4.028007 2.783847,-3.890135 -3.406785 2.921676,-3.189385 -6.249301 2.681875,-3.199436 -5.23624 2.819719,-3.264559 -4.615171 2.942524,-3.334404 -4.085298 3.067398,-8.868993 -8.498562 0.9412712,-8.243087 -8.151302 1.015667,-7.818597 -7.407888 1.135177,-7.58089 -6.676052 1.326499,-7.318019 -6.167842 1.503265,-8.220253 -5.869612 0.9244961,-8.088769 -4.710501 1.027765,-7.997743 -4.053585 1.136058,-7.918014 -3.506603 1.210489,-8.544836 -5.679362 1.065909,-8.430296 -4.354275 1.171222,-8.345497 -3.543911 1.331406,-8.271339 -2.880235 1.443874,-8.858911 -5.740911 1.230616,-8.778263 -4.497065 1.343909,-8.714242 -3.711559 1.47408,-8.627466 -3.059183 1.588889,-9.176722 -6.01555 1.391324,-9.223528 -5.04627 1.551689,-9.203218 -4.441617 1.686667,-9.139657 -3.915635 1.768914,2.010,
-3.212658 -9.07732 2.097368,-3.839731 -8.82959 2.340769,-4.333761 -8.082253 2.482098,-4.665802 -7.323339 2.606617,-4.96559 -6.793165 2.741419,-3.969492 -6.68037 2.339723,-4.220528 -5.555015 2.491309,-4.38434 -4.926 2.571602,-4.520449 -4.387542 2.640078,-3.634431 -6.451877 2.368872,-3.83952 -5.125997 2.558856,-3.999878 -4.409696 2.693433,-4.108517 -3.787307 2.803009,-3.315729 -6.464764 2.442486,-3.470744 -5.192019 2.614584,-3.612279 -4.456821 2.765505,-3.72744 -3.837467 2.918564,-3.000603 -6.697668 2.533029,-3.025069 -5.680843 2.714557,-3.098392 -5.067306 2.875105,-3.188299 -4.513423 3.030667,-8.934445 -8.707605 1.048364,-8.307628 -8.318815 1.082487,-7.889748 -7.527647 1.165649,-7.650158 -6.784366 1.341506,-7.383362 -6.262233 1.510114,-8.276867 -6.02024 0.9341328,-8.177382 -4.877302 1.01785,-8.110377 -4.198953 1.116697,-8.040326 -3.63296 1.195924,-8.6037 -5.856122 1.104587,-8.513463 -4.556539 1.192494,-8.445338 -3.723674 1.385548,-8.380001 -3.035468 1.532081,-8.92247 -5.935733 1.294035,-8.862834 -4.724339 1.386354,-8.793359 -3.944086 1.531299,-8.695183 -3.311176 1.653511,-9.251839 -6.222192 1.485555,-9.332691 -5.264078 1.632919,-9.313404 -4.670195 1.766834,-9.241681 -4.166233 1.849293,2.110,
-2.805326 -9.731354 1.954433,-3.405855 -9.488503 2.211621,-3.87676 -8.836649 2.34054,-4.150887 -8.133434 2.466564,-4.372071 -7.594373 2.576289,-3.51438 -7.326741 2.125132,-3.753471 -6.278252 2.26921,-3.916416 -5.742182 2.404687,-4.058004 -5.295869 2.527226,-3.19385 -7.135059 2.145398,-3.372141 -5.909374 2.288948,-3.525166 -5.272966 2.448363,-3.656695 -4.755865 2.573658,-2.882071 -7.184501 2.212849,-3.002106 -6.029855 2.363118,-3.128197 -5.384681 2.502,-3.256323 -4.855067 2.642082,-2.569126 -7.434634 2.309332,-2.555138 -6.547845 2.453519,-2.597553 -6.0015 2.550415,-2.66175 -5.514259 2.660984,-9.096585 -9.077232 0.8571601,-8.441333 -8.670525 0.7970617,-8.012867 -7.903598 0.8437179,-7.759786 -7.161102 0.9649805,-7.522156 -6.643945 1.082022,-8.440095 -6.451753 0.7218984,-8.326444 -5.311924 0.7350793,-8.256255 -4.652576 0.779169,-8.188621 -4.117931 0.8253372,-8.769359 -6.279726 0.8561329,-8.654635 -4.985448 0.8868101,-8.574291 -4.179904 1.011733,-8.504469 -3.529367 1.110082,-9.095193 -6.33111 0.989143,-9.001878 -5.123102 1.007544,-8.915141 -4.356982 1.093909,-8.819396 -3.760473 1.170001,-9.427413 -6.578133 1.11566,-9.46906 -5.594335 1.187026,-9.44679 -4.979856 1.289935,-9.385192 -4.458793 1.350381,2.210,
-2.60133 -9.961943 2.078408,-3.183458 -9.58609 2.301311,-3.637348 -8.940241 2.431015,-3.895004 -8.290071 2.585308,-4.117624 -7.707242 2.741127,-3.265151 -7.461315 2.190814,-3.453633 -6.470373 2.337729,-3.589706 -5.908851 2.491254,-3.728367 -5.438516 2.633069,-2.950464 -7.323437 2.258422,-3.091777 -6.179691 2.40506,-3.222828 -5.544893 2.598402,-3.3452 -5.009346 2.766744,-2.637722 -7.407648 2.377719,-2.732965 -6.324962 2.540873,-2.843454 -5.675585 2.736808,-2.967581 -5.132324 2.918454,-2.309268 -7.677772 2.525636,-2.273252 -6.844079 2.700916,-2.305343 -6.288827 2.837662,-2.359993 -5.789417 2.972307,-9.125015 -9.243395 0.8911417,-8.492666 -8.820961 0.9740539,-8.065317 -8.083469 1.087021,-7.837227 -7.354944 1.274577,-7.627308 -6.813039 1.454927,-8.467517 -6.609043 0.8501374,-8.367858 -5.488826 0.9415198,-8.314436 -4.823442 1.054533,-8.2626 -4.247964 1.131338,-8.788325 -6.438282 0.9654739,-8.700558 -5.166585 1.056026,-8.636179 -4.37169 1.245834,-8.569942 -3.713696 1.380481,-9.107577 -6.485341 1.101363,-9.039317 -5.304345 1.185889,-8.972425 -4.556653 1.339303,-8.878315 -3.966702 1.456686,-9.440648 -6.724052 1.242398,-9.49542 -5.771119 1.372296,-9.476969 -5.16896 1.510791,-9.409773 -4.666428 1.584796,2.310,
-2.080837 -10.0433 2.248394,-2.67134 -9.519588 2.375885,-3.075757 -8.740446 2.460786,-3.27182 -7.996766 2.596369,-3.32338 -7.376232 2.776688,-2.748828 -7.463012 2.029165,-2.876832 -6.516765 2.12628,-2.990457 -5.992175 2.282568,-3.114624 -5.557833 2.407227,-2.446549 -7.353357 2.157584,-2.537686 -6.349196 2.286247,-2.676112 -5.765149 2.537647,-2.826144 -5.393651 2.75132,-2.152042 -7.434021 2.340326,-2.212592 -6.458805 2.485202,-2.346139 -5.930812 2.758073,-2.511731 -5.648704 2.972061,-1.837516 -7.66755 2.553745,-1.823788 -6.880319 2.726939,-1.937636 -6.446211 2.888651,-2.123009 -6.164363 3.029574,-9.218862 -9.277054 0.7429327,-8.596909 -8.849152 0.8569853,-8.159713 -8.176037 1.016118,-7.922938 -7.486043 1.252711,-7.719951 -6.917747 1.492223,-8.556667 -6.662591 0.6981528,-8.455182 -5.566015 0.8098491,-8.396278 -4.919311 0.9472024,-8.34291 -4.359283 1.041708,-8.866523 -6.516828 0.8273281,-8.775447 -5.277061 0.9287083,-8.717661 -4.517231 1.132566,-8.654757 -3.867424 1.269256,-9.180982 -6.591262 0.9829525,-9.125478 -5.424932 1.084185,-9.066502 -4.69452 1.271482,-8.974671 -4.094448 1.402824,-9.509445 -6.859069 1.148969,-9.574677 -5.956386 1.315033,-9.564536 -5.36444 1.470871,-9.504366 -4.850294 1.558634,2.410,
-1.713568 -9.707308 1.805741,-2.238193 -9.270847 2.144507,-2.592041 -8.55452 2.373934,-2.668972 -7.80585 2.627281,-2.585011 -7.149251 2.920261,-2.410792 -7.247816 1.826971,-2.489258 -6.300121 2.034756,-2.531504 -5.773912 2.353823,-2.569189 -5.555912 2.58673,-2.063609 -7.142246 1.872757,-2.066011 -6.101648 2.1798,-2.119179 -5.792158 2.648907,-2.150375 -6.075159 2.987488,-1.744582 -7.250071 1.973139,-1.734673 -6.306369 2.244928,-1.777545 -6.073744 2.692659,-1.829772 -6.325233 2.993771,-1.412868 -7.51971 2.124258,-1.376888 -6.787955 2.421471,-1.455461 -6.59066 2.778373,-1.570935 -6.767375 3.06209,-9.24414 -9.302372 0.6658671,-8.62552 -8.902767 0.8413071,-8.190259 -8.238859 1.021453,-7.95477 -7.543497 1.264571,-7.767848 -6.973608 1.50892,-8.599054 -6.724996 0.6705723,-8.491306 -5.634579 0.8000796,-8.433434 -4.985345 0.9517237,-8.378708 -4.415451 1.052357,-8.918988 -6.561211 0.756691,-8.833769 -5.320851 0.870096,-8.775888 -4.542585 1.071192,-8.714552 -3.8869 1.212285,-9.234186 -6.621391 0.877049,-9.175511 -5.443386 0.9787031,-9.120489 -4.707279 1.145209,-9.037102 -4.10815 1.265281,-9.563216 -6.8693 1.012418,-9.619501 -5.953144 1.166665,-9.61485 -5.360784 1.303968,-9.565927 -4.849653 1.371952,2.510,
-1.574254 -9.549135 1.54958,-2.062172 -9.156139 2.00972,-2.393672 -8.507524 2.345834,-2.469965 -7.822511 2.698613,-2.39166 -7.213573 3.091374,-2.280469 -7.151322 1.80302,-2.379721 -6.19898 2.111729,-2.39516 -5.693111 2.51189,-2.392544 -5.606413 2.797441,-1.915231 -7.068115 1.796815,-1.918652 -6.007226 2.222954,-1.921933 -5.843534 2.742859,-1.931663 -6.26535 3.079286,-1.586296 -7.185662 1.856311,-1.570466 -6.231851 2.224693,-1.594826 -6.120471 2.671345,-1.638118 -6.472016 2.919913,-1.257954 -7.46079 1.965651,-1.206704 -6.712379 2.320389,-1.260895 -6.562913 2.673304,-1.350795 -6.763266 2.907637,-9.237833 -9.328609 0.6340119,-8.622552 -8.930891 0.8428588,-8.183222 -8.273582 1.03657,-7.944839 -7.591522 1.288671,-7.763966 -7.00544 1.536935,-8.596249 -6.760387 0.6629565,-8.490048 -5.688133 0.8046821,-8.431386 -5.040285 0.9697957,-8.372761 -4.47196 1.077042,-8.910723 -6.597912 0.7510924,-8.828134 -5.370674 0.8769674,-8.773548 -4.595726 1.087605,-8.712542 -3.944408 1.228698,-9.222393 -6.661177 0.8787098,-9.170277 -5.502953 1.00084,-9.117879 -4.763292 1.185044,-9.02947 -4.163345 1.313019,-9.551675 -6.911989 1.029065,-9.612522 -6.004055 1.203686,-9.609052 -5.404972 1.354159,-9.555338 -4.884844 1.430893,2.610,
-1.381472 -9.592846 1.517778,-1.853273 -9.206554 2.055088,-2.14567 -8.485237 2.400748,-2.172541 -7.734851 2.702971,-2.097519 -7.140602 3.012746,-2.002639 -7.200593 1.890127,-2.102026 -6.339915 2.191462,-2.105568 -5.888948 2.566693,-2.067496 -5.720382 2.847245,-1.639545 -7.117025 1.819048,-1.62019 -6.113987 2.240672,-1.625182 -6.101385 2.673211,-1.62714 -6.496021 2.928497,-1.324129 -7.24338 1.811226,-1.261735 -6.318999 2.168024,-1.304284 -6.392227 2.491026,-1.357031 -6.748826 2.641204,-1.008141 -7.539884 1.864241,-0.9186077 -6.857082 2.199446,-0.9741096 -6.897418 2.467587,-1.05158 -7.169094 2.608119,-9.24583 -9.398367 0.5522242,-8.617565 -9.008196 0.7120428,-8.184354 -8.314585 0.8760992,-7.953258 -7.617565 1.104843,-7.759779 -7.036214 1.335227,-8.594126 -6.849889 0.5734778,-8.489291 -5.752622 0.718123,-8.430521 -5.095157 0.8725446,-8.375175 -4.50444 0.9733529,-8.91663 -6.691362 0.6673608,-8.836538 -5.455961 0.7868772,-8.776847 -4.675251 0.9924053,-8.714236 -4.016912 1.132202,-9.236107 -6.758562 0.7940729,-9.185106 -5.592014 0.9122142,-9.133813 -4.851199 1.102193,-9.050635 -4.253007 1.236549,-9.568027 -7.011241 0.9340106,-9.616252 -6.104486 1.105057,-9.6064 -5.506711 1.262207,-9.551795 -4.98837 1.343361,2.710,
-1.256697 -9.75787 1.452368,-1.674329 -9.270399 2.047656,-1.938452 -8.570189 2.408548,-1.977978 -7.789698 2.730158,-1.916705 -7.040572 3.067827,-1.847994 -7.369006 1.866818,-1.872977 -6.534893 2.239296,-1.811989 -6.130205 2.581838,-1.738097 -5.901718 2.818224,-1.486316 -7.301149 1.776419,-1.38945 -6.404499 2.363284,-1.343692 -7.09225 2.711158,-1.353488 -7.716968 2.826741,-1.159227 -7.409518 1.753893,-1.035404 -6.605649 2.31218,-1.053575 -7.342239 2.485654,-1.107832 -7.923061 2.441667,-0.8421574 -7.649727 1.782861,-0.7025685 -6.942336 2.196678,-0.7607317 -7.353918 2.31774,-0.8502541 -7.809911 2.276644,-9.256936 -9.436853 0.6056067,-8.645157 -9.049164 0.7726689,-8.218144 -8.362309 0.9455514,-7.982513 -7.676723 1.189204,-7.77881 -7.098533 1.43285,-8.61891 -6.878738 0.5964192,-8.512254 -5.80072 0.7396505,-8.452539 -5.14023 0.9017955,-8.39479 -4.550656 1.009296,-8.934361 -6.712951 0.7013023,-8.857372 -5.487136 0.8080599,-8.797403 -4.701295 1.016004,-8.73175 -4.046585 1.160203,-9.250152 -6.770996 0.8465254,-9.199748 -5.612699 0.9538114,-9.147386 -4.866107 1.138607,-9.061916 -4.261508 1.270147,-9.58421 -7.018047 1.009475,-9.644998 -6.102407 1.177443,-9.642715 -5.490292 1.332086,-9.594063 -4.948366 1.411408,2.810,
-1.237434 -9.767553 1.139647,-1.647043 -9.302746 1.766112,-1.915088 -8.588367 2.11761,-1.938837 -7.819667 2.440768,-1.837821 -7.080537 2.771014,-1.808682 -7.459014 1.537473,-1.829327 -6.652284 1.988736,-1.767245 -6.250749 2.33679,-1.697669 -5.974853 2.554487,-1.449753 -7.396211 1.436676,-1.344893 -6.643631 2.105406,-1.311294 -7.459737 2.407551,-1.33138 -8.086351 2.443745,-1.121825 -7.480006 1.417444,-1.004022 -6.800469 2.048073,-1.034125 -7.628732 2.188752,-1.091069 -8.209936 2.096532,-0.8116016 -7.690835 1.450416,-0.6664381 -7.024912 1.911967,-0.7374187 -7.505313 2.010437,-0.8349304 -7.968248 1.943166,-9.287291 -9.491142 0.6630046,-8.682105 -9.10338 0.8655406,-8.257016 -8.432302 1.067122,-8.018627 -7.745859 1.333118,-7.813668 -7.149673 1.600772,-8.66982 -6.89869 0.668964,-8.563238 -5.822052 0.8149217,-8.499231 -5.174285 0.9786867,-8.437274 -4.607666 1.085715,-8.987865 -6.748127 0.7604106,-8.908868 -5.531011 0.8729529,-8.851551 -4.765025 1.061812,-8.78978 -4.120123 1.194893,-9.30481 -6.836989 0.8966364,-9.260417 -5.688484 1.011005,-9.213074 -4.950933 1.183362,-9.136335 -4.339592 1.312697,-9.635884 -7.114309 1.055661,-9.702533 -6.208135 1.222285,-9.707012 -5.600635 1.375222,-9.668771 -5.050313 1.459995,2.910,
-1.207497 -9.787872 0.5073262,-1.600853 -9.348726 1.080573,-1.85511 -8.670715 1.37148,-1.856674 -7.910251 1.638872,-1.734924 -7.209962 1.901991,-1.741171 -7.642765 0.8107845,-1.777051 -6.810485 1.255798,-1.692427 -6.440211 1.55628,-1.590084 -6.199834 1.721278,-1.397602 -7.586913 0.7121761,-1.285726 -6.959783 1.348248,-1.26776 -7.799843 1.558581,-1.314057 -8.341846 1.52103,-1.077134 -7.66072 0.6992817,-0.9623404 -7.042276 1.310215,-0.999135 -7.84615 1.389224,-1.070035 -8.359465 1.264513,-0.7757373 -7.827477 0.7301748,-0.6389151 -7.147495 1.164181,-0.6975403 -7.581431 1.246668,-0.7874112 -7.998649 1.17686,-9.324217 -9.52746 0.6535885,-8.715858 -9.134317 0.8668909,-8.282298 -8.471079 1.088173,-8.036459 -7.800357 1.371435,-7.836721 -7.202745 1.659574,-8.685039 -6.935554 0.6978443,-8.579512 -5.855647 0.8684832,-8.517405 -5.20634 1.043129,-8.455162 -4.642993 1.150064,-9.00749 -6.791072 0.7958163,-8.93294 -5.563017 0.9354715,-8.877799 -4.793411 1.129362,-8.816277 -4.151815 1.25747,-9.329753 -6.88986 0.939275,-9.285653 -5.720679 1.07096,-9.23733 -4.97647 1.243902,-9.158927 -4.365537 1.37174,-9.668503 -7.175704 1.11135,-9.727562 -6.261949 1.283577,-9.727695 -5.645299 1.437385,-9.682885 -5.082201 1.520841,3.010,
-1.192784 -9.781475 0.3907999,-1.567366 -9.352238 0.9629663,-1.816958 -8.676714 1.254383,-1.81011 -7.928422 1.523473,-1.673291 -7.243059 1.781087,-1.719483 -7.661663 0.7802855,-1.751351 -6.853733 1.27118,-1.649374 -6.511913 1.585864,-1.522224 -6.321958 1.751963,-1.37487 -7.622604 0.6768477,-1.263242 -7.083766 1.326419,-1.256804 -7.938089 1.500798,-1.308013 -8.435598 1.440615,-1.052855 -7.708564 0.6582737,-0.9391012 -7.179985 1.272456,-0.9858928 -7.995769 1.298306,-1.060396 -8.46209 1.148046,-0.7528129 -7.879117 0.6834532,-0.610517 -7.24407 1.116341,-0.6779313 -7.734615 1.15772,-0.7713461 -8.140478 1.056088,-9.325703 -9.54253 0.6907354,-8.710941 -9.151888 0.8962004,-8.288054 -8.479172 1.117023,-8.046982 -7.803625 1.400964,-7.843428 -7.205507 1.696344,-8.704044 -6.927745 0.7361259,-8.602257 -5.854957 0.9022899,-8.540177 -5.2119 1.072622,-8.475125 -4.644135 1.1868,-9.029719 -6.793544 0.8412911,-8.954347 -5.581321 0.9747244,-8.898604 -4.815567 1.170243,-8.834395 -4.165887 1.307409,-9.352859 -6.910087 0.9923418,-9.320159 -5.757766 1.127739,-9.276485 -5.015113 1.317338,-9.199825 -4.393144 1.454343,-9.68873 -7.223093 1.166437,-9.77106 -6.325405 1.344688,-9.783392 -5.707066 1.50527,-9.750133 -5.140199 1.592959,3.110,
-1.152512 -9.756029 0.4391161,-1.514698 -9.325686 0.9648078,-1.750196 -8.7104 1.29465,-1.712297 -8.001965 1.610024,-1.533482 -7.355491 1.920432,-1.618888 -7.638765 0.9792204,-1.630901 -6.975877 1.477404,-1.521532 -6.713922 1.80625,-1.38696 -6.61794 1.982979,-1.280866 -7.610013 0.9019529,-1.127206 -7.361633 1.492054,-1.148793 -8.195379 1.607511,-1.225597 -8.617174 1.563859,-0.9554024 -7.739715 0.8949696,-0.8207574 -7.481199 1.458074,-0.8852959 -8.284161 1.409292,-0.975112 -8.680517 1.263334,-0.6589088 -7.958578 0.926497,-0.496932 -7.483126 1.344997,-0.5808897 -8.017906 1.346209,-0.6894464 -8.377907 1.231545,-9.344603 -9.530294 0.6411024,-8.739226 -9.146872 0.8987958,-8.312835 -8.48354 1.142158,-8.070275 -7.821123 1.440403,-7.865314 -7.218346 1.742072,-8.725471 -6.945707 0.7515798,-8.618282 -5.870201 0.9455014,-8.555898 -5.220713 1.125725,-8.494875 -4.640882 1.241254,-9.048793 -6.798322 0.8342334,-8.971104 -5.590016 0.9943874,-8.916149 -4.820936 1.196968,-8.855929 -4.167146 1.33734,-9.3648 -6.895477 0.9632131,-9.33136 -5.740327 1.124573,-9.288691 -5.000238 1.318604,-9.213206 -4.380229 1.460345,-9.694854 -7.182896 1.120747,-9.767573 -6.288673 1.315365,-9.775425 -5.680616 1.481026,-9.736789 -5.118379 1.573804,3.210,
-1.044245 -9.738901 0.7375925,-1.39407 -9.362993 1.308599,-1.631353 -8.800968 1.701021,-1.555874 -8.17494 2.056707,-1.32643 -7.61214 2.394724,-1.439526 -7.597514 1.397558,-1.401672 -7.142302 1.920254,-1.286404 -6.990525 2.236522,-1.16048 -6.915037 2.401117,-1.087035 -7.524828 1.29882,-0.936522 -7.615735 1.904041,-1.013968 -8.43276 2.023339,-1.123516 -8.72006 1.996142,-0.7555933 -7.678924 1.284549,-0.6200075 -7.723878 1.852472,-0.7351427 -8.504587 1.774961,-0.8505678 -8.769798 1.628502,-0.468503 -7.942993 1.31806,-0.3067946 -7.748233 1.722898,-0.4328403 -8.302902 1.693906,-0.5640979 -8.550861 1.562386,-9.352199 -9.554089 0.5330601,-8.7566 -9.164692 0.7983049,-8.340255 -8.494658 1.041127,-8.088612 -7.834576 1.3373,-7.878028 -7.252144 1.639243,-8.765018 -6.971302 0.6688522,-8.669271 -5.867365 0.8719656,-8.608263 -5.208766 1.059724,-8.546586 -4.636143 1.184858,-9.085589 -6.852349 0.7549389,-9.017142 -5.6063 0.9443541,-8.964871 -4.824455 1.155625,-8.909719 -4.166336 1.302433,-9.400133 -6.976812 0.887373,-9.38435 -5.793462 1.071101,-9.348681 -5.038377 1.269556,-9.28818 -4.408941 1.415778,-9.725516 -7.291299 1.049799,-9.830423 -6.396628 1.256346,-9.852167 -5.799356 1.419988,-9.834592 -5.262946 1.513628,3.310,
-1.017193 -9.707125 0.5073062,-1.359983 -9.344763 1.141809,-1.580651 -8.802759 1.558803,-1.501512 -8.218674 1.914943,-1.275992 -7.663904 2.258208,-1.405434 -7.646974 1.257898,-1.366763 -7.195936 1.819435,-1.243147 -7.009452 2.151088,-1.106281 -6.873392 2.331326,-1.04808 -7.577782 1.130114,-0.8889918 -7.628927 1.776375,-0.9830971 -8.437952 1.890209,-1.107489 -8.739838 1.847753,-0.7155051 -7.727832 1.096699,-0.5603733 -7.738842 1.711067,-0.6903772 -8.512276 1.616975,-0.8170424 -8.786871 1.438155,-0.4352074 -7.9812 1.112718,-0.2544317 -7.790224 1.560276,-0.3911843 -8.337236 1.538845,-0.5368924 -8.58569 1.391579,-9.37537 -9.544889 0.5607454,-8.765841 -9.161474 0.8127987,-8.33978 -8.492935 1.047209,-8.074914 -7.837453 1.339791,-7.856386 -7.246696 1.63235,-8.77685 -6.958377 0.656696,-8.684483 -5.858642 0.848181,-8.621696 -5.202405 1.027562,-8.555669 -4.633291 1.140285,-9.094377 -6.834146 0.7493595,-9.040242 -5.583812 0.9233652,-8.994158 -4.802087 1.126812,-8.942972 -4.146257 1.261974,-9.407645 -6.954097 0.8902607,-9.403372 -5.77324 1.058701,-9.368049 -5.02515 1.253543,-9.303688 -4.403997 1.392544,-9.733035 -7.261645 1.060595,-9.833688 -6.373268 1.262408,-9.855844 -5.77552 1.425284,-9.837253 -5.234447 1.510331,3.410,
-0.9190788 -9.626638 0.2257087,-1.262209 -9.323942 0.9607173,-1.46385 -8.789106 1.394859,-1.350294 -8.207495 1.743844,-1.145832 -7.622117 2.095455,-1.304117 -7.6599 1.044641,-1.251946 -7.239057 1.694926,-1.122547 -7.085406 2.069234,-0.9878912 -7.000785 2.271344,-0.9343166 -7.589969 0.8772386,-0.7743549 -7.632684 1.619326,-0.8560276 -8.440704 1.768116,-0.9861736 -8.796122 1.70956,-0.5938797 -7.740366 0.8251877,-0.4316893 -7.766153 1.540601,-0.5654602 -8.554823 1.466303,-0.7133946 -8.860096 1.264332,-0.3143306 -7.980695 0.8212212,-0.128746 -7.830815 1.362162,-0.2677279 -8.381702 1.363537,-0.4366808 -8.631931 1.197511,-9.383144 -9.558043 0.5529883,-8.778778 -9.175423 0.8128462,-8.351205 -8.510006 1.051728,-8.092943 -7.844815 1.347489,-7.874306 -7.247142 1.647179,-8.783184 -6.977716 0.6678087,-8.6857 -5.867329 0.8567446,-8.624945 -5.20668 1.032416,-8.563354 -4.637403 1.145654,-9.104407 -6.850029 0.7519788,-9.03693 -5.595283 0.9279703,-8.986069 -4.812143 1.128192,-8.930002 -4.154193 1.263351,-9.417377 -6.961392 0.8832444,-9.403295 -5.778776 1.05591,-9.370207 -5.025957 1.25241,-9.306898 -4.401723 1.393746,-9.740844 -7.262566 1.041471,-9.843014 -6.366054 1.242992,-9.868051 -5.770868 1.406988,-9.852323 -5.243058 1.496849,3.510,
-0.912652 -9.641525 0.1157938,-1.249742 -9.283276 0.8685171,-1.433364 -8.730242 1.307415,-1.302674 -8.165682 1.648671,-1.061084 -7.587682 1.975936,-1.25829 -7.654706 0.9277572,-1.205125 -7.266042 1.594564,-1.079614 -7.143371 1.971956,-0.9435711 -7.026832 2.175837,-0.8726325 -7.635345 0.758542,-0.7387857 -7.681983 1.540396,-0.849843 -8.495676 1.65969,-0.9841847 -8.805901 1.566781,-0.5238218 -7.812139 0.705816,-0.3806658 -7.829723 1.469909,-0.5554695 -8.646666 1.367289,-0.719533 -8.939835 1.121405,-0.2379723 -8.077343 0.7036874,-0.06313419 -7.847673 1.24932,-0.2274194 -8.38751 1.218946,-0.4115491 -8.651579 1.013288,-9.84764 -9.435595 0.0797165,-10.26536 -8.860594 0.1936136,-10.57628 -8.214684 0.3482689,-10.81732 -7.716269 0.457369,-11.03683 -7.525907 0.5692477,-9.98583 -7.102197 0.7317083,-9.968218 -6.143999 0.9514976,-9.901611 -5.537974 1.063036,-9.833655 -5.005064 1.150078,-9.670855 -6.952917 0.8130001,-9.534518 -5.722348 1.158819,-9.395247 -4.916518 1.358701,-9.264552 -4.237501 1.527439,-9.385078 -6.946146 0.8530227,-9.174755 -5.782259 1.156651,-9.048112 -4.966476 1.345907,-8.947277 -4.310701 1.498316,-9.133287 -7.063928 0.8623651,-8.898562 -6.162675 1.125768,-8.731386 -5.518003 1.20803,-8.59602 -4.91842 1.298206,3.610,
-0.8636065 -9.639992 0.7187237,-1.220261 -9.32885 1.495474,-1.426739 -8.802124 1.972642,-1.297511 -8.262602 2.332799,-1.065959 -7.685152 2.68258,-1.222873 -7.563408 1.645055,-1.157203 -7.252466 2.302784,-1.036666 -7.128546 2.686385,-0.9003916 -7.000104 2.899412,-0.816843 -7.482492 1.452406,-0.6989126 -7.704237 2.186047,-0.8153186 -8.516333 2.293922,-0.9403257 -8.800859 2.223888,-0.4570265 -7.65469 1.378381,-0.3452001 -7.857513 2.07584,-0.5147748 -8.669302 1.967746,-0.6608171 -8.913055 1.751965,-0.1768365 -7.934883 1.35568,-0.02838993 -7.904663 1.849415,-0.1922693 -8.475086 1.814389,-0.3618565 -8.685246 1.63601,-9.579137 -9.552217 0.5489436,-8.977903 -9.164074 0.8236586,-8.61589 -8.472219 1.062364,-8.417167 -7.829072 1.330063,-8.196465 -7.321075 1.593709,-8.85731 -6.996089 0.8577513,-8.716532 -5.928957 1.095172,-8.654049 -5.307651 1.318368,-8.573771 -4.718338 1.483048,-9.21063 -6.872509 0.9066467,-9.123396 -5.673147 1.006575,-9.084169 -4.967048 1.196972,-9.030916 -4.288713 1.347899,-9.546278 -7.012696 1.003667,-9.551321 -5.836984 1.077121,-9.516519 -5.148612 1.247873,-9.461024 -4.517334 1.412663,-9.894057 -7.365213 1.120414,-10.02417 -6.480661 1.233853,-10.04823 -5.972295 1.299734,-10.04653 -5.486118 1.345057,3.710,
-0.8309917 -9.58802 0.7869791,-1.196294 -9.272655 1.568092,-1.414997 -8.7414 2.055706,-1.282718 -8.213505 2.417512,-1.050393 -7.6203 2.792493,-1.214758 -7.500001 1.749704,-1.186018 -7.205623 2.426618,-1.04607 -7.075277 2.815527,-0.8766899 -6.882471 3.033273,-0.8065205 -7.418926 1.547848,-0.6975336 -7.700378 2.288226,-0.8213291 -8.532234 2.36962,-0.9458895 -8.742001 2.293826,-0.437273 -7.601814 1.472151,-0.3289146 -7.855142 2.188016,-0.5199451 -8.661917 2.054751,-0.6706409 -8.860073 1.823759,-0.1434784 -7.896497 1.448802,-0.01455116 -7.922768 1.941793,-0.2084761 -8.488972 1.882464,-0.3893204 -8.661207 1.692947,-9.515295 -9.612555 0.5680575,-10.00063 -9.022501 0.5624086,-10.34437 -8.287086 0.6365492,-10.56197 -7.711231 0.6840187,-10.733 -7.38097 0.74692,-9.865803 -7.071771 0.7773656,-9.913642 -5.99003 0.8135604,-9.860651 -5.395856 0.8184879,-9.780905 -4.904819 0.8275802,-9.551322 -6.895217 0.8693548,-9.507694 -5.622637 1.012521,-9.394677 -4.855381 1.157301,-9.287586 -4.229934 1.298848,-9.245157 -6.90443 0.9391891,-9.15136 -5.667579 1.100416,-9.042785 -4.901735 1.286016,-8.956071 -4.300952 1.432967,-8.942101 -7.073198 0.9708467,-8.796053 -6.069448 1.132876,-8.688784 -5.483576 1.211112,-8.60683 -4.944226 1.274916,3.810,
-0.8467894 -9.58626 0.7869642,-1.173772 -9.207438 1.530577,-1.359548 -8.68466 2.012837,-1.23064 -8.156107 2.396854,-1.004475 -7.558659 2.803414,-1.178552 -7.465316 1.678334,-1.149152 -7.141431 2.343724,-1.005056 -7.011535 2.741242,-0.8363004 -6.855173 2.978323,-0.7778492 -7.401698 1.499281,-0.6668825 -7.642985 2.215189,-0.7904825 -8.472103 2.337024,-0.9215879 -8.738596 2.287827,-0.4157944 -7.588539 1.442248,-0.3090339 -7.816061 2.135069,-0.4893203 -8.61595 2.030926,-0.6383886 -8.841913 1.822462,-0.1300259 -7.88668 1.438671,0.003316402 -7.871807 1.926254,-0.1784077 -8.439985 1.875355,-0.3495312 -8.626204 1.684443,-9.623538 -9.689674 1.034652,-9.013603 -9.217134 1.23955,-8.630151 -8.47995 1.463113,-8.408325 -7.82438 1.731636,-8.158321 -7.260746 1.968782,-8.873293 -6.980991 1.265921,-8.747734 -5.911767 1.492543,-8.688654 -5.287365 1.711726,-8.607414 -4.693723 1.853603,-9.223308 -6.870557 1.371768,-9.156771 -5.650403 1.481498,-9.122936 -4.917933 1.690745,-9.059525 -4.249925 1.838933,-9.561573 -7.003132 1.514099,-9.58111 -5.825376 1.602913,-9.545575 -5.10581 1.791616,-9.473797 -4.482502 1.94245,-9.915611 -7.324121 1.679487,-10.04481 -6.41464 1.787999,-10.0576 -5.853614 1.834456,-10.03492 -5.362158 1.854274,3.910,
-0.7546134 -9.484554 0.3681307,-1.100044 -9.105238 1.085929,-1.308912 -8.597588 1.549953,-1.188046 -8.119987 1.922406,-0.890522 -7.70194 2.293142,-1.00645 -7.45108 1.247679,-0.9662066 -7.110183 1.87914,-0.8809834 -6.998291 2.264073,-0.7937756 -6.974976 2.499198,-0.6198673 -7.434902 1.095745,-0.5408778 -7.661823 1.814471,-0.6617546 -8.362822 1.980268,-0.7826471 -8.690556 1.965111,-0.2761135 -7.654468 1.055316,-0.2145329 -7.882909 1.729711,-0.3866758 -8.570452 1.687364,-0.5282369 -8.845648 1.526065,0.002901077 -7.988281 1.069404,0.1181564 -7.954576 1.566181,-0.06760693 -8.451794 1.573402,-0.2388554 -8.690224 1.436989,-9.848254 -9.392832 0.5596787,-10.35648 -9.015621 1.160555,-10.75693 -8.464132 1.592541,-11.09489 -8.067064 1.904167,-11.39697 -8.078232 2.241946,-10.08105 -7.126899 1.8729,-10.01814 -6.190488 2.260318,-9.946287 -5.562 2.468442,-9.887291 -5.024741 2.637837,-9.717996 -6.919923 1.713295,-9.571084 -5.819841 2.248248,-9.432503 -5.068849 2.548003,-9.275072 -4.378312 2.76886,-9.415553 -6.879686 1.520776,-9.219991 -5.848501 1.97534,-9.110996 -5.091133 2.213954,-9.014783 -4.396591 2.3832,-9.164824 -6.96957 1.331606,-8.927683 -6.150838 1.640627,-8.764565 -5.532656 1.754431,-8.612467 -4.895629 1.841284,4.010,
-0.7353792 -9.472296 0.134998,-1.059258 -9.115871 0.8336571,-1.257947 -8.648493 1.283664,-1.159294 -8.195156 1.641403,-0.8751864 -7.750165 1.992714,-0.9468136 -7.510739 1.015505,-0.8957348 -7.185792 1.628636,-0.8152256 -7.065472 2.010298,-0.7351551 -7.079671 2.237981,-0.572751 -7.497567 0.8676604,-0.4867954 -7.667474 1.580027,-0.6251001 -8.352211 1.746201,-0.7564788 -8.718302 1.739495,-0.2424779 -7.719207 0.8231197,-0.1478262 -7.867385 1.471411,-0.3121891 -8.513416 1.436371,-0.4565372 -8.794815 1.284279,0.02847004 -8.040312 0.8340823,0.187624 -7.931093 1.319113,0.01313257 -8.372953 1.362202,-0.1707063 -8.625031 1.260788,-9.453955 -9.336321 -0.298675,-10.02423 -9.088827 0.03245354,-10.51445 -8.565136 0.3161705,-10.95373 -8.25046 0.544632,-11.35608 -8.264315 0.841572,-9.977609 -7.214688 0.5052913,-10.00138 -6.252574 0.7745297,-9.939724 -5.648637 0.9393489,-9.88806 -5.138853 1.083134,-9.591925 -6.976115 0.4713407,-9.528545 -5.820955 0.7967806,-9.406851 -5.0494 1.014591,-9.306664 -4.395635 1.18503,-9.239983 -6.927742 0.407161,-9.125711 -5.789621 0.6797673,-9.041938 -5.000354 0.8527634,-8.995062 -4.333095 0.9988911,-8.916491 -7.040732 0.3379099,-8.773725 -6.084848 0.537724,-8.667918 -5.423269 0.6160054,-8.58544 -4.777179 0.6960863,4.110,
-0.6852455 -9.508131 0.6696285,-1.020334 -9.09479 1.430469,-1.219725 -8.658159 1.928423,-1.106608 -8.264679 2.302062,-0.7700109 -7.870183 2.653724,-0.891943 -7.403956 1.66839,-0.8012471 -7.253089 2.288463,-0.7443581 -7.208984 2.624962,-0.6927376 -7.19905 2.802006,-0.4775171 -7.405238 1.485529,-0.4127588 -7.801721 2.175219,-0.6063271 -8.461712 2.280145,-0.7581038 -8.69409 2.263566,-0.1233854 -7.666084 1.424106,-0.06623316 -8.002234 2.068625,-0.2870083 -8.612158 1.990178,-0.4468284 -8.779999 1.820733,0.1506767 -8.050079 1.423902,0.2889509 -7.990899 1.836661,0.09868193 -8.344149 1.849625,-0.08587551 -8.510042 1.743149,-9.468697 -9.59804 0.7915943,-8.819724 -9.180029 0.9786134,-8.407865 -8.502848 1.184881,-8.181324 -7.844077 1.436817,-7.949746 -7.25774 1.732572,-8.815742 -6.942708 0.8356619,-8.710938 -5.866556 0.9788179,-8.643179 -5.231378 1.186605,-8.578987 -4.676849 1.299742,-9.146177 -6.824565 0.9692534,-9.105453 -5.604488 1.065552,-9.051453 -4.809441 1.28382,-8.991858 -4.18242 1.437525,-9.465084 -6.955606 1.13824,-9.474989 -5.759468 1.256658,-9.446249 -5.031847 1.445223,-9.390529 -4.455406 1.592788,-9.796065 -7.287817 1.349774,-9.908002 -6.326049 1.48613,-9.915451 -5.736747 1.601337,-9.872094 -5.239259 1.653918,4.210,
-0.577446 -9.50563 0.4102207,-0.8915577 -9.119957 1.144127,-1.110776 -8.699747 1.679727,-1.051556 -8.344255 2.083476,-0.7282062 -8.077408 2.4444,-0.7842455 -7.50452 1.536002,-0.699409 -7.403299 2.098227,-0.6428051 -7.334511 2.381811,-0.6129889 -7.301343 2.556086,-0.3720455 -7.557754 1.392154,-0.2927818 -7.620983 2.102605,-0.4337354 -7.869348 2.31408,-0.5806193 -7.992296 2.418346,-0.02834892 -7.813768 1.327992,0.02426434 -8.130085 2.015654,-0.202106 -8.617899 1.963766,-0.3798933 -8.725065 1.805068,0.2360349 -8.218344 1.317993,0.3731194 -8.162073 1.807214,0.1791935 -8.406244 1.857276,-0.01072836 -8.504599 1.780524,-9.417529 -9.623852 0.6195217,-8.787266 -9.255503 0.9163225,-8.345159 -8.550245 1.155293,-8.079154 -7.873506 1.449795,-7.882674 -7.259657 1.747719,-8.811164 -7.013216 0.7418287,-8.719778 -5.897882 0.9433846,-8.653264 -5.237245 1.127965,-8.588655 -4.679401 1.233588,-9.143972 -6.894825 0.7989496,-9.093854 -5.617992 0.9729403,-9.042077 -4.830026 1.181385,-8.990198 -4.167915 1.306949,-9.45831 -7.014654 0.9045873,-9.464041 -5.811353 1.072347,-9.431043 -5.062461 1.264065,-9.370393 -4.444266 1.402563,-9.776463 -7.31155 1.044535,-9.879905 -6.404911 1.230479,-9.893572 -5.816091 1.384127,-9.864988 -5.288459 1.461419,4.310,
-0.5468769 -9.517237 0.8106585,-0.8852572 -9.034311 1.591566,-1.085985 -8.628431 2.126869,-0.9719324 -8.275644 2.52788,-0.6492023 -7.919645 2.91191,-0.7454844 -7.342971 1.880776,-0.6323242 -7.285789 2.540754,-0.5497341 -7.25621 2.884646,-0.4627643 -7.203928 3.074575,-0.3122826 -7.401782 1.696597,-0.2615471 -7.856518 2.422569,-0.4718189 -8.524143 2.527145,-0.6237164 -8.720846 2.513137,0.05548239 -7.694569 1.633366,0.09325695 -8.16181 2.340427,-0.169755 -8.785284 2.224415,-0.3372974 -8.894032 2.016205,0.333334 -8.111551 1.624531,0.4349051 -8.172018 2.100629,0.2084913 -8.523687 2.080895,0.02087069 -8.636196 1.942433,-9.417529 -9.623852 0.6195217,-8.787266 -9.255503 0.9163225,-8.345159 -8.550245 1.155293,-8.079154 -7.873506 1.449795,-7.882674 -7.259657 1.747719,-8.811164 -7.013216 0.7418287,-8.719778 -5.897882 0.9433846,-8.653264 -5.237245 1.127965,-8.588655 -4.679401 1.233588,-9.143972 -6.894825 0.7989496,-9.093854 -5.617992 0.9729403,-9.042077 -4.830026 1.181385,-8.990198 -4.167915 1.306949,-9.45831 -7.014654 0.9045873,-9.464041 -5.811353 1.072347,-9.431043 -5.062461 1.264065,-9.370393 -4.444266 1.402563,-9.776463 -7.31155 1.044535,-9.879905 -6.404911 1.230479,-9.893572 -5.816091 1.384127,-9.864988 -5.288459 1.461419,4.410,
-0.4471812 -9.478119 0.4955871,-0.8060331 -8.979832 1.355024,-1.033892 -8.548534 1.96465,-0.9186211 -8.154917 2.400829,-0.5649586 -7.877719 2.742862,-0.6933336 -7.508081 1.804094,-0.534339 -7.413543 2.554909,-0.5018969 -7.422948 2.766044,-0.4761314 -7.288879 2.773529,-0.2470336 -7.563755 1.592494,-0.1170859 -7.976038 2.437729,-0.3550925 -8.528397 2.374945,-0.5258131 -8.417524 2.199112,0.1310649 -7.815208 1.509406,0.2236109 -8.192417 2.316186,-0.06492519 -8.682936 2.095571,-0.2512617 -8.569365 1.786163,0.398407 -8.162445 1.498757,0.5245447 -8.132965 1.984892,0.3206768 -8.302841 1.989981,0.1507387 -8.230013 1.866555,-9.940921 -10.11805 2.385228,-9.205847 -9.201603 2.277535,-8.805773 -8.327999 2.371604,-8.56259 -7.652175 2.538945,-8.306105 -6.985963 2.642692,-9.009552 -7.055505 2.288487,-8.892 -5.837005 2.41347,-8.817123 -5.175373 2.50822,-8.720817 -4.620777 2.51283,-9.398828 -6.911949 2.485766,-9.355201 -5.488517 2.539164,-9.271143 -4.771207 2.60763,-9.148168 -4.227043 2.574339,-9.744907 -6.963954 2.678362,-9.812991 -5.612777 2.758143,-9.719072 -4.935255 2.916009,-9.574491 -4.45759 2.971708,-10.08406 -7.183874 2.902138,-10.21875 -6.146833 2.951791,-10.17274 -5.543153 3.021271,-10.07171 -5.091991 3.028777,4.510,
-0.4167738 -9.428293 0.1639084,-0.779171 -8.969387 1.034712,-1.025157 -8.525562 1.643528,-0.9259372 -8.124517 2.062004,-0.5645094 -7.9186 2.367916,-0.7190099 -7.610026 1.557832,-0.5727272 -7.534438 2.340643,-0.5266962 -7.45766 2.566555,-0.5089569 -7.231013 2.603492,-0.2725258 -7.678649 1.353467,-0.1154242 -7.938961 2.309818,-0.3277197 -8.321753 2.318968,-0.5298166 -8.195154 2.185173,0.1129446 -7.906026 1.268358,0.245738 -8.189915 2.168611,-0.04128838 -8.617035 1.974887,-0.271626 -8.506918 1.656317,0.3942041 -8.230534 1.246594,0.5635009 -8.154064 1.837092,0.3603787 -8.272696 1.896446,0.1537309 -8.1891 1.791567,-9.599362 -10.01242 2.296052,-8.879207 -9.326962 2.28132,-8.39607 -8.593475 2.421893,-8.10107 -7.8634 2.606391,-7.879156 -7.1851 2.800913,-8.788222 -6.948276 2.160255,-8.667367 -5.848934 2.238981,-8.624597 -5.253164 2.380363,-8.575668 -4.71629 2.441934,-9.154756 -6.815729 2.339473,-9.126292 -5.499799 2.327028,-9.085141 -4.733472 2.481235,-9.007809 -4.111663 2.590159,-9.501707 -6.924001 2.526157,-9.530802 -5.664316 2.558553,-9.508956 -4.958038 2.659741,-9.438678 -4.407337 2.741971,-9.844989 -7.244421 2.74174,-9.975163 -6.232738 2.782265,-9.989868 -5.65488 2.799029,-9.947927 -5.189043 2.776895,4.610,
-0.4389644 -9.448597 0.3682702,-0.7844801 -8.940401 1.182516,-0.9780045 -8.525194 1.761104,-0.8725595 -8.174706 2.191385,-0.5449939 -7.945487 2.553923,-0.6272321 -7.444174 1.53891,-0.5117207 -7.335952 2.281082,-0.480835 -7.340686 2.563246,-0.4476571 -7.260677 2.620792,-0.190022 -7.518893 1.349367,-0.0652976 -7.856672 2.200196,-0.3089733 -8.437334 2.22828,-0.4916291 -8.459303 2.100047,0.1692562 -7.785861 1.279997,0.2706766 -8.151026 2.092202,-0.01296043 -8.669607 1.966673,-0.2100248 -8.655231 1.70878,0.4204369 -8.147657 1.27653,0.5660825 -8.093121 1.780587,0.3849945 -8.239471 1.832272,0.2095022 -8.188938 1.744158,-9.504639 -9.898989 1.534026,-8.8524 -9.336254 1.676885,-8.390022 -8.602024 1.890384,-8.115304 -7.875295 2.187581,-7.916138 -7.224649 2.501982,-8.805283 -7.030176 1.533392,-8.719453 -5.875305 1.695188,-8.660986 -5.224874 1.850276,-8.596603 -4.678751 1.935778,-9.155365 -6.912683 1.673451,-9.105826 -5.586912 1.783963,-9.06138 -4.815456 1.972319,-9.000464 -4.162702 2.0913,-9.491472 -7.033823 1.84059,-9.505217 -5.782194 1.968202,-9.478581 -5.046588 2.153155,-9.402649 -4.450042 2.265291,-9.828527 -7.339527 2.033654,-9.935914 -6.361549 2.185075,-9.942136 -5.763383 2.296047,-9.893814 -5.237049 2.332102,4.710,
-0.2613363 -9.267998 0.5692823,-0.6388402 -8.871962 1.419183,-0.9113331 -8.457228 2.050215,-0.8506184 -8.143164 2.509042,-0.4813671 -8.017111 2.878543,-0.5531483 -7.408003 2.036619,-0.4380999 -7.446618 2.777377,-0.3929291 -7.374076 3.057285,-0.3316107 -7.193723 3.183078,-0.08793354 -7.42543 1.825021,-0.001565933 -7.987665 2.623997,-0.2715988 -8.444235 2.593224,-0.4361057 -8.35129 2.517683,0.2934036 -7.693592 1.724338,0.342607 -8.275639 2.472963,0.03014851 -8.654726 2.265939,-0.1380119 -8.494459 2.004664,0.5579977 -8.056141 1.702329,0.6617088 -8.251854 2.177484,0.4079056 -8.415649 2.176315,0.2082424 -8.322205 2.076054,-9.452467 -9.800566 1.204633,-8.822342 -9.279089 1.36633,-8.379615 -8.530397 1.567755,-8.11665 -7.796709 1.852133,-7.913052 -7.154764 2.149771,-8.794904 -7.023368 1.211725,-8.706298 -5.899763 1.387967,-8.646418 -5.245725 1.563314,-8.585082 -4.699699 1.655021,-9.137134 -6.904829 1.334758,-9.097366 -5.59844 1.455133,-9.051593 -4.812236 1.660111,-8.992452 -4.163763 1.787284,-9.465652 -7.017766 1.490866,-9.48466 -5.789781 1.621761,-9.46363 -5.045662 1.805001,-9.397036 -4.444663 1.928098,-9.79647 -7.307035 1.673923,-9.901958 -6.356922 1.828977,-9.914399 -5.752032 1.951087,-9.870822 -5.212949 1.999453,4.810,
-0.2743106 -9.106791 -0.3086161,-0.6617599 -8.637539 0.5806197,-0.8814716 -8.170918 1.23111,-0.7425284 -7.822719 1.682699,-0.3608632 -7.772516 1.988248,-0.4963732 -7.566019 1.231136,-0.2890377 -7.644504 1.98111,-0.2716928 -7.556093 2.151253,-0.24752 -7.34782 2.152239,-0.06449509 -7.630945 1.003189,0.1320515 -8.021805 1.81884,-0.1527643 -8.377363 1.693326,-0.3331261 -8.257929 1.509273,0.2979584 -7.850028 0.884593,0.4439192 -8.186819 1.652751,0.1390905 -8.501778 1.379563,-0.03334808 -8.365637 1.063041,0.550983 -8.121307 0.8501976,0.7102575 -8.109404 1.307924,0.4743481 -8.232922 1.281826,0.2846012 -8.170341 1.146412,-9.446106 -9.736155 1.085456,-8.822884 -9.247185 1.260917,-8.380685 -8.52165 1.470766,-8.109766 -7.809226 1.761159,-7.88796 -7.174512 2.057539,-8.80363 -6.994996 1.105084,-8.71038 -5.869594 1.283051,-8.651473 -5.207565 1.459869,-8.59016 -4.652757 1.559557,-9.135884 -6.874789 1.228871,-9.092844 -5.571996 1.357521,-9.047459 -4.784158 1.56479,-8.995361 -4.130118 1.685629,-9.456619 -6.994737 1.386552,-9.471203 -5.773163 1.524947,-9.447598 -5.026469 1.718049,-9.38442 -4.407475 1.84783,-9.781551 -7.296373 1.571609,-9.890991 -6.374446 1.739194,-9.906221 -5.775354 1.877302,-9.872468 -5.233489 1.936512,4.910,
-0.05071831 -7.996027 -1.632467,-0.4650192 -7.836496 -0.8058294,-0.7335362 -7.698513 -0.1337311,-0.6953096 -7.430201 0.3742063,-0.3864679 -7.471836 0.710099,-0.4618025 -7.993865 0.1485944,-0.1625261 -8.284599 0.9128397,-0.2192264 -8.147526 1.109806,-0.3303194 -7.912698 1.110688,-0.05490208 -8.044479 -0.02563572,0.2903032 -8.426668 0.8406498,0.02405357 -8.321524 0.8441279,-0.2138491 -8.026512 0.7567065,0.2890053 -8.069765 -0.1447202,0.5540667 -8.376688 0.6135919,0.2775054 -8.272058 0.4854004,0.05105686 -7.965787 0.2986381,0.5246754 -8.015097 -0.1825829,0.8108811 -8.11875 0.3381314,0.6012774 -7.996636 0.4480815,0.3527045 -7.828426 0.4710701,-9.409561 -9.698662 0.9059734,-8.78985 -9.247993 1.117442,-8.356552 -8.522646 1.328114,-8.091133 -7.813787 1.605799,-7.873888 -7.192552 1.882544,-8.800674 -7.000124 0.9474707,-8.70241 -5.886047 1.11347,-8.64389 -5.223907 1.280611,-8.586237 -4.663751 1.37604,-9.133631 -6.884729 1.03644,-9.085197 -5.59275 1.1639,-9.040526 -4.808543 1.357221,-8.991127 -4.150623 1.473378,-9.451013 -7.003995 1.16681,-9.458106 -5.795959 1.302514,-9.435027 -5.051898 1.479728,-9.380366 -4.435881 1.59235,-9.771933 -7.305691 1.324704,-9.875828 -6.39269 1.491501,-9.893951 -5.799064 1.627657,-9.871155 -5.264485 1.68222,5.010,Right Hand Closed 
-0.1751938 -8.652542 -0.1722994,-0.5828094 -8.293056 0.6728713,-0.7864594 -7.888446 1.356578,-0.6224813 -7.620055 1.853963,-0.2857885 -7.546483 2.140863,-0.2524281 -7.355566 1.565178,-0.02485657 -7.509796 2.288979,-0.1624641 -7.825788 2.282489,-0.298068 -7.887402 2.115288,0.129324 -7.405714 1.393531,0.3144059 -7.676815 2.155292,0.06768036 -7.989051 2.072976,-0.1054258 -7.972322 1.976432,0.4338531 -7.583454 1.25383,0.5823545 -7.824224 1.880243,0.3473225 -8.086664 1.6983,0.1998582 -8.065039 1.519337,0.6466174 -7.841209 1.18946,0.8446908 -7.806646 1.527552,0.6336384 -7.989246 1.557206,0.4527025 -8.040871 1.525666,-9.39172 -9.697817 0.8724254,-8.779649 -9.253393 1.086262,-8.35083 -8.554003 1.318307,-8.08465 -7.869499 1.619958,-7.852239 -7.270856 1.921651,-8.803952 -7.005218 0.932136,-8.707181 -5.893836 1.099405,-8.643942 -5.240346 1.266627,-8.582422 -4.686258 1.371152,-9.134063 -6.893075 1.028651,-9.086715 -5.622449 1.165722,-9.037803 -4.844064 1.357119,-8.985511 -4.1983 1.479347,-9.447933 -7.017707 1.167632,-9.457117 -5.829739 1.307843,-9.431289 -5.085675 1.481276,-9.375749 -4.469091 1.593314,-9.763674 -7.327629 1.333823,-9.866225 -6.41268 1.504767,-9.88043 -5.813505 1.64325,-9.854203 -5.270459 1.700906,5.110,Right Hand Closed 
-0.3478026 -8.383778 -0.05563912,-0.6901369 -8.136654 0.9069007,-0.8813396 -7.749712 1.617963,-0.6522446 -7.430076 2.066041,-0.268929 -7.463647 2.319782,-0.4233155 -7.423994 1.927796,-0.03489685 -8.0791 2.59532,-0.210763 -8.220354 2.586201,-0.4051385 -8.016493 2.48938,-0.01493645 -7.298234 1.66085,0.3363786 -8.265759 2.32664,0.01386642 -8.426437 2.054964,-0.2343659 -8.097878 1.868003,0.3176041 -7.370735 1.46847,0.5556221 -8.260893 2.065346,0.2421885 -8.443262 1.733434,0.03125095 -8.181868 1.461382,0.5294976 -7.494031 1.369612,0.7809033 -8.03466 1.82073,0.5409279 -8.18045 1.811263,0.3188925 -8.084545 1.766487,-9.380689 -9.676315 0.782195,-8.77296 -9.254141 1.029055,-8.347489 -8.549105 1.252548,-8.096885 -7.861054 1.54475,-7.874201 -7.265485 1.829836,-8.789449 -7.018222 0.8443538,-8.695041 -5.927927 1.018078,-8.633202 -5.282042 1.193162,-8.572523 -4.7208 1.303081,-9.123088 -6.897029 0.9291387,-9.08481 -5.653972 1.068829,-9.044958 -4.895309 1.266305,-8.996029 -4.259315 1.397052,-9.439862 -7.007556 1.064386,-9.453305 -5.835912 1.20965,-9.432729 -5.10805 1.395735,-9.378045 -4.499408 1.527363,-9.760347 -7.299819 1.230354,-9.871702 -6.412551 1.407524,-9.897476 -5.819536 1.553979,-9.879939 -5.274172 1.631856,5.210,Right Hand Closed 
-0.3761759 -8.220985 -0.6366311,-0.7377777 -7.892576 0.2654645,-0.8918676 -7.486682 0.9177015,-0.6710763 -7.230245 1.340632,-0.3429823 -7.283563 1.59208,-0.4813375 -7.484195 1.332451,-0.1573801 -8.077679 1.992057,-0.3084202 -8.100636 2.044425,-0.487741 -7.846742 1.974989,-0.0569706 -7.514285 1.088971,0.2058191 -8.326263 1.797042,-0.1113214 -8.324326 1.550597,-0.3468132 -7.986212 1.35048,0.2790861 -7.634557 0.9181368,0.4498105 -8.301807 1.577251,0.1343813 -8.308455 1.313027,-0.06700516 -8.051567 1.062942,0.4981666 -7.72705 0.8328478,0.6911726 -7.918281 1.330835,0.4772382 -7.744833 1.385747,0.2850904 -7.524391 1.396205,-9.376136 -9.626835 0.649121,-8.777229 -9.220896 0.8807166,-8.357237 -8.53923 1.104535,-8.098162 -7.872938 1.394219,-7.878404 -7.282211 1.679545,-8.803106 -7.002088 0.7287946,-8.713732 -5.888358 0.9109215,-8.65326 -5.232675 1.083988,-8.591475 -4.667309 1.188756,-9.131158 -6.886127 0.8214546,-9.083862 -5.615658 0.9862562,-9.043466 -4.838531 1.185399,-8.99632 -4.19309 1.314795,-9.446201 -7.007717 0.9589524,-9.453862 -5.80557 1.129409,-9.42872 -5.06119 1.319669,-9.369801 -4.444517 1.454255,-9.764328 -7.311819 1.122375,-9.874931 -6.411737 1.319214,-9.897155 -5.812473 1.472072,-9.876814 -5.271183 1.548136,5.310,Right Hand Closed 
-0.3481808 -8.127542 -1.52395,-0.6650286 -7.71059 -0.8034588,-0.8191729 -7.223356 -0.2152085,-0.6072364 -6.951505 0.2207685,-0.2844419 -6.974924 0.5075393,-0.6193147 -7.755957 0.21398,-0.3128033 -8.195894 0.8560749,-0.4018698 -8.047543 0.870708,-0.5399237 -7.701698 0.7707558,-0.225997 -7.951336 0.1003332,0.09594536 -8.33794 0.8298095,-0.1405859 -8.011612 0.5795835,-0.3596039 -7.618651 0.3444645,0.1365237 -8.075493 0.02746385,0.419095 -8.212397 0.747218,0.1585784 -7.81598 0.4840494,-0.06166983 -7.444427 0.2107788,0.4251795 -8.064878 0.03874201,0.6716909 -7.954219 0.5843409,0.4627953 -7.619858 0.6499439,0.2355423 -7.389433 0.6301711,-9.405447 -9.628582 0.6479496,-8.79222 -9.227551 0.8623461,-8.361189 -8.548193 1.070873,-8.101648 -7.864625 1.339987,-7.891569 -7.289017 1.607216,-8.811997 -7.004084 0.7214213,-8.717222 -5.891171 0.8644115,-8.666025 -5.230926 1.007947,-8.613002 -4.66629 1.098202,-9.144925 -6.888363 0.7986431,-9.094194 -5.613592 0.9190638,-9.056842 -4.835714 1.084352,-9.013349 -4.195735 1.194482,-9.462811 -7.010041 0.9129231,-9.462572 -5.816303 1.044875,-9.43941 -5.071548 1.200948,-9.387523 -4.455766 1.307809,-9.781658 -7.31645 1.052155,-9.888992 -6.421356 1.216793,-9.917136 -5.827791 1.351238,-9.90759 -5.29322 1.408943,5.410,Right Hand Closed 
-0.3487229 -7.743692 -0.5876742,-0.7092042 -7.618049 0.3073708,-0.9156728 -7.395216 1.021105,-0.7461433 -7.17145 1.512829,-0.4228945 -7.162483 1.806492,-0.6953573 -7.622476 1.513123,-0.3525462 -8.196531 2.197701,-0.4480963 -8.069761 2.312572,-0.6039166 -7.669384 2.337801,-0.2747431 -7.611183 1.312141,0.120048 -8.237432 2.148188,-0.1001182 -8.017555 2.072472,-0.3428283 -7.593503 2.015379,0.1089001 -7.616357 1.155369,0.3918285 -8.201241 1.863853,0.09499264 -8.141855 1.586689,-0.170095 -7.830282 1.337119,0.3826962 -7.582242 1.081748,0.6682978 -7.889043 1.640999,0.4221106 -7.78185 1.67947,0.1265111 -7.597923 1.673913,-9.400642 -9.645672 0.7169605,-8.797121 -9.248442 0.966714,-8.369242 -8.556183 1.191391,-8.106931 -7.876804 1.480098,-7.88341 -7.292154 1.764409,-8.805233 -7.011518 0.7993202,-8.711133 -5.901205 0.9658586,-8.657026 -5.239837 1.128239,-8.601472 -4.676231 1.227064,-9.139964 -6.885946 0.8735959,-9.085731 -5.619482 1.016244,-9.046407 -4.841871 1.203838,-9.002013 -4.197797 1.32573,-9.460825 -7.002319 0.992407,-9.462721 -5.806383 1.141564,-9.440133 -5.062965 1.318336,-9.385941 -4.45125 1.440991,-9.783434 -7.305208 1.138636,-9.892952 -6.40584 1.319737,-9.913561 -5.809946 1.463903,-9.89198 -5.279607 1.533398,5.510,Right Hand Closed 
-0.504169 -8.305506 -0.8268071,-0.7472963 -7.958603 -0.1315873,-0.8110266 -7.486982 0.4204569,-0.6066837 -7.124933 0.8461061,-0.3556247 -6.8996 1.174196,-0.3607144 -7.197528 0.7876868,-0.2513018 -7.624618 1.25418,-0.4348178 -7.916584 1.015124,-0.5626221 -7.869181 0.7133248,0.008185863 -7.364227 0.6658669,0.06475878 -7.945619 1.360547,-0.2533684 -8.212292 1.136114,-0.4377995 -8.156015 0.9273061,0.2930937 -7.584154 0.5778578,0.3633962 -7.95635 1.193514,0.06241083 -8.05619 0.918942,-0.1262536 -7.938491 0.6817345,0.4762611 -7.755092 0.5572414,0.5626926 -7.72133 1.007812,0.3575249 -7.638654 1.100007,0.1709642 -7.527055 1.135026,-9.393562 -9.654106 0.6821446,-8.783839 -9.233078 0.8859153,-8.3637 -8.5345 1.098799,-8.109265 -7.84593 1.381371,-7.885068 -7.25208 1.664308,-8.804586 -7.02433 0.7497364,-8.71384 -5.916242 0.9128177,-8.66004 -5.259271 1.076418,-8.605368 -4.699941 1.177983,-9.135736 -6.904265 0.841577,-9.093949 -5.634634 0.9813454,-9.050812 -4.856525 1.169584,-9.003605 -4.211566 1.293139,-9.451412 -7.013507 0.9711643,-9.458666 -5.817672 1.117776,-9.436309 -5.072361 1.291053,-9.383373 -4.456113 1.409685,-9.770022 -7.306039 1.126048,-9.864755 -6.378929 1.295876,-9.879081 -5.769294 1.430993,-9.853693 -5.214709 1.494632,5.610,
-0.3217793 -7.580236 -0.7854014,-0.6649246 -7.484203 0.1293707,-0.8729105 -7.303098 0.8001192,-0.724596 -7.108415 1.262373,-0.4176178 -7.065526 1.531452,-0.7226028 -7.583921 1.247661,-0.5011125 -8.114828 2.043095,-0.5299997 -7.88766 2.314291,-0.6162419 -7.386959 2.46529,-0.3145728 -7.594984 1.063899,-0.03125095 -8.122435 2.036399,-0.1826816 -7.825733 2.162538,-0.3656564 -7.316818 2.243722,0.06719303 -7.599643 0.9169178,0.3003197 -8.105021 1.774034,0.04881382 -7.999444 1.662307,-0.19841 -7.648311 1.500319,0.3586059 -7.548115 0.8384722,0.6160231 -7.720019 1.498216,0.4022822 -7.577522 1.604214,0.1139512 -7.382396 1.624736,-9.393593 -9.67193 0.7096156,-8.792643 -9.253443 0.9397103,-8.369349 -8.558159 1.163467,-8.107239 -7.882293 1.454293,-7.88107 -7.29714 1.743494,-8.827462 -7.028375 0.7889714,-8.733834 -5.936861 0.964853,-8.67155 -5.292367 1.137906,-8.610787 -4.733659 1.246942,-9.155207 -6.913021 0.8784212,-9.11221 -5.659885 1.029059,-9.0699 -4.895985 1.218092,-9.020868 -4.258931 1.339925,-9.465594 -7.030162 1.013087,-9.477098 -5.842191 1.162735,-9.454755 -5.104451 1.336703,-9.401695 -4.487344 1.458969,-9.776926 -7.331021 1.175018,-9.884293 -6.428965 1.350898,-9.90601 -5.823406 1.490113,-9.887279 -5.271656 1.559559,5.710,Right Hand Closed 
-0.2047257 -7.210666 -0.448487,-0.5831051 -7.121459 0.36461,-0.8351212 -7.081922 1.035358,-0.7182665 -6.907521 1.524832,-0.4662199 -6.888103 1.831525,-0.7642016 -7.80472 1.50971,-0.5269814 -8.233671 2.23046,-0.5643616 -7.914771 2.507596,-0.6505489 -7.406595 2.67768,-0.3419185 -7.888175 1.370256,-0.00232029 -8.24877 2.270162,-0.175416 -7.757926 2.36322,-0.3941808 -7.218593 2.418156,0.06462049 -7.803072 1.246196,0.3467684 -8.085152 2.022227,0.1013288 -7.717067 1.912946,-0.1642094 -7.296806 1.775323,0.3834076 -7.577461 1.188472,0.6413403 -7.650208 1.784166,0.4070706 -7.392349 1.905494,0.1071548 -7.148656 1.983009,-9.394188 -9.663763 0.5948667,-8.780684 -9.263136 0.8492143,-8.361188 -8.573551 1.079473,-8.10653 -7.892248 1.364365,-7.892782 -7.300266 1.651363,-8.81318 -7.052551 0.7489329,-8.720888 -5.919471 0.930404,-8.667829 -5.258838 1.089804,-8.61555 -4.690845 1.189605,-9.15586 -6.940913 0.8083619,-9.106416 -5.657736 0.9738722,-9.064393 -4.885378 1.162593,-9.016702 -4.241521 1.286927,-9.479538 -7.063337 0.9041519,-9.491167 -5.8568 1.072779,-9.472517 -5.114427 1.25538,-9.42428 -4.499725 1.381659,-9.799123 -7.363648 1.024147,-9.908549 -6.453068 1.213451,-9.927699 -5.857738 1.359268,-9.907055 -5.327051 1.426739,5.810,Right Hand Closed 
-0.2383423 -7.961652 -0.824442,-0.6500626 -7.773269 -0.008250594,-0.9071269 -7.64631 0.693042,-0.960897 -7.524232 1.215993,-0.833457 -7.453321 1.624401,-0.5080295 -7.598802 1.140492,-0.3441973 -7.570576 1.808942,-0.4560375 -7.495917 1.973061,-0.604136 -7.403738 2.02868,-0.1509542 -7.605564 0.9769311,0.08985233 -7.435134 1.750643,-0.08725548 -7.312889 1.810946,-0.3017406 -7.279335 1.826002,0.1593332 -7.598166 0.8056446,0.3954067 -7.444028 1.426299,0.2078218 -7.401712 1.326748,-0.001126289 -7.376209 1.196246,0.4011021 -7.606473 0.6919413,0.6587338 -7.321493 1.131368,0.4874663 -7.239112 1.213889,0.2629852 -7.237649 1.222916,-9.394195 -9.657404 0.6625636,-8.785817 -9.260065 0.8910035,-8.36679 -8.557926 1.106526,-8.119714 -7.866596 1.379111,-7.900601 -7.280801 1.653993,-8.809381 -7.040803 0.754873,-8.721374 -5.93888 0.9231138,-8.666988 -5.286703 1.088555,-8.614424 -4.730263 1.186037,-9.143916 -6.913255 0.8340832,-9.105019 -5.653004 0.9728339,-9.064108 -4.889802 1.146947,-9.016003 -4.26288 1.256515,-9.462379 -7.0184 0.9552338,-9.472582 -5.822858 1.099478,-9.450673 -5.09115 1.26108,-9.396446 -4.488974 1.37479,-9.782609 -7.307651 1.103387,-9.894278 -6.403993 1.269192,-9.92168 -5.80323 1.39762,-9.908604 -5.259962 1.46373,5.910,Right Hand Closed 
-0.148911 -8.119776 -0.5686929,-0.4832191 -8.123983 0.0504685,-0.7397099 -7.97843 0.6848203,-0.8984504 -7.861135 1.227606,-0.8927402 -7.832897 1.756089,-0.4689345 -7.053529 1.002093,-0.4491329 -7.077882 1.61147,-0.5039659 -7.26106 1.797429,-0.5815153 -7.353437 1.862378,-0.1280365 -6.936615 0.9323893,-0.05153275 -7.235635 1.62696,-0.1843228 -7.607219 1.698676,-0.3194132 -7.736293 1.729967,0.1788082 -7.028364 0.8561972,0.2218361 -7.583313 1.427755,0.05793762 -8.005579 1.220458,-0.09441042 -8.088535 1.000009,0.4241295 -7.204767 0.8341917,0.4840488 -7.492988 1.148242,0.2966981 -7.822839 1.053784,0.1155958 -7.943376 0.9215024,-9.392754 -9.692322 0.7103656,-8.789876 -9.279598 0.9175219,-8.372249 -8.565067 1.120575,-8.115173 -7.8716 1.388698,-7.882879 -7.27815 1.655874,-8.821856 -7.050385 0.7593145,-8.733602 -5.950703 0.9147178,-8.678476 -5.300094 1.077902,-8.624681 -4.741533 1.182565,-9.155755 -6.931164 0.8442596,-9.121275 -5.685268 0.9683516,-9.080051 -4.924131 1.143281,-9.031925 -4.297414 1.254457,-9.469856 -7.044258 0.9730424,-9.487158 -5.862262 1.105894,-9.467631 -5.1331 1.269242,-9.417026 -4.531095 1.383755,-9.782375 -7.340356 1.126721,-9.897479 -6.447471 1.287448,-9.921161 -5.850891 1.41925,-9.905885 -5.312454 1.484567,6.010,
-0.09267521 -7.490935 -1.339918,-0.4653544 -7.507267 -0.7656345,-0.7663169 -7.492551 -0.139172,-0.926877 -7.393636 0.3762498,-0.9571128 -7.273855 0.805105,-0.5619555 -7.964593 0.318733,-0.6101451 -7.82159 0.9402273,-0.7114348 -7.512342 1.215674,-0.8043094 -7.32427 1.418499,-0.2188401 -7.984542 0.2727246,-0.2641745 -7.415655 1.161938,-0.3985658 -6.847818 1.591841,-0.4850893 -6.611561 1.881185,0.1091309 -7.804885 0.1596265,0.05443668 -7.268632 0.7555113,-0.1414285 -7.121615 0.5495073,-0.274374 -7.196538 0.327334,0.3900352 -7.607382 0.1106805,0.3800201 -7.029672 0.4988118,0.1766424 -6.892238 0.4464046,0.007870674 -6.985949 0.3274634,-9.382602 -9.698563 0.7092053,-8.78426 -9.287804 0.9288682,-8.368357 -8.583111 1.143348,-8.11203 -7.901268 1.422785,-7.891033 -7.314897 1.704621,-8.823118 -7.057689 0.7731652,-8.73332 -5.958187 0.9458977,-8.675509 -5.30863 1.122015,-8.618071 -4.746452 1.231775,-9.153547 -6.938412 0.8679804,-9.111175 -5.688188 1.01337,-9.069367 -4.919048 1.202168,-9.019814 -4.281921 1.326571,-9.46995 -7.059103 1.008096,-9.480744 -5.871835 1.158299,-9.460815 -5.127355 1.334837,-9.4083 -4.507244 1.46286,-9.78916 -7.365361 1.173685,-9.904958 -6.466338 1.346976,-9.93437 -5.854375 1.485885,-9.922936 -5.301834 1.55746,6.110,
-0.3371382 -7.622888 -1.77467,-0.7755461 -7.759109 -1.006039,-1.056245 -7.988575 -0.3239748,-1.197221 -7.992849 0.2230855,-1.211975 -7.817947 0.6369768,-0.8003244 -7.731523 -0.06297654,-0.8299932 -7.265992 0.6040416,-0.9285026 -7.021909 0.8886028,-0.9780025 -7.116638 1.064082,-0.4032359 -7.646904 -0.2095391,-0.2275872 -6.94111 0.5029495,-0.3911047 -6.877931 0.5706828,-0.5450068 -7.131143 0.6198369,-0.07356644 -7.601018 -0.3137279,0.1152749 -6.988916 0.2170108,-0.07913876 -7.059814 0.06364983,-0.2664375 -7.295265 -0.06047362,0.1785092 -7.585411 -0.3415822,0.4040051 -7.083808 0.06990486,0.2488127 -7.042356 0.198039,0.04350471 -7.169554 0.2473596,-9.376362 -9.715445 0.6714156,-8.776958 -9.306673 0.8953794,-8.371731 -8.598217 1.11091,-8.126005 -7.90545 1.389063,-7.903877 -7.303445 1.667268,-8.829838 -7.080711 0.76364,-8.740189 -5.973546 0.9415925,-8.674321 -5.331505 1.110773,-8.608602 -4.781332 1.212033,-9.162766 -6.966249 0.8525327,-9.128901 -5.71421 0.9952846,-9.08191 -4.964567 1.173505,-9.024986 -4.347729 1.285579,-9.478579 -7.083076 0.9865527,-9.50165 -5.885936 1.128957,-9.481786 -5.154537 1.303172,-9.425471 -4.548633 1.42853,-9.792928 -7.381045 1.146065,-9.917309 -6.480917 1.310335,-9.948403 -5.876831 1.449397,-9.935986 -5.331794 1.522708,6.210,Right Hand Closed 
-0.26086 -8.17288 -1.285265,-0.7381592 -7.927115 -0.6569692,-1.072522 -7.798939 0.0147109,-1.219656 -7.724396 0.5930125,-1.131927 -7.640308 1.03682,-0.6921253 -7.540567 0.3887649,-0.7204752 -6.862394 0.9909937,-0.8881922 -6.874475 1.119655,-1.001716 -7.079652 1.127283,-0.2970529 -7.562772 0.308099,-0.2442474 -6.665203 0.906117,-0.4365768 -6.758819 0.8576562,-0.5615749 -7.039466 0.803117,0.0360775 -7.609176 0.2292455,0.10111 -6.831497 0.6380051,-0.1215963 -6.963596 0.4125679,-0.2546711 -7.204441 0.2270494,0.294723 -7.690396 0.2123471,0.4310279 -7.02152 0.5060771,0.2312193 -7.050099 0.5102991,0.05762529 -7.214145 0.4602222,-9.3949 -9.709991 0.607073,-8.789807 -9.307617 0.8035865,-8.375683 -8.603193 1.007003,-8.119877 -7.924695 1.281302,-7.894728 -7.347429 1.562715,-8.83236 -7.091579 0.6482269,-8.745308 -5.982118 0.8130348,-8.679925 -5.333574 0.9851575,-8.613773 -4.777853 1.087978,-9.163925 -6.978639 0.7538684,-9.124048 -5.724533 0.8899391,-9.074926 -4.964942 1.068686,-9.016519 -4.339592 1.181129,-9.481767 -7.090298 0.9021129,-9.495239 -5.889821 1.041475,-9.472793 -5.151226 1.209661,-9.416205 -4.542157 1.326013,-9.8 -7.384948 1.074402,-9.92271 -6.46887 1.234329,-9.955635 -5.85482 1.362436,-9.947968 -5.308338 1.427226,6.310,Right Hand Closed 
-0.3620157 -8.07198 -1.0683,-0.7939658 -8.038921 -0.2632985,-1.106729 -8.041224 0.476794,-1.249613 -7.953043 1.053985,-1.208007 -7.825374 1.503808,-0.8984861 -7.650405 0.7599474,-0.8975325 -7.236757 1.504493,-0.9641037 -7.047136 1.820384,-1.026354 -7.060527 2.009512,-0.4761419 -7.589496 0.6292654,-0.3129988 -6.956853 1.441056,-0.4183345 -6.876997 1.567788,-0.548089 -7.026809 1.639882,-0.1046729 -7.60194 0.5428568,0.08629322 -7.068828 1.193737,-0.1077223 -7.135427 1.086379,-0.3165455 -7.28809 0.9656316,0.1922903 -7.676794 0.5220013,0.4091692 -7.174764 1.007489,0.2556391 -7.070452 1.147545,0.04672766 -7.09979 1.185468,-9.392544 -9.705956 0.6338271,-8.789932 -9.317497 0.8356653,-8.377343 -8.606646 1.032381,-8.128896 -7.917574 1.300378,-7.905787 -7.337049 1.575725,-8.834338 -7.085784 0.6671042,-8.748659 -5.983002 0.824188,-8.687662 -5.329954 0.9881983,-8.626257 -4.772226 1.086011,-9.167349 -6.965507 0.7620747,-9.128736 -5.710592 0.8859489,-9.083092 -4.949739 1.057167,-9.029213 -4.324535 1.162926,-9.484868 -7.072853 0.899497,-9.49894 -5.872165 1.030161,-9.477052 -5.139894 1.191181,-9.421311 -4.538952 1.305067,-9.803384 -7.361586 1.062995,-9.920204 -6.447326 1.214277,-9.948319 -5.844404 1.331957,-9.935503 -5.310012 1.389426,6.410,
-0.3578424 -8.446571 -1.149878,-0.7905159 -8.538303 -0.3793023,-1.043352 -8.493099 0.2610775,-1.1882 -8.316319 0.7782395,-1.265652 -8.098919 1.235363,-0.8898315 -7.404058 0.2372139,-0.9530635 -6.851123 0.9800419,-0.999917 -6.848113 1.422537,-0.9999475 -7.057706 1.687765,-0.5177341 -7.241272 0.1020913,-0.4058752 -6.503892 0.9128551,-0.465147 -6.98635 1.146748,-0.5570097 -7.464343 1.207292,-0.1818523 -7.264724 0.0221321,-0.02920389 -6.680898 0.7183438,-0.1484852 -7.285261 0.684817,-0.2941504 -7.731195 0.5411916,0.09911537 -7.395338 0.01395041,0.305789 -6.878374 0.4960203,0.2015171 -7.217493 0.5788197,0.04505682 -7.546279 0.5071689,-9.392576 -9.724634 0.6152488,-8.804943 -9.322084 0.8414499,-8.405996 -8.612495 1.053023,-8.161271 -7.929695 1.331868,-7.938527 -7.349168 1.618336,-8.858426 -7.099761 0.685401,-8.774624 -5.992405 0.8698294,-8.711927 -5.343667 1.047239,-8.647585 -4.783762 1.158279,-9.189107 -6.989694 0.7787541,-9.154125 -5.735202 0.9284378,-9.113233 -4.975322 1.116209,-9.061525 -4.346477 1.231748,-9.502261 -7.108256 0.9156295,-9.529255 -5.909763 1.069226,-9.516793 -5.175 1.256189,-9.470356 -4.565408 1.384759,-9.81335 -7.40919 1.081421,-9.932375 -6.505918 1.252474,-9.961747 -5.908582 1.389422,-9.950611 -5.371349 1.456404,6.510,Right Hand Closed 
-0.3769031 -8.145699 -1.028601,-0.7994261 -8.228395 -0.180935,-1.099866 -8.233524 0.5567346,-1.240859 -8.092503 1.148285,-1.205658 -7.866495 1.646776,-0.9107733 -7.54681 0.710329,-0.9680023 -7.116834 1.540065,-1.012271 -7.034662 1.991937,-1.029761 -7.147729 2.249179,-0.5132866 -7.41048 0.5866643,-0.421433 -6.748342 1.504235,-0.4899993 -6.979555 1.7586,-0.5752988 -7.316272 1.872772,-0.1566372 -7.389686 0.5077582,-0.0256424 -6.857725 1.262416,-0.1462088 -7.211901 1.237645,-0.2801399 -7.494033 1.112279,0.1349697 -7.444091 0.4972722,0.3138838 -6.984081 0.9985268,0.2101502 -7.17876 1.088573,0.05778074 -7.381805 1.045819,-9.388482 -9.723824 0.6631073,-8.800161 -9.320713 0.8647479,-8.403011 -8.609369 1.059129,-8.159634 -7.928705 1.323033,-7.932336 -7.356663 1.587672,-8.855704 -7.088609 0.6995975,-8.773592 -5.990842 0.8738761,-8.711287 -5.341811 1.041685,-8.648726 -4.781082 1.142655,-9.185368 -6.973844 0.8033717,-9.155145 -5.730977 0.9432716,-9.11173 -4.97126 1.129089,-9.058437 -4.344335 1.247863,-9.500013 -7.092286 0.9520431,-9.529837 -5.900344 1.096216,-9.511648 -5.169038 1.274523,-9.456507 -4.565372 1.406737,-9.812011 -7.394182 1.126156,-9.93511 -6.488048 1.290834,-9.956878 -5.887715 1.427582,-9.93332 -5.352347 1.501387,6.610,
-0.4150376 -8.317854 -0.7033858,-0.8295164 -8.386368 0.1396755,-1.148402 -8.401882 0.867117,-1.306417 -8.330709 1.448814,-1.308018 -8.141195 1.9322,-0.973772 -7.449857 1.001209,-1.014373 -7.029874 1.843932,-1.038233 -6.97802 2.259893,-1.047137 -7.068535 2.486211,-0.5454016 -7.328482 0.8814846,-0.4316173 -6.757555 1.874743,-0.5142679 -7.0237 2.139744,-0.6187034 -7.270988 2.207531,-0.1593981 -7.344744 0.8134764,-0.006977081 -6.918752 1.633484,-0.1596432 -7.298579 1.553059,-0.3228951 -7.499508 1.357292,0.1633902 -7.458227 0.8086567,0.3547864 -7.022527 1.327942,0.2025938 -7.230615 1.386905,0.0155735 -7.401163 1.305088,-9.43212 -9.742334 0.6678677,-8.835649 -9.333628 0.8558767,-8.422617 -8.62505 1.047923,-8.169325 -7.935783 1.316021,-7.947855 -7.340545 1.59152,-8.872595 -7.113178 0.6691664,-8.786099 -6.024024 0.8169396,-8.724607 -5.372673 0.9796823,-8.663593 -4.824234 1.070537,-9.198397 -6.991868 0.7735437,-9.161734 -5.745203 0.879998,-9.119057 -4.980182 1.043694,-9.071173 -4.356653 1.147698,-9.512592 -7.099716 0.9242039,-9.52708 -5.909212 1.042573,-9.505312 -5.17774 1.204297,-9.452517 -4.580064 1.32279,-9.829803 -7.397506 1.100271,-9.953752 -6.491405 1.251832,-9.98899 -5.891145 1.379376,-9.98482 -5.358743 1.445365,6.710,
-0.3027496 -8.329641 -0.5205735,-0.7726355 -8.325562 0.2638263,-1.160058 -8.302906 1.015232,-1.358162 -8.210098 1.619084,-1.29605 -8.11981 2.115497,-0.8304505 -7.755468 1.374822,-0.9222279 -7.245525 2.159594,-1.005754 -7.130935 2.513267,-1.073698 -7.222408 2.69784,-0.4199877 -7.69617 1.293603,-0.3336773 -7.011522 2.23786,-0.4540119 -6.993379 2.480515,-0.5758867 -7.189944 2.622712,-0.05424118 -7.692642 1.227174,0.06884098 -7.116613 1.923233,-0.1065869 -7.184993 1.884974,-0.2833595 -7.337432 1.777093,0.2456355 -7.722917 1.223333,0.406445 -7.157055 1.690848,0.2435274 -7.140478 1.773839,0.03536558 -7.244197 1.763337,-9.4739 -9.782656 0.7012457,-8.868722 -9.366533 0.8993878,-8.451599 -8.650234 1.095119,-8.198828 -7.95309 1.36361,-7.975586 -7.350236 1.647621,-8.889715 -7.152167 0.7306886,-8.806689 -6.049089 0.8898252,-8.74608 -5.396507 1.060217,-8.687222 -4.82755 1.160019,-9.215874 -7.02601 0.8359376,-9.171721 -5.778886 0.9518671,-9.121561 -5.009027 1.134801,-9.066092 -4.369422 1.250334,-9.5344 -7.129506 0.9887922,-9.545675 -5.928022 1.118612,-9.519297 -5.179878 1.310329,-9.464442 -4.56248 1.445772,-9.860231 -7.417619 1.167108,-9.969753 -6.479801 1.330501,-9.992692 -5.856051 1.479053,-9.97505 -5.291393 1.554195,6.810,Right Hand Closed 
-0.4211283 -8.501711 -0.3217794,-0.8597331 -8.525833 0.5368035,-1.184907 -8.483944 1.270419,-1.30079 -8.399508 1.855587,-1.194689 -8.267653 2.299652,-0.9168634 -7.398167 1.35287,-0.8592167 -7.10297 2.184301,-0.8934593 -7.316757 2.490602,-0.9367495 -7.512654 2.579251,-0.492023 -7.268854 1.228285,-0.3196926 -6.964195 2.226754,-0.4320955 -7.457552 2.415617,-0.5669298 -7.689676 2.413715,-0.1092577 -7.298824 1.155311,0.07808065 -7.026426 1.95551,-0.07724571 -7.51674 1.843752,-0.242382 -7.699668 1.642877,0.2079477 -7.441946 1.154767,0.4259167 -7.122013 1.629417,0.2690926 -7.455537 1.689978,0.07845974 -7.6669 1.603939,-9.478201 -9.815834 0.7329338,-8.869439 -9.384041 0.901911,-8.458649 -8.646534 1.087268,-8.215781 -7.946268 1.351546,-7.995475 -7.33694 1.6251,-8.908247 -7.16624 0.7306057,-8.829916 -6.061072 0.8911445,-8.770706 -5.404871 1.064964,-8.710226 -4.832939 1.164986,-9.233202 -7.048126 0.8503559,-9.195362 -5.807146 0.9615759,-9.149426 -5.036315 1.142917,-9.09458 -4.396051 1.255218,-9.548767 -7.155358 1.015791,-9.565076 -5.955827 1.143607,-9.54453 -5.203691 1.330326,-9.492664 -4.582047 1.458276,-9.871233 -7.446933 1.202692,-9.98852 -6.507072 1.363597,-10.01811 -5.879882 1.507368,-10.00733 -5.315357 1.577511,6.910,Right Hand Closed 
-0.3491006 -8.69849 0.2545719,-0.8506937 -8.674259 1.168302,-1.189968 -8.565386 1.959788,-1.279268 -8.479122 2.601934,-1.171094 -8.340216 3.107139,-0.8786087 -7.429611 2.006705,-0.8356657 -7.142129 2.92247,-0.8294907 -7.453159 3.300188,-0.841239 -7.704813 3.431826,-0.4120188 -7.301486 1.883015,-0.2587867 -6.985013 3.008335,-0.3549404 -7.567358 3.2569,-0.4785666 -7.870484 3.268709,-0.008344173 -7.382997 1.81561,0.1514769 -7.142251 2.722466,0.001636982 -7.698059 2.637918,-0.1522117 -7.901763 2.42731,0.3171821 -7.598821 1.819303,0.5048022 -7.264929 2.348334,0.3495784 -7.647544 2.400051,0.1716518 -7.860042 2.307715,-9.490821 -9.850784 0.7885983,-8.89102 -9.422621 0.9739819,-8.484264 -8.681648 1.163753,-8.234438 -7.981681 1.429249,-8.008343 -7.372589 1.709097,-8.956013 -7.18513 0.768019,-8.881493 -6.081758 0.9243516,-8.817582 -5.428707 1.094275,-8.752599 -4.868459 1.19512,-9.28456 -7.063013 0.8803415,-9.250953 -5.809921 0.9936595,-9.207253 -5.041356 1.175473,-9.15396 -4.403306 1.287885,-9.600357 -7.168746 1.042267,-9.622167 -5.955496 1.170248,-9.597272 -5.208866 1.350648,-9.53545 -4.595791 1.475269,-9.918465 -7.462871 1.230603,-10.03831 -6.526865 1.397821,-10.0646 -5.900705 1.540492,-10.04702 -5.340489 1.610413,7.010,Right Hand Closed 
-0.3331432 -8.780766 0.9477128,-0.8242316 -8.684614 1.966703,-1.178512 -8.522449 2.809008,-1.273499 -8.357637 3.458866,-1.146472 -8.204794 3.982111,-0.8266525 -7.44291 2.939905,-0.7767115 -7.35844 3.869392,-0.7750697 -7.618793 4.15396,-0.8218131 -7.723758 4.224288,-0.343472 -7.326976 2.787187,-0.2212448 -7.195297 3.971701,-0.3217554 -7.570268 4.260532,-0.4406028 -7.703493 4.342,0.07944155 -7.40529 2.673835,0.1901393 -7.460578 3.658514,0.003664017 -7.917306 3.547282,-0.1841435 -8.006037 3.280497,0.4168434 -7.628377 2.632578,0.5593557 -7.462906 3.222692,0.3682961 -7.76221 3.226794,0.1555767 -7.887386 3.073943,-9.528753 -9.844954 0.8430764,-8.919909 -9.424686 1.002409,-8.497857 -8.698845 1.181996,-8.247908 -7.996047 1.443631,-8.024567 -7.385516 1.707155,-8.964923 -7.178346 0.7860262,-8.889039 -6.084155 0.9116176,-8.828571 -5.426178 1.061929,-8.766148 -4.870338 1.150349,-9.296778 -7.0426 0.897034,-9.263096 -5.801309 0.9782734,-9.224336 -5.031716 1.144795,-9.17374 -4.407756 1.248817,-9.616336 -7.140097 1.051797,-9.634977 -5.948675 1.152417,-9.611411 -5.209129 1.312193,-9.544577 -4.610409 1.427524,-9.937881 -7.4302 1.232557,-10.05134 -6.506114 1.384351,-10.07266 -5.884562 1.517297,-10.04406 -5.334204 1.58011,7.110,Right Hand Closed 
-0.2719707 -8.834673 0.9387838,-0.7723007 -8.638685 1.962263,-1.131056 -8.442823 2.839422,-1.217207 -8.301098 3.523829,-1.060074 -8.26614 4.054737,-0.7134638 -7.681461 3.15746,-0.6336141 -7.56203 4.079565,-0.7114019 -7.725032 4.212898,-0.8244886 -7.693944 4.160009,-0.2202005 -7.694881 2.984344,-0.08588791 -7.548368 4.208385,-0.2598534 -7.655305 4.390693,-0.4242849 -7.580529 4.37666,0.1990414 -7.775655 2.851293,0.3152518 -7.767473 3.870037,0.05533266 -7.895393 3.676821,-0.1849842 -7.778397 3.339251,0.5115681 -7.929643 2.781603,0.6772175 -7.677028 3.421153,0.4384456 -7.703449 3.464209,0.1821585 -7.680498 3.327979,-9.523399 -9.870871 0.7853209,-8.912668 -9.434416 0.9808521,-8.496292 -8.697849 1.18176,-8.250998 -7.983728 1.452237,-8.041285 -7.344308 1.724602,-8.975541 -7.21471 0.805603,-8.901327 -6.099645 0.9650883,-8.842266 -5.447193 1.130699,-8.783211 -4.88882 1.224681,-9.305953 -7.086084 0.9087838,-9.270131 -5.826204 1.025774,-9.226149 -5.054395 1.214415,-9.175463 -4.420335 1.335964,-9.624533 -7.192066 1.060411,-9.64234 -5.977894 1.190528,-9.61982 -5.23361 1.379757,-9.561338 -4.624626 1.512533,-9.94779 -7.488348 1.234239,-10.06131 -6.543947 1.405098,-10.08373 -5.914458 1.559205,-10.05881 -5.347845 1.637195,7.210,Right Hand Closed 
-0.1073871 -8.17169 0.487226,-0.6271276 -8.090214 1.287987,-1.040378 -8.153767 2.063266,-1.259034 -8.061218 2.654777,-1.257671 -8.007099 3.136356,-0.5665979 -8.531666 2.76695,-0.6004343 -8.292595 3.606193,-0.7092972 -7.822467 3.865521,-0.8151126 -7.419548 3.993492,-0.1176329 -8.562492 2.665683,-0.06571627 -8.052235 3.751581,-0.2413454 -7.380927 4.089176,-0.3853512 -6.954488 4.283271,0.2640343 -8.401276 2.514492,0.369966 -7.853556 3.313034,0.1213508 -7.270476 3.34012,-0.1256809 -6.888202 3.290013,0.5413809 -8.179983 2.410196,0.7134433 -7.578973 2.950326,0.4990253 -7.158359 3.098386,0.2432346 -6.93754 3.15275,-9.509132 -9.899973 0.8482509,-8.907938 -9.457727 1.01215,-8.499654 -8.7201 1.197214,-8.251862 -8.010475 1.462368,-8.039237 -7.39071 1.725277,-8.995834 -7.214466 0.8106985,-8.930859 -6.10264 0.9379436,-8.87485 -5.44686 1.087104,-8.81616 -4.894369 1.182101,-9.331059 -7.092561 0.919553,-9.303336 -5.839517 1.014351,-9.263712 -5.078443 1.186887,-9.216204 -4.463014 1.297884,-9.647263 -7.197158 1.072877,-9.678621 -5.985776 1.186022,-9.654546 -5.250122 1.355327,-9.585138 -4.650951 1.47471,-9.960369 -7.487957 1.248281,-10.07877 -6.537727 1.409986,-10.09181 -5.916946 1.549064,-10.04924 -5.365423 1.615766,7.310,
-0.114625 -8.206242 0.8900685,-0.5587912 -8.085316 1.858607,-0.8220224 -7.841247 2.675786,-0.8447485 -7.730063 3.300498,-0.7066922 -7.673516 3.749502,-0.4560242 -6.965697 2.999409,-0.3615541 -7.143025 3.857265,-0.4558382 -7.619285 3.913902,-0.5612297 -7.828196 3.794855,-0.0183382 -6.986654 2.870826,0.07210732 -7.552188 3.90281,-0.1464071 -8.100248 3.937981,-0.3436222 -8.184177 3.907303,0.3536534 -7.193901 2.761855,0.4143505 -7.861288 3.641711,0.1727514 -8.336874 3.450016,-0.04564762 -8.35038 3.198396,0.6232805 -7.468412 2.733186,0.7514248 -7.735832 3.266893,0.5165477 -8.064716 3.304019,0.2756 -8.134706 3.240092,-9.490388 -9.914337 0.8532488,-8.893373 -9.46377 1.051516,-8.49131 -8.718111 1.247009,-8.252275 -7.999984 1.513487,-8.034187 -7.373167 1.776332,-8.982321 -7.229206 0.8974437,-8.916699 -6.126026 1.070275,-8.858192 -5.473935 1.243188,-8.796643 -4.915914 1.34251,-9.326182 -7.107563 0.9994587,-9.309903 -5.855331 1.126486,-9.272455 -5.091724 1.317328,-9.220739 -4.478141 1.442584,-9.646768 -7.220234 1.150284,-9.690626 -6.012618 1.289635,-9.671911 -5.278418 1.472165,-9.603137 -4.678813 1.602864,-9.960461 -7.525133 1.323445,-10.09209 -6.586065 1.500987,-10.11593 -5.961168 1.651322,-10.08035 -5.400477 1.730223,7.410,
0.06233168 -7.45906 0.6138914,-0.3241854 -7.430036 1.491416,-0.5383272 -7.393579 2.211201,-0.6064854 -7.11029 2.748901,-0.557785 -6.758754 3.181362,-0.4492331 -8.428366 2.688813,-0.4956546 -8.671606 3.520019,-0.6184139 -8.303844 3.979735,-0.7234864 -7.828891 4.3147,-0.05334377 -8.581991 2.559232,-0.02224874 -8.541023 3.669204,-0.1745539 -7.838987 4.289388,-0.3641577 -7.247034 4.731296,0.3444152 -8.386984 2.363916,0.4227033 -8.104769 3.320272,0.198082 -7.544437 3.446427,-0.1116381 -7.165727 3.4288,0.6542959 -8.08786 2.218899,0.7784691 -7.583145 2.831666,0.5357728 -7.247335 2.91469,0.1936564 -7.118821 2.915133,-9.482908 -9.926067 0.8204448,-8.886394 -9.475262 1.029011,-8.489212 -8.738111 1.227585,-8.253406 -8.029079 1.492253,-8.030391 -7.414398 1.752168,-8.964653 -7.246252 0.8947909,-8.892586 -6.146236 1.071504,-8.835285 -5.495109 1.243895,-8.779362 -4.93264 1.351428,-9.307408 -7.130724 0.9900889,-9.291112 -5.886901 1.125388,-9.260848 -5.1275 1.32315,-9.214683 -4.508287 1.456626,-9.628005 -7.24555 1.129641,-9.675071 -6.061609 1.274732,-9.666796 -5.329469 1.458169,-9.60542 -4.721782 1.588691,-9.94002 -7.5472 1.293163,-10.06561 -6.62504 1.470797,-10.08671 -6.005395 1.61657,-10.04697 -5.446105 1.687922,7.510,
0.05616283 -8.412462 1.379678,-0.6198473 -7.849676 2.373173,-0.8545609 -7.687767 3.172779,-0.8781872 -7.738045 3.797479,-0.8004823 -7.741477 4.27048,-0.4842253 -6.731679 3.390846,-0.4194431 -7.011257 4.325592,-0.4689035 -7.660122 4.459232,-0.5225081 -8.032028 4.354021,-0.07563639 -6.837248 3.274992,0.06381512 -7.338666 4.381465,-0.1141334 -8.050743 4.46107,-0.2908845 -8.279921 4.398722,0.2740574 -7.08184 3.198617,0.4233508 -7.664396 4.186881,0.1953306 -8.290756 4.103847,-0.02414417 -8.45047 3.889644,0.539813 -7.391704 3.206208,0.7301321 -7.587625 3.811094,0.5096869 -7.949024 3.927132,0.265872 -8.08395 3.916613,-9.512408 -9.905727 0.7604789,-8.904351 -9.479214 0.9570301,-8.492643 -8.752834 1.151702,-8.246737 -8.038893 1.411788,-8.027469 -7.415184 1.667569,-8.979636 -7.259869 0.8281269,-8.90473 -6.158723 0.9947836,-8.848116 -5.505954 1.157821,-8.790847 -4.949233 1.253131,-9.324305 -7.127815 0.9206312,-9.295498 -5.872836 1.045829,-9.260061 -5.115573 1.217027,-9.210882 -4.504781 1.331859,-9.646763 -7.225255 1.056182,-9.677118 -6.014471 1.187716,-9.656314 -5.28469 1.352937,-9.586946 -4.7005 1.471063,-9.963306 -7.511117 1.213991,-10.08352 -6.565594 1.380838,-10.10279 -5.947287 1.508293,-10.06605 -5.413677 1.569003,7.610,
-0.07674456 -8.650259 -1.39171,0.3037982 -8.018806 -1.045961,0.4543943 -7.322719 -0.6618117,0.4055405 -6.878601 -0.3675451,0.2386298 -6.551179 -0.1264395,0.08089638 -7.33538 -0.07912493,0.01395273 -6.908532 0.4883444,-0.06024647 -6.620397 0.7429508,-0.1057792 -6.430982 0.8935846,-0.1514754 -7.677408 -0.02889168,-0.2712469 -7.283291 0.6555091,-0.347425 -6.891765 1.038373,-0.392046 -6.635243 1.317421,-0.3277125 -8.002098 -0.02711475,-0.4388461 -7.662923 0.5391878,-0.4692459 -7.428236 0.71232,-0.4726896 -7.305908 0.829121,-0.4391088 -8.318905 -0.01366997,-0.5515471 -7.962183 0.3756604,-0.5877872 -7.777598 0.541903,-0.5747275 -7.666265 0.6536654,-9.559168 -9.926004 0.8954467,-8.94302 -9.501087 1.074824,-8.522339 -8.756809 1.260641,-8.277061 -8.036247 1.52246,-8.068074 -7.401115 1.786167,-9.010526 -7.235107 0.8341265,-8.94941 -6.149263 0.9589605,-8.894575 -5.503318 1.117588,-8.834543 -4.958112 1.21263,-9.343709 -7.107166 0.9399096,-9.318214 -5.885368 1.014493,-9.284797 -5.126917 1.181951,-9.239439 -4.506883 1.289152,-9.664277 -7.220482 1.097902,-9.688521 -6.030166 1.194433,-9.668564 -5.295662 1.368691,-9.608987 -4.698114 1.492314,-9.986249 -7.534076 1.280442,-10.11296 -6.621109 1.430325,-10.15103 -5.990625 1.571372,-10.14654 -5.420679 1.646896,7.710,
-0.4801135 -8.418831 0.06516964,-1.011726 -8.123497 0.5374624,-1.382918 -7.817537 1.184381,-1.557322 -7.427269 1.710966,-1.471195 -7.167074 2.166718,-1.097188 -7.368184 1.815799,-1.235487 -6.201988 2.093843,-1.317939 -6.448538 1.847145,-1.298975 -6.836065 1.62921,-0.6755219 -7.255225 1.793076,-0.7775578 -6.047378 2.223005,-0.8761353 -6.355061 2.006889,-0.8657045 -6.777417 1.868585,-0.2945595 -7.190128 1.73193,-0.395371 -6.117392 2.012826,-0.5570984 -6.459062 1.716425,-0.5833092 -6.872647 1.539213,0.02956676 -7.191738 1.707709,-0.003768921 -6.314914 1.897928,-0.1493478 -6.490877 1.826046,-0.2189898 -6.817108 1.73114,-9.572486 -9.954769 0.8887689,-8.95772 -9.516459 1.053106,-8.558233 -8.748028 1.23127,-8.319569 -8.014133 1.48853,-8.092428 -7.403805 1.75521,-9.042639 -7.260769 0.8376917,-8.979911 -6.162136 0.9629266,-8.928718 -5.512784 1.118714,-8.876524 -4.958988 1.215827,-9.375505 -7.13661 0.9435377,-9.354663 -5.892814 1.01715,-9.316928 -5.128407 1.185793,-9.27055 -4.503423 1.29306,-9.691525 -7.24638 1.093593,-9.724799 -6.036651 1.185789,-9.701832 -5.311067 1.350238,-9.640995 -4.724134 1.461346,-10.00466 -7.552173 1.267827,-10.1392 -6.624597 1.41105,-10.17332 -6.001554 1.542044,-10.16044 -5.445312 1.601143,7.810,Right Hand Closed 
-0.6498461 -8.315228 0.01611637,-1.199733 -8.045122 0.412283,-1.544568 -7.737808 1.002016,-1.701844 -7.27176 1.44029,-1.687813 -6.862663 1.820532,-1.197431 -7.486425 1.873688,-1.335131 -6.184906 2.13792,-1.471114 -6.196857 1.828164,-1.492624 -6.502361 1.532674,-0.7743239 -7.288138 1.81884,-0.8924723 -5.873399 2.166748,-1.005441 -6.011743 1.820814,-0.9838257 -6.387944 1.578365,-0.4092741 -7.119724 1.694677,-0.5363336 -5.891807 1.854057,-0.6924686 -6.117298 1.422641,-0.7078485 -6.498328 1.137186,-0.1386542 -7.030075 1.591636,-0.217339 -6.084404 1.661472,-0.3350873 -6.24136 1.455642,-0.3567305 -6.571441 1.249056,-9.549802 -9.932592 0.8247483,-8.945515 -9.482822 1.006215,-8.542225 -8.728498 1.194665,-8.29334 -8.009653 1.454906,-8.063255 -7.386234 1.719541,-9.032091 -7.252079 0.8409542,-8.957911 -6.14681 0.9877945,-8.900136 -5.49578 1.150462,-8.839303 -4.942413 1.249937,-9.374447 -7.133046 0.9366069,-9.347963 -5.875473 1.046278,-9.311661 -5.108046 1.231681,-9.258905 -4.487285 1.359171,-9.69196 -7.243034 1.076385,-9.727244 -6.029762 1.196502,-9.707966 -5.292434 1.381841,-9.63433 -4.700638 1.511504,-10.00114 -7.543478 1.23743,-10.12242 -6.608194 1.402202,-10.14054 -5.98139 1.543986,-10.10112 -5.433315 1.611577,7.910,Right Hand Closed 
-1.054522 -8.232979 0.7204396,-1.505323 -7.940395 1.215894,-1.826312 -7.407997 1.719998,-2.01022 -6.82546 2.141629,-2.207145 -6.3771 2.576146,-1.53823 -6.369879 1.915746,-1.565757 -5.980413 2.318713,-1.55933 -6.381986 2.436137,-1.562072 -6.760914 2.503141,-1.159032 -6.26884 1.872937,-1.108364 -5.985088 2.364273,-1.145505 -6.536096 2.463667,-1.176178 -6.961147 2.511867,-0.8072977 -6.359544 1.824219,-0.7581081 -6.184138 2.230803,-0.8482118 -6.680584 2.182372,-0.9212122 -7.026092 2.105642,-0.4991703 -6.578716 1.813478,-0.4206991 -6.26766 2.097848,-0.5127149 -6.633754 2.109356,-0.6036453 -6.942243 2.06184,-9.493431 -9.863802 0.7888737,-8.895119 -9.419977 0.9981412,-8.495934 -8.677177 1.200264,-8.254934 -7.959156 1.464848,-8.028257 -7.34766 1.734378,-8.975241 -7.186933 0.8654543,-8.909076 -6.076812 1.038066,-8.854709 -5.427162 1.211259,-8.799934 -4.870664 1.312081,-9.320707 -7.077447 0.9609898,-9.307901 -5.824817 1.102923,-9.27299 -5.076446 1.299128,-9.221256 -4.465557 1.432755,-9.643417 -7.199272 1.102916,-9.690834 -5.99022 1.244299,-9.675551 -5.26503 1.435597,-9.609159 -4.664709 1.57316,-9.956781 -7.498575 1.26902,-10.07717 -6.559328 1.438433,-10.08862 -5.938217 1.581524,-10.0426 -5.366424 1.660042,8.010,Right Hand Closed 
-0.8989077 -8.734671 -0.782647,-1.431684 -8.422081 -0.6600747,-1.852494 -7.587786 -0.5322646,-2.075447 -6.855422 -0.3849395,-2.257433 -6.328051 -0.22614,-1.558028 -6.900396 -0.6643971,-1.691806 -6.12495 -0.284716,-1.780997 -6.395574 -0.04243672,-1.794311 -6.743515 0.07720691,-1.257494 -6.931118 -0.5778702,-1.380163 -6.23524 -0.05532414,-1.460774 -6.938905 0.04950744,-1.423212 -7.400931 -0.02825665,-0.9400263 -7.076334 -0.4669493,-1.115223 -6.554706 -0.03823149,-1.197387 -7.249549 -0.07781249,-1.132913 -7.631814 -0.2018744,-0.5998468 -7.308954 -0.3442274,-0.8167629 -6.891246 -0.05701107,-0.9330425 -7.388052 -0.1183627,-0.8821135 -7.687776 -0.2289146,-9.472166 -9.858349 0.7467917,-8.876215 -9.411133 0.9311489,-8.47705 -8.657938 1.116637,-8.239337 -7.934371 1.375636,-8.030643 -7.298889 1.628945,-8.968188 -7.19639 0.7720607,-8.909031 -6.081083 0.9370439,-8.855788 -5.427879 1.095029,-8.798168 -4.870019 1.185397,-9.309078 -7.080923 0.870697,-9.297247 -5.81532 1.000218,-9.263954 -5.057074 1.18175,-9.214836 -4.449 1.298051,-9.628797 -7.190593 1.013186,-9.677357 -5.967737 1.148571,-9.662847 -5.235143 1.325816,-9.593479 -4.643987 1.450952,-9.941098 -7.484792 1.178438,-10.06488 -6.538944 1.349521,-10.0818 -5.919868 1.489668,-10.039 -5.372869 1.561254,8.110,Right Hand Closed 
-0.8989077 -8.734671 -0.782647,-1.431684 -8.422081 -0.6600747,-1.852494 -7.587786 -0.5322646,-2.075447 -6.855422 -0.3849395,-2.257433 -6.328051 -0.22614,-1.558028 -6.900396 -0.6643971,-1.691806 -6.12495 -0.284716,-1.780997 -6.395574 -0.04243672,-1.794311 -6.743515 0.07720691,-1.257494 -6.931118 -0.5778702,-1.380163 -6.23524 -0.05532414,-1.460774 -6.938905 0.04950744,-1.423212 -7.400931 -0.02825665,-0.9400263 -7.076334 -0.4669493,-1.115223 -6.554706 -0.03823149,-1.197387 -7.249549 -0.07781249,-1.132913 -7.631814 -0.2018744,-0.5998468 -7.308954 -0.3442274,-0.8167629 -6.891246 -0.05701107,-0.9330425 -7.388052 -0.1183627,-0.8821135 -7.687776 -0.2289146,-9.499328 -9.922417 0.8072197,-8.902814 -9.466717 0.97163,-8.496749 -8.704283 1.146677,-8.256793 -7.981632 1.401949,-8.049299 -7.353271 1.650259,-8.991421 -7.240872 0.7649319,-8.932715 -6.13683 0.8941402,-8.884183 -5.484235 1.039617,-8.826251 -4.927232 1.127075,-9.324108 -7.126468 0.872873,-9.30256 -5.87873 0.9648376,-9.277369 -5.11687 1.12534,-9.238103 -4.494507 1.222495,-9.635908 -7.241195 1.023841,-9.668043 -6.039398 1.130993,-9.656825 -5.295333 1.292245,-9.595788 -4.689115 1.404831,-9.944173 -7.554962 1.198896,-10.06312 -6.615413 1.356534,-10.09145 -5.990129 1.490855,-10.06944 -5.439191 1.55868,8.210,Right Hand Closed 
-0.130702 -12.68996 5.460183,0.1690788 -11.71441 6.587433,0.008588791 -10.916 7.425863,-0.4719715 -10.38956 7.972899,-0.8787556 -10.01299 8.427547,0.2606659 -9.428797 7.579327,-0.1609573 -8.289169 8.075302,-0.4659758 -8.198387 8.48497,-0.6201468 -8.400143 8.784069,-0.03100538 -9.515682 7.225997,-0.4675016 -8.374043 7.77758,-0.6742935 -8.624102 8.086348,-0.7073145 -9.058241 8.316626,-0.3162932 -9.878954 6.867228,-0.7131705 -9.055784 7.27616,-0.8365192 -9.382996 7.583765,-0.8030195 -9.854538 7.779422,-0.5602264 -10.40242 6.589232,-0.8510818 -9.914465 6.833825,-0.9313374 -10.09355 6.989908,-0.8726168 -10.35546 7.077991,-10.98641 -10.86551 2.946507,-11.25048 -10.06089 3.154747,-11.23168 -9.198179 3.244696,-11.17666 -8.464638 3.274917,-11.20216 -8.175184 3.26158,-10.56816 -7.679359 3.245589,-10.31997 -6.591381 3.313787,-10.19047 -5.884225 3.3638,-10.09684 -5.279891 3.439437,-10.2671 -7.541353 3.241626,-9.918512 -6.313654 3.510613,-9.734529 -5.460241 3.739765,-9.58506 -4.758499 3.970949,-10.03143 -7.590068 3.229748,-9.64415 -6.467096 3.459109,-9.475266 -5.620821 3.637896,-9.356023 -4.924565 3.78543,-9.863732 -7.844303 3.196541,-9.437844 -6.964639 3.434041,-9.185558 -6.269563 3.546708,-9.005221 -5.632486 3.654624,8.310,
