TiagoOliveira98/HandTracking/DataLogging/JointData/Logs(1634995197)_Tiago.csv
WRIST,THUMB_CMC,THUMB_MCP,THUMB_IP,THUMB_TIP,INDEX_FINGER_MCP,INDEX_FINGER_PIP,INDEX_FINGER_DIP,INDEX_FINGER_TIP,MIDDLE_FINGER_MCP,MIDDLE_FINGER_PIP,MIDDLE_FINGER_DIP,MIDDLE_FINGER_TIP,RING_FINGER_MCP,RING_FINGER_PIP,RING_FINGER_DIP,RING_FINGER_TIP,PINKY_MCP,PINKY_PIP,PINKY_DIP,PINKY_TIP,WRIST2,THUMB_CMC2,THUMB_MCP2,THUMB_IP2,THUMB_TIP2,INDEX_FINGER_MCP2,INDEX_FINGER_PIP2,INDEX_FINGER_DIP2,INDEX_FINGER_TIP2,MIDDLE_FINGER_MCP2,MIDDLE_FINGER_PIP2,MIDDLE_FINGER_DIP2,MIDDLE_FINGER_TIP2,RING_FINGER_MCP2,RING_FINGER_PIP2,RING_FINGER_DIP2,RING_FINGER_TIP2,PINKY_MCP2,PINKY_PIP2,PINKY_DIP2,PINKY_TIP2,Timestamp,Event
10 0 0,10 7.47 0,10 7.47 0,10 7.47 0,10 7.47 0,10 7.47 0,10 7.47 0,10 7.47 0,10 7.47 0,10 7.47 0,10 7.47 0,10 7.47 0,10 7.47 0,10 7.47 0,10 7.47 0,10 7.47 0,10 7.47 0,10 7.47 0,10 7.47 0,10 7.47 0,10 7.47 0,10 0 0,10 7.47 0,10 7.47 0,10 7.47 0,10 7.47 0,10 7.47 0,10 7.47 0,10 7.47 0,10 7.47 0,10 7.47 0,10 7.47 0,10 7.47 0,10 7.47 0,10 7.47 0,10 7.47 0,10 7.47 0,10 7.47 0,10 7.47 0,10 7.47 0,10 7.47 0,10 7.47 0,0.020,Dnf
2 0 -8.636238,2 0 -8.636238,2 0 -8.636238,2 0 -8.636238,2 0 -8.636238,2 0 -8.636238,2 0 -8.636238,2 0 -8.636238,2 0 -8.636238,2 0 -8.636238,2 0 -8.636238,2 0 -8.636238,2 0 -8.636238,2 0 -8.636238,2 0 -8.636238,2 0 -8.636238,2 0 -8.636238,2 0 -8.636238,2 0 -8.636238,2 0 -8.636238,2 0 -8.636238,2 0 -9.451488,2 0 -9.451488,2 0 -9.451488,2 0 -9.451488,2 0 -9.451488,2 0 -9.451488,2 0 -9.451488,2 0 -9.451488,2 0 -9.451488,2 0 -9.451488,2 0 -9.451488,2 0 -9.451488,2 0 -9.451488,2 0 -9.451488,2 0 -9.451488,2 0 -9.451488,2 0 -9.451488,2 0 -9.451488,2 0 -9.451488,2 0 -9.451488,2 0 -9.451488,0.040,DnF
2 0 -8.636238,2 0 -8.636238,2 0 -8.636238,2 0 -8.636238,2 0 -8.636238,2 0 -8.636238,2 0 -8.636238,2 0 -8.636238,2 0 -8.636238,2 0 -8.636238,2 0 -8.636238,2 0 -8.636238,2 0 -8.636238,2 0 -8.636238,2 0 -8.636238,2 0 -8.636238,2 0 -8.636238,2 0 -8.636238,2 0 -8.636238,2 0 -8.636238,2 0 -8.636238,2 0 -9.451488,2 0 -9.451488,2 0 -9.451488,2 0 -9.451488,2 0 -9.451488,2 0 -9.451488,2 0 -9.451488,2 0 -9.451488,2 0 -9.451488,2 0 -9.451488,2 0 -9.451488,2 0 -9.451488,2 0 -9.451488,2 0 -9.451488,2 0 -9.451488,2 0 -9.451488,2 0 -9.451488,2 0 -9.451488,2 0 -9.451488,2 0 -9.451488,2 0 -9.451488,0.060,DnF
-2.809412 -5.482851 1.629373,-3.506879 -5.313153 1.946755,-4.131908 -4.658651 2.098437,-4.595966 -4.006397 2.255274,-5.000816 -3.65545 2.458751,-3.759197 -2.903064 1.764384,-4.086252 -1.8183 1.909037,-4.293945 -1.099576 2.083162,-4.461424 -0.4836044 2.28439,-3.370554 -2.608786 1.793948,-3.613705 -1.391447 1.991003,-3.778661 -0.5709424 2.210411,-3.908558 0.1291614 2.395256,-2.971879 -2.582673 1.87825,-3.113463 -1.430704 2.054447,-3.214869 -0.6658416 2.279479,-3.311505 -0.02615213 2.472791,-2.56225 -2.773971 2.000287,-2.546662 -1.802163 2.223232,-2.57508 -1.188323 2.416689,-2.626498 -0.6471858 2.576959,-9.77449 -7.1741 0.01326626,-9.159904 -6.947171 0.2580398,-8.638305 -6.400081 0.4538317,-8.287403 -5.809747 0.693014,-7.985297 -5.424949 0.9442567,-8.916433 -4.788755 0.2384265,-8.677045 -3.779257 0.410448,-8.550074 -3.163141 0.5800427,-8.452238 -2.625982 0.7054111,-9.228906 -4.54399 0.3240124,-9.021145 -3.372722 0.4717797,-8.886522 -2.648688 0.6816438,-8.771388 -2.024613 0.8376357,-9.556991 -4.535709 0.4406893,-9.389858 -3.423319 0.6067265,-9.266653 -2.723747 0.7926012,-9.13863 -2.12918 0.9253557,-9.913981 -4.706507 0.5875647,-9.911654 -3.796085 0.7825998,-9.869977 -3.199065 0.9335713,-9.789976 -2.630368 1.03622,0.080,DnF
-2.809412 -5.482851 1.629373,-3.506879 -5.313153 1.946755,-4.131908 -4.658651 2.098437,-4.595966 -4.006397 2.255274,-5.000816 -3.65545 2.458751,-3.759197 -2.903064 1.764384,-4.086252 -1.8183 1.909037,-4.293945 -1.099576 2.083162,-4.461424 -0.4836044 2.28439,-3.370554 -2.608786 1.793948,-3.613705 -1.391447 1.991003,-3.778661 -0.5709424 2.210411,-3.908558 0.1291614 2.395256,-2.971879 -2.582673 1.87825,-3.113463 -1.430704 2.054447,-3.214869 -0.6658416 2.279479,-3.311505 -0.02615213 2.472791,-2.56225 -2.773971 2.000287,-2.546662 -1.802163 2.223232,-2.57508 -1.188323 2.416689,-2.626498 -0.6471858 2.576959,-9.77449 -7.1741 0.01326626,-9.159904 -6.947171 0.2580398,-8.638305 -6.400081 0.4538317,-8.287403 -5.809747 0.693014,-7.985297 -5.424949 0.9442567,-8.916433 -4.788755 0.2384265,-8.677045 -3.779257 0.410448,-8.550074 -3.163141 0.5800427,-8.452238 -2.625982 0.7054111,-9.228906 -4.54399 0.3240124,-9.021145 -3.372722 0.4717797,-8.886522 -2.648688 0.6816438,-8.771388 -2.024613 0.8376357,-9.556991 -4.535709 0.4406893,-9.389858 -3.423319 0.6067265,-9.266653 -2.723747 0.7926012,-9.13863 -2.12918 0.9253557,-9.913981 -4.706507 0.5875647,-9.911654 -3.796085 0.7825998,-9.869977 -3.199065 0.9335713,-9.789976 -2.630368 1.03622,0.100,DnF
-2.809412 -5.482851 1.629373,-3.506879 -5.313153 1.946755,-4.131908 -4.658651 2.098437,-4.595966 -4.006397 2.255274,-5.000816 -3.65545 2.458751,-3.759197 -2.903064 1.764384,-4.086252 -1.8183 1.909037,-4.293945 -1.099576 2.083162,-4.461424 -0.4836044 2.28439,-3.370554 -2.608786 1.793948,-3.613705 -1.391447 1.991003,-3.778661 -0.5709424 2.210411,-3.908558 0.1291614 2.395256,-2.971879 -2.582673 1.87825,-3.113463 -1.430704 2.054447,-3.214869 -0.6658416 2.279479,-3.311505 -0.02615213 2.472791,-2.56225 -2.773971 2.000287,-2.546662 -1.802163 2.223232,-2.57508 -1.188323 2.416689,-2.626498 -0.6471858 2.576959,-9.77449 -7.1741 0.01326626,-9.159904 -6.947171 0.2580398,-8.638305 -6.400081 0.4538317,-8.287403 -5.809747 0.693014,-7.985297 -5.424949 0.9442567,-8.916433 -4.788755 0.2384265,-8.677045 -3.779257 0.410448,-8.550074 -3.163141 0.5800427,-8.452238 -2.625982 0.7054111,-9.228906 -4.54399 0.3240124,-9.021145 -3.372722 0.4717797,-8.886522 -2.648688 0.6816438,-8.771388 -2.024613 0.8376357,-9.556991 -4.535709 0.4406893,-9.389858 -3.423319 0.6067265,-9.266653 -2.723747 0.7926012,-9.13863 -2.12918 0.9253557,-9.913981 -4.706507 0.5875647,-9.911654 -3.796085 0.7825998,-9.869977 -3.199065 0.9335713,-9.789976 -2.630368 1.03622,0.120,DnF
-2.687652 -5.671976 1.614307,-3.371771 -5.48978 1.932996,-3.978401 -4.847484 2.077784,-4.423217 -4.216873 2.22941,-4.806952 -3.904057 2.415951,-3.614534 -3.077041 1.730531,-3.922054 -1.979285 1.899595,-4.115 -1.256424 2.08069,-4.260258 -0.6452193 2.272534,-3.221623 -2.795843 1.754242,-3.422297 -1.563104 1.93243,-3.550695 -0.7378659 2.108329,-3.646598 -0.05741453 2.252444,-2.821892 -2.772704 1.837341,-2.925712 -1.612129 1.99319,-2.999049 -0.8562341 2.169949,-3.075692 -0.2400966 2.31104,-2.41205 -2.963151 1.960725,-2.382202 -1.986404 2.157834,-2.391246 -1.396018 2.316394,-2.429365 -0.8911719 2.447739,-9.759663 -7.14487 -0.0433276,-9.148005 -6.935981 0.2094984,-8.619438 -6.41274 0.4069746,-8.259097 -5.829854 0.6448245,-7.952079 -5.464313 0.886327,-8.898204 -4.783724 0.1923149,-8.649663 -3.770389 0.3671316,-8.524394 -3.149587 0.5346037,-8.430179 -2.605194 0.6549603,-9.210177 -4.532385 0.2688136,-8.993929 -3.367012 0.4196277,-8.861466 -2.648735 0.6286466,-8.750499 -2.036529 0.7840584,-9.537384 -4.518878 0.3762224,-9.362235 -3.41292 0.5425963,-9.239848 -2.715633 0.72234,-9.111804 -2.126518 0.8475626,-9.894146 -4.686061 0.512476,-9.886383 -3.786418 0.7071956,-9.842697 -3.195169 0.8580887,-9.759038 -2.631138 0.9583501,0.140,DnF
-2.687652 -5.671976 1.614307,-3.371771 -5.48978 1.932996,-3.978401 -4.847484 2.077784,-4.423217 -4.216873 2.22941,-4.806952 -3.904057 2.415951,-3.614534 -3.077041 1.730531,-3.922054 -1.979285 1.899595,-4.115 -1.256424 2.08069,-4.260258 -0.6452193 2.272534,-3.221623 -2.795843 1.754242,-3.422297 -1.563104 1.93243,-3.550695 -0.7378659 2.108329,-3.646598 -0.05741453 2.252444,-2.821892 -2.772704 1.837341,-2.925712 -1.612129 1.99319,-2.999049 -0.8562341 2.169949,-3.075692 -0.2400966 2.31104,-2.41205 -2.963151 1.960725,-2.382202 -1.986404 2.157834,-2.391246 -1.396018 2.316394,-2.429365 -0.8911719 2.447739,-9.759663 -7.14487 -0.0433276,-9.148005 -6.935981 0.2094984,-8.619438 -6.41274 0.4069746,-8.259097 -5.829854 0.6448245,-7.952079 -5.464313 0.886327,-8.898204 -4.783724 0.1923149,-8.649663 -3.770389 0.3671316,-8.524394 -3.149587 0.5346037,-8.430179 -2.605194 0.6549603,-9.210177 -4.532385 0.2688136,-8.993929 -3.367012 0.4196277,-8.861466 -2.648735 0.6286466,-8.750499 -2.036529 0.7840584,-9.537384 -4.518878 0.3762224,-9.362235 -3.41292 0.5425963,-9.239848 -2.715633 0.72234,-9.111804 -2.126518 0.8475626,-9.894146 -4.686061 0.512476,-9.886383 -3.786418 0.7071956,-9.842697 -3.195169 0.8580887,-9.759038 -2.631138 0.9583501,0.160,DnF
-2.687652 -5.671976 1.614307,-3.371771 -5.48978 1.932996,-3.978401 -4.847484 2.077784,-4.423217 -4.216873 2.22941,-4.806952 -3.904057 2.415951,-3.614534 -3.077041 1.730531,-3.922054 -1.979285 1.899595,-4.115 -1.256424 2.08069,-4.260258 -0.6452193 2.272534,-3.221623 -2.795843 1.754242,-3.422297 -1.563104 1.93243,-3.550695 -0.7378659 2.108329,-3.646598 -0.05741453 2.252444,-2.821892 -2.772704 1.837341,-2.925712 -1.612129 1.99319,-2.999049 -0.8562341 2.169949,-3.075692 -0.2400966 2.31104,-2.41205 -2.963151 1.960725,-2.382202 -1.986404 2.157834,-2.391246 -1.396018 2.316394,-2.429365 -0.8911719 2.447739,-9.759663 -7.14487 -0.0433276,-9.148005 -6.935981 0.2094984,-8.619438 -6.41274 0.4069746,-8.259097 -5.829854 0.6448245,-7.952079 -5.464313 0.886327,-8.898204 -4.783724 0.1923149,-8.649663 -3.770389 0.3671316,-8.524394 -3.149587 0.5346037,-8.430179 -2.605194 0.6549603,-9.210177 -4.532385 0.2688136,-8.993929 -3.367012 0.4196277,-8.861466 -2.648735 0.6286466,-8.750499 -2.036529 0.7840584,-9.537384 -4.518878 0.3762224,-9.362235 -3.41292 0.5425963,-9.239848 -2.715633 0.72234,-9.111804 -2.126518 0.8475626,-9.894146 -4.686061 0.512476,-9.886383 -3.786418 0.7071956,-9.842697 -3.195169 0.8580887,-9.759038 -2.631138 0.9583501,0.180,DnF
-2.57732 -5.834046 1.565702,-3.235264 -5.648854 1.940271,-3.819994 -5.033907 2.117185,-4.240306 -4.413454 2.273994,-4.603762 -4.103759 2.448711,-3.454029 -3.267002 1.836133,-3.736587 -2.15386 2.053761,-3.912372 -1.43795 2.281692,-4.054007 -0.8095212 2.484453,-3.069057 -2.974009 1.837113,-3.262318 -1.691932 2.087472,-3.387528 -0.8491454 2.321074,-3.488842 -0.1403852 2.511477,-2.68875 -2.958518 1.905297,-2.787802 -1.760502 2.138845,-2.866385 -0.9871907 2.371853,-2.949516 -0.3345189 2.55815,-2.302996 -3.16765 2.005197,-2.260445 -2.191174 2.259065,-2.262159 -1.61896 2.447881,-2.301001 -1.104231 2.607347,-9.735688 -7.143831 -0.06210613,-9.117797 -6.929649 0.2206575,-8.592723 -6.41346 0.446379,-8.233569 -5.839843 0.709022,-7.916181 -5.469228 0.9856783,-8.871839 -4.789732 0.2301932,-8.622974 -3.774118 0.4345568,-8.49494 -3.158212 0.6165723,-8.39744 -2.611037 0.741686,-9.185846 -4.543816 0.3031355,-8.969438 -3.374566 0.4813442,-8.833578 -2.661283 0.7061783,-8.716968 -2.04234 0.8646388,-9.513758 -4.539747 0.4083801,-9.342126 -3.426164 0.5978942,-9.218874 -2.728623 0.7952955,-9.088966 -2.133205 0.9273766,-9.871718 -4.718321 0.54347,-9.863525 -3.810708 0.7548882,-9.819634 -3.214901 0.9147993,-9.736185 -2.645521 1.019209,0.200,DnF
-2.57732 -5.834046 1.565702,-3.235264 -5.648854 1.940271,-3.819994 -5.033907 2.117185,-4.240306 -4.413454 2.273994,-4.603762 -4.103759 2.448711,-3.454029 -3.267002 1.836133,-3.736587 -2.15386 2.053761,-3.912372 -1.43795 2.281692,-4.054007 -0.8095212 2.484453,-3.069057 -2.974009 1.837113,-3.262318 -1.691932 2.087472,-3.387528 -0.8491454 2.321074,-3.488842 -0.1403852 2.511477,-2.68875 -2.958518 1.905297,-2.787802 -1.760502 2.138845,-2.866385 -0.9871907 2.371853,-2.949516 -0.3345189 2.55815,-2.302996 -3.16765 2.005197,-2.260445 -2.191174 2.259065,-2.262159 -1.61896 2.447881,-2.301001 -1.104231 2.607347,-9.735688 -7.143831 -0.06210613,-9.117797 -6.929649 0.2206575,-8.592723 -6.41346 0.446379,-8.233569 -5.839843 0.709022,-7.916181 -5.469228 0.9856783,-8.871839 -4.789732 0.2301932,-8.622974 -3.774118 0.4345568,-8.49494 -3.158212 0.6165723,-8.39744 -2.611037 0.741686,-9.185846 -4.543816 0.3031355,-8.969438 -3.374566 0.4813442,-8.833578 -2.661283 0.7061783,-8.716968 -2.04234 0.8646388,-9.513758 -4.539747 0.4083801,-9.342126 -3.426164 0.5978942,-9.218874 -2.728623 0.7952955,-9.088966 -2.133205 0.9273766,-9.871718 -4.718321 0.54347,-9.863525 -3.810708 0.7548882,-9.819634 -3.214901 0.9147993,-9.736185 -2.645521 1.019209,0.220,DnF
-2.57732 -5.834046 1.565702,-3.235264 -5.648854 1.940271,-3.819994 -5.033907 2.117185,-4.240306 -4.413454 2.273994,-4.603762 -4.103759 2.448711,-3.454029 -3.267002 1.836133,-3.736587 -2.15386 2.053761,-3.912372 -1.43795 2.281692,-4.054007 -0.8095212 2.484453,-3.069057 -2.974009 1.837113,-3.262318 -1.691932 2.087472,-3.387528 -0.8491454 2.321074,-3.488842 -0.1403852 2.511477,-2.68875 -2.958518 1.905297,-2.787802 -1.760502 2.138845,-2.866385 -0.9871907 2.371853,-2.949516 -0.3345189 2.55815,-2.302996 -3.16765 2.005197,-2.260445 -2.191174 2.259065,-2.262159 -1.61896 2.447881,-2.301001 -1.104231 2.607347,-9.735688 -7.143831 -0.06210613,-9.117797 -6.929649 0.2206575,-8.592723 -6.41346 0.446379,-8.233569 -5.839843 0.709022,-7.916181 -5.469228 0.9856783,-8.871839 -4.789732 0.2301932,-8.622974 -3.774118 0.4345568,-8.49494 -3.158212 0.6165723,-8.39744 -2.611037 0.741686,-9.185846 -4.543816 0.3031355,-8.969438 -3.374566 0.4813442,-8.833578 -2.661283 0.7061783,-8.716968 -2.04234 0.8646388,-9.513758 -4.539747 0.4083801,-9.342126 -3.426164 0.5978942,-9.218874 -2.728623 0.7952955,-9.088966 -2.133205 0.9273766,-9.871718 -4.718321 0.54347,-9.863525 -3.810708 0.7548882,-9.819634 -3.214901 0.9147993,-9.736185 -2.645521 1.019209,0.240,DnF
-2.470033 -6.017017 1.477953,-3.126263 -5.826477 1.821945,-3.713842 -5.244764 1.984777,-4.121794 -4.617572 2.132901,-4.478516 -4.25172 2.281632,-3.327538 -3.448467 1.758147,-3.599667 -2.318801 1.94503,-3.759882 -1.62127 2.141939,-3.8804 -1.000223 2.318095,-2.95102 -3.182391 1.76668,-3.138157 -1.878944 1.99552,-3.254086 -1.048174 2.229553,-3.344187 -0.3378978 2.432679,-2.576854 -3.186588 1.83814,-2.676394 -1.98698 2.040276,-2.755047 -1.233138 2.264102,-2.830703 -0.6113229 2.454387,-2.192607 -3.405852 1.935313,-2.147949 -2.423172 2.153397,-2.148179 -1.842093 2.341358,-2.180282 -1.32291 2.51746,-9.725586 -7.133865 -0.1189501,-9.103646 -6.927562 0.1712269,-8.568425 -6.408689 0.4042034,-8.203956 -5.83242 0.6730771,-7.889366 -5.456326 0.959954,-8.848577 -4.804548 0.200977,-8.599659 -3.784763 0.4165439,-8.474161 -3.165493 0.5995241,-8.376695 -2.615983 0.7220067,-9.16326 -4.557145 0.2723291,-8.943757 -3.3837 0.4610856,-8.809357 -2.669294 0.6825032,-8.691933 -2.046316 0.8374087,-9.491806 -4.544549 0.3768122,-9.312398 -3.428835 0.5768036,-9.1861 -2.730754 0.7702693,-9.052334 -2.137652 0.9012667,-9.850864 -4.714553 0.5114906,-9.832512 -3.799097 0.7292893,-9.785418 -3.204481 0.8863548,-9.698059 -2.638906 0.9894606,0.260,DnF
-2.470033 -6.017017 1.477953,-3.126263 -5.826477 1.821945,-3.713842 -5.244764 1.984777,-4.121794 -4.617572 2.132901,-4.478516 -4.25172 2.281632,-3.327538 -3.448467 1.758147,-3.599667 -2.318801 1.94503,-3.759882 -1.62127 2.141939,-3.8804 -1.000223 2.318095,-2.95102 -3.182391 1.76668,-3.138157 -1.878944 1.99552,-3.254086 -1.048174 2.229553,-3.344187 -0.3378978 2.432679,-2.576854 -3.186588 1.83814,-2.676394 -1.98698 2.040276,-2.755047 -1.233138 2.264102,-2.830703 -0.6113229 2.454387,-2.192607 -3.405852 1.935313,-2.147949 -2.423172 2.153397,-2.148179 -1.842093 2.341358,-2.180282 -1.32291 2.51746,-9.725586 -7.133865 -0.1189501,-9.103646 -6.927562 0.1712269,-8.568425 -6.408689 0.4042034,-8.203956 -5.83242 0.6730771,-7.889366 -5.456326 0.959954,-8.848577 -4.804548 0.200977,-8.599659 -3.784763 0.4165439,-8.474161 -3.165493 0.5995241,-8.376695 -2.615983 0.7220067,-9.16326 -4.557145 0.2723291,-8.943757 -3.3837 0.4610856,-8.809357 -2.669294 0.6825032,-8.691933 -2.046316 0.8374087,-9.491806 -4.544549 0.3768122,-9.312398 -3.428835 0.5768036,-9.1861 -2.730754 0.7702693,-9.052334 -2.137652 0.9012667,-9.850864 -4.714553 0.5114906,-9.832512 -3.799097 0.7292893,-9.785418 -3.204481 0.8863548,-9.698059 -2.638906 0.9894606,0.280,DnF
-2.470033 -6.017017 1.477953,-3.126263 -5.826477 1.821945,-3.713842 -5.244764 1.984777,-4.121794 -4.617572 2.132901,-4.478516 -4.25172 2.281632,-3.327538 -3.448467 1.758147,-3.599667 -2.318801 1.94503,-3.759882 -1.62127 2.141939,-3.8804 -1.000223 2.318095,-2.95102 -3.182391 1.76668,-3.138157 -1.878944 1.99552,-3.254086 -1.048174 2.229553,-3.344187 -0.3378978 2.432679,-2.576854 -3.186588 1.83814,-2.676394 -1.98698 2.040276,-2.755047 -1.233138 2.264102,-2.830703 -0.6113229 2.454387,-2.192607 -3.405852 1.935313,-2.147949 -2.423172 2.153397,-2.148179 -1.842093 2.341358,-2.180282 -1.32291 2.51746,-9.725586 -7.133865 -0.1189501,-9.103646 -6.927562 0.1712269,-8.568425 -6.408689 0.4042034,-8.203956 -5.83242 0.6730771,-7.889366 -5.456326 0.959954,-8.848577 -4.804548 0.200977,-8.599659 -3.784763 0.4165439,-8.474161 -3.165493 0.5995241,-8.376695 -2.615983 0.7220067,-9.16326 -4.557145 0.2723291,-8.943757 -3.3837 0.4610856,-8.809357 -2.669294 0.6825032,-8.691933 -2.046316 0.8374087,-9.491806 -4.544549 0.3768122,-9.312398 -3.428835 0.5768036,-9.1861 -2.730754 0.7702693,-9.052334 -2.137652 0.9012667,-9.850864 -4.714553 0.5114906,-9.832512 -3.799097 0.7292893,-9.785418 -3.204481 0.8863548,-9.698059 -2.638906 0.9894606,0.300,DnF
-2.383142 -6.205692 1.437899,-3.043438 -5.978771 1.776376,-3.618934 -5.402223 1.950881,-4.013009 -4.772174 2.11001,-4.359818 -4.378685 2.268431,-3.226877 -3.638078 1.771889,-3.480516 -2.496391 1.97339,-3.620174 -1.78973 2.171635,-3.719585 -1.156515 2.344119,-2.851447 -3.38797 1.791658,-3.026993 -2.071831 2.045411,-3.12623 -1.23504 2.296031,-3.199341 -0.525032 2.512549,-2.478965 -3.397034 1.868304,-2.567735 -2.173279 2.096922,-2.638805 -1.398199 2.339802,-2.709986 -0.751389 2.547013,-2.094805 -3.620344 1.967504,-2.043152 -2.627912 2.198574,-2.039374 -2.033047 2.401957,-2.066129 -1.496685 2.589884,-9.703127 -7.154212 -0.06018705,-9.083742 -6.987735 0.2286914,-8.545939 -6.469314 0.4513894,-8.17265 -5.891444 0.7049966,-7.849936 -5.526021 0.9688561,-8.824918 -4.81679 0.2224216,-8.571567 -3.808208 0.4187385,-8.443197 -3.189146 0.5962806,-8.34286 -2.648293 0.7183398,-9.134247 -4.554962 0.2847846,-8.90596 -3.401714 0.4490322,-8.765014 -2.684268 0.6591036,-8.644836 -2.063441 0.8081934,-9.461486 -4.544366 0.3801796,-9.277452 -3.437908 0.5576594,-9.146044 -2.74018 0.737569,-9.01391 -2.146867 0.8624071,-9.820176 -4.720642 0.5060828,-9.806594 -3.812997 0.7055299,-9.760837 -3.213547 0.863903,-9.680249 -2.645563 0.9644206,0.320,DnF
-2.383142 -6.205692 1.437899,-3.043438 -5.978771 1.776376,-3.618934 -5.402223 1.950881,-4.013009 -4.772174 2.11001,-4.359818 -4.378685 2.268431,-3.226877 -3.638078 1.771889,-3.480516 -2.496391 1.97339,-3.620174 -1.78973 2.171635,-3.719585 -1.156515 2.344119,-2.851447 -3.38797 1.791658,-3.026993 -2.071831 2.045411,-3.12623 -1.23504 2.296031,-3.199341 -0.525032 2.512549,-2.478965 -3.397034 1.868304,-2.567735 -2.173279 2.096922,-2.638805 -1.398199 2.339802,-2.709986 -0.751389 2.547013,-2.094805 -3.620344 1.967504,-2.043152 -2.627912 2.198574,-2.039374 -2.033047 2.401957,-2.066129 -1.496685 2.589884,-9.703127 -7.154212 -0.06018705,-9.083742 -6.987735 0.2286914,-8.545939 -6.469314 0.4513894,-8.17265 -5.891444 0.7049966,-7.849936 -5.526021 0.9688561,-8.824918 -4.81679 0.2224216,-8.571567 -3.808208 0.4187385,-8.443197 -3.189146 0.5962806,-8.34286 -2.648293 0.7183398,-9.134247 -4.554962 0.2847846,-8.90596 -3.401714 0.4490322,-8.765014 -2.684268 0.6591036,-8.644836 -2.063441 0.8081934,-9.461486 -4.544366 0.3801796,-9.277452 -3.437908 0.5576594,-9.146044 -2.74018 0.737569,-9.01391 -2.146867 0.8624071,-9.820176 -4.720642 0.5060828,-9.806594 -3.812997 0.7055299,-9.760837 -3.213547 0.863903,-9.680249 -2.645563 0.9644206,0.340,DnF
-2.383142 -6.205692 1.437899,-3.043438 -5.978771 1.776376,-3.618934 -5.402223 1.950881,-4.013009 -4.772174 2.11001,-4.359818 -4.378685 2.268431,-3.226877 -3.638078 1.771889,-3.480516 -2.496391 1.97339,-3.620174 -1.78973 2.171635,-3.719585 -1.156515 2.344119,-2.851447 -3.38797 1.791658,-3.026993 -2.071831 2.045411,-3.12623 -1.23504 2.296031,-3.199341 -0.525032 2.512549,-2.478965 -3.397034 1.868304,-2.567735 -2.173279 2.096922,-2.638805 -1.398199 2.339802,-2.709986 -0.751389 2.547013,-2.094805 -3.620344 1.967504,-2.043152 -2.627912 2.198574,-2.039374 -2.033047 2.401957,-2.066129 -1.496685 2.589884,-9.703127 -7.154212 -0.06018705,-9.083742 -6.987735 0.2286914,-8.545939 -6.469314 0.4513894,-8.17265 -5.891444 0.7049966,-7.849936 -5.526021 0.9688561,-8.824918 -4.81679 0.2224216,-8.571567 -3.808208 0.4187385,-8.443197 -3.189146 0.5962806,-8.34286 -2.648293 0.7183398,-9.134247 -4.554962 0.2847846,-8.90596 -3.401714 0.4490322,-8.765014 -2.684268 0.6591036,-8.644836 -2.063441 0.8081934,-9.461486 -4.544366 0.3801796,-9.277452 -3.437908 0.5576594,-9.146044 -2.74018 0.737569,-9.01391 -2.146867 0.8624071,-9.820176 -4.720642 0.5060828,-9.806594 -3.812997 0.7055299,-9.760837 -3.213547 0.863903,-9.680249 -2.645563 0.9644206,0.360,DnF
-2.290938 -6.354304 1.499303,-2.95114 -6.13289 1.850966,-3.529713 -5.555765 2.025367,-3.916037 -4.899465 2.176005,-4.250338 -4.48922 2.316868,-3.145226 -3.785858 1.842163,-3.3906 -2.650319 2.043678,-3.522505 -1.938034 2.230021,-3.613225 -1.291715 2.394432,-2.766523 -3.518742 1.844051,-2.928458 -2.215929 2.082481,-3.019165 -1.379999 2.319398,-3.079468 -0.6768775 2.527932,-2.394602 -3.517162 1.905735,-2.468412 -2.311001 2.12217,-2.529505 -1.542493 2.35523,-2.587932 -0.8977885 2.550338,-2.010408 -3.734726 1.987744,-1.954816 -2.765682 2.205329,-1.94302 -2.176674 2.400877,-1.958967 -1.645781 2.578562,-9.678029 -7.183809 -0.08941068,-9.058012 -7.012006 0.1907393,-8.524241 -6.497915 0.4082973,-8.149742 -5.920934 0.6586891,-7.824681 -5.563148 0.9189372,-8.799405 -4.849565 0.1885574,-8.543709 -3.830135 0.3897776,-8.407025 -3.21784 0.5690336,-8.29956 -2.677825 0.6887361,-9.105161 -4.594722 0.2604167,-8.877897 -3.42794 0.4363528,-8.732194 -2.71214 0.6552487,-8.605261 -2.093194 0.8093947,-9.429573 -4.587113 0.3657834,-9.247348 -3.468132 0.5580767,-9.112393 -2.768698 0.7520872,-8.974658 -2.176292 0.8866925,-9.783255 -4.76774 0.4990389,-9.772764 -3.850704 0.715555,-9.728168 -3.247049 0.8901207,-9.647165 -2.679012 1.001236,0.380,DnF
-2.290938 -6.354304 1.499303,-2.95114 -6.13289 1.850966,-3.529713 -5.555765 2.025367,-3.916037 -4.899465 2.176005,-4.250338 -4.48922 2.316868,-3.145226 -3.785858 1.842163,-3.3906 -2.650319 2.043678,-3.522505 -1.938034 2.230021,-3.613225 -1.291715 2.394432,-2.766523 -3.518742 1.844051,-2.928458 -2.215929 2.082481,-3.019165 -1.379999 2.319398,-3.079468 -0.6768775 2.527932,-2.394602 -3.517162 1.905735,-2.468412 -2.311001 2.12217,-2.529505 -1.542493 2.35523,-2.587932 -0.8977885 2.550338,-2.010408 -3.734726 1.987744,-1.954816 -2.765682 2.205329,-1.94302 -2.176674 2.400877,-1.958967 -1.645781 2.578562,-9.678029 -7.183809 -0.08941068,-9.058012 -7.012006 0.1907393,-8.524241 -6.497915 0.4082973,-8.149742 -5.920934 0.6586891,-7.824681 -5.563148 0.9189372,-8.799405 -4.849565 0.1885574,-8.543709 -3.830135 0.3897776,-8.407025 -3.21784 0.5690336,-8.29956 -2.677825 0.6887361,-9.105161 -4.594722 0.2604167,-8.877897 -3.42794 0.4363528,-8.732194 -2.71214 0.6552487,-8.605261 -2.093194 0.8093947,-9.429573 -4.587113 0.3657834,-9.247348 -3.468132 0.5580767,-9.112393 -2.768698 0.7520872,-8.974658 -2.176292 0.8866925,-9.783255 -4.76774 0.4990389,-9.772764 -3.850704 0.715555,-9.728168 -3.247049 0.8901207,-9.647165 -2.679012 1.001236,0.400,DnF
-2.290938 -6.354304 1.499303,-2.95114 -6.13289 1.850966,-3.529713 -5.555765 2.025367,-3.916037 -4.899465 2.176005,-4.250338 -4.48922 2.316868,-3.145226 -3.785858 1.842163,-3.3906 -2.650319 2.043678,-3.522505 -1.938034 2.230021,-3.613225 -1.291715 2.394432,-2.766523 -3.518742 1.844051,-2.928458 -2.215929 2.082481,-3.019165 -1.379999 2.319398,-3.079468 -0.6768775 2.527932,-2.394602 -3.517162 1.905735,-2.468412 -2.311001 2.12217,-2.529505 -1.542493 2.35523,-2.587932 -0.8977885 2.550338,-2.010408 -3.734726 1.987744,-1.954816 -2.765682 2.205329,-1.94302 -2.176674 2.400877,-1.958967 -1.645781 2.578562,-9.678029 -7.183809 -0.08941068,-9.058012 -7.012006 0.1907393,-8.524241 -6.497915 0.4082973,-8.149742 -5.920934 0.6586891,-7.824681 -5.563148 0.9189372,-8.799405 -4.849565 0.1885574,-8.543709 -3.830135 0.3897776,-8.407025 -3.21784 0.5690336,-8.29956 -2.677825 0.6887361,-9.105161 -4.594722 0.2604167,-8.877897 -3.42794 0.4363528,-8.732194 -2.71214 0.6552487,-8.605261 -2.093194 0.8093947,-9.429573 -4.587113 0.3657834,-9.247348 -3.468132 0.5580767,-9.112393 -2.768698 0.7520872,-8.974658 -2.176292 0.8866925,-9.783255 -4.76774 0.4990389,-9.772764 -3.850704 0.715555,-9.728168 -3.247049 0.8901207,-9.647165 -2.679012 1.001236,0.420,DnF
-2.229258 -6.496223 1.599123,-2.879824 -6.267011 1.971135,-3.451904 -5.691881 2.154156,-3.819387 -5.018284 2.309978,-4.150437 -4.594536 2.456068,-3.084167 -3.909328 1.974353,-3.313571 -2.783838 2.194549,-3.43549 -2.076292 2.392864,-3.514996 -1.42765 2.569556,-2.701557 -3.633675 1.965173,-2.843144 -2.34326 2.200781,-2.917905 -1.516294 2.442039,-2.961603 -0.814054 2.657332,-2.328506 -3.631033 2.011295,-2.381465 -2.447623 2.216122,-2.428927 -1.698791 2.451349,-2.472623 -1.068895 2.644421,-1.941604 -3.851546 2.08298,-1.872492 -2.906893 2.28618,-1.84583 -2.335063 2.475701,-1.846833 -1.816809 2.645417,-9.675163 -7.209753 -0.06560785,-9.051281 -7.03477 0.2317721,-8.520494 -6.524599 0.4679984,-8.14461 -5.949872 0.7389448,-7.80398 -5.576234 1.026408,-8.782674 -4.879836 0.2305801,-8.52632 -3.874197 0.4388502,-8.382854 -3.267674 0.6290896,-8.270498 -2.73554 0.7614285,-9.089677 -4.619653 0.3070392,-8.856297 -3.456688 0.4869271,-8.702168 -2.738948 0.7103674,-8.570686 -2.118957 0.8673277,-9.416698 -4.605121 0.4200824,-9.228004 -3.487723 0.6163841,-9.083767 -2.785021 0.8187917,-8.94128 -2.189193 0.9620903,-9.778326 -4.777856 0.5632094,-9.764172 -3.850881 0.7864367,-9.716005 -3.235119 0.9635801,-9.635497 -2.654183 1.078539,0.440,DnF
-2.229258 -6.496223 1.599123,-2.879824 -6.267011 1.971135,-3.451904 -5.691881 2.154156,-3.819387 -5.018284 2.309978,-4.150437 -4.594536 2.456068,-3.084167 -3.909328 1.974353,-3.313571 -2.783838 2.194549,-3.43549 -2.076292 2.392864,-3.514996 -1.42765 2.569556,-2.701557 -3.633675 1.965173,-2.843144 -2.34326 2.200781,-2.917905 -1.516294 2.442039,-2.961603 -0.814054 2.657332,-2.328506 -3.631033 2.011295,-2.381465 -2.447623 2.216122,-2.428927 -1.698791 2.451349,-2.472623 -1.068895 2.644421,-1.941604 -3.851546 2.08298,-1.872492 -2.906893 2.28618,-1.84583 -2.335063 2.475701,-1.846833 -1.816809 2.645417,-9.675163 -7.209753 -0.06560785,-9.051281 -7.03477 0.2317721,-8.520494 -6.524599 0.4679984,-8.14461 -5.949872 0.7389448,-7.80398 -5.576234 1.026408,-8.782674 -4.879836 0.2305801,-8.52632 -3.874197 0.4388502,-8.382854 -3.267674 0.6290896,-8.270498 -2.73554 0.7614285,-9.089677 -4.619653 0.3070392,-8.856297 -3.456688 0.4869271,-8.702168 -2.738948 0.7103674,-8.570686 -2.118957 0.8673277,-9.416698 -4.605121 0.4200824,-9.228004 -3.487723 0.6163841,-9.083767 -2.785021 0.8187917,-8.94128 -2.189193 0.9620903,-9.778326 -4.777856 0.5632094,-9.764172 -3.850881 0.7864367,-9.716005 -3.235119 0.9635801,-9.635497 -2.654183 1.078539,0.460,DnF
-2.229258 -6.496223 1.599123,-2.879824 -6.267011 1.971135,-3.451904 -5.691881 2.154156,-3.819387 -5.018284 2.309978,-4.150437 -4.594536 2.456068,-3.084167 -3.909328 1.974353,-3.313571 -2.783838 2.194549,-3.43549 -2.076292 2.392864,-3.514996 -1.42765 2.569556,-2.701557 -3.633675 1.965173,-2.843144 -2.34326 2.200781,-2.917905 -1.516294 2.442039,-2.961603 -0.814054 2.657332,-2.328506 -3.631033 2.011295,-2.381465 -2.447623 2.216122,-2.428927 -1.698791 2.451349,-2.472623 -1.068895 2.644421,-1.941604 -3.851546 2.08298,-1.872492 -2.906893 2.28618,-1.84583 -2.335063 2.475701,-1.846833 -1.816809 2.645417,-9.675163 -7.209753 -0.06560785,-9.051281 -7.03477 0.2317721,-8.520494 -6.524599 0.4679984,-8.14461 -5.949872 0.7389448,-7.80398 -5.576234 1.026408,-8.782674 -4.879836 0.2305801,-8.52632 -3.874197 0.4388502,-8.382854 -3.267674 0.6290896,-8.270498 -2.73554 0.7614285,-9.089677 -4.619653 0.3070392,-8.856297 -3.456688 0.4869271,-8.702168 -2.738948 0.7103674,-8.570686 -2.118957 0.8673277,-9.416698 -4.605121 0.4200824,-9.228004 -3.487723 0.6163841,-9.083767 -2.785021 0.8187917,-8.94128 -2.189193 0.9620903,-9.778326 -4.777856 0.5632094,-9.764172 -3.850881 0.7864367,-9.716005 -3.235119 0.9635801,-9.635497 -2.654183 1.078539,0.480,DnF
-2.17734 -6.617631 1.604842,-2.838182 -6.394707 1.977484,-3.409327 -5.808412 2.146403,-3.75622 -5.121185 2.288811,-4.068941 -4.686178 2.416623,-3.048891 -4.015863 1.939345,-3.264025 -2.881648 2.155725,-3.376462 -2.178602 2.344019,-3.447226 -1.536562 2.512979,-2.65869 -3.749029 1.921431,-2.774049 -2.454849 2.138155,-2.835743 -1.641314 2.368568,-2.868073 -0.9455533 2.576118,-2.282641 -3.748756 1.964797,-2.320819 -2.574696 2.151676,-2.355189 -1.834224 2.386375,-2.38567 -1.206088 2.576429,-1.895926 -3.972415 2.033115,-1.815898 -3.033773 2.218775,-1.78105 -2.461355 2.403085,-1.771966 -1.936567 2.566892,-9.693651 -7.183086 -0.0852453,-9.062058 -7.037924 0.1917869,-8.520012 -6.545761 0.4161563,-8.13695 -5.976268 0.6755378,-7.804077 -5.618795 0.9480124,-8.773549 -4.872177 0.1803763,-8.513169 -3.875132 0.3653062,-8.370957 -3.27068 0.5465962,-8.258521 -2.744655 0.6735968,-9.084992 -4.599317 0.252235,-8.847862 -3.438742 0.4037079,-8.694382 -2.723749 0.6115506,-8.564865 -2.110557 0.7642946,-9.416212 -4.578987 0.3569566,-9.225222 -3.463427 0.5257953,-9.07626 -2.772767 0.7134313,-8.929538 -2.18684 0.8464434,-9.780605 -4.744639 0.4891632,-9.758335 -3.828702 0.6882411,-9.70303 -3.2249 0.8481728,-9.613932 -2.651831 0.9519444,0.500,DnF
-2.17734 -6.617631 1.604842,-2.838182 -6.394707 1.977484,-3.409327 -5.808412 2.146403,-3.75622 -5.121185 2.288811,-4.068941 -4.686178 2.416623,-3.048891 -4.015863 1.939345,-3.264025 -2.881648 2.155725,-3.376462 -2.178602 2.344019,-3.447226 -1.536562 2.512979,-2.65869 -3.749029 1.921431,-2.774049 -2.454849 2.138155,-2.835743 -1.641314 2.368568,-2.868073 -0.9455533 2.576118,-2.282641 -3.748756 1.964797,-2.320819 -2.574696 2.151676,-2.355189 -1.834224 2.386375,-2.38567 -1.206088 2.576429,-1.895926 -3.972415 2.033115,-1.815898 -3.033773 2.218775,-1.78105 -2.461355 2.403085,-1.771966 -1.936567 2.566892,-9.693651 -7.183086 -0.0852453,-9.062058 -7.037924 0.1917869,-8.520012 -6.545761 0.4161563,-8.13695 -5.976268 0.6755378,-7.804077 -5.618795 0.9480124,-8.773549 -4.872177 0.1803763,-8.513169 -3.875132 0.3653062,-8.370957 -3.27068 0.5465962,-8.258521 -2.744655 0.6735968,-9.084992 -4.599317 0.252235,-8.847862 -3.438742 0.4037079,-8.694382 -2.723749 0.6115506,-8.564865 -2.110557 0.7642946,-9.416212 -4.578987 0.3569566,-9.225222 -3.463427 0.5257953,-9.07626 -2.772767 0.7134313,-8.929538 -2.18684 0.8464434,-9.780605 -4.744639 0.4891632,-9.758335 -3.828702 0.6882411,-9.70303 -3.2249 0.8481728,-9.613932 -2.651831 0.9519444,0.520,DnF
-2.17734 -6.617631 1.604842,-2.838182 -6.394707 1.977484,-3.409327 -5.808412 2.146403,-3.75622 -5.121185 2.288811,-4.068941 -4.686178 2.416623,-3.048891 -4.015863 1.939345,-3.264025 -2.881648 2.155725,-3.376462 -2.178602 2.344019,-3.447226 -1.536562 2.512979,-2.65869 -3.749029 1.921431,-2.774049 -2.454849 2.138155,-2.835743 -1.641314 2.368568,-2.868073 -0.9455533 2.576118,-2.282641 -3.748756 1.964797,-2.320819 -2.574696 2.151676,-2.355189 -1.834224 2.386375,-2.38567 -1.206088 2.576429,-1.895926 -3.972415 2.033115,-1.815898 -3.033773 2.218775,-1.78105 -2.461355 2.403085,-1.771966 -1.936567 2.566892,-9.693651 -7.183086 -0.0852453,-9.062058 -7.037924 0.1917869,-8.520012 -6.545761 0.4161563,-8.13695 -5.976268 0.6755378,-7.804077 -5.618795 0.9480124,-8.773549 -4.872177 0.1803763,-8.513169 -3.875132 0.3653062,-8.370957 -3.27068 0.5465962,-8.258521 -2.744655 0.6735968,-9.084992 -4.599317 0.252235,-8.847862 -3.438742 0.4037079,-8.694382 -2.723749 0.6115506,-8.564865 -2.110557 0.7642946,-9.416212 -4.578987 0.3569566,-9.225222 -3.463427 0.5257953,-9.07626 -2.772767 0.7134313,-8.929538 -2.18684 0.8464434,-9.780605 -4.744639 0.4891632,-9.758335 -3.828702 0.6882411,-9.70303 -3.2249 0.8481728,-9.613932 -2.651831 0.9519444,0.540,DnF
-2.123587 -6.765317 1.638123,-2.776984 -6.545247 2.025344,-3.346643 -5.955915 2.191187,-3.685831 -5.264349 2.334469,-3.986469 -4.81674 2.460069,-2.989472 -4.159426 1.948872,-3.208498 -3.024972 2.154886,-3.318243 -2.320877 2.345068,-3.382948 -1.675976 2.515373,-2.604396 -3.883602 1.92334,-2.717725 -2.591704 2.111603,-2.773711 -1.784279 2.333678,-2.800466 -1.090143 2.536041,-2.232031 -3.87654 1.960698,-2.265567 -2.712448 2.119011,-2.292801 -1.979499 2.345002,-2.316664 -1.355987 2.531131,-1.848281 -4.094446 2.030752,-1.762659 -3.159578 2.200162,-1.721007 -2.602962 2.376695,-1.705534 -2.084316 2.533426,-9.691456 -7.205903 -0.03222727,-9.067962 -7.062772 0.2108772,-8.530788 -6.559134 0.4122329,-8.152988 -5.999569 0.6581829,-7.824815 -5.655822 0.9182196,-8.772102 -4.873912 0.1921549,-8.514088 -3.876937 0.3764784,-8.370674 -3.281105 0.5574978,-8.255713 -2.760723 0.6785558,-9.082157 -4.60337 0.2794636,-8.842692 -3.440324 0.4259932,-8.68146 -2.723367 0.6370422,-8.549756 -2.10991 0.7903627,-9.41363 -4.593677 0.4007351,-9.222783 -3.475705 0.5666091,-9.069527 -2.776215 0.7557884,-8.921736 -2.182077 0.8922346,-9.776939 -4.779285 0.546133,-9.762344 -3.860121 0.7423944,-9.702744 -3.258657 0.9108812,-9.61084 -2.688226 1.021134,0.560,DnF
-2.123587 -6.765317 1.638123,-2.776984 -6.545247 2.025344,-3.346643 -5.955915 2.191187,-3.685831 -5.264349 2.334469,-3.986469 -4.81674 2.460069,-2.989472 -4.159426 1.948872,-3.208498 -3.024972 2.154886,-3.318243 -2.320877 2.345068,-3.382948 -1.675976 2.515373,-2.604396 -3.883602 1.92334,-2.717725 -2.591704 2.111603,-2.773711 -1.784279 2.333678,-2.800466 -1.090143 2.536041,-2.232031 -3.87654 1.960698,-2.265567 -2.712448 2.119011,-2.292801 -1.979499 2.345002,-2.316664 -1.355987 2.531131,-1.848281 -4.094446 2.030752,-1.762659 -3.159578 2.200162,-1.721007 -2.602962 2.376695,-1.705534 -2.084316 2.533426,-9.691456 -7.205903 -0.03222727,-9.067962 -7.062772 0.2108772,-8.530788 -6.559134 0.4122329,-8.152988 -5.999569 0.6581829,-7.824815 -5.655822 0.9182196,-8.772102 -4.873912 0.1921549,-8.514088 -3.876937 0.3764784,-8.370674 -3.281105 0.5574978,-8.255713 -2.760723 0.6785558,-9.082157 -4.60337 0.2794636,-8.842692 -3.440324 0.4259932,-8.68146 -2.723367 0.6370422,-8.549756 -2.10991 0.7903627,-9.41363 -4.593677 0.4007351,-9.222783 -3.475705 0.5666091,-9.069527 -2.776215 0.7557884,-8.921736 -2.182077 0.8922346,-9.776939 -4.779285 0.546133,-9.762344 -3.860121 0.7423944,-9.702744 -3.258657 0.9108812,-9.61084 -2.688226 1.021134,0.580,DnF
-2.123587 -6.765317 1.638123,-2.776984 -6.545247 2.025344,-3.346643 -5.955915 2.191187,-3.685831 -5.264349 2.334469,-3.986469 -4.81674 2.460069,-2.989472 -4.159426 1.948872,-3.208498 -3.024972 2.154886,-3.318243 -2.320877 2.345068,-3.382948 -1.675976 2.515373,-2.604396 -3.883602 1.92334,-2.717725 -2.591704 2.111603,-2.773711 -1.784279 2.333678,-2.800466 -1.090143 2.536041,-2.232031 -3.87654 1.960698,-2.265567 -2.712448 2.119011,-2.292801 -1.979499 2.345002,-2.316664 -1.355987 2.531131,-1.848281 -4.094446 2.030752,-1.762659 -3.159578 2.200162,-1.721007 -2.602962 2.376695,-1.705534 -2.084316 2.533426,-9.691456 -7.205903 -0.03222727,-9.067962 -7.062772 0.2108772,-8.530788 -6.559134 0.4122329,-8.152988 -5.999569 0.6581829,-7.824815 -5.655822 0.9182196,-8.772102 -4.873912 0.1921549,-8.514088 -3.876937 0.3764784,-8.370674 -3.281105 0.5574978,-8.255713 -2.760723 0.6785558,-9.082157 -4.60337 0.2794636,-8.842692 -3.440324 0.4259932,-8.68146 -2.723367 0.6370422,-8.549756 -2.10991 0.7903627,-9.41363 -4.593677 0.4007351,-9.222783 -3.475705 0.5666091,-9.069527 -2.776215 0.7557884,-8.921736 -2.182077 0.8922346,-9.776939 -4.779285 0.546133,-9.762344 -3.860121 0.7423944,-9.702744 -3.258657 0.9108812,-9.61084 -2.688226 1.021134,0.600,DnF
-2.087076 -6.870464 1.674752,-2.739051 -6.632555 2.068237,-3.305243 -6.055867 2.250828,-3.635597 -5.380669 2.417474,-3.936016 -4.942834 2.568706,-2.950729 -4.238601 1.959755,-3.16954 -3.114339 2.170842,-3.271231 -2.41993 2.364361,-3.325939 -1.76966 2.531652,-2.568583 -3.97612 1.937268,-2.672493 -2.694487 2.123612,-2.716498 -1.906544 2.351559,-2.72829 -1.216039 2.55562,-2.201655 -3.978733 1.980994,-2.219798 -2.822938 2.138355,-2.236637 -2.109245 2.374664,-2.250405 -1.490338 2.565775,-1.824822 -4.201881 2.061476,-1.730875 -3.274547 2.230099,-1.684137 -2.723418 2.40959,-1.662055 -2.20518 2.567578,-9.716781 -7.205966 0.02215933,-9.089255 -7.062742 0.2637889,-8.541265 -6.557021 0.4576886,-8.159259 -6.00158 0.6995722,-7.828141 -5.674621 0.9547651,-8.77665 -4.868759 0.2335021,-8.516705 -3.884613 0.4118022,-8.371811 -3.283914 0.5906075,-8.255365 -2.759419 0.7179434,-9.088218 -4.590705 0.3234306,-8.841123 -3.441918 0.4650206,-8.676483 -2.721331 0.6777716,-8.540968 -2.106447 0.8332916,-9.422418 -4.568265 0.4475666,-9.221686 -3.463186 0.6120508,-9.064682 -2.76559 0.7981845,-8.913218 -2.177604 0.9289345,-9.792331 -4.736843 0.5960751,-9.767591 -3.823338 0.7952697,-9.704953 -3.221847 0.9558442,-9.609434 -2.651238 1.062587,0.620,DnF
-2.087076 -6.870464 1.674752,-2.739051 -6.632555 2.068237,-3.305243 -6.055867 2.250828,-3.635597 -5.380669 2.417474,-3.936016 -4.942834 2.568706,-2.950729 -4.238601 1.959755,-3.16954 -3.114339 2.170842,-3.271231 -2.41993 2.364361,-3.325939 -1.76966 2.531652,-2.568583 -3.97612 1.937268,-2.672493 -2.694487 2.123612,-2.716498 -1.906544 2.351559,-2.72829 -1.216039 2.55562,-2.201655 -3.978733 1.980994,-2.219798 -2.822938 2.138355,-2.236637 -2.109245 2.374664,-2.250405 -1.490338 2.565775,-1.824822 -4.201881 2.061476,-1.730875 -3.274547 2.230099,-1.684137 -2.723418 2.40959,-1.662055 -2.20518 2.567578,-9.716781 -7.205966 0.02215933,-9.089255 -7.062742 0.2637889,-8.541265 -6.557021 0.4576886,-8.159259 -6.00158 0.6995722,-7.828141 -5.674621 0.9547651,-8.77665 -4.868759 0.2335021,-8.516705 -3.884613 0.4118022,-8.371811 -3.283914 0.5906075,-8.255365 -2.759419 0.7179434,-9.088218 -4.590705 0.3234306,-8.841123 -3.441918 0.4650206,-8.676483 -2.721331 0.6777716,-8.540968 -2.106447 0.8332916,-9.422418 -4.568265 0.4475666,-9.221686 -3.463186 0.6120508,-9.064682 -2.76559 0.7981845,-8.913218 -2.177604 0.9289345,-9.792331 -4.736843 0.5960751,-9.767591 -3.823338 0.7952697,-9.704953 -3.221847 0.9558442,-9.609434 -2.651238 1.062587,0.640,DnF
-2.087076 -6.870464 1.674752,-2.739051 -6.632555 2.068237,-3.305243 -6.055867 2.250828,-3.635597 -5.380669 2.417474,-3.936016 -4.942834 2.568706,-2.950729 -4.238601 1.959755,-3.16954 -3.114339 2.170842,-3.271231 -2.41993 2.364361,-3.325939 -1.76966 2.531652,-2.568583 -3.97612 1.937268,-2.672493 -2.694487 2.123612,-2.716498 -1.906544 2.351559,-2.72829 -1.216039 2.55562,-2.201655 -3.978733 1.980994,-2.219798 -2.822938 2.138355,-2.236637 -2.109245 2.374664,-2.250405 -1.490338 2.565775,-1.824822 -4.201881 2.061476,-1.730875 -3.274547 2.230099,-1.684137 -2.723418 2.40959,-1.662055 -2.20518 2.567578,-9.716781 -7.205966 0.02215933,-9.089255 -7.062742 0.2637889,-8.541265 -6.557021 0.4576886,-8.159259 -6.00158 0.6995722,-7.828141 -5.674621 0.9547651,-8.77665 -4.868759 0.2335021,-8.516705 -3.884613 0.4118022,-8.371811 -3.283914 0.5906075,-8.255365 -2.759419 0.7179434,-9.088218 -4.590705 0.3234306,-8.841123 -3.441918 0.4650206,-8.676483 -2.721331 0.6777716,-8.540968 -2.106447 0.8332916,-9.422418 -4.568265 0.4475666,-9.221686 -3.463186 0.6120508,-9.064682 -2.76559 0.7981845,-8.913218 -2.177604 0.9289345,-9.792331 -4.736843 0.5960751,-9.767591 -3.823338 0.7952697,-9.704953 -3.221847 0.9558442,-9.609434 -2.651238 1.062587,0.660,DnF
-2.035896 -6.989664 1.719482,-2.674141 -6.76128 2.153105,-3.228718 -6.190395 2.359313,-3.545169 -5.50123 2.545667,-3.836054 -5.045112 2.723198,-2.900714 -4.357456 2.053682,-3.115451 -3.241909 2.26964,-3.210575 -2.556869 2.468247,-3.257629 -1.916706 2.642322,-2.523827 -4.08567 2.006138,-2.628765 -2.806247 2.191897,-2.67017 -2.027201 2.425855,-2.674242 -1.342274 2.636511,-2.161023 -4.087728 2.021556,-2.17993 -2.933482 2.172123,-2.192336 -2.230464 2.413429,-2.200463 -1.615754 2.614316,-1.786535 -4.318003 2.079471,-1.683615 -3.398386 2.240439,-1.626072 -2.853979 2.426942,-1.590394 -2.339382 2.593761,-9.726137 -7.232824 0.09687904,-9.091434 -7.080884 0.312844,-8.544569 -6.57127 0.4969258,-8.160507 -6.004539 0.7371019,-7.829195 -5.648704 0.9896907,-8.787008 -4.874871 0.2576884,-8.52829 -3.883156 0.4276645,-8.381834 -3.278971 0.6083756,-8.263989 -2.751894 0.7340987,-9.093026 -4.592548 0.3606641,-8.848457 -3.440094 0.4915521,-8.680668 -2.714227 0.7060043,-8.543084 -2.099669 0.8604772,-9.424116 -4.569036 0.5001194,-9.228556 -3.458557 0.6517982,-9.070343 -2.757846 0.8404161,-8.917657 -2.17034 0.9700094,-9.790712 -4.74206 0.6623106,-9.776032 -3.815875 0.8606805,-9.714703 -3.202109 1.027346,-9.619029 -2.625719 1.130225,0.680,DnF
-2.035896 -6.989664 1.719482,-2.674141 -6.76128 2.153105,-3.228718 -6.190395 2.359313,-3.545169 -5.50123 2.545667,-3.836054 -5.045112 2.723198,-2.900714 -4.357456 2.053682,-3.115451 -3.241909 2.26964,-3.210575 -2.556869 2.468247,-3.257629 -1.916706 2.642322,-2.523827 -4.08567 2.006138,-2.628765 -2.806247 2.191897,-2.67017 -2.027201 2.425855,-2.674242 -1.342274 2.636511,-2.161023 -4.087728 2.021556,-2.17993 -2.933482 2.172123,-2.192336 -2.230464 2.413429,-2.200463 -1.615754 2.614316,-1.786535 -4.318003 2.079471,-1.683615 -3.398386 2.240439,-1.626072 -2.853979 2.426942,-1.590394 -2.339382 2.593761,-9.726137 -7.232824 0.09687904,-9.091434 -7.080884 0.312844,-8.544569 -6.57127 0.4969258,-8.160507 -6.004539 0.7371019,-7.829195 -5.648704 0.9896907,-8.787008 -4.874871 0.2576884,-8.52829 -3.883156 0.4276645,-8.381834 -3.278971 0.6083756,-8.263989 -2.751894 0.7340987,-9.093026 -4.592548 0.3606641,-8.848457 -3.440094 0.4915521,-8.680668 -2.714227 0.7060043,-8.543084 -2.099669 0.8604772,-9.424116 -4.569036 0.5001194,-9.228556 -3.458557 0.6517982,-9.070343 -2.757846 0.8404161,-8.917657 -2.17034 0.9700094,-9.790712 -4.74206 0.6623106,-9.776032 -3.815875 0.8606805,-9.714703 -3.202109 1.027346,-9.619029 -2.625719 1.130225,0.700,DnF
-2.035896 -6.989664 1.719482,-2.674141 -6.76128 2.153105,-3.228718 -6.190395 2.359313,-3.545169 -5.50123 2.545667,-3.836054 -5.045112 2.723198,-2.900714 -4.357456 2.053682,-3.115451 -3.241909 2.26964,-3.210575 -2.556869 2.468247,-3.257629 -1.916706 2.642322,-2.523827 -4.08567 2.006138,-2.628765 -2.806247 2.191897,-2.67017 -2.027201 2.425855,-2.674242 -1.342274 2.636511,-2.161023 -4.087728 2.021556,-2.17993 -2.933482 2.172123,-2.192336 -2.230464 2.413429,-2.200463 -1.615754 2.614316,-1.786535 -4.318003 2.079471,-1.683615 -3.398386 2.240439,-1.626072 -2.853979 2.426942,-1.590394 -2.339382 2.593761,-9.726137 -7.232824 0.09687904,-9.091434 -7.080884 0.312844,-8.544569 -6.57127 0.4969258,-8.160507 -6.004539 0.7371019,-7.829195 -5.648704 0.9896907,-8.787008 -4.874871 0.2576884,-8.52829 -3.883156 0.4276645,-8.381834 -3.278971 0.6083756,-8.263989 -2.751894 0.7340987,-9.093026 -4.592548 0.3606641,-8.848457 -3.440094 0.4915521,-8.680668 -2.714227 0.7060043,-8.543084 -2.099669 0.8604772,-9.424116 -4.569036 0.5001194,-9.228556 -3.458557 0.6517982,-9.070343 -2.757846 0.8404161,-8.917657 -2.17034 0.9700094,-9.790712 -4.74206 0.6623106,-9.776032 -3.815875 0.8606805,-9.714703 -3.202109 1.027346,-9.619029 -2.625719 1.130225,0.720,DnF
-1.980025 -7.092085 1.794523,-2.601308 -6.857038 2.317679,-3.141853 -6.315582 2.578442,-3.447911 -5.637184 2.809807,-3.735693 -5.157949 3.03514,-2.843587 -4.444268 2.215984,-3.053423 -3.334102 2.452263,-3.137407 -2.654459 2.66394,-3.173252 -2.019916 2.845597,-2.467969 -4.171562 2.131071,-2.571208 -2.896652 2.33045,-2.60521 -2.130536 2.568055,-2.598383 -1.4527 2.774848,-2.10818 -4.18053 2.113088,-2.123878 -3.020956 2.281847,-2.128534 -2.326013 2.536587,-2.125472 -1.712075 2.74642,-1.732429 -4.418819 2.148567,-1.625171 -3.511695 2.32172,-1.558878 -2.979655 2.521274,-1.509065 -2.474525 2.70275,-9.748184 -7.252552 0.1605464,-9.117614 -7.104927 0.3775641,-8.562549 -6.583192 0.5658033,-8.175575 -6.016963 0.8128679,-7.830699 -5.676351 1.070436,-8.797801 -4.876216 0.3175342,-8.539577 -3.882631 0.4889892,-8.391644 -3.271527 0.6739638,-8.27173 -2.738592 0.804802,-9.107386 -4.59513 0.4222405,-8.864108 -3.437431 0.5585033,-8.694798 -2.698246 0.7776926,-8.553979 -2.07784 0.9325486,-9.440683 -4.570982 0.5633599,-9.247026 -3.45404 0.7200884,-9.085867 -2.746349 0.9058113,-8.927865 -2.157518 1.030489,-9.80933 -4.739933 0.7275793,-9.789129 -3.804361 0.9292285,-9.722857 -3.185918 1.095436,-9.622487 -2.604161 1.197184,0.740,DnF
-1.980025 -7.092085 1.794523,-2.601308 -6.857038 2.317679,-3.141853 -6.315582 2.578442,-3.447911 -5.637184 2.809807,-3.735693 -5.157949 3.03514,-2.843587 -4.444268 2.215984,-3.053423 -3.334102 2.452263,-3.137407 -2.654459 2.66394,-3.173252 -2.019916 2.845597,-2.467969 -4.171562 2.131071,-2.571208 -2.896652 2.33045,-2.60521 -2.130536 2.568055,-2.598383 -1.4527 2.774848,-2.10818 -4.18053 2.113088,-2.123878 -3.020956 2.281847,-2.128534 -2.326013 2.536587,-2.125472 -1.712075 2.74642,-1.732429 -4.418819 2.148567,-1.625171 -3.511695 2.32172,-1.558878 -2.979655 2.521274,-1.509065 -2.474525 2.70275,-9.748184 -7.252552 0.1605464,-9.117614 -7.104927 0.3775641,-8.562549 -6.583192 0.5658033,-8.175575 -6.016963 0.8128679,-7.830699 -5.676351 1.070436,-8.797801 -4.876216 0.3175342,-8.539577 -3.882631 0.4889892,-8.391644 -3.271527 0.6739638,-8.27173 -2.738592 0.804802,-9.107386 -4.59513 0.4222405,-8.864108 -3.437431 0.5585033,-8.694798 -2.698246 0.7776926,-8.553979 -2.07784 0.9325486,-9.440683 -4.570982 0.5633599,-9.247026 -3.45404 0.7200884,-9.085867 -2.746349 0.9058113,-8.927865 -2.157518 1.030489,-9.80933 -4.739933 0.7275793,-9.789129 -3.804361 0.9292285,-9.722857 -3.185918 1.095436,-9.622487 -2.604161 1.197184,0.760,DnF
-1.980025 -7.092085 1.794523,-2.601308 -6.857038 2.317679,-3.141853 -6.315582 2.578442,-3.447911 -5.637184 2.809807,-3.735693 -5.157949 3.03514,-2.843587 -4.444268 2.215984,-3.053423 -3.334102 2.452263,-3.137407 -2.654459 2.66394,-3.173252 -2.019916 2.845597,-2.467969 -4.171562 2.131071,-2.571208 -2.896652 2.33045,-2.60521 -2.130536 2.568055,-2.598383 -1.4527 2.774848,-2.10818 -4.18053 2.113088,-2.123878 -3.020956 2.281847,-2.128534 -2.326013 2.536587,-2.125472 -1.712075 2.74642,-1.732429 -4.418819 2.148567,-1.625171 -3.511695 2.32172,-1.558878 -2.979655 2.521274,-1.509065 -2.474525 2.70275,-9.748184 -7.252552 0.1605464,-9.117614 -7.104927 0.3775641,-8.562549 -6.583192 0.5658033,-8.175575 -6.016963 0.8128679,-7.830699 -5.676351 1.070436,-8.797801 -4.876216 0.3175342,-8.539577 -3.882631 0.4889892,-8.391644 -3.271527 0.6739638,-8.27173 -2.738592 0.804802,-9.107386 -4.59513 0.4222405,-8.864108 -3.437431 0.5585033,-8.694798 -2.698246 0.7776926,-8.553979 -2.07784 0.9325486,-9.440683 -4.570982 0.5633599,-9.247026 -3.45404 0.7200884,-9.085867 -2.746349 0.9058113,-8.927865 -2.157518 1.030489,-9.80933 -4.739933 0.7275793,-9.789129 -3.804361 0.9292285,-9.722857 -3.185918 1.095436,-9.622487 -2.604161 1.197184,0.780,DnF
-1.911425 -7.202867 1.837096,-2.524061 -6.946323 2.344413,-3.050964 -6.396141 2.595321,-3.338909 -5.701236 2.817529,-3.615612 -5.228796 3.028112,-2.748739 -4.539167 2.232073,-2.964117 -3.437643 2.449739,-3.044527 -2.768168 2.645199,-3.074493 -2.152435 2.813447,-2.379708 -4.263385 2.143415,-2.486701 -3.003297 2.324369,-2.512412 -2.255584 2.537848,-2.491982 -1.590999 2.724468,-2.025199 -4.270652 2.115212,-2.046238 -3.119064 2.274036,-2.034482 -2.441331 2.516642,-2.016037 -1.839361 2.711797,-1.654278 -4.511965 2.142817,-1.536067 -3.616718 2.310195,-1.451387 -3.106668 2.502065,-1.381367 -2.627747 2.678578,-9.761873 -7.253475 0.2362987,-9.127775 -7.088063 0.4569007,-8.577402 -6.573561 0.6555347,-8.186579 -6.011501 0.9118242,-7.837758 -5.650998 1.181939,-8.816452 -4.84764 0.401925,-8.556644 -3.846328 0.5869356,-8.403443 -3.235576 0.7868114,-8.275323 -2.702876 0.9279172,-9.12904 -4.572748 0.5075964,-8.882212 -3.40819 0.6549545,-8.709477 -2.663995 0.8831052,-8.563685 -2.037629 1.052903,-9.465872 -4.563033 0.6492193,-9.271256 -3.44052 0.8047138,-9.109271 -2.719757 0.9932454,-8.948064 -2.116052 1.123011,-9.837914 -4.750206 0.8149432,-9.815375 -3.816622 1.011861,-9.744256 -3.195224 1.174289,-9.637817 -2.60875 1.275056,0.800,DnF
-1.911425 -7.202867 1.837096,-2.524061 -6.946323 2.344413,-3.050964 -6.396141 2.595321,-3.338909 -5.701236 2.817529,-3.615612 -5.228796 3.028112,-2.748739 -4.539167 2.232073,-2.964117 -3.437643 2.449739,-3.044527 -2.768168 2.645199,-3.074493 -2.152435 2.813447,-2.379708 -4.263385 2.143415,-2.486701 -3.003297 2.324369,-2.512412 -2.255584 2.537848,-2.491982 -1.590999 2.724468,-2.025199 -4.270652 2.115212,-2.046238 -3.119064 2.274036,-2.034482 -2.441331 2.516642,-2.016037 -1.839361 2.711797,-1.654278 -4.511965 2.142817,-1.536067 -3.616718 2.310195,-1.451387 -3.106668 2.502065,-1.381367 -2.627747 2.678578,-9.761873 -7.253475 0.2362987,-9.127775 -7.088063 0.4569007,-8.577402 -6.573561 0.6555347,-8.186579 -6.011501 0.9118242,-7.837758 -5.650998 1.181939,-8.816452 -4.84764 0.401925,-8.556644 -3.846328 0.5869356,-8.403443 -3.235576 0.7868114,-8.275323 -2.702876 0.9279172,-9.12904 -4.572748 0.5075964,-8.882212 -3.40819 0.6549545,-8.709477 -2.663995 0.8831052,-8.563685 -2.037629 1.052903,-9.465872 -4.563033 0.6492193,-9.271256 -3.44052 0.8047138,-9.109271 -2.719757 0.9932454,-8.948064 -2.116052 1.123011,-9.837914 -4.750206 0.8149432,-9.815375 -3.816622 1.011861,-9.744256 -3.195224 1.174289,-9.637817 -2.60875 1.275056,0.820,DnF
-1.911425 -7.202867 1.837096,-2.524061 -6.946323 2.344413,-3.050964 -6.396141 2.595321,-3.338909 -5.701236 2.817529,-3.615612 -5.228796 3.028112,-2.748739 -4.539167 2.232073,-2.964117 -3.437643 2.449739,-3.044527 -2.768168 2.645199,-3.074493 -2.152435 2.813447,-2.379708 -4.263385 2.143415,-2.486701 -3.003297 2.324369,-2.512412 -2.255584 2.537848,-2.491982 -1.590999 2.724468,-2.025199 -4.270652 2.115212,-2.046238 -3.119064 2.274036,-2.034482 -2.441331 2.516642,-2.016037 -1.839361 2.711797,-1.654278 -4.511965 2.142817,-1.536067 -3.616718 2.310195,-1.451387 -3.106668 2.502065,-1.381367 -2.627747 2.678578,-9.761873 -7.253475 0.2362987,-9.127775 -7.088063 0.4569007,-8.577402 -6.573561 0.6555347,-8.186579 -6.011501 0.9118242,-7.837758 -5.650998 1.181939,-8.816452 -4.84764 0.401925,-8.556644 -3.846328 0.5869356,-8.403443 -3.235576 0.7868114,-8.275323 -2.702876 0.9279172,-9.12904 -4.572748 0.5075964,-8.882212 -3.40819 0.6549545,-8.709477 -2.663995 0.8831052,-8.563685 -2.037629 1.052903,-9.465872 -4.563033 0.6492193,-9.271256 -3.44052 0.8047138,-9.109271 -2.719757 0.9932454,-8.948064 -2.116052 1.123011,-9.837914 -4.750206 0.8149432,-9.815375 -3.816622 1.011861,-9.744256 -3.195224 1.174289,-9.637817 -2.60875 1.275056,0.840,DnF
-1.846456 -7.315271 1.832738,-2.437616 -7.024459 2.377633,-2.952703 -6.479503 2.651143,-3.217875 -5.790243 2.889324,-3.440552 -5.258989 3.113081,-2.648623 -4.627363 2.270714,-2.848267 -3.508502 2.492434,-2.912272 -2.830808 2.696836,-2.925039 -2.218485 2.869795,-2.276511 -4.373789 2.16279,-2.367534 -3.108732 2.340315,-2.374691 -2.366844 2.550618,-2.336116 -1.706571 2.736358,-1.923526 -4.393224 2.115783,-1.928134 -3.252211 2.26774,-1.89458 -2.589487 2.507626,-1.855082 -2.006054 2.698297,-1.55591 -4.639307 2.129235,-1.434867 -3.745573 2.283223,-1.337531 -3.245201 2.468753,-1.251675 -2.773092 2.641649,-9.81144 -7.233164 0.2829932,-9.169358 -7.068593 0.5094164,-8.609584 -6.555928 0.7151604,-8.218613 -5.996543 0.9777994,-7.873625 -5.641487 1.2541,-8.832188 -4.824857 0.4524572,-8.575883 -3.826907 0.6397215,-8.430616 -3.208855 0.8395154,-8.312737 -2.669715 0.9781389,-9.149821 -4.545789 0.5558645,-8.910074 -3.382608 0.6976664,-8.743359 -2.642297 0.9239902,-8.602623 -2.011316 1.094826,-9.491591 -4.527622 0.6965285,-9.305936 -3.411977 0.8494366,-9.152142 -2.697613 1.036033,-9.000418 -2.095966 1.162747,-9.867199 -4.704006 0.8610618,-9.847535 -3.778235 1.053173,-9.781236 -3.160265 1.211186,-9.682462 -2.575642 1.312355,0.860,DnF
-1.846456 -7.315271 1.832738,-2.437616 -7.024459 2.377633,-2.952703 -6.479503 2.651143,-3.217875 -5.790243 2.889324,-3.440552 -5.258989 3.113081,-2.648623 -4.627363 2.270714,-2.848267 -3.508502 2.492434,-2.912272 -2.830808 2.696836,-2.925039 -2.218485 2.869795,-2.276511 -4.373789 2.16279,-2.367534 -3.108732 2.340315,-2.374691 -2.366844 2.550618,-2.336116 -1.706571 2.736358,-1.923526 -4.393224 2.115783,-1.928134 -3.252211 2.26774,-1.89458 -2.589487 2.507626,-1.855082 -2.006054 2.698297,-1.55591 -4.639307 2.129235,-1.434867 -3.745573 2.283223,-1.337531 -3.245201 2.468753,-1.251675 -2.773092 2.641649,-9.81144 -7.233164 0.2829932,-9.169358 -7.068593 0.5094164,-8.609584 -6.555928 0.7151604,-8.218613 -5.996543 0.9777994,-7.873625 -5.641487 1.2541,-8.832188 -4.824857 0.4524572,-8.575883 -3.826907 0.6397215,-8.430616 -3.208855 0.8395154,-8.312737 -2.669715 0.9781389,-9.149821 -4.545789 0.5558645,-8.910074 -3.382608 0.6976664,-8.743359 -2.642297 0.9239902,-8.602623 -2.011316 1.094826,-9.491591 -4.527622 0.6965285,-9.305936 -3.411977 0.8494366,-9.152142 -2.697613 1.036033,-9.000418 -2.095966 1.162747,-9.867199 -4.704006 0.8610618,-9.847535 -3.778235 1.053173,-9.781236 -3.160265 1.211186,-9.682462 -2.575642 1.312355,0.880,DnF
-1.846456 -7.315271 1.832738,-2.437616 -7.024459 2.377633,-2.952703 -6.479503 2.651143,-3.217875 -5.790243 2.889324,-3.440552 -5.258989 3.113081,-2.648623 -4.627363 2.270714,-2.848267 -3.508502 2.492434,-2.912272 -2.830808 2.696836,-2.925039 -2.218485 2.869795,-2.276511 -4.373789 2.16279,-2.367534 -3.108732 2.340315,-2.374691 -2.366844 2.550618,-2.336116 -1.706571 2.736358,-1.923526 -4.393224 2.115783,-1.928134 -3.252211 2.26774,-1.89458 -2.589487 2.507626,-1.855082 -2.006054 2.698297,-1.55591 -4.639307 2.129235,-1.434867 -3.745573 2.283223,-1.337531 -3.245201 2.468753,-1.251675 -2.773092 2.641649,-9.81144 -7.233164 0.2829932,-9.169358 -7.068593 0.5094164,-8.609584 -6.555928 0.7151604,-8.218613 -5.996543 0.9777994,-7.873625 -5.641487 1.2541,-8.832188 -4.824857 0.4524572,-8.575883 -3.826907 0.6397215,-8.430616 -3.208855 0.8395154,-8.312737 -2.669715 0.9781389,-9.149821 -4.545789 0.5558645,-8.910074 -3.382608 0.6976664,-8.743359 -2.642297 0.9239902,-8.602623 -2.011316 1.094826,-9.491591 -4.527622 0.6965285,-9.305936 -3.411977 0.8494366,-9.152142 -2.697613 1.036033,-9.000418 -2.095966 1.162747,-9.867199 -4.704006 0.8610618,-9.847535 -3.778235 1.053173,-9.781236 -3.160265 1.211186,-9.682462 -2.575642 1.312355,0.900,DnF
-1.753743 -7.424937 1.857152,-2.327163 -7.114322 2.434304,-2.823972 -6.545829 2.728695,-3.073194 -5.838733 2.982116,-3.254751 -5.25571 3.216117,-2.534699 -4.732307 2.32911,-2.715252 -3.612071 2.556786,-2.753437 -2.939192 2.767791,-2.742606 -2.329925 2.949532,-2.163711 -4.475538 2.205073,-2.240421 -3.220766 2.397464,-2.224233 -2.497325 2.602584,-2.163803 -1.841805 2.782705,-1.813339 -4.500207 2.143777,-1.807971 -3.371252 2.312215,-1.759989 -2.724799 2.550181,-1.703514 -2.147436 2.732779,-1.447682 -4.75809 2.143836,-1.316947 -3.885032 2.316741,-1.20983 -3.392715 2.504744,-1.11186 -2.926399 2.677848,-9.839303 -7.227674 0.2880988,-9.186174 -7.062431 0.4781937,-8.618179 -6.539243 0.660571,-8.227697 -5.957448 0.9060407,-7.873625 -5.641487 1.259258,-8.832188 -4.824857 0.457615,-8.575883 -3.826907 0.6448793,-8.430616 -3.208855 0.8446733,-8.312737 -2.669715 0.9832968,-9.149821 -4.545789 0.5610223,-8.910074 -3.382608 0.7028242,-8.743359 -2.642297 0.9291481,-8.602623 -2.011316 1.099984,-9.491591 -4.527622 0.7016863,-9.305936 -3.411977 0.8545944,-9.152142 -2.697613 1.041191,-9.000418 -2.095966 1.167905,-9.867199 -4.704006 0.8662196,-9.847535 -3.778235 1.058331,-9.781236 -3.160265 1.216344,-9.682462 -2.575642 1.317513,0.920,DnF
-1.753743 -7.424937 1.857152,-2.327163 -7.114322 2.434304,-2.823972 -6.545829 2.728695,-3.073194 -5.838733 2.982116,-3.254751 -5.25571 3.216117,-2.534699 -4.732307 2.32911,-2.715252 -3.612071 2.556786,-2.753437 -2.939192 2.767791,-2.742606 -2.329925 2.949532,-2.163711 -4.475538 2.205073,-2.240421 -3.220766 2.397464,-2.224233 -2.497325 2.602584,-2.163803 -1.841805 2.782705,-1.813339 -4.500207 2.143777,-1.807971 -3.371252 2.312215,-1.759989 -2.724799 2.550181,-1.703514 -2.147436 2.732779,-1.447682 -4.75809 2.143836,-1.316947 -3.885032 2.316741,-1.20983 -3.392715 2.504744,-1.11186 -2.926399 2.677848,-9.839303 -7.227674 0.3754198,-9.186174 -7.062431 0.5655146,-8.618179 -6.539243 0.7478919,-8.227697 -5.957448 0.9933617,-7.901551 -5.562473 1.245374,-8.861287 -4.793128 0.4730542,-8.608313 -3.785472 0.6232058,-8.471422 -3.157351 0.8020407,-8.356179 -2.620689 0.9294469,-9.18017 -4.505632 0.5700213,-8.938414 -3.341739 0.6681169,-8.775825 -2.596008 0.8792868,-8.638792 -1.967366 1.048259,-9.52744 -4.482159 0.7016026,-9.335713 -3.370311 0.8078595,-9.184114 -2.660321 0.9752086,-9.036314 -2.067041 1.096845,-9.908133 -4.656227 0.8543884,-9.88181 -3.727562 1.002836,-9.817836 -3.116238 1.148877,-9.719063 -2.549967 1.23983,0.940,DnF
-1.753743 -7.424937 1.857152,-2.327163 -7.114322 2.434304,-2.823972 -6.545829 2.728695,-3.073194 -5.838733 2.982116,-3.254751 -5.25571 3.216117,-2.534699 -4.732307 2.32911,-2.715252 -3.612071 2.556786,-2.753437 -2.939192 2.767791,-2.742606 -2.329925 2.949532,-2.163711 -4.475538 2.205073,-2.240421 -3.220766 2.397464,-2.224233 -2.497325 2.602584,-2.163803 -1.841805 2.782705,-1.813339 -4.500207 2.143777,-1.807971 -3.371252 2.312215,-1.759989 -2.724799 2.550181,-1.703514 -2.147436 2.732779,-1.447682 -4.75809 2.143836,-1.316947 -3.885032 2.316741,-1.20983 -3.392715 2.504744,-1.11186 -2.926399 2.677848,-9.839303 -7.227674 0.3754198,-9.186174 -7.062431 0.5655146,-8.618179 -6.539243 0.7478919,-8.227697 -5.957448 0.9933617,-7.901551 -5.562473 1.245374,-8.861287 -4.793128 0.4730542,-8.608313 -3.785472 0.6232058,-8.471422 -3.157351 0.8020407,-8.356179 -2.620689 0.9294469,-9.18017 -4.505632 0.5700213,-8.938414 -3.341739 0.6681169,-8.775825 -2.596008 0.8792868,-8.638792 -1.967366 1.048259,-9.52744 -4.482159 0.7016026,-9.335713 -3.370311 0.8078595,-9.184114 -2.660321 0.9752086,-9.036314 -2.067041 1.096845,-9.908133 -4.656227 0.8543884,-9.88181 -3.727562 1.002836,-9.817836 -3.116238 1.148877,-9.719063 -2.549967 1.23983,0.960,DnF
-1.753743 -7.424937 1.857152,-2.327163 -7.114322 2.434304,-2.823972 -6.545829 2.728695,-3.073194 -5.838733 2.982116,-3.254751 -5.25571 3.216117,-2.534699 -4.732307 2.32911,-2.715252 -3.612071 2.556786,-2.753437 -2.939192 2.767791,-2.742606 -2.329925 2.949532,-2.163711 -4.475538 2.205073,-2.240421 -3.220766 2.397464,-2.224233 -2.497325 2.602584,-2.163803 -1.841805 2.782705,-1.813339 -4.500207 2.143777,-1.807971 -3.371252 2.312215,-1.759989 -2.724799 2.550181,-1.703514 -2.147436 2.732779,-1.447682 -4.75809 2.143836,-1.316947 -3.885032 2.316741,-1.20983 -3.392715 2.504744,-1.11186 -2.926399 2.677848,-9.839303 -7.227674 0.3754198,-9.186174 -7.062431 0.5655146,-8.618179 -6.539243 0.7478919,-8.227697 -5.957448 0.9933617,-7.901551 -5.562473 1.245374,-8.861287 -4.793128 0.4730542,-8.608313 -3.785472 0.6232058,-8.471422 -3.157351 0.8020407,-8.356179 -2.620689 0.9294469,-9.18017 -4.505632 0.5700213,-8.938414 -3.341739 0.6681169,-8.775825 -2.596008 0.8792868,-8.638792 -1.967366 1.048259,-9.52744 -4.482159 0.7016026,-9.335713 -3.370311 0.8078595,-9.184114 -2.660321 0.9752086,-9.036314 -2.067041 1.096845,-9.908133 -4.656227 0.8543884,-9.88181 -3.727562 1.002836,-9.817836 -3.116238 1.148877,-9.719063 -2.549967 1.23983,0.980,DnF
-1.633809 -7.552995 1.828359,-2.197084 -7.259164 2.407576,-2.676585 -6.657166 2.689961,-2.894804 -5.926153 2.926208,-3.036785 -5.335521 3.127253,-2.408913 -4.863782 2.308388,-2.571933 -3.720356 2.525131,-2.580765 -3.046306 2.716311,-2.542961 -2.455227 2.875289,-2.043661 -4.6114 2.171775,-2.111502 -3.349157 2.35182,-2.078339 -2.633243 2.52873,-2.001612 -1.997609 2.683807,-1.699246 -4.629905 2.096524,-1.686283 -3.507277 2.26308,-1.622467 -2.873584 2.481269,-1.551377 -2.306783 2.644672,-1.340079 -4.876907 2.080898,-1.217934 -4.007738 2.251749,-1.10846 -3.533609 2.427006,-1.005197 -3.082036 2.586344,-9.876657 -7.246857 0.4664484,-9.231773 -7.059017 0.668144,-8.66253 -6.52018 0.8613043,-8.270672 -5.951135 1.112109,-7.930114 -5.589899 1.371609,-8.901533 -4.783243 0.6191907,-8.651806 -3.776355 0.790187,-8.515228 -3.148841 0.9812235,-8.401432 -2.601611 1.114336,-9.218803 -4.502893 0.7236906,-8.98572 -3.329541 0.8559517,-8.824402 -2.577425 1.081599,-8.688199 -1.931662 1.257943,-9.560543 -4.487432 0.8642966,-9.382259 -3.367891 1.008714,-9.232662 -2.646166 1.198744,-9.084413 -2.040317 1.331245,-9.935305 -4.669966 1.02422,-9.920176 -3.738569 1.208856,-9.85836 -3.122838 1.36546,-9.76314 -2.545861 1.465022,1.000,DnF
-1.633809 -7.552995 1.828359,-2.197084 -7.259164 2.407576,-2.676585 -6.657166 2.689961,-2.894804 -5.926153 2.926208,-3.036785 -5.335521 3.127253,-2.408913 -4.863782 2.308388,-2.571933 -3.720356 2.525131,-2.580765 -3.046306 2.716311,-2.542961 -2.455227 2.875289,-2.043661 -4.6114 2.171775,-2.111502 -3.349157 2.35182,-2.078339 -2.633243 2.52873,-2.001612 -1.997609 2.683807,-1.699246 -4.629905 2.096524,-1.686283 -3.507277 2.26308,-1.622467 -2.873584 2.481269,-1.551377 -2.306783 2.644672,-1.340079 -4.876907 2.080898,-1.217934 -4.007738 2.251749,-1.10846 -3.533609 2.427006,-1.005197 -3.082036 2.586344,-9.876657 -7.246857 0.4664484,-9.231773 -7.059017 0.668144,-8.66253 -6.52018 0.8613043,-8.270672 -5.951135 1.112109,-7.930114 -5.589899 1.371609,-8.901533 -4.783243 0.6191907,-8.651806 -3.776355 0.790187,-8.515228 -3.148841 0.9812235,-8.401432 -2.601611 1.114336,-9.218803 -4.502893 0.7236906,-8.98572 -3.329541 0.8559517,-8.824402 -2.577425 1.081599,-8.688199 -1.931662 1.257943,-9.560543 -4.487432 0.8642966,-9.382259 -3.367891 1.008714,-9.232662 -2.646166 1.198744,-9.084413 -2.040317 1.331245,-9.935305 -4.669966 1.02422,-9.920176 -3.738569 1.208856,-9.85836 -3.122838 1.36546,-9.76314 -2.545861 1.465022,1.020,DnF
-1.633809 -7.552995 1.828359,-2.197084 -7.259164 2.407576,-2.676585 -6.657166 2.689961,-2.894804 -5.926153 2.926208,-3.036785 -5.335521 3.127253,-2.408913 -4.863782 2.308388,-2.571933 -3.720356 2.525131,-2.580765 -3.046306 2.716311,-2.542961 -2.455227 2.875289,-2.043661 -4.6114 2.171775,-2.111502 -3.349157 2.35182,-2.078339 -2.633243 2.52873,-2.001612 -1.997609 2.683807,-1.699246 -4.629905 2.096524,-1.686283 -3.507277 2.26308,-1.622467 -2.873584 2.481269,-1.551377 -2.306783 2.644672,-1.340079 -4.876907 2.080898,-1.217934 -4.007738 2.251749,-1.10846 -3.533609 2.427006,-1.005197 -3.082036 2.586344,-9.876657 -7.246857 0.4664484,-9.231773 -7.059017 0.668144,-8.66253 -6.52018 0.8613043,-8.270672 -5.951135 1.112109,-7.930114 -5.589899 1.371609,-8.901533 -4.783243 0.6191907,-8.651806 -3.776355 0.790187,-8.515228 -3.148841 0.9812235,-8.401432 -2.601611 1.114336,-9.218803 -4.502893 0.7236906,-8.98572 -3.329541 0.8559517,-8.824402 -2.577425 1.081599,-8.688199 -1.931662 1.257943,-9.560543 -4.487432 0.8642966,-9.382259 -3.367891 1.008714,-9.232662 -2.646166 1.198744,-9.084413 -2.040317 1.331245,-9.935305 -4.669966 1.02422,-9.920176 -3.738569 1.208856,-9.85836 -3.122838 1.36546,-9.76314 -2.545861 1.465022,1.040,DnF
-1.55276 -7.720979 2.015837,-2.093012 -7.404275 2.593276,-2.566785 -6.772472 2.875108,-2.773177 -6.045402 3.120189,-2.854753 -5.443463 3.308829,-2.287829 -4.947227 2.435669,-2.428346 -3.838259 2.656676,-2.403521 -3.214407 2.864347,-2.33397 -2.664937 3.028512,-1.913057 -4.713073 2.306826,-1.94875 -3.507497 2.479385,-1.877749 -2.839406 2.668459,-1.769898 -2.273761 2.831997,-1.570708 -4.754233 2.248264,-1.540808 -3.658522 2.407641,-1.451732 -3.062127 2.639231,-1.361309 -2.557394 2.812492,-1.213051 -5.035167 2.245987,-1.091066 -4.200552 2.416739,-0.9811029 -3.75307 2.599478,-0.8813677 -3.342074 2.766193,-9.897865 -7.252372 0.4975363,-9.242815 -7.063961 0.713298,-8.678017 -6.538929 0.8998539,-8.289192 -5.957671 1.145072,-7.965919 -5.598261 1.392213,-8.927282 -4.781507 0.6224647,-8.667902 -3.770876 0.7771884,-8.533191 -3.141775 0.9615501,-8.422728 -2.59599 1.09294,-9.252 -4.492195 0.7052291,-9.012498 -3.309493 0.8090627,-8.856749 -2.558704 1.023937,-8.728354 -1.913538 1.198444,-9.599607 -4.464489 0.8240469,-9.410313 -3.340324 0.9341669,-9.264039 -2.625466 1.098943,-9.122125 -2.019453 1.215033,-9.980319 -4.637297 0.9706936,-9.958753 -3.708547 1.120986,-9.900543 -3.099054 1.259182,-9.808558 -2.52177 1.347718,1.060,DnF
-1.55276 -7.720979 2.015837,-2.093012 -7.404275 2.593276,-2.566785 -6.772472 2.875108,-2.773177 -6.045402 3.120189,-2.854753 -5.443463 3.308829,-2.287829 -4.947227 2.435669,-2.428346 -3.838259 2.656676,-2.403521 -3.214407 2.864347,-2.33397 -2.664937 3.028512,-1.913057 -4.713073 2.306826,-1.94875 -3.507497 2.479385,-1.877749 -2.839406 2.668459,-1.769898 -2.273761 2.831997,-1.570708 -4.754233 2.248264,-1.540808 -3.658522 2.407641,-1.451732 -3.062127 2.639231,-1.361309 -2.557394 2.812492,-1.213051 -5.035167 2.245987,-1.091066 -4.200552 2.416739,-0.9811029 -3.75307 2.599478,-0.8813677 -3.342074 2.766193,-9.897865 -7.252372 0.4975363,-9.242815 -7.063961 0.713298,-8.678017 -6.538929 0.8998539,-8.289192 -5.957671 1.145072,-7.965919 -5.598261 1.392213,-8.927282 -4.781507 0.6224647,-8.667902 -3.770876 0.7771884,-8.533191 -3.141775 0.9615501,-8.422728 -2.59599 1.09294,-9.252 -4.492195 0.7052291,-9.012498 -3.309493 0.8090627,-8.856749 -2.558704 1.023937,-8.728354 -1.913538 1.198444,-9.599607 -4.464489 0.8240469,-9.410313 -3.340324 0.9341669,-9.264039 -2.625466 1.098943,-9.122125 -2.019453 1.215033,-9.980319 -4.637297 0.9706936,-9.958753 -3.708547 1.120986,-9.900543 -3.099054 1.259182,-9.808558 -2.52177 1.347718,1.080,DnF
-1.55276 -7.720979 2.015837,-2.093012 -7.404275 2.593276,-2.566785 -6.772472 2.875108,-2.773177 -6.045402 3.120189,-2.854753 -5.443463 3.308829,-2.287829 -4.947227 2.435669,-2.428346 -3.838259 2.656676,-2.403521 -3.214407 2.864347,-2.33397 -2.664937 3.028512,-1.913057 -4.713073 2.306826,-1.94875 -3.507497 2.479385,-1.877749 -2.839406 2.668459,-1.769898 -2.273761 2.831997,-1.570708 -4.754233 2.248264,-1.540808 -3.658522 2.407641,-1.451732 -3.062127 2.639231,-1.361309 -2.557394 2.812492,-1.213051 -5.035167 2.245987,-1.091066 -4.200552 2.416739,-0.9811029 -3.75307 2.599478,-0.8813677 -3.342074 2.766193,-9.897865 -7.252372 0.4975363,-9.242815 -7.063961 0.713298,-8.678017 -6.538929 0.8998539,-8.289192 -5.957671 1.145072,-7.965919 -5.598261 1.392213,-8.927282 -4.781507 0.6224647,-8.667902 -3.770876 0.7771884,-8.533191 -3.141775 0.9615501,-8.422728 -2.59599 1.09294,-9.252 -4.492195 0.7052291,-9.012498 -3.309493 0.8090627,-8.856749 -2.558704 1.023937,-8.728354 -1.913538 1.198444,-9.599607 -4.464489 0.8240469,-9.410313 -3.340324 0.9341669,-9.264039 -2.625466 1.098943,-9.122125 -2.019453 1.215033,-9.980319 -4.637297 0.9706936,-9.958753 -3.708547 1.120986,-9.900543 -3.099054 1.259182,-9.808558 -2.52177 1.347718,1.100,DnF
-1.470417 -7.842622 2.108152,-1.972566 -7.558151 2.715753,-2.416229 -6.949113 3.05673,-2.605733 -6.211392 3.364845,-2.62647 -5.615631 3.613867,-2.159303 -5.032989 2.53016,-2.307532 -3.9659 2.758846,-2.257653 -3.38759 3.022408,-2.121896 -2.939349 3.227129,-1.798724 -4.804119 2.396197,-1.86239 -3.630771 2.579633,-1.76729 -3.018436 2.795613,-1.596462 -2.602252 2.977564,-1.46717 -4.863907 2.340975,-1.458817 -3.78059 2.501686,-1.345372 -3.244195 2.757121,-1.207056 -2.854228 2.947717,-1.118741 -5.174784 2.343893,-1.010078 -4.359061 2.517172,-0.8838019 -3.92858 2.708264,-0.7514215 -3.57014 2.883766,-9.91356 -7.274005 0.5540413,-9.259462 -7.075672 0.7431899,-8.69266 -6.530368 0.9139328,-8.295698 -5.950674 1.153807,-7.954534 -5.60604 1.400971,-8.947125 -4.779853 0.6314235,-8.686287 -3.773344 0.7697047,-8.544433 -3.137681 0.9534249,-8.430696 -2.584397 1.088194,-9.267513 -4.495615 0.7384028,-9.028442 -3.314155 0.8234892,-8.86996 -2.550239 1.035206,-8.741097 -1.901748 1.203872,-9.607904 -4.47082 0.881483,-9.426705 -3.344512 0.9805106,-9.279831 -2.61506 1.147011,-9.137255 -1.998107 1.268548,-9.979865 -4.649461 1.054466,-9.978409 -3.711193 1.209021,-9.927055 -3.087471 1.350629,-9.841992 -2.49767 1.445074,1.120,DnF
-1.470417 -7.842622 2.108152,-1.972566 -7.558151 2.715753,-2.416229 -6.949113 3.05673,-2.605733 -6.211392 3.364845,-2.62647 -5.615631 3.613867,-2.159303 -5.032989 2.53016,-2.307532 -3.9659 2.758846,-2.257653 -3.38759 3.022408,-2.121896 -2.939349 3.227129,-1.798724 -4.804119 2.396197,-1.86239 -3.630771 2.579633,-1.76729 -3.018436 2.795613,-1.596462 -2.602252 2.977564,-1.46717 -4.863907 2.340975,-1.458817 -3.78059 2.501686,-1.345372 -3.244195 2.757121,-1.207056 -2.854228 2.947717,-1.118741 -5.174784 2.343893,-1.010078 -4.359061 2.517172,-0.8838019 -3.92858 2.708264,-0.7514215 -3.57014 2.883766,-9.91356 -7.274005 0.5540413,-9.259462 -7.075672 0.7431899,-8.69266 -6.530368 0.9139328,-8.295698 -5.950674 1.153807,-7.954534 -5.60604 1.400971,-8.947125 -4.779853 0.6314235,-8.686287 -3.773344 0.7697047,-8.544433 -3.137681 0.9534249,-8.430696 -2.584397 1.088194,-9.267513 -4.495615 0.7384028,-9.028442 -3.314155 0.8234892,-8.86996 -2.550239 1.035206,-8.741097 -1.901748 1.203872,-9.607904 -4.47082 0.881483,-9.426705 -3.344512 0.9805106,-9.279831 -2.61506 1.147011,-9.137255 -1.998107 1.268548,-9.979865 -4.649461 1.054466,-9.978409 -3.711193 1.209021,-9.927055 -3.087471 1.350629,-9.841992 -2.49767 1.445074,1.140,DnF
-1.470417 -7.842622 2.108152,-1.972566 -7.558151 2.715753,-2.416229 -6.949113 3.05673,-2.605733 -6.211392 3.364845,-2.62647 -5.615631 3.613867,-2.159303 -5.032989 2.53016,-2.307532 -3.9659 2.758846,-2.257653 -3.38759 3.022408,-2.121896 -2.939349 3.227129,-1.798724 -4.804119 2.396197,-1.86239 -3.630771 2.579633,-1.76729 -3.018436 2.795613,-1.596462 -2.602252 2.977564,-1.46717 -4.863907 2.340975,-1.458817 -3.78059 2.501686,-1.345372 -3.244195 2.757121,-1.207056 -2.854228 2.947717,-1.118741 -5.174784 2.343893,-1.010078 -4.359061 2.517172,-0.8838019 -3.92858 2.708264,-0.7514215 -3.57014 2.883766,-9.91356 -7.274005 0.5540413,-9.259462 -7.075672 0.7431899,-8.69266 -6.530368 0.9139328,-8.295698 -5.950674 1.153807,-7.954534 -5.60604 1.400971,-8.947125 -4.779853 0.6314235,-8.686287 -3.773344 0.7697047,-8.544433 -3.137681 0.9534249,-8.430696 -2.584397 1.088194,-9.267513 -4.495615 0.7384028,-9.028442 -3.314155 0.8234892,-8.86996 -2.550239 1.035206,-8.741097 -1.901748 1.203872,-9.607904 -4.47082 0.881483,-9.426705 -3.344512 0.9805106,-9.279831 -2.61506 1.147011,-9.137255 -1.998107 1.268548,-9.979865 -4.649461 1.054466,-9.978409 -3.711193 1.209021,-9.927055 -3.087471 1.350629,-9.841992 -2.49767 1.445074,1.160,DnF
-1.467319 -7.950937 2.187351,-1.959246 -7.623315 2.815403,-2.374148 -6.993731 3.213874,-2.510126 -6.253397 3.581499,-2.423426 -5.66205 3.897866,-2.103862 -5.072253 2.62319,-2.201456 -4.051149 2.928564,-2.113559 -3.528733 3.318153,-1.938444 -3.27489 3.593927,-1.709816 -4.885415 2.513762,-1.749804 -3.754245 2.778078,-1.627748 -3.173999 3.086437,-1.436513 -2.978637 3.315742,-1.359684 -4.984519 2.491533,-1.325974 -3.91459 2.709855,-1.191069 -3.408291 3.036104,-1.04339 -3.186013 3.250829,-1.004215 -5.330621 2.533413,-0.8820972 -4.489767 2.735383,-0.7503824 -4.060507 2.950568,-0.6255693 -3.78306 3.129625,-9.902792 -7.282032 0.587472,-9.249907 -7.060752 0.7872993,-8.684855 -6.52163 0.9715573,-8.287628 -5.947469 1.22324,-7.948459 -5.600413 1.487805,-8.947283 -4.774498 0.6952972,-8.687356 -3.758801 0.8476236,-8.543854 -3.118907 1.035842,-8.426012 -2.563892 1.178823,-9.271677 -4.492803 0.8054152,-9.030098 -3.295948 0.9180651,-8.871125 -2.53337 1.135958,-8.738792 -1.88806 1.308512,-9.612823 -4.468877 0.9490727,-9.424344 -3.323432 1.073207,-9.273385 -2.593673 1.245233,-9.1215 -1.972567 1.367823,-9.987477 -4.644855 1.124246,-9.977645 -3.683486 1.29755,-9.918974 -3.053922 1.443434,-9.824132 -2.449799 1.539197,1.180,DnF
-1.467319 -7.950937 2.187351,-1.959246 -7.623315 2.815403,-2.374148 -6.993731 3.213874,-2.510126 -6.253397 3.581499,-2.423426 -5.66205 3.897866,-2.103862 -5.072253 2.62319,-2.201456 -4.051149 2.928564,-2.113559 -3.528733 3.318153,-1.938444 -3.27489 3.593927,-1.709816 -4.885415 2.513762,-1.749804 -3.754245 2.778078,-1.627748 -3.173999 3.086437,-1.436513 -2.978637 3.315742,-1.359684 -4.984519 2.491533,-1.325974 -3.91459 2.709855,-1.191069 -3.408291 3.036104,-1.04339 -3.186013 3.250829,-1.004215 -5.330621 2.533413,-0.8820972 -4.489767 2.735383,-0.7503824 -4.060507 2.950568,-0.6255693 -3.78306 3.129625,-9.902792 -7.282032 0.587472,-9.249907 -7.060752 0.7872993,-8.684855 -6.52163 0.9715573,-8.287628 -5.947469 1.22324,-7.948459 -5.600413 1.487805,-8.947283 -4.774498 0.6952972,-8.687356 -3.758801 0.8476236,-8.543854 -3.118907 1.035842,-8.426012 -2.563892 1.178823,-9.271677 -4.492803 0.8054152,-9.030098 -3.295948 0.9180651,-8.871125 -2.53337 1.135958,-8.738792 -1.88806 1.308512,-9.612823 -4.468877 0.9490727,-9.424344 -3.323432 1.073207,-9.273385 -2.593673 1.245233,-9.1215 -1.972567 1.367823,-9.987477 -4.644855 1.124246,-9.977645 -3.683486 1.29755,-9.918974 -3.053922 1.443434,-9.824132 -2.449799 1.539197,1.200,DnF
-1.467319 -7.950937 2.187351,-1.959246 -7.623315 2.815403,-2.374148 -6.993731 3.213874,-2.510126 -6.253397 3.581499,-2.423426 -5.66205 3.897866,-2.103862 -5.072253 2.62319,-2.201456 -4.051149 2.928564,-2.113559 -3.528733 3.318153,-1.938444 -3.27489 3.593927,-1.709816 -4.885415 2.513762,-1.749804 -3.754245 2.778078,-1.627748 -3.173999 3.086437,-1.436513 -2.978637 3.315742,-1.359684 -4.984519 2.491533,-1.325974 -3.91459 2.709855,-1.191069 -3.408291 3.036104,-1.04339 -3.186013 3.250829,-1.004215 -5.330621 2.533413,-0.8820972 -4.489767 2.735383,-0.7503824 -4.060507 2.950568,-0.6255693 -3.78306 3.129625,-9.902792 -7.282032 0.587472,-9.249907 -7.060752 0.7872993,-8.684855 -6.52163 0.9715573,-8.287628 -5.947469 1.22324,-7.948459 -5.600413 1.487805,-8.947283 -4.774498 0.6952972,-8.687356 -3.758801 0.8476236,-8.543854 -3.118907 1.035842,-8.426012 -2.563892 1.178823,-9.271677 -4.492803 0.8054152,-9.030098 -3.295948 0.9180651,-8.871125 -2.53337 1.135958,-8.738792 -1.88806 1.308512,-9.612823 -4.468877 0.9490727,-9.424344 -3.323432 1.073207,-9.273385 -2.593673 1.245233,-9.1215 -1.972567 1.367823,-9.987477 -4.644855 1.124246,-9.977645 -3.683486 1.29755,-9.918974 -3.053922 1.443434,-9.824132 -2.449799 1.539197,1.220,DnF
-1.451091 -8.010757 2.095258,-1.915685 -7.695955 2.819383,-2.292595 -7.048659 3.278862,-2.366959 -6.317028 3.692017,-2.211671 -5.784235 4.051601,-2.016023 -5.156034 2.672602,-2.066314 -4.113561 3.050741,-1.925257 -3.653958 3.520934,-1.715654 -3.626312 3.842541,-1.61501 -4.977712 2.51294,-1.61902 -3.854089 2.829226,-1.443095 -3.346351 3.178479,-1.223676 -3.324502 3.43549,-1.263726 -5.070088 2.443378,-1.211805 -4.008988 2.690489,-1.03522 -3.583261 3.041939,-0.8495851 -3.504352 3.275058,-0.919425 -5.395615 2.444547,-0.7825499 -4.55813 2.643496,-0.6162972 -4.167489 2.867608,-0.4523711 -3.954263 3.056725,-9.894289 -7.30207 0.590637,-9.245594 -7.076053 0.7921414,-8.679928 -6.540345 0.9625479,-8.287534 -5.965532 1.198924,-7.952291 -5.624227 1.441968,-8.934149 -4.787044 0.6883315,-8.668107 -3.764376 0.8271567,-8.524224 -3.124763 1.003119,-8.408846 -2.565868 1.14152,-9.25319 -4.513167 0.7950267,-9.015024 -3.319355 0.8983535,-8.858273 -2.56136 1.11445,-8.726307 -1.915263 1.284458,-9.591494 -4.487581 0.9394273,-9.404602 -3.346633 1.061481,-9.259907 -2.617123 1.241845,-9.115096 -1.998283 1.373708,-9.962416 -4.655181 1.114362,-9.957625 -3.700357 1.285124,-9.906776 -3.070931 1.438983,-9.818676 -2.469732 1.541636,1.240,DnF
-1.451091 -8.010757 2.095258,-1.915685 -7.695955 2.819383,-2.292595 -7.048659 3.278862,-2.366959 -6.317028 3.692017,-2.211671 -5.784235 4.051601,-2.016023 -5.156034 2.672602,-2.066314 -4.113561 3.050741,-1.925257 -3.653958 3.520934,-1.715654 -3.626312 3.842541,-1.61501 -4.977712 2.51294,-1.61902 -3.854089 2.829226,-1.443095 -3.346351 3.178479,-1.223676 -3.324502 3.43549,-1.263726 -5.070088 2.443378,-1.211805 -4.008988 2.690489,-1.03522 -3.583261 3.041939,-0.8495851 -3.504352 3.275058,-0.919425 -5.395615 2.444547,-0.7825499 -4.55813 2.643496,-0.6162972 -4.167489 2.867608,-0.4523711 -3.954263 3.056725,-9.894289 -7.30207 0.590637,-9.245594 -7.076053 0.7921414,-8.679928 -6.540345 0.9625479,-8.287534 -5.965532 1.198924,-7.952291 -5.624227 1.441968,-8.934149 -4.787044 0.6883315,-8.668107 -3.764376 0.8271567,-8.524224 -3.124763 1.003119,-8.408846 -2.565868 1.14152,-9.25319 -4.513167 0.7950267,-9.015024 -3.319355 0.8983535,-8.858273 -2.56136 1.11445,-8.726307 -1.915263 1.284458,-9.591494 -4.487581 0.9394273,-9.404602 -3.346633 1.061481,-9.259907 -2.617123 1.241845,-9.115096 -1.998283 1.373708,-9.962416 -4.655181 1.114362,-9.957625 -3.700357 1.285124,-9.906776 -3.070931 1.438983,-9.818676 -2.469732 1.541636,1.260,DnF
-1.451091 -8.010757 2.095258,-1.915685 -7.695955 2.819383,-2.292595 -7.048659 3.278862,-2.366959 -6.317028 3.692017,-2.211671 -5.784235 4.051601,-2.016023 -5.156034 2.672602,-2.066314 -4.113561 3.050741,-1.925257 -3.653958 3.520934,-1.715654 -3.626312 3.842541,-1.61501 -4.977712 2.51294,-1.61902 -3.854089 2.829226,-1.443095 -3.346351 3.178479,-1.223676 -3.324502 3.43549,-1.263726 -5.070088 2.443378,-1.211805 -4.008988 2.690489,-1.03522 -3.583261 3.041939,-0.8495851 -3.504352 3.275058,-0.919425 -5.395615 2.444547,-0.7825499 -4.55813 2.643496,-0.6162972 -4.167489 2.867608,-0.4523711 -3.954263 3.056725,-9.894289 -7.30207 0.590637,-9.245594 -7.076053 0.7921414,-8.679928 -6.540345 0.9625479,-8.287534 -5.965532 1.198924,-7.952291 -5.624227 1.441968,-8.934149 -4.787044 0.6883315,-8.668107 -3.764376 0.8271567,-8.524224 -3.124763 1.003119,-8.408846 -2.565868 1.14152,-9.25319 -4.513167 0.7950267,-9.015024 -3.319355 0.8983535,-8.858273 -2.56136 1.11445,-8.726307 -1.915263 1.284458,-9.591494 -4.487581 0.9394273,-9.404602 -3.346633 1.061481,-9.259907 -2.617123 1.241845,-9.115096 -1.998283 1.373708,-9.962416 -4.655181 1.114362,-9.957625 -3.700357 1.285124,-9.906776 -3.070931 1.438983,-9.818676 -2.469732 1.541636,1.280,DnF
-1.396258 -8.039732 1.770351,-1.834289 -7.74625 2.562319,-2.18501 -7.172829 3.053758,-2.222998 -6.508487 3.474264,-1.981892 -6.02757 3.828213,-1.883318 -5.274518 2.448192,-1.911811 -4.210726 2.894095,-1.736845 -3.796422 3.414787,-1.509999 -3.889795 3.764543,-1.496036 -5.112443 2.281425,-1.45858 -3.954226 2.672278,-1.255451 -3.502129 3.088196,-1.046763 -3.620204 3.383412,-1.158444 -5.19527 2.207383,-1.068737 -4.118495 2.526749,-0.8664651 -3.754281 2.92668,-0.6791296 -3.819795 3.184001,-0.8246031 -5.487088 2.204379,-0.6726432 -4.630876 2.447314,-0.5037003 -4.267367 2.690861,-0.3445249 -4.155134 2.879284,-9.893268 -7.283113 0.5486103,-9.236048 -7.054111 0.7519655,-8.662754 -6.519363 0.9340516,-8.264859 -5.937188 1.178731,-7.929619 -5.566936 1.435031,-8.932436 -4.784519 0.6843719,-8.66363 -3.765642 0.8453135,-8.513348 -3.129394 1.03421,-8.391367 -2.572716 1.17847,-9.250491 -4.510434 0.7957269,-9.000722 -3.322397 0.9250067,-8.837646 -2.567504 1.146525,-8.69842 -1.925316 1.319797,-9.587604 -4.482581 0.9424952,-9.385605 -3.341726 1.080784,-9.235213 -2.616514 1.262257,-9.08505 -2.003687 1.395018,-9.960712 -4.641622 1.11563,-9.938802 -3.686693 1.292283,-9.881059 -3.057392 1.439576,-9.788926 -2.456947 1.540967,1.300,DnF
-1.396258 -8.039732 1.770351,-1.834289 -7.74625 2.562319,-2.18501 -7.172829 3.053758,-2.222998 -6.508487 3.474264,-1.981892 -6.02757 3.828213,-1.883318 -5.274518 2.448192,-1.911811 -4.210726 2.894095,-1.736845 -3.796422 3.414787,-1.509999 -3.889795 3.764543,-1.496036 -5.112443 2.281425,-1.45858 -3.954226 2.672278,-1.255451 -3.502129 3.088196,-1.046763 -3.620204 3.383412,-1.158444 -5.19527 2.207383,-1.068737 -4.118495 2.526749,-0.8664651 -3.754281 2.92668,-0.6791296 -3.819795 3.184001,-0.8246031 -5.487088 2.204379,-0.6726432 -4.630876 2.447314,-0.5037003 -4.267367 2.690861,-0.3445249 -4.155134 2.879284,-9.893268 -7.283113 0.5486103,-9.236048 -7.054111 0.7519655,-8.662754 -6.519363 0.9340516,-8.264859 -5.937188 1.178731,-7.929619 -5.566936 1.435031,-8.932436 -4.784519 0.6843719,-8.66363 -3.765642 0.8453135,-8.513348 -3.129394 1.03421,-8.391367 -2.572716 1.17847,-9.250491 -4.510434 0.7957269,-9.000722 -3.322397 0.9250067,-8.837646 -2.567504 1.146525,-8.69842 -1.925316 1.319797,-9.587604 -4.482581 0.9424952,-9.385605 -3.341726 1.080784,-9.235213 -2.616514 1.262257,-9.08505 -2.003687 1.395018,-9.960712 -4.641622 1.11563,-9.938802 -3.686693 1.292283,-9.881059 -3.057392 1.439576,-9.788926 -2.456947 1.540967,1.320,DnF
-1.396258 -8.039732 1.770351,-1.834289 -7.74625 2.562319,-2.18501 -7.172829 3.053758,-2.222998 -6.508487 3.474264,-1.981892 -6.02757 3.828213,-1.883318 -5.274518 2.448192,-1.911811 -4.210726 2.894095,-1.736845 -3.796422 3.414787,-1.509999 -3.889795 3.764543,-1.496036 -5.112443 2.281425,-1.45858 -3.954226 2.672278,-1.255451 -3.502129 3.088196,-1.046763 -3.620204 3.383412,-1.158444 -5.19527 2.207383,-1.068737 -4.118495 2.526749,-0.8664651 -3.754281 2.92668,-0.6791296 -3.819795 3.184001,-0.8246031 -5.487088 2.204379,-0.6726432 -4.630876 2.447314,-0.5037003 -4.267367 2.690861,-0.3445249 -4.155134 2.879284,-9.893268 -7.283113 0.5486103,-9.236048 -7.054111 0.7519655,-8.662754 -6.519363 0.9340516,-8.264859 -5.937188 1.178731,-7.929619 -5.566936 1.435031,-8.932436 -4.784519 0.6843719,-8.66363 -3.765642 0.8453135,-8.513348 -3.129394 1.03421,-8.391367 -2.572716 1.17847,-9.250491 -4.510434 0.7957269,-9.000722 -3.322397 0.9250067,-8.837646 -2.567504 1.146525,-8.69842 -1.925316 1.319797,-9.587604 -4.482581 0.9424952,-9.385605 -3.341726 1.080784,-9.235213 -2.616514 1.262257,-9.08505 -2.003687 1.395018,-9.960712 -4.641622 1.11563,-9.938802 -3.686693 1.292283,-9.881059 -3.057392 1.439576,-9.788926 -2.456947 1.540967,1.340,DnF
-1.311731 -8.094181 1.583686,-1.724915 -7.776584 2.41141,-2.02593 -7.241845 2.9069,-2.024372 -6.602317 3.309723,-1.779455 -6.130468 3.641245,-1.727028 -5.370079 2.338207,-1.735322 -4.310905 2.762679,-1.523365 -3.923862 3.252126,-1.267657 -4.046355 3.585351,-1.344303 -5.228032 2.140233,-1.295012 -4.066467 2.532917,-1.047638 -3.671117 2.94381,-0.8092146 -3.847393 3.226883,-1.022727 -5.341541 2.02517,-0.9226551 -4.275739 2.333567,-0.6787062 -3.936554 2.734177,-0.4572001 -4.027858 2.992652,-0.7144847 -5.650535 1.982543,-0.5584927 -4.824947 2.219654,-0.3729601 -4.479053 2.471225,-0.196806 -4.385679 2.667032,-9.871351 -7.279546 0.5645794,-9.222771 -7.057514 0.7614715,-8.660792 -6.516518 0.9395216,-8.275724 -5.932018 1.18417,-7.942512 -5.572019 1.439694,-8.91931 -4.773411 0.6749365,-8.661763 -3.756916 0.829028,-8.519578 -3.123022 1.017235,-8.401792 -2.567192 1.159209,-9.240199 -4.497718 0.7904062,-8.999017 -3.300565 0.9110023,-8.839507 -2.542469 1.128678,-8.70453 -1.901775 1.296945,-9.580591 -4.469048 0.9432799,-9.387963 -3.320625 1.074758,-9.237266 -2.592431 1.251774,-9.086132 -1.981069 1.376823,-9.957982 -4.633815 1.123318,-9.941642 -3.672592 1.300486,-9.883245 -3.042575 1.449504,-9.790112 -2.44259 1.546771,1.360,DnF
-1.311731 -8.094181 1.583686,-1.724915 -7.776584 2.41141,-2.02593 -7.241845 2.9069,-2.024372 -6.602317 3.309723,-1.779455 -6.130468 3.641245,-1.727028 -5.370079 2.338207,-1.735322 -4.310905 2.762679,-1.523365 -3.923862 3.252126,-1.267657 -4.046355 3.585351,-1.344303 -5.228032 2.140233,-1.295012 -4.066467 2.532917,-1.047638 -3.671117 2.94381,-0.8092146 -3.847393 3.226883,-1.022727 -5.341541 2.02517,-0.9226551 -4.275739 2.333567,-0.6787062 -3.936554 2.734177,-0.4572001 -4.027858 2.992652,-0.7144847 -5.650535 1.982543,-0.5584927 -4.824947 2.219654,-0.3729601 -4.479053 2.471225,-0.196806 -4.385679 2.667032,-9.871351 -7.279546 0.5645794,-9.222771 -7.057514 0.7614715,-8.660792 -6.516518 0.9395216,-8.275724 -5.932018 1.18417,-7.942512 -5.572019 1.439694,-8.91931 -4.773411 0.6749365,-8.661763 -3.756916 0.829028,-8.519578 -3.123022 1.017235,-8.401792 -2.567192 1.159209,-9.240199 -4.497718 0.7904062,-8.999017 -3.300565 0.9110023,-8.839507 -2.542469 1.128678,-8.70453 -1.901775 1.296945,-9.580591 -4.469048 0.9432799,-9.387963 -3.320625 1.074758,-9.237266 -2.592431 1.251774,-9.086132 -1.981069 1.376823,-9.957982 -4.633815 1.123318,-9.941642 -3.672592 1.300486,-9.883245 -3.042575 1.449504,-9.790112 -2.44259 1.546771,1.380,DnF
-1.311731 -8.094181 1.583686,-1.724915 -7.776584 2.41141,-2.02593 -7.241845 2.9069,-2.024372 -6.602317 3.309723,-1.779455 -6.130468 3.641245,-1.727028 -5.370079 2.338207,-1.735322 -4.310905 2.762679,-1.523365 -3.923862 3.252126,-1.267657 -4.046355 3.585351,-1.344303 -5.228032 2.140233,-1.295012 -4.066467 2.532917,-1.047638 -3.671117 2.94381,-0.8092146 -3.847393 3.226883,-1.022727 -5.341541 2.02517,-0.9226551 -4.275739 2.333567,-0.6787062 -3.936554 2.734177,-0.4572001 -4.027858 2.992652,-0.7144847 -5.650535 1.982543,-0.5584927 -4.824947 2.219654,-0.3729601 -4.479053 2.471225,-0.196806 -4.385679 2.667032,-9.871351 -7.279546 0.5645794,-9.222771 -7.057514 0.7614715,-8.660792 -6.516518 0.9395216,-8.275724 -5.932018 1.18417,-7.942512 -5.572019 1.439694,-8.91931 -4.773411 0.6749365,-8.661763 -3.756916 0.829028,-8.519578 -3.123022 1.017235,-8.401792 -2.567192 1.159209,-9.240199 -4.497718 0.7904062,-8.999017 -3.300565 0.9110023,-8.839507 -2.542469 1.128678,-8.70453 -1.901775 1.296945,-9.580591 -4.469048 0.9432799,-9.387963 -3.320625 1.074758,-9.237266 -2.592431 1.251774,-9.086132 -1.981069 1.376823,-9.957982 -4.633815 1.123318,-9.941642 -3.672592 1.300486,-9.883245 -3.042575 1.449504,-9.790112 -2.44259 1.546771,1.400,DnF
-1.167079 -8.074217 1.281471,-1.540439 -7.786581 2.145861,-1.80302 -7.332353 2.64205,-1.820611 -6.732698 3.017128,-1.627747 -6.273208 3.333101,-1.55136 -5.485286 2.17811,-1.573901 -4.389301 2.597743,-1.333372 -4.048137 3.053821,-1.045022 -4.206737 3.36745,-1.209352 -5.319367 1.942884,-1.170689 -4.121887 2.363565,-0.8776598 -3.785648 2.76623,-0.5997133 -3.991098 3.050328,-0.9175911 -5.399773 1.784822,-0.823442 -4.331888 2.136471,-0.5384078 -4.064193 2.541131,-0.2740335 -4.208436 2.8183,-0.634407 -5.658699 1.689414,-0.4795251 -4.828746 1.957445,-0.2614536 -4.543548 2.22763,-0.04572296 -4.506528 2.444547,-9.875369 -7.294775 0.5802013,-9.23195 -7.064312 0.7719935,-8.669333 -6.521635 0.9449104,-8.283357 -5.950058 1.188614,-7.950336 -5.599155 1.443637,-8.92395 -4.777151 0.6721165,-8.657679 -3.762641 0.8260553,-8.510494 -3.121137 1.013932,-8.392302 -2.557222 1.156557,-9.241905 -4.507871 0.7935368,-8.996747 -3.318612 0.9113868,-8.836643 -2.561114 1.131832,-8.702044 -1.916361 1.302168,-9.580245 -4.479908 0.9555852,-9.38402 -3.343174 1.090075,-9.235373 -2.611748 1.27099,-9.087893 -1.993588 1.401755,-9.95617 -4.641441 1.145401,-9.942111 -3.67607 1.328289,-9.886729 -3.040112 1.478446,-9.798087 -2.432441 1.578698,1.420,DnF
-1.167079 -8.074217 1.281471,-1.540439 -7.786581 2.145861,-1.80302 -7.332353 2.64205,-1.820611 -6.732698 3.017128,-1.627747 -6.273208 3.333101,-1.55136 -5.485286 2.17811,-1.573901 -4.389301 2.597743,-1.333372 -4.048137 3.053821,-1.045022 -4.206737 3.36745,-1.209352 -5.319367 1.942884,-1.170689 -4.121887 2.363565,-0.8776598 -3.785648 2.76623,-0.5997133 -3.991098 3.050328,-0.9175911 -5.399773 1.784822,-0.823442 -4.331888 2.136471,-0.5384078 -4.064193 2.541131,-0.2740335 -4.208436 2.8183,-0.634407 -5.658699 1.689414,-0.4795251 -4.828746 1.957445,-0.2614536 -4.543548 2.22763,-0.04572296 -4.506528 2.444547,-9.875369 -7.294775 0.5802013,-9.23195 -7.064312 0.7719935,-8.669333 -6.521635 0.9449104,-8.283357 -5.950058 1.188614,-7.950336 -5.599155 1.443637,-8.92395 -4.777151 0.6721165,-8.657679 -3.762641 0.8260553,-8.510494 -3.121137 1.013932,-8.392302 -2.557222 1.156557,-9.241905 -4.507871 0.7935368,-8.996747 -3.318612 0.9113868,-8.836643 -2.561114 1.131832,-8.702044 -1.916361 1.302168,-9.580245 -4.479908 0.9555852,-9.38402 -3.343174 1.090075,-9.235373 -2.611748 1.27099,-9.087893 -1.993588 1.401755,-9.95617 -4.641441 1.145401,-9.942111 -3.67607 1.328289,-9.886729 -3.040112 1.478446,-9.798087 -2.432441 1.578698,1.440,DnF
-1.167079 -8.074217 1.281471,-1.540439 -7.786581 2.145861,-1.80302 -7.332353 2.64205,-1.820611 -6.732698 3.017128,-1.627747 -6.273208 3.333101,-1.55136 -5.485286 2.17811,-1.573901 -4.389301 2.597743,-1.333372 -4.048137 3.053821,-1.045022 -4.206737 3.36745,-1.209352 -5.319367 1.942884,-1.170689 -4.121887 2.363565,-0.8776598 -3.785648 2.76623,-0.5997133 -3.991098 3.050328,-0.9175911 -5.399773 1.784822,-0.823442 -4.331888 2.136471,-0.5384078 -4.064193 2.541131,-0.2740335 -4.208436 2.8183,-0.634407 -5.658699 1.689414,-0.4795251 -4.828746 1.957445,-0.2614536 -4.543548 2.22763,-0.04572296 -4.506528 2.444547,-9.875369 -7.294775 0.5802013,-9.23195 -7.064312 0.7719935,-8.669333 -6.521635 0.9449104,-8.283357 -5.950058 1.188614,-7.950336 -5.599155 1.443637,-8.92395 -4.777151 0.6721165,-8.657679 -3.762641 0.8260553,-8.510494 -3.121137 1.013932,-8.392302 -2.557222 1.156557,-9.241905 -4.507871 0.7935368,-8.996747 -3.318612 0.9113868,-8.836643 -2.561114 1.131832,-8.702044 -1.916361 1.302168,-9.580245 -4.479908 0.9555852,-9.38402 -3.343174 1.090075,-9.235373 -2.611748 1.27099,-9.087893 -1.993588 1.401755,-9.95617 -4.641441 1.145401,-9.942111 -3.67607 1.328289,-9.886729 -3.040112 1.478446,-9.798087 -2.432441 1.578698,1.460,DnF
-1.104136 -8.090769 1.287773,-1.428333 -7.8169 2.2021,-1.65155 -7.37393 2.709809,-1.639817 -6.806249 3.087176,-1.434824 -6.372301 3.405822,-1.405557 -5.497362 2.250763,-1.380696 -4.454248 2.680146,-1.112467 -4.151235 3.147927,-0.8079162 -4.323089 3.483318,-1.076893 -5.341243 1.979541,-1.012851 -4.181334 2.42506,-0.6983771 -3.88722 2.84024,-0.4042568 -4.09204 3.121995,-0.8025613 -5.431949 1.788606,-0.6872282 -4.401258 2.152552,-0.3853092 -4.144992 2.557512,-0.1015186 -4.285017 2.840042,-0.5456595 -5.703639 1.661104,-0.359726 -4.939096 1.941394,-0.1092949 -4.664463 2.224852,0.1335669 -4.618651 2.454463,-9.879577 -7.279809 0.5407134,-9.234058 -7.04618 0.7385904,-8.672864 -6.507598 0.9145293,-8.285162 -5.931636 1.155454,-7.945421 -5.583805 1.408812,-8.926634 -4.779668 0.6704417,-8.665567 -3.752613 0.8344394,-8.517378 -3.114948 1.027055,-8.396063 -2.555216 1.172188,-9.247578 -4.507107 0.789308,-9.005474 -3.305574 0.9251343,-8.844242 -2.544466 1.153267,-8.70646 -1.901248 1.329381,-9.588383 -4.480511 0.9450341,-9.39498 -3.331929 1.090404,-9.245352 -2.599962 1.278411,-9.09405 -1.982318 1.414565,-9.964496 -4.642896 1.127255,-9.953508 -3.68187 1.318722,-9.897993 -3.048938 1.478617,-9.806436 -2.444443 1.584872,1.480,DnF
-1.104136 -8.090769 1.287773,-1.428333 -7.8169 2.2021,-1.65155 -7.37393 2.709809,-1.639817 -6.806249 3.087176,-1.434824 -6.372301 3.405822,-1.405557 -5.497362 2.250763,-1.380696 -4.454248 2.680146,-1.112467 -4.151235 3.147927,-0.8079162 -4.323089 3.483318,-1.076893 -5.341243 1.979541,-1.012851 -4.181334 2.42506,-0.6983771 -3.88722 2.84024,-0.4042568 -4.09204 3.121995,-0.8025613 -5.431949 1.788606,-0.6872282 -4.401258 2.152552,-0.3853092 -4.144992 2.557512,-0.1015186 -4.285017 2.840042,-0.5456595 -5.703639 1.661104,-0.359726 -4.939096 1.941394,-0.1092949 -4.664463 2.224852,0.1335669 -4.618651 2.454463,-9.879577 -7.279809 0.5407134,-9.234058 -7.04618 0.7385904,-8.672864 -6.507598 0.9145293,-8.285162 -5.931636 1.155454,-7.945421 -5.583805 1.408812,-8.926634 -4.779668 0.6704417,-8.665567 -3.752613 0.8344394,-8.517378 -3.114948 1.027055,-8.396063 -2.555216 1.172188,-9.247578 -4.507107 0.789308,-9.005474 -3.305574 0.9251343,-8.844242 -2.544466 1.153267,-8.70646 -1.901248 1.329381,-9.588383 -4.480511 0.9450341,-9.39498 -3.331929 1.090404,-9.245352 -2.599962 1.278411,-9.09405 -1.982318 1.414565,-9.964496 -4.642896 1.127255,-9.953508 -3.68187 1.318722,-9.897993 -3.048938 1.478617,-9.806436 -2.444443 1.584872,1.500,DnF
-1.104136 -8.090769 1.287773,-1.428333 -7.8169 2.2021,-1.65155 -7.37393 2.709809,-1.639817 -6.806249 3.087176,-1.434824 -6.372301 3.405822,-1.405557 -5.497362 2.250763,-1.380696 -4.454248 2.680146,-1.112467 -4.151235 3.147927,-0.8079162 -4.323089 3.483318,-1.076893 -5.341243 1.979541,-1.012851 -4.181334 2.42506,-0.6983771 -3.88722 2.84024,-0.4042568 -4.09204 3.121995,-0.8025613 -5.431949 1.788606,-0.6872282 -4.401258 2.152552,-0.3853092 -4.144992 2.557512,-0.1015186 -4.285017 2.840042,-0.5456595 -5.703639 1.661104,-0.359726 -4.939096 1.941394,-0.1092949 -4.664463 2.224852,0.1335669 -4.618651 2.454463,-9.879577 -7.279809 0.5407134,-9.234058 -7.04618 0.7385904,-8.672864 -6.507598 0.9145293,-8.285162 -5.931636 1.155454,-7.945421 -5.583805 1.408812,-8.926634 -4.779668 0.6704417,-8.665567 -3.752613 0.8344394,-8.517378 -3.114948 1.027055,-8.396063 -2.555216 1.172188,-9.247578 -4.507107 0.789308,-9.005474 -3.305574 0.9251343,-8.844242 -2.544466 1.153267,-8.70646 -1.901248 1.329381,-9.588383 -4.480511 0.9450341,-9.39498 -3.331929 1.090404,-9.245352 -2.599962 1.278411,-9.09405 -1.982318 1.414565,-9.964496 -4.642896 1.127255,-9.953508 -3.68187 1.318722,-9.897993 -3.048938 1.478617,-9.806436 -2.444443 1.584872,1.520,DnF
-0.9557724 -8.126251 0.9111298,-1.253056 -7.897201 1.956327,-1.42627 -7.522636 2.495787,-1.402422 -7.048917 2.889957,-1.253931 -6.677818 3.240211,-1.23018 -5.650117 1.912208,-1.234181 -4.537658 2.340302,-0.9460769 -4.248146 2.798083,-0.6348772 -4.438373 3.111485,-0.9123621 -5.477684 1.562056,-0.8640947 -4.248846 1.972522,-0.5320454 -3.984283 2.392495,-0.2400532 -4.209637 2.667076,-0.6610012 -5.539375 1.307987,-0.5652637 -4.463339 1.6337,-0.2705431 -4.233837 2.030024,-0.004191399 -4.39484 2.306746,-0.4285073 -5.769966 1.135578,-0.2552938 -5.02158 1.398444,-0.01542473 -4.77828 1.691963,0.2086606 -4.754398 1.922741,-9.893435 -7.278188 0.5742224,-9.245877 -7.059598 0.7757182,-8.680317 -6.506844 0.9457519,-8.293883 -5.912499 1.182938,-7.961843 -5.55967 1.427694,-8.934919 -4.768631 0.6731524,-8.676682 -3.747206 0.8207524,-8.535372 -3.103531 1.003414,-8.420159 -2.540105 1.14106,-9.258518 -4.492879 0.7811174,-9.021556 -3.292331 0.8925921,-8.863723 -2.528859 1.105704,-8.730496 -1.885974 1.270857,-9.600481 -4.465214 0.9291559,-9.412226 -3.317496 1.055562,-9.263696 -2.588649 1.229881,-9.115164 -1.975216 1.352519,-9.97825 -4.629882 1.105263,-9.962712 -3.669425 1.282565,-9.904696 -3.041096 1.432053,-9.81258 -2.442357 1.530745,1.540,DnF
-0.9557724 -8.126251 0.9111298,-1.253056 -7.897201 1.956327,-1.42627 -7.522636 2.495787,-1.402422 -7.048917 2.889957,-1.253931 -6.677818 3.240211,-1.23018 -5.650117 1.912208,-1.234181 -4.537658 2.340302,-0.9460769 -4.248146 2.798083,-0.6348772 -4.438373 3.111485,-0.9123621 -5.477684 1.562056,-0.8640947 -4.248846 1.972522,-0.5320454 -3.984283 2.392495,-0.2400532 -4.209637 2.667076,-0.6610012 -5.539375 1.307987,-0.5652637 -4.463339 1.6337,-0.2705431 -4.233837 2.030024,-0.004191399 -4.39484 2.306746,-0.4285073 -5.769966 1.135578,-0.2552938 -5.02158 1.398444,-0.01542473 -4.77828 1.691963,0.2086606 -4.754398 1.922741,-9.893435 -7.278188 0.5742224,-9.245877 -7.059598 0.7757182,-8.680317 -6.506844 0.9457519,-8.293883 -5.912499 1.182938,-7.961843 -5.55967 1.427694,-8.934919 -4.768631 0.6731524,-8.676682 -3.747206 0.8207524,-8.535372 -3.103531 1.003414,-8.420159 -2.540105 1.14106,-9.258518 -4.492879 0.7811174,-9.021556 -3.292331 0.8925921,-8.863723 -2.528859 1.105704,-8.730496 -1.885974 1.270857,-9.600481 -4.465214 0.9291559,-9.412226 -3.317496 1.055562,-9.263696 -2.588649 1.229881,-9.115164 -1.975216 1.352519,-9.97825 -4.629882 1.105263,-9.962712 -3.669425 1.282565,-9.904696 -3.041096 1.432053,-9.81258 -2.442357 1.530745,1.560,Object Grabbed
-0.9557724 -8.126251 0.9111298,-1.253056 -7.897201 1.956327,-1.42627 -7.522636 2.495787,-1.402422 -7.048917 2.889957,-1.253931 -6.677818 3.240211,-1.23018 -5.650117 1.912208,-1.234181 -4.537658 2.340302,-0.9460769 -4.248146 2.798083,-0.6348772 -4.438373 3.111485,-0.9123621 -5.477684 1.562056,-0.8640947 -4.248846 1.972522,-0.5320454 -3.984283 2.392495,-0.2400532 -4.209637 2.667076,-0.6610012 -5.539375 1.307987,-0.5652637 -4.463339 1.6337,-0.2705431 -4.233837 2.030024,-0.004191399 -4.39484 2.306746,-0.4285073 -5.769966 1.135578,-0.2552938 -5.02158 1.398444,-0.01542473 -4.77828 1.691963,0.2086606 -4.754398 1.922741,-9.893435 -7.278188 0.5742224,-9.245877 -7.059598 0.7757182,-8.680317 -6.506844 0.9457519,-8.293883 -5.912499 1.182938,-7.961843 -5.55967 1.427694,-8.934919 -4.768631 0.6731524,-8.676682 -3.747206 0.8207524,-8.535372 -3.103531 1.003414,-8.420159 -2.540105 1.14106,-9.258518 -4.492879 0.7811174,-9.021556 -3.292331 0.8925921,-8.863723 -2.528859 1.105704,-8.730496 -1.885974 1.270857,-9.600481 -4.465214 0.9291559,-9.412226 -3.317496 1.055562,-9.263696 -2.588649 1.229881,-9.115164 -1.975216 1.352519,-9.97825 -4.629882 1.105263,-9.962712 -3.669425 1.282565,-9.904696 -3.041096 1.432053,-9.81258 -2.442357 1.530745,1.580,DnF
-0.8305011 -8.194841 0.8720999,-1.096992 -7.984333 1.965238,-1.212197 -7.588615 2.520205,-1.152048 -7.178271 2.928736,-1.050955 -6.866458 3.296475,-1.08741 -5.714125 1.932613,-1.067805 -4.627143 2.365185,-0.7601948 -4.413734 2.801884,-0.4425483 -4.6317 3.100354,-0.7742796 -5.565874 1.554584,-0.7036901 -4.354214 1.957648,-0.3442316 -4.121709 2.369143,-0.04491329 -4.326154 2.646931,-0.520093 -5.642084 1.27313,-0.3827724 -4.599618 1.59936,-0.06696939 -4.400789 2.018674,0.1997051 -4.570824 2.318254,-0.2874422 -5.869623 1.072637,-0.0940094 -5.16713 1.338523,0.1679716 -4.942581 1.660328,0.4027181 -4.92354 1.931869,-9.90565 -7.281709 0.6256949,-9.252398 -7.065859 0.8272015,-8.684697 -6.521596 1.001897,-8.289412 -5.936512 1.244257,-7.946843 -5.598065 1.498736,-8.942225 -4.765241 0.728191,-8.68051 -3.747158 0.871874,-8.537053 -3.106214 1.05283,-8.421856 -2.546631 1.190206,-9.26871 -4.48216 0.8381103,-9.028778 -3.286878 0.9408429,-8.870785 -2.52661 1.156701,-8.738699 -1.884203 1.32382,-9.612441 -4.453615 0.9832098,-9.424985 -3.31063 1.106366,-9.278106 -2.582335 1.28239,-9.130131 -1.963701 1.40548,-9.98917 -4.62099 1.159469,-9.983517 -3.665467 1.335308,-9.929415 -3.0332 1.487219,-9.838091 -2.428294 1.586083,1.600,DnF
-0.8305011 -8.194841 0.8720999,-1.096992 -7.984333 1.965238,-1.212197 -7.588615 2.520205,-1.152048 -7.178271 2.928736,-1.050955 -6.866458 3.296475,-1.08741 -5.714125 1.932613,-1.067805 -4.627143 2.365185,-0.7601948 -4.413734 2.801884,-0.4425483 -4.6317 3.100354,-0.7742796 -5.565874 1.554584,-0.7036901 -4.354214 1.957648,-0.3442316 -4.121709 2.369143,-0.04491329 -4.326154 2.646931,-0.520093 -5.642084 1.27313,-0.3827724 -4.599618 1.59936,-0.06696939 -4.400789 2.018674,0.1997051 -4.570824 2.318254,-0.2874422 -5.869623 1.072637,-0.0940094 -5.16713 1.338523,0.1679716 -4.942581 1.660328,0.4027181 -4.92354 1.931869,-9.90565 -7.281709 0.6256949,-9.252398 -7.065859 0.8272015,-8.684697 -6.521596 1.001897,-8.289412 -5.936512 1.244257,-7.946843 -5.598065 1.498736,-8.942225 -4.765241 0.728191,-8.68051 -3.747158 0.871874,-8.537053 -3.106214 1.05283,-8.421856 -2.546631 1.190206,-9.26871 -4.48216 0.8381103,-9.028778 -3.286878 0.9408429,-8.870785 -2.52661 1.156701,-8.738699 -1.884203 1.32382,-9.612441 -4.453615 0.9832098,-9.424985 -3.31063 1.106366,-9.278106 -2.582335 1.28239,-9.130131 -1.963701 1.40548,-9.98917 -4.62099 1.159469,-9.983517 -3.665467 1.335308,-9.929415 -3.0332 1.487219,-9.838091 -2.428294 1.586083,1.620,DnF
-0.8305011 -8.194841 0.8720999,-1.096992 -7.984333 1.965238,-1.212197 -7.588615 2.520205,-1.152048 -7.178271 2.928736,-1.050955 -6.866458 3.296475,-1.08741 -5.714125 1.932613,-1.067805 -4.627143 2.365185,-0.7601948 -4.413734 2.801884,-0.4425483 -4.6317 3.100354,-0.7742796 -5.565874 1.554584,-0.7036901 -4.354214 1.957648,-0.3442316 -4.121709 2.369143,-0.04491329 -4.326154 2.646931,-0.520093 -5.642084 1.27313,-0.3827724 -4.599618 1.59936,-0.06696939 -4.400789 2.018674,0.1997051 -4.570824 2.318254,-0.2874422 -5.869623 1.072637,-0.0940094 -5.16713 1.338523,0.1679716 -4.942581 1.660328,0.4027181 -4.92354 1.931869,-9.90565 -7.281709 0.6256949,-9.252398 -7.065859 0.8272015,-8.684697 -6.521596 1.001897,-8.289412 -5.936512 1.244257,-7.946843 -5.598065 1.498736,-8.942225 -4.765241 0.728191,-8.68051 -3.747158 0.871874,-8.537053 -3.106214 1.05283,-8.421856 -2.546631 1.190206,-9.26871 -4.48216 0.8381103,-9.028778 -3.286878 0.9408429,-8.870785 -2.52661 1.156701,-8.738699 -1.884203 1.32382,-9.612441 -4.453615 0.9832098,-9.424985 -3.31063 1.106366,-9.278106 -2.582335 1.28239,-9.130131 -1.963701 1.40548,-9.98917 -4.62099 1.159469,-9.983517 -3.665467 1.335308,-9.929415 -3.0332 1.487219,-9.838091 -2.428294 1.586083,1.640,DnF
