TiagoOliveira98/HandTracking/DataLogging/JointData/Logs(1635455597)_Lando.csv
WRIST,THUMB_CMC,THUMB_MCP,THUMB_IP,THUMB_TIP,INDEX_FINGER_MCP,INDEX_FINGER_PIP,INDEX_FINGER_DIP,INDEX_FINGER_TIP,MIDDLE_FINGER_MCP,MIDDLE_FINGER_PIP,MIDDLE_FINGER_DIP,MIDDLE_FINGER_TIP,RING_FINGER_MCP,RING_FINGER_PIP,RING_FINGER_DIP,RING_FINGER_TIP,PINKY_MCP,PINKY_PIP,PINKY_DIP,PINKY_TIP,WRIST2,THUMB_CMC2,THUMB_MCP2,THUMB_IP2,THUMB_TIP2,INDEX_FINGER_MCP2,INDEX_FINGER_PIP2,INDEX_FINGER_DIP2,INDEX_FINGER_TIP2,MIDDLE_FINGER_MCP2,MIDDLE_FINGER_PIP2,MIDDLE_FINGER_DIP2,MIDDLE_FINGER_TIP2,RING_FINGER_MCP2,RING_FINGER_PIP2,RING_FINGER_DIP2,RING_FINGER_TIP2,PINKY_MCP2,PINKY_PIP2,PINKY_DIP2,PINKY_TIP2,Timestamp,Event
10 0 0,10 7.47 0,10 7.47 0,10 7.47 0,10 7.47 0,10 7.47 0,10 7.47 0,10 7.47 0,10 7.47 0,10 7.47 0,10 7.47 0,10 7.47 0,10 7.47 0,10 7.47 0,10 7.47 0,10 7.47 0,10 7.47 0,10 7.47 0,10 7.47 0,10 7.47 0,10 7.47 0,10 0 0,10 7.47 0,10 7.47 0,10 7.47 0,10 7.47 0,10 7.47 0,10 7.47 0,10 7.47 0,10 7.47 0,10 7.47 0,10 7.47 0,10 7.47 0,10 7.47 0,10 7.47 0,10 7.47 0,10 7.47 0,10 7.47 0,10 7.47 0,10 7.47 0,10 7.47 0,10 7.47 0,0.020,Dnf
2 0 -7.506176,2 0 -7.506176,2 0 -7.506176,2 0 -7.506176,2 0 -7.506176,2 0 -7.506176,2 0 -7.506176,2 0 -7.506176,2 0 -7.506176,2 0 -7.506176,2 0 -7.506176,2 0 -7.506176,2 0 -7.506176,2 0 -7.506176,2 0 -7.506176,2 0 -7.506176,2 0 -7.506176,2 0 -7.506176,2 0 -7.506176,2 0 -7.506176,2 0 -7.506176,2 0 -8.351543,2 0 -8.351543,2 0 -8.351543,2 0 -8.351543,2 0 -8.351543,2 0 -8.351543,2 0 -8.351543,2 0 -8.351543,2 0 -8.351543,2 0 -8.351543,2 0 -8.351543,2 0 -8.351543,2 0 -8.351543,2 0 -8.351543,2 0 -8.351543,2 0 -8.351543,2 0 -8.351543,2 0 -8.351543,2 0 -8.351543,2 0 -8.351543,2 0 -8.351543,0.040,DnF
2 0 -7.506176,2 0 -7.506176,2 0 -7.506176,2 0 -7.506176,2 0 -7.506176,2 0 -7.506176,2 0 -7.506176,2 0 -7.506176,2 0 -7.506176,2 0 -7.506176,2 0 -7.506176,2 0 -7.506176,2 0 -7.506176,2 0 -7.506176,2 0 -7.506176,2 0 -7.506176,2 0 -7.506176,2 0 -7.506176,2 0 -7.506176,2 0 -7.506176,2 0 -7.506176,2 0 -8.351543,2 0 -8.351543,2 0 -8.351543,2 0 -8.351543,2 0 -8.351543,2 0 -8.351543,2 0 -8.351543,2 0 -8.351543,2 0 -8.351543,2 0 -8.351543,2 0 -8.351543,2 0 -8.351543,2 0 -8.351543,2 0 -8.351543,2 0 -8.351543,2 0 -8.351543,2 0 -8.351543,2 0 -8.351543,2 0 -8.351543,2 0 -8.351543,2 0 -8.351543,0.060,DnF
2 0 -7.506176,2 0 -7.506176,2 0 -7.506176,2 0 -7.506176,2 0 -7.506176,2 0 -7.506176,2 0 -7.506176,2 0 -7.506176,2 0 -7.506176,2 0 -7.506176,2 0 -7.506176,2 0 -7.506176,2 0 -7.506176,2 0 -7.506176,2 0 -7.506176,2 0 -7.506176,2 0 -7.506176,2 0 -7.506176,2 0 -7.506176,2 0 -7.506176,2 0 -7.506176,2 0 -8.351543,2 0 -8.351543,2 0 -8.351543,2 0 -8.351543,2 0 -8.351543,2 0 -8.351543,2 0 -8.351543,2 0 -8.351543,2 0 -8.351543,2 0 -8.351543,2 0 -8.351543,2 0 -8.351543,2 0 -8.351543,2 0 -8.351543,2 0 -8.351543,2 0 -8.351543,2 0 -8.351543,2 0 -8.351543,2 0 -8.351543,2 0 -8.351543,2 0 -8.351543,0.080,DnF
-3.231976 -5.61482 0.9862942,-3.830626 -5.53387 1.441308,-4.351158 -5.217726 1.713761,-4.704369 -4.827597 1.942776,-5.054068 -4.540125 2.165903,-4.038351 -3.530495 1.611814,-4.305683 -2.60977 1.908079,-4.451694 -2.099643 2.148455,-4.593459 -1.653032 2.346244,-3.692011 -3.302673 1.560603,-3.889793 -2.256312 1.883607,-4.010668 -1.673645 2.091222,-4.136753 -1.165762 2.247275,-3.354078 -3.316885 1.554684,-3.472351 -2.321059 1.855327,-3.574266 -1.76761 2.091925,-3.694542 -1.29157 2.271261,-3.004304 -3.50097 1.588376,-3.006418 -2.721189 1.876539,-3.046374 -2.259922 2.088135,-3.113467 -1.836711 2.265612,-9.628749 -7.51987 0.3868951,-9.095267 -7.345729 0.7086033,-8.623421 -6.843772 0.9590696,-8.29266 -6.333339 1.228087,-8.000979 -6.014085 1.483124,-8.931233 -5.303207 0.7252075,-8.752263 -4.328511 0.9628949,-8.659771 -3.739089 1.166299,-8.589898 -3.220305 1.295112,-9.229246 -5.087936 0.7855247,-9.083034 -3.93557 1.004043,-8.983271 -3.201894 1.250269,-8.90029 -2.559672 1.431382,-9.53674 -5.10503 0.8713791,-9.427928 -4.000156 1.094049,-9.34258 -3.304065 1.312096,-9.251231 -2.703 1.471518,-9.866323 -5.29882 0.9918494,-9.886212 -4.426464 1.216761,-9.87583 -3.856729 1.389737,-9.841606 -3.313925 1.50642,0.100,DnF
-3.231976 -5.61482 0.9862942,-3.830626 -5.53387 1.441308,-4.351158 -5.217726 1.713761,-4.704369 -4.827597 1.942776,-5.054068 -4.540125 2.165903,-4.038351 -3.530495 1.611814,-4.305683 -2.60977 1.908079,-4.451694 -2.099643 2.148455,-4.593459 -1.653032 2.346244,-3.692011 -3.302673 1.560603,-3.889793 -2.256312 1.883607,-4.010668 -1.673645 2.091222,-4.136753 -1.165762 2.247275,-3.354078 -3.316885 1.554684,-3.472351 -2.321059 1.855327,-3.574266 -1.76761 2.091925,-3.694542 -1.29157 2.271261,-3.004304 -3.50097 1.588376,-3.006418 -2.721189 1.876539,-3.046374 -2.259922 2.088135,-3.113467 -1.836711 2.265612,-9.628749 -7.51987 0.3868951,-9.095267 -7.345729 0.7086033,-8.623421 -6.843772 0.9590696,-8.29266 -6.333339 1.228087,-8.000979 -6.014085 1.483124,-8.931233 -5.303207 0.7252075,-8.752263 -4.328511 0.9628949,-8.659771 -3.739089 1.166299,-8.589898 -3.220305 1.295112,-9.229246 -5.087936 0.7855247,-9.083034 -3.93557 1.004043,-8.983271 -3.201894 1.250269,-8.90029 -2.559672 1.431382,-9.53674 -5.10503 0.8713791,-9.427928 -4.000156 1.094049,-9.34258 -3.304065 1.312096,-9.251231 -2.703 1.471518,-9.866323 -5.29882 0.9918494,-9.886212 -4.426464 1.216761,-9.87583 -3.856729 1.389737,-9.841606 -3.313925 1.50642,0.120,DnF
-3.231976 -5.61482 0.9862942,-3.830626 -5.53387 1.441308,-4.351158 -5.217726 1.713761,-4.704369 -4.827597 1.942776,-5.054068 -4.540125 2.165903,-4.038351 -3.530495 1.611814,-4.305683 -2.60977 1.908079,-4.451694 -2.099643 2.148455,-4.593459 -1.653032 2.346244,-3.692011 -3.302673 1.560603,-3.889793 -2.256312 1.883607,-4.010668 -1.673645 2.091222,-4.136753 -1.165762 2.247275,-3.354078 -3.316885 1.554684,-3.472351 -2.321059 1.855327,-3.574266 -1.76761 2.091925,-3.694542 -1.29157 2.271261,-3.004304 -3.50097 1.588376,-3.006418 -2.721189 1.876539,-3.046374 -2.259922 2.088135,-3.113467 -1.836711 2.265612,-9.628749 -7.51987 0.3868951,-9.095267 -7.345729 0.7086033,-8.623421 -6.843772 0.9590696,-8.29266 -6.333339 1.228087,-8.000979 -6.014085 1.483124,-8.931233 -5.303207 0.7252075,-8.752263 -4.328511 0.9628949,-8.659771 -3.739089 1.166299,-8.589898 -3.220305 1.295112,-9.229246 -5.087936 0.7855247,-9.083034 -3.93557 1.004043,-8.983271 -3.201894 1.250269,-8.90029 -2.559672 1.431382,-9.53674 -5.10503 0.8713791,-9.427928 -4.000156 1.094049,-9.34258 -3.304065 1.312096,-9.251231 -2.703 1.471518,-9.866323 -5.29882 0.9918494,-9.886212 -4.426464 1.216761,-9.87583 -3.856729 1.389737,-9.841606 -3.313925 1.50642,0.140,DnF
-3.081155 -5.744201 0.7422326,-3.658537 -5.727359 1.228142,-4.16497 -5.460001 1.503486,-4.506995 -5.136415 1.729966,-4.807593 -4.884331 1.959308,-3.866529 -3.726958 1.352477,-4.114782 -2.849572 1.598003,-4.256348 -2.327934 1.823345,-4.377415 -1.857074 2.018766,-3.5316 -3.495744 1.285667,-3.724761 -2.460093 1.533303,-3.837762 -1.877665 1.728213,-3.938406 -1.34049 1.891022,-3.203564 -3.505623 1.268241,-3.304825 -2.536913 1.494851,-3.388243 -2.002021 1.72358,-3.478786 -1.51851 1.913713,-2.872117 -3.683963 1.295303,-2.84722 -2.928051 1.527393,-2.86331 -2.488751 1.711042,-2.905785 -2.068001 1.884297,-9.584714 -7.498874 0.4153763,-9.048748 -7.327531 0.7156025,-8.570983 -6.828088 0.9629015,-8.228556 -6.326282 1.232876,-7.92609 -6.000762 1.493159,-8.887512 -5.249909 0.7293886,-8.705012 -4.272213 0.9584888,-8.606031 -3.691881 1.160839,-8.530667 -3.183602 1.293815,-9.187093 -5.056451 0.8025468,-9.03901 -3.906171 1.014146,-8.934771 -3.178087 1.256516,-8.850927 -2.539002 1.436437,-9.497128 -5.095583 0.9002092,-9.387872 -3.991405 1.118488,-9.29538 -3.295808 1.331393,-9.200328 -2.690028 1.488682,-9.829282 -5.306364 1.029656,-9.842704 -4.422412 1.25256,-9.823047 -3.84394 1.423582,-9.782724 -3.290062 1.534634,0.160,DnF
-3.081155 -5.744201 0.7422326,-3.658537 -5.727359 1.228142,-4.16497 -5.460001 1.503486,-4.506995 -5.136415 1.729966,-4.807593 -4.884331 1.959308,-3.866529 -3.726958 1.352477,-4.114782 -2.849572 1.598003,-4.256348 -2.327934 1.823345,-4.377415 -1.857074 2.018766,-3.5316 -3.495744 1.285667,-3.724761 -2.460093 1.533303,-3.837762 -1.877665 1.728213,-3.938406 -1.34049 1.891022,-3.203564 -3.505623 1.268241,-3.304825 -2.536913 1.494851,-3.388243 -2.002021 1.72358,-3.478786 -1.51851 1.913713,-2.872117 -3.683963 1.295303,-2.84722 -2.928051 1.527393,-2.86331 -2.488751 1.711042,-2.905785 -2.068001 1.884297,-9.584714 -7.498874 0.4153763,-9.048748 -7.327531 0.7156025,-8.570983 -6.828088 0.9629015,-8.228556 -6.326282 1.232876,-7.92609 -6.000762 1.493159,-8.887512 -5.249909 0.7293886,-8.705012 -4.272213 0.9584888,-8.606031 -3.691881 1.160839,-8.530667 -3.183602 1.293815,-9.187093 -5.056451 0.8025468,-9.03901 -3.906171 1.014146,-8.934771 -3.178087 1.256516,-8.850927 -2.539002 1.436437,-9.497128 -5.095583 0.9002092,-9.387872 -3.991405 1.118488,-9.29538 -3.295808 1.331393,-9.200328 -2.690028 1.488682,-9.829282 -5.306364 1.029656,-9.842704 -4.422412 1.25256,-9.823047 -3.84394 1.423582,-9.782724 -3.290062 1.534634,0.180,DnF
-3.081155 -5.744201 0.7422326,-3.658537 -5.727359 1.228142,-4.16497 -5.460001 1.503486,-4.506995 -5.136415 1.729966,-4.807593 -4.884331 1.959308,-3.866529 -3.726958 1.352477,-4.114782 -2.849572 1.598003,-4.256348 -2.327934 1.823345,-4.377415 -1.857074 2.018766,-3.5316 -3.495744 1.285667,-3.724761 -2.460093 1.533303,-3.837762 -1.877665 1.728213,-3.938406 -1.34049 1.891022,-3.203564 -3.505623 1.268241,-3.304825 -2.536913 1.494851,-3.388243 -2.002021 1.72358,-3.478786 -1.51851 1.913713,-2.872117 -3.683963 1.295303,-2.84722 -2.928051 1.527393,-2.86331 -2.488751 1.711042,-2.905785 -2.068001 1.884297,-9.584714 -7.498874 0.4153763,-9.048748 -7.327531 0.7156025,-8.570983 -6.828088 0.9629015,-8.228556 -6.326282 1.232876,-7.92609 -6.000762 1.493159,-8.887512 -5.249909 0.7293886,-8.705012 -4.272213 0.9584888,-8.606031 -3.691881 1.160839,-8.530667 -3.183602 1.293815,-9.187093 -5.056451 0.8025468,-9.03901 -3.906171 1.014146,-8.934771 -3.178087 1.256516,-8.850927 -2.539002 1.436437,-9.497128 -5.095583 0.9002092,-9.387872 -3.991405 1.118488,-9.29538 -3.295808 1.331393,-9.200328 -2.690028 1.488682,-9.829282 -5.306364 1.029656,-9.842704 -4.422412 1.25256,-9.823047 -3.84394 1.423582,-9.782724 -3.290062 1.534634,0.200,DnF
-2.953536 -5.940002 0.8473036,-3.520829 -5.930244 1.408697,-4.013977 -5.670482 1.708448,-4.340652 -5.336776 1.940129,-4.629422 -5.088726 2.175546,-3.735243 -3.913284 1.571719,-3.979802 -3.034879 1.828749,-4.108987 -2.507299 2.046714,-4.210552 -2.014249 2.239108,-3.400967 -3.67885 1.466269,-3.579018 -2.643903 1.71955,-3.671162 -2.062579 1.919787,-3.74537 -1.526926 2.079975,-3.075317 -3.686883 1.404593,-3.156572 -2.725115 1.636289,-3.223776 -2.187889 1.877553,-3.294535 -1.695849 2.073133,-2.872117 -3.683963 1.400332,-2.84722 -2.928051 1.632422,-2.86331 -2.488751 1.816071,-2.905785 -2.068001 1.989327,-9.584714 -7.498874 0.4153763,-9.048748 -7.327531 0.7156025,-8.570983 -6.828088 0.9629015,-8.228556 -6.326282 1.232876,-7.92609 -6.000762 1.493159,-8.887512 -5.249909 0.7293886,-8.705012 -4.272213 0.9584888,-8.606031 -3.691881 1.160839,-8.530667 -3.183602 1.293815,-9.187093 -5.056451 0.8025468,-9.03901 -3.906171 1.014146,-8.934771 -3.178087 1.256516,-8.850927 -2.539002 1.436437,-9.497128 -5.095583 0.9002092,-9.387872 -3.991405 1.118488,-9.29538 -3.295808 1.331393,-9.200328 -2.690028 1.488682,-9.829282 -5.306364 1.029656,-9.842704 -4.422412 1.25256,-9.823047 -3.84394 1.423582,-9.782724 -3.290062 1.534634,0.220,DnF
-2.953536 -5.940002 0.8473036,-3.520829 -5.930244 1.408697,-4.013977 -5.670482 1.708448,-4.340652 -5.336776 1.940129,-4.629422 -5.088726 2.175546,-3.735243 -3.913284 1.571719,-3.979802 -3.034879 1.828749,-4.108987 -2.507299 2.046714,-4.210552 -2.014249 2.239108,-3.400967 -3.67885 1.466269,-3.579018 -2.643903 1.71955,-3.671162 -2.062579 1.919787,-3.74537 -1.526926 2.079975,-3.075317 -3.686883 1.404593,-3.156572 -2.725115 1.636289,-3.223776 -2.187889 1.877553,-3.294535 -1.695849 2.073133,-2.744764 -3.863516 1.393977,-2.699366 -3.11585 1.630772,-2.699004 -2.680613 1.834401,-2.726509 -2.262515 2.01864,-9.551941 -7.490798 0.4677323,-9.014508 -7.315485 0.7785987,-8.53518 -6.82361 1.041952,-8.193478 -6.330232 1.324831,-7.887888 -5.999395 1.601711,-8.844013 -5.236055 0.8200336,-8.659163 -4.249599 1.05349,-8.558716 -3.655015 1.257689,-8.478593 -3.133318 1.398207,-9.144154 -5.040836 0.8920509,-8.988444 -3.900343 1.111164,-8.877576 -3.170875 1.350073,-8.788715 -2.539941 1.534868,-9.456595 -5.077161 0.9884273,-9.338423 -3.976524 1.209819,-9.239799 -3.274082 1.429812,-9.140253 -2.673728 1.594118,-9.793185 -5.28638 1.116384,-9.803206 -4.39352 1.342243,-9.778311 -3.80974 1.517541,-9.729749 -3.262285 1.636102,0.240,DnF
-2.953536 -5.940002 0.8473036,-3.520829 -5.930244 1.408697,-4.013977 -5.670482 1.708448,-4.340652 -5.336776 1.940129,-4.629422 -5.088726 2.175546,-3.735243 -3.913284 1.571719,-3.979802 -3.034879 1.828749,-4.108987 -2.507299 2.046714,-4.210552 -2.014249 2.239108,-3.400967 -3.67885 1.466269,-3.579018 -2.643903 1.71955,-3.671162 -2.062579 1.919787,-3.74537 -1.526926 2.079975,-3.075317 -3.686883 1.404593,-3.156572 -2.725115 1.636289,-3.223776 -2.187889 1.877553,-3.294535 -1.695849 2.073133,-2.744764 -3.863516 1.393977,-2.699366 -3.11585 1.630772,-2.699004 -2.680613 1.834401,-2.726509 -2.262515 2.01864,-9.551941 -7.490798 0.4677323,-9.014508 -7.315485 0.7785987,-8.53518 -6.82361 1.041952,-8.193478 -6.330232 1.324831,-7.887888 -5.999395 1.601711,-8.844013 -5.236055 0.8200336,-8.659163 -4.249599 1.05349,-8.558716 -3.655015 1.257689,-8.478593 -3.133318 1.398207,-9.144154 -5.040836 0.8920509,-8.988444 -3.900343 1.111164,-8.877576 -3.170875 1.350073,-8.788715 -2.539941 1.534868,-9.456595 -5.077161 0.9884273,-9.338423 -3.976524 1.209819,-9.239799 -3.274082 1.429812,-9.140253 -2.673728 1.594118,-9.793185 -5.28638 1.116384,-9.803206 -4.39352 1.342243,-9.778311 -3.80974 1.517541,-9.729749 -3.262285 1.636102,0.260,DnF
-2.953536 -5.940002 0.8473036,-3.520829 -5.930244 1.408697,-4.013977 -5.670482 1.708448,-4.340652 -5.336776 1.940129,-4.629422 -5.088726 2.175546,-3.735243 -3.913284 1.571719,-3.979802 -3.034879 1.828749,-4.108987 -2.507299 2.046714,-4.210552 -2.014249 2.239108,-3.400967 -3.67885 1.466269,-3.579018 -2.643903 1.71955,-3.671162 -2.062579 1.919787,-3.74537 -1.526926 2.079975,-3.075317 -3.686883 1.404593,-3.156572 -2.725115 1.636289,-3.223776 -2.187889 1.877553,-3.294535 -1.695849 2.073133,-2.744764 -3.863516 1.393977,-2.699366 -3.11585 1.630772,-2.699004 -2.680613 1.834401,-2.726509 -2.262515 2.01864,-9.551941 -7.490798 0.4677323,-9.014508 -7.315485 0.7785987,-8.53518 -6.82361 1.041952,-8.193478 -6.330232 1.324831,-7.887888 -5.999395 1.601711,-8.844013 -5.236055 0.8200336,-8.659163 -4.249599 1.05349,-8.558716 -3.655015 1.257689,-8.478593 -3.133318 1.398207,-9.144154 -5.040836 0.8920509,-8.988444 -3.900343 1.111164,-8.877576 -3.170875 1.350073,-8.788715 -2.539941 1.534868,-9.456595 -5.077161 0.9884273,-9.338423 -3.976524 1.209819,-9.239799 -3.274082 1.429812,-9.140253 -2.673728 1.594118,-9.793185 -5.28638 1.116384,-9.803206 -4.39352 1.342243,-9.778311 -3.80974 1.517541,-9.729749 -3.262285 1.636102,0.280,DnF
-2.849079 -6.108851 0.8308511,-3.409584 -6.067968 1.379138,-3.889447 -5.801991 1.666608,-4.212971 -5.470888 1.894707,-4.49618 -5.218923 2.130277,-3.611214 -4.068134 1.506654,-3.847477 -3.182354 1.770709,-3.960859 -2.632093 1.996359,-4.041375 -2.109114 2.197686,-3.281137 -3.840121 1.414022,-3.439316 -2.806406 1.668079,-3.508899 -2.193213 1.871568,-3.557997 -1.645562 2.032381,-2.956959 -3.856439 1.370463,-3.006208 -2.893295 1.599219,-3.0481 -2.331112 1.8379,-3.093691 -1.827852 2.030381,-2.625258 -4.050201 1.376243,-2.551764 -3.303327 1.616144,-2.527113 -2.86125 1.817148,-2.533414 -2.440803 1.998888,-9.527853 -7.463577 0.4511967,-8.98896 -7.302823 0.744975,-8.504969 -6.80889 0.99182,-8.156097 -6.315717 1.260494,-7.841972 -5.991861 1.519036,-8.809736 -5.211746 0.7714707,-8.621774 -4.225836 0.9967601,-8.517225 -3.6379 1.201334,-8.436862 -3.122859 1.344109,-9.108777 -5.016057 0.8498332,-8.946245 -3.871103 1.066078,-8.830682 -3.136623 1.313119,-8.741043 -2.505517 1.500132,-9.419415 -5.055013 0.9502923,-9.298577 -3.950181 1.170852,-9.195965 -3.247734 1.39395,-9.094694 -2.649527 1.561833,-9.754058 -5.265327 1.082007,-9.760786 -4.374164 1.311927,-9.729543 -3.792449 1.49116,-9.676311 -3.247746 1.611644,0.300,DnF
-2.849079 -6.108851 0.8308511,-3.409584 -6.067968 1.379138,-3.889447 -5.801991 1.666608,-4.212971 -5.470888 1.894707,-4.49618 -5.218923 2.130277,-3.611214 -4.068134 1.506654,-3.847477 -3.182354 1.770709,-3.960859 -2.632093 1.996359,-4.041375 -2.109114 2.197686,-3.281137 -3.840121 1.414022,-3.439316 -2.806406 1.668079,-3.508899 -2.193213 1.871568,-3.557997 -1.645562 2.032381,-2.956959 -3.856439 1.370463,-3.006208 -2.893295 1.599219,-3.0481 -2.331112 1.8379,-3.093691 -1.827852 2.030381,-2.625258 -4.050201 1.376243,-2.551764 -3.303327 1.616144,-2.527113 -2.86125 1.817148,-2.533414 -2.440803 1.998888,-9.527853 -7.463577 0.4511967,-8.98896 -7.302823 0.744975,-8.504969 -6.80889 0.99182,-8.156097 -6.315717 1.260494,-7.841972 -5.991861 1.519036,-8.809736 -5.211746 0.7714707,-8.621774 -4.225836 0.9967601,-8.517225 -3.6379 1.201334,-8.436862 -3.122859 1.344109,-9.108777 -5.016057 0.8498332,-8.946245 -3.871103 1.066078,-8.830682 -3.136623 1.313119,-8.741043 -2.505517 1.500132,-9.419415 -5.055013 0.9502923,-9.298577 -3.950181 1.170852,-9.195965 -3.247734 1.39395,-9.094694 -2.649527 1.561833,-9.754058 -5.265327 1.082007,-9.760786 -4.374164 1.311927,-9.729543 -3.792449 1.49116,-9.676311 -3.247746 1.611644,0.320,DnF
-2.849079 -6.108851 0.8308511,-3.409584 -6.067968 1.379138,-3.889447 -5.801991 1.666608,-4.212971 -5.470888 1.894707,-4.49618 -5.218923 2.130277,-3.611214 -4.068134 1.506654,-3.847477 -3.182354 1.770709,-3.960859 -2.632093 1.996359,-4.041375 -2.109114 2.197686,-3.281137 -3.840121 1.414022,-3.439316 -2.806406 1.668079,-3.508899 -2.193213 1.871568,-3.557997 -1.645562 2.032381,-2.956959 -3.856439 1.370463,-3.006208 -2.893295 1.599219,-3.0481 -2.331112 1.8379,-3.093691 -1.827852 2.030381,-2.625258 -4.050201 1.376243,-2.551764 -3.303327 1.616144,-2.527113 -2.86125 1.817148,-2.533414 -2.440803 1.998888,-9.527853 -7.463577 0.4511967,-8.98896 -7.302823 0.744975,-8.504969 -6.80889 0.99182,-8.156097 -6.315717 1.260494,-7.841972 -5.991861 1.519036,-8.809736 -5.211746 0.7714707,-8.621774 -4.225836 0.9967601,-8.517225 -3.6379 1.201334,-8.436862 -3.122859 1.344109,-9.108777 -5.016057 0.8498332,-8.946245 -3.871103 1.066078,-8.830682 -3.136623 1.313119,-8.741043 -2.505517 1.500132,-9.419415 -5.055013 0.9502923,-9.298577 -3.950181 1.170852,-9.195965 -3.247734 1.39395,-9.094694 -2.649527 1.561833,-9.754058 -5.265327 1.082007,-9.760786 -4.374164 1.311927,-9.729543 -3.792449 1.49116,-9.676311 -3.247746 1.611644,0.340,DnF
-2.754974 -6.269626 0.8901644,-3.303051 -6.227882 1.470798,-3.77269 -5.944562 1.772795,-4.082866 -5.59853 2.011192,-4.364827 -5.335474 2.260469,-3.501472 -4.219719 1.590991,-3.728821 -3.329801 1.866568,-3.8333 -2.767419 2.107424,-3.907404 -2.227316 2.317911,-3.166555 -3.982992 1.487473,-3.312684 -2.944943 1.751849,-3.371773 -2.318232 1.973567,-3.417494 -1.750606 2.147929,-2.839023 -4.000561 1.435419,-2.873767 -3.03101 1.68044,-2.901817 -2.450632 1.93839,-2.939791 -1.92368 2.146084,-2.504589 -4.204385 1.429789,-2.410175 -3.46881 1.688079,-2.359491 -3.019449 1.900631,-2.34431 -2.584116 2.091583,-9.498113 -7.449773 0.4689875,-8.961281 -7.275951 0.7764137,-8.471592 -6.794824 1.038457,-8.111506 -6.324659 1.324049,-7.78228 -6.010974 1.605735,-8.769523 -5.197635 0.8176233,-8.581673 -4.210355 1.056545,-8.471839 -3.61749 1.269657,-8.386408 -3.095732 1.415292,-9.063762 -5.004686 0.8970827,-8.898608 -3.866092 1.12775,-8.778299 -3.125143 1.384203,-8.683542 -2.486584 1.575968,-9.373405 -5.042706 1.000296,-9.250652 -3.950176 1.230489,-9.144502 -3.246169 1.458323,-9.04128 -2.646522 1.625591,-9.708568 -5.252016 1.134296,-9.712897 -4.360495 1.374729,-9.681786 -3.775936 1.559493,-9.630277 -3.229761 1.679908,0.360,DnF
-2.754974 -6.269626 0.8901644,-3.303051 -6.227882 1.470798,-3.77269 -5.944562 1.772795,-4.082866 -5.59853 2.011192,-4.364827 -5.335474 2.260469,-3.501472 -4.219719 1.590991,-3.728821 -3.329801 1.866568,-3.8333 -2.767419 2.107424,-3.907404 -2.227316 2.317911,-3.166555 -3.982992 1.487473,-3.312684 -2.944943 1.751849,-3.371773 -2.318232 1.973567,-3.417494 -1.750606 2.147929,-2.839023 -4.000561 1.435419,-2.873767 -3.03101 1.68044,-2.901817 -2.450632 1.93839,-2.939791 -1.92368 2.146084,-2.504589 -4.204385 1.429789,-2.410175 -3.46881 1.688079,-2.359491 -3.019449 1.900631,-2.34431 -2.584116 2.091583,-9.498113 -7.449773 0.4689875,-8.961281 -7.275951 0.7764137,-8.471592 -6.794824 1.038457,-8.111506 -6.324659 1.324049,-7.78228 -6.010974 1.605735,-8.769523 -5.197635 0.8176233,-8.581673 -4.210355 1.056545,-8.471839 -3.61749 1.269657,-8.386408 -3.095732 1.415292,-9.063762 -5.004686 0.8970827,-8.898608 -3.866092 1.12775,-8.778299 -3.125143 1.384203,-8.683542 -2.486584 1.575968,-9.373405 -5.042706 1.000296,-9.250652 -3.950176 1.230489,-9.144502 -3.246169 1.458323,-9.04128 -2.646522 1.625591,-9.708568 -5.252016 1.134296,-9.712897 -4.360495 1.374729,-9.681786 -3.775936 1.559493,-9.630277 -3.229761 1.679908,0.380,DnF
-2.754974 -6.269626 0.8901644,-3.303051 -6.227882 1.470798,-3.77269 -5.944562 1.772795,-4.082866 -5.59853 2.011192,-4.364827 -5.335474 2.260469,-3.501472 -4.219719 1.590991,-3.728821 -3.329801 1.866568,-3.8333 -2.767419 2.107424,-3.907404 -2.227316 2.317911,-3.166555 -3.982992 1.487473,-3.312684 -2.944943 1.751849,-3.371773 -2.318232 1.973567,-3.417494 -1.750606 2.147929,-2.839023 -4.000561 1.435419,-2.873767 -3.03101 1.68044,-2.901817 -2.450632 1.93839,-2.939791 -1.92368 2.146084,-2.504589 -4.204385 1.429789,-2.410175 -3.46881 1.688079,-2.359491 -3.019449 1.900631,-2.34431 -2.584116 2.091583,-9.498113 -7.449773 0.4689875,-8.961281 -7.275951 0.7764137,-8.471592 -6.794824 1.038457,-8.111506 -6.324659 1.324049,-7.78228 -6.010974 1.605735,-8.769523 -5.197635 0.8176233,-8.581673 -4.210355 1.056545,-8.471839 -3.61749 1.269657,-8.386408 -3.095732 1.415292,-9.063762 -5.004686 0.8970827,-8.898608 -3.866092 1.12775,-8.778299 -3.125143 1.384203,-8.683542 -2.486584 1.575968,-9.373405 -5.042706 1.000296,-9.250652 -3.950176 1.230489,-9.144502 -3.246169 1.458323,-9.04128 -2.646522 1.625591,-9.708568 -5.252016 1.134296,-9.712897 -4.360495 1.374729,-9.681786 -3.775936 1.559493,-9.630277 -3.229761 1.679908,0.400,DnF
-2.657047 -6.426895 0.8336823,-3.20262 -6.37947 1.414168,-3.670919 -6.074752 1.707333,-3.984625 -5.701368 1.938477,-4.278428 -5.423194 2.177902,-3.393083 -4.381126 1.498578,-3.622573 -3.462771 1.765419,-3.730604 -2.878263 1.998265,-3.80398 -2.325554 2.206183,-3.065298 -4.146043 1.389276,-3.202439 -3.080308 1.636669,-3.252235 -2.42896 1.867213,-3.282118 -1.852532 2.054742,-2.744907 -4.162499 1.335245,-2.768482 -3.176165 1.558703,-2.785617 -2.575558 1.813587,-2.811753 -2.038551 2.023883,-2.417671 -4.369603 1.32526,-2.309162 -3.625404 1.562634,-2.246751 -3.168171 1.763222,-2.220452 -2.735594 1.938773,-9.447676 -7.441791 0.4769173,-8.913455 -7.285056 0.784142,-8.42783 -6.799268 1.037295,-8.078873 -6.334109 1.316127,-7.75044 -6.033878 1.594849,-8.715122 -5.181989 0.8177892,-8.528391 -4.193483 1.056009,-8.423277 -3.602855 1.267276,-8.344049 -3.083549 1.411886,-9.015473 -4.992273 0.8953239,-8.852914 -3.846395 1.118247,-8.734364 -3.104789 1.372133,-8.640761 -2.465987 1.561805,-9.328377 -5.033107 0.9969394,-9.205411 -3.939713 1.222774,-9.099415 -3.230953 1.449541,-8.997192 -2.627924 1.617467,-9.661801 -5.245492 1.131842,-9.665012 -4.352625 1.366091,-9.634158 -3.766048 1.551318,-9.582815 -3.217806 1.674647,0.420,DnF
-2.657047 -6.426895 0.8336823,-3.20262 -6.37947 1.414168,-3.670919 -6.074752 1.707333,-3.984625 -5.701368 1.938477,-4.278428 -5.423194 2.177902,-3.393083 -4.381126 1.498578,-3.622573 -3.462771 1.765419,-3.730604 -2.878263 1.998265,-3.80398 -2.325554 2.206183,-3.065298 -4.146043 1.389276,-3.202439 -3.080308 1.636669,-3.252235 -2.42896 1.867213,-3.282118 -1.852532 2.054742,-2.744907 -4.162499 1.335245,-2.768482 -3.176165 1.558703,-2.785617 -2.575558 1.813587,-2.811753 -2.038551 2.023883,-2.417671 -4.369603 1.32526,-2.309162 -3.625404 1.562634,-2.246751 -3.168171 1.763222,-2.220452 -2.735594 1.938773,-9.447676 -7.441791 0.4769173,-8.913455 -7.285056 0.784142,-8.42783 -6.799268 1.037295,-8.078873 -6.334109 1.316127,-7.75044 -6.033878 1.594849,-8.715122 -5.181989 0.8177892,-8.528391 -4.193483 1.056009,-8.423277 -3.602855 1.267276,-8.344049 -3.083549 1.411886,-9.015473 -4.992273 0.8953239,-8.852914 -3.846395 1.118247,-8.734364 -3.104789 1.372133,-8.640761 -2.465987 1.561805,-9.328377 -5.033107 0.9969394,-9.205411 -3.939713 1.222774,-9.099415 -3.230953 1.449541,-8.997192 -2.627924 1.617467,-9.661801 -5.245492 1.131842,-9.665012 -4.352625 1.366091,-9.634158 -3.766048 1.551318,-9.582815 -3.217806 1.674647,0.440,DnF
-2.657047 -6.426895 0.8336823,-3.20262 -6.37947 1.414168,-3.670919 -6.074752 1.707333,-3.984625 -5.701368 1.938477,-4.278428 -5.423194 2.177902,-3.393083 -4.381126 1.498578,-3.622573 -3.462771 1.765419,-3.730604 -2.878263 1.998265,-3.80398 -2.325554 2.206183,-3.065298 -4.146043 1.389276,-3.202439 -3.080308 1.636669,-3.252235 -2.42896 1.867213,-3.282118 -1.852532 2.054742,-2.744907 -4.162499 1.335245,-2.768482 -3.176165 1.558703,-2.785617 -2.575558 1.813587,-2.811753 -2.038551 2.023883,-2.417671 -4.369603 1.32526,-2.309162 -3.625404 1.562634,-2.246751 -3.168171 1.763222,-2.220452 -2.735594 1.938773,-9.447676 -7.441791 0.4769173,-8.913455 -7.285056 0.784142,-8.42783 -6.799268 1.037295,-8.078873 -6.334109 1.316127,-7.75044 -6.033878 1.594849,-8.715122 -5.181989 0.8177892,-8.528391 -4.193483 1.056009,-8.423277 -3.602855 1.267276,-8.344049 -3.083549 1.411886,-9.015473 -4.992273 0.8953239,-8.852914 -3.846395 1.118247,-8.734364 -3.104789 1.372133,-8.640761 -2.465987 1.561805,-9.328377 -5.033107 0.9969394,-9.205411 -3.939713 1.222774,-9.099415 -3.230953 1.449541,-8.997192 -2.627924 1.617467,-9.661801 -5.245492 1.131842,-9.665012 -4.352625 1.366091,-9.634158 -3.766048 1.551318,-9.582815 -3.217806 1.674647,0.460,DnF
-2.59274 -6.549377 0.8854831,-3.122416 -6.472648 1.489013,-3.580671 -6.180317 1.808231,-3.886448 -5.823688 2.058564,-4.166862 -5.555915 2.319529,-3.306185 -4.4922 1.61949,-3.530998 -3.584438 1.911204,-3.629922 -3.003305 2.161139,-3.69611 -2.447134 2.378743,-2.979991 -4.265064 1.502196,-3.103709 -3.206116 1.772605,-3.143706 -2.563606 2.019643,-3.165792 -1.995873 2.217134,-2.661429 -4.289289 1.438987,-2.673333 -3.30595 1.681045,-2.677763 -2.704725 1.950814,-2.688365 -2.170315 2.172903,-2.336048 -4.510179 1.420094,-2.222093 -3.78107 1.667305,-2.14709 -3.32162 1.876927,-2.106128 -2.884084 2.064544,-9.431639 -7.410129 0.4556948,-8.90221 -7.253749 0.7889925,-8.410572 -6.783808 1.066801,-8.053684 -6.334328 1.363086,-7.714743 -6.0653 1.663294,-8.679431 -5.170665 0.8589447,-8.490191 -4.168649 1.112971,-8.391403 -3.569005 1.332266,-8.320225 -3.040765 1.473802,-8.987122 -4.979617 0.9312874,-8.818447 -3.827469 1.178007,-8.699389 -3.081871 1.437835,-8.608252 -2.437546 1.625374,-9.306099 -5.017379 1.028539,-9.17759 -3.922185 1.277047,-9.070615 -3.211825 1.513665,-8.970258 -2.605799 1.681338,-9.646035 -5.231748 1.158245,-9.644757 -4.329962 1.412075,-9.609696 -3.741271 1.609404,-9.558293 -3.193342 1.737435,0.480,DnF
-2.59274 -6.549377 0.8854831,-3.122416 -6.472648 1.489013,-3.580671 -6.180317 1.808231,-3.886448 -5.823688 2.058564,-4.166862 -5.555915 2.319529,-3.306185 -4.4922 1.61949,-3.530998 -3.584438 1.911204,-3.629922 -3.003305 2.161139,-3.69611 -2.447134 2.378743,-2.979991 -4.265064 1.502196,-3.103709 -3.206116 1.772605,-3.143706 -2.563606 2.019643,-3.165792 -1.995873 2.217134,-2.661429 -4.289289 1.438987,-2.673333 -3.30595 1.681045,-2.677763 -2.704725 1.950814,-2.688365 -2.170315 2.172903,-2.336048 -4.510179 1.420094,-2.222093 -3.78107 1.667305,-2.14709 -3.32162 1.876927,-2.106128 -2.884084 2.064544,-9.431639 -7.410129 0.4556948,-8.90221 -7.253749 0.7889925,-8.410572 -6.783808 1.066801,-8.053684 -6.334328 1.363086,-7.714743 -6.0653 1.663294,-8.679431 -5.170665 0.8589447,-8.490191 -4.168649 1.112971,-8.391403 -3.569005 1.332266,-8.320225 -3.040765 1.473802,-8.987122 -4.979617 0.9312874,-8.818447 -3.827469 1.178007,-8.699389 -3.081871 1.437835,-8.608252 -2.437546 1.625374,-9.306099 -5.017379 1.028539,-9.17759 -3.922185 1.277047,-9.070615 -3.211825 1.513665,-8.970258 -2.605799 1.681338,-9.646035 -5.231748 1.158245,-9.644757 -4.329962 1.412075,-9.609696 -3.741271 1.609404,-9.558293 -3.193342 1.737435,0.500,DnF
-2.59274 -6.549377 0.8854831,-3.122416 -6.472648 1.489013,-3.580671 -6.180317 1.808231,-3.886448 -5.823688 2.058564,-4.166862 -5.555915 2.319529,-3.306185 -4.4922 1.61949,-3.530998 -3.584438 1.911204,-3.629922 -3.003305 2.161139,-3.69611 -2.447134 2.378743,-2.979991 -4.265064 1.502196,-3.103709 -3.206116 1.772605,-3.143706 -2.563606 2.019643,-3.165792 -1.995873 2.217134,-2.661429 -4.289289 1.438987,-2.673333 -3.30595 1.681045,-2.677763 -2.704725 1.950814,-2.688365 -2.170315 2.172903,-2.336048 -4.510179 1.420094,-2.222093 -3.78107 1.667305,-2.14709 -3.32162 1.876927,-2.106128 -2.884084 2.064544,-9.431639 -7.410129 0.4556948,-8.90221 -7.253749 0.7889925,-8.410572 -6.783808 1.066801,-8.053684 -6.334328 1.363086,-7.714743 -6.0653 1.663294,-8.679431 -5.170665 0.8589447,-8.490191 -4.168649 1.112971,-8.391403 -3.569005 1.332266,-8.320225 -3.040765 1.473802,-8.987122 -4.979617 0.9312874,-8.818447 -3.827469 1.178007,-8.699389 -3.081871 1.437835,-8.608252 -2.437546 1.625374,-9.306099 -5.017379 1.028539,-9.17759 -3.922185 1.277047,-9.070615 -3.211825 1.513665,-8.970258 -2.605799 1.681338,-9.646035 -5.231748 1.158245,-9.644757 -4.329962 1.412075,-9.609696 -3.741271 1.609404,-9.558293 -3.193342 1.737435,0.520,DnF
-2.537477 -6.704828 0.8773247,-3.053629 -6.616598 1.446507,-3.499297 -6.282796 1.740185,-3.79625 -5.909347 1.967593,-4.082438 -5.651716 2.20539,-3.219812 -4.631132 1.587663,-3.43362 -3.7138 1.868043,-3.529896 -3.12355 2.10956,-3.588965 -2.562877 2.32403,-2.897145 -4.416151 1.485358,-3.008829 -3.34795 1.761017,-3.039075 -2.69514 2.009735,-3.050556 -2.125452 2.202459,-2.583716 -4.446531 1.434116,-2.58655 -3.456185 1.681958,-2.580211 -2.842759 1.951394,-2.580936 -2.3016 2.168488,-2.264872 -4.667333 1.41986,-2.143099 -3.918763 1.662974,-2.064627 -3.458646 1.865679,-2.019485 -3.025136 2.045459,-9.436741 -7.404764 0.4267729,-8.885854 -7.252344 0.7331797,-8.384145 -6.767145 0.9853775,-8.023497 -6.312971 1.265029,-7.682719 -6.037792 1.553067,-8.6588 -5.172479 0.7700453,-8.461695 -4.181598 1.018882,-8.35393 -3.578495 1.239747,-8.274339 -3.048984 1.382771,-8.962139 -4.979442 0.8535433,-8.787829 -3.833856 1.082415,-8.663818 -3.090295 1.34187,-8.568505 -2.449231 1.529313,-9.277653 -5.011394 0.9645225,-9.143714 -3.923859 1.201038,-9.030968 -3.214924 1.43921,-8.926375 -2.61324 1.604537,-9.614111 -5.217319 1.108205,-9.615614 -4.314819 1.357226,-9.58042 -3.725718 1.557761,-9.531231 -3.177068 1.686232,0.540,DnF
-2.537477 -6.704828 0.8773247,-3.053629 -6.616598 1.446507,-3.499297 -6.282796 1.740185,-3.79625 -5.909347 1.967593,-4.082438 -5.651716 2.20539,-3.219812 -4.631132 1.587663,-3.43362 -3.7138 1.868043,-3.529896 -3.12355 2.10956,-3.588965 -2.562877 2.32403,-2.897145 -4.416151 1.485358,-3.008829 -3.34795 1.761017,-3.039075 -2.69514 2.009735,-3.050556 -2.125452 2.202459,-2.583716 -4.446531 1.434116,-2.58655 -3.456185 1.681958,-2.580211 -2.842759 1.951394,-2.580936 -2.3016 2.168488,-2.264872 -4.667333 1.41986,-2.143099 -3.918763 1.662974,-2.064627 -3.458646 1.865679,-2.019485 -3.025136 2.045459,-9.436741 -7.404764 0.4267729,-8.885854 -7.252344 0.7331797,-8.384145 -6.767145 0.9853775,-8.023497 -6.312971 1.265029,-7.682719 -6.037792 1.553067,-8.6588 -5.172479 0.7700453,-8.461695 -4.181598 1.018882,-8.35393 -3.578495 1.239747,-8.274339 -3.048984 1.382771,-8.962139 -4.979442 0.8535433,-8.787829 -3.833856 1.082415,-8.663818 -3.090295 1.34187,-8.568505 -2.449231 1.529313,-9.277653 -5.011394 0.9645225,-9.143714 -3.923859 1.201038,-9.030968 -3.214924 1.43921,-8.926375 -2.61324 1.604537,-9.614111 -5.217319 1.108205,-9.615614 -4.314819 1.357226,-9.58042 -3.725718 1.557761,-9.531231 -3.177068 1.686232,0.560,DnF
-2.537477 -6.704828 0.8773247,-3.053629 -6.616598 1.446507,-3.499297 -6.282796 1.740185,-3.79625 -5.909347 1.967593,-4.082438 -5.651716 2.20539,-3.219812 -4.631132 1.587663,-3.43362 -3.7138 1.868043,-3.529896 -3.12355 2.10956,-3.588965 -2.562877 2.32403,-2.897145 -4.416151 1.485358,-3.008829 -3.34795 1.761017,-3.039075 -2.69514 2.009735,-3.050556 -2.125452 2.202459,-2.583716 -4.446531 1.434116,-2.58655 -3.456185 1.681958,-2.580211 -2.842759 1.951394,-2.580936 -2.3016 2.168488,-2.264872 -4.667333 1.41986,-2.143099 -3.918763 1.662974,-2.064627 -3.458646 1.865679,-2.019485 -3.025136 2.045459,-9.436741 -7.404764 0.4267729,-8.885854 -7.252344 0.7331797,-8.384145 -6.767145 0.9853775,-8.023497 -6.312971 1.265029,-7.682719 -6.037792 1.553067,-8.6588 -5.172479 0.7700453,-8.461695 -4.181598 1.018882,-8.35393 -3.578495 1.239747,-8.274339 -3.048984 1.382771,-8.962139 -4.979442 0.8535433,-8.787829 -3.833856 1.082415,-8.663818 -3.090295 1.34187,-8.568505 -2.449231 1.529313,-9.277653 -5.011394 0.9645225,-9.143714 -3.923859 1.201038,-9.030968 -3.214924 1.43921,-8.926375 -2.61324 1.604537,-9.614111 -5.217319 1.108205,-9.615614 -4.314819 1.357226,-9.58042 -3.725718 1.557761,-9.531231 -3.177068 1.686232,0.580,DnF
-2.478214 -6.845142 0.9267908,-2.99101 -6.733122 1.480621,-3.426237 -6.385629 1.76559,-3.713681 -5.992064 1.991961,-3.985476 -5.725347 2.225846,-3.149063 -4.73286 1.556617,-3.350122 -3.806322 1.820992,-3.437521 -3.219079 2.057745,-3.486473 -2.668629 2.270603,-2.827769 -4.523006 1.465844,-2.918204 -3.447816 1.722369,-2.939012 -2.795523 1.968786,-2.941961 -2.229105 2.159203,-2.518764 -4.560863 1.429353,-2.503589 -3.574594 1.667014,-2.489162 -2.971844 1.926498,-2.480818 -2.439661 2.132429,-2.204363 -4.791156 1.432819,-2.067799 -4.050226 1.672185,-1.980276 -3.601514 1.867171,-1.927081 -3.178038 2.036561,-9.396516 -7.38917 0.4750618,-8.851767 -7.235878 0.8125584,-8.362697 -6.760668 1.090415,-8.011127 -6.290721 1.390577,-7.670233 -5.981431 1.69479,-8.633347 -5.15135 0.8508005,-8.43996 -4.149841 1.108063,-8.335077 -3.549056 1.335507,-8.255158 -3.026603 1.490147,-8.94392 -4.94786 0.9157977,-8.768511 -3.786981 1.153497,-8.644383 -3.045491 1.421785,-8.545449 -2.40301 1.623448,-9.263103 -4.971775 1.008665,-9.129555 -3.868644 1.239638,-9.021351 -3.156107 1.47292,-8.91715 -2.546432 1.643155,-9.604362 -5.172529 1.133666,-9.60026 -4.273363 1.360028,-9.559301 -3.693605 1.542266,-9.501448 -3.15058 1.657999,0.600,DnF
-2.478214 -6.845142 0.9267908,-2.99101 -6.733122 1.480621,-3.426237 -6.385629 1.76559,-3.713681 -5.992064 1.991961,-3.985476 -5.725347 2.225846,-3.149063 -4.73286 1.556617,-3.350122 -3.806322 1.820992,-3.437521 -3.219079 2.057745,-3.486473 -2.668629 2.270603,-2.827769 -4.523006 1.465844,-2.918204 -3.447816 1.722369,-2.939012 -2.795523 1.968786,-2.941961 -2.229105 2.159203,-2.518764 -4.560863 1.429353,-2.503589 -3.574594 1.667014,-2.489162 -2.971844 1.926498,-2.480818 -2.439661 2.132429,-2.204363 -4.791156 1.432819,-2.067799 -4.050226 1.672185,-1.980276 -3.601514 1.867171,-1.927081 -3.178038 2.036561,-9.396516 -7.38917 0.4750618,-8.851767 -7.235878 0.8125584,-8.362697 -6.760668 1.090415,-8.011127 -6.290721 1.390577,-7.670233 -5.981431 1.69479,-8.633347 -5.15135 0.8508005,-8.43996 -4.149841 1.108063,-8.335077 -3.549056 1.335507,-8.255158 -3.026603 1.490147,-8.94392 -4.94786 0.9157977,-8.768511 -3.786981 1.153497,-8.644383 -3.045491 1.421785,-8.545449 -2.40301 1.623448,-9.263103 -4.971775 1.008665,-9.129555 -3.868644 1.239638,-9.021351 -3.156107 1.47292,-8.91715 -2.546432 1.643155,-9.604362 -5.172529 1.133666,-9.60026 -4.273363 1.360028,-9.559301 -3.693605 1.542266,-9.501448 -3.15058 1.657999,0.620,DnF
-2.478214 -6.845142 0.9267908,-2.99101 -6.733122 1.480621,-3.426237 -6.385629 1.76559,-3.713681 -5.992064 1.991961,-3.985476 -5.725347 2.225846,-3.149063 -4.73286 1.556617,-3.350122 -3.806322 1.820992,-3.437521 -3.219079 2.057745,-3.486473 -2.668629 2.270603,-2.827769 -4.523006 1.465844,-2.918204 -3.447816 1.722369,-2.939012 -2.795523 1.968786,-2.941961 -2.229105 2.159203,-2.518764 -4.560863 1.429353,-2.503589 -3.574594 1.667014,-2.489162 -2.971844 1.926498,-2.480818 -2.439661 2.132429,-2.204363 -4.791156 1.432819,-2.067799 -4.050226 1.672185,-1.980276 -3.601514 1.867171,-1.927081 -3.178038 2.036561,-9.396516 -7.38917 0.4750618,-8.851767 -7.235878 0.8125584,-8.362697 -6.760668 1.090415,-8.011127 -6.290721 1.390577,-7.670233 -5.981431 1.69479,-8.633347 -5.15135 0.8508005,-8.43996 -4.149841 1.108063,-8.335077 -3.549056 1.335507,-8.255158 -3.026603 1.490147,-8.94392 -4.94786 0.9157977,-8.768511 -3.786981 1.153497,-8.644383 -3.045491 1.421785,-8.545449 -2.40301 1.623448,-9.263103 -4.971775 1.008665,-9.129555 -3.868644 1.239638,-9.021351 -3.156107 1.47292,-8.91715 -2.546432 1.643155,-9.604362 -5.172529 1.133666,-9.60026 -4.273363 1.360028,-9.559301 -3.693605 1.542266,-9.501448 -3.15058 1.657999,0.640,DnF
-2.478214 -6.845142 0.9267908,-2.99101 -6.733122 1.480621,-3.426237 -6.385629 1.76559,-3.713681 -5.992064 1.991961,-3.985476 -5.725347 2.225846,-3.149063 -4.73286 1.556617,-3.350122 -3.806322 1.820992,-3.437521 -3.219079 2.057745,-3.486473 -2.668629 2.270603,-2.827769 -4.523006 1.465844,-2.918204 -3.447816 1.722369,-2.939012 -2.795523 1.968786,-2.941961 -2.229105 2.159203,-2.518764 -4.560863 1.429353,-2.503589 -3.574594 1.667014,-2.489162 -2.971844 1.926498,-2.480818 -2.439661 2.132429,-2.204363 -4.791156 1.432819,-2.067799 -4.050226 1.672185,-1.980276 -3.601514 1.867171,-1.927081 -3.178038 2.036561,-9.396516 -7.38917 0.4750618,-8.851767 -7.235878 0.8125584,-8.362697 -6.760668 1.090415,-8.011127 -6.290721 1.390577,-7.670233 -5.981431 1.69479,-8.633347 -5.15135 0.8508005,-8.43996 -4.149841 1.108063,-8.335077 -3.549056 1.335507,-8.255158 -3.026603 1.490147,-8.94392 -4.94786 0.9157977,-8.768511 -3.786981 1.153497,-8.644383 -3.045491 1.421785,-8.545449 -2.40301 1.623448,-9.263103 -4.971775 1.008665,-9.129555 -3.868644 1.239638,-9.021351 -3.156107 1.47292,-8.91715 -2.546432 1.643155,-9.604362 -5.172529 1.133666,-9.60026 -4.273363 1.360028,-9.559301 -3.693605 1.542266,-9.501448 -3.15058 1.657999,0.660,DnF
-2.433759 -6.9979 0.9628029,-2.930374 -6.877592 1.515041,-3.352961 -6.518664 1.800035,-3.622662 -6.115531 2.023843,-3.884153 -5.843587 2.252182,-3.075983 -4.875139 1.610469,-3.270857 -3.937291 1.891209,-3.352102 -3.342978 2.136751,-3.389135 -2.780141 2.356957,-2.760972 -4.667157 1.524375,-2.842287 -3.571468 1.798364,-2.856701 -2.916011 2.051666,-2.848726 -2.347619 2.25198,-2.458594 -4.703411 1.491049,-2.434189 -3.70567 1.732066,-2.409166 -3.099499 1.997229,-2.386736 -2.561271 2.21093,-2.149766 -4.93238 1.495791,-2.003561 -4.190783 1.736121,-1.908601 -3.737863 1.932827,-1.843488 -3.312532 2.105416,-9.383703 -7.392787 0.5538861,-8.848837 -7.231168 0.8675115,-8.354253 -6.730972 1.125117,-8.00044 -6.268513 1.409813,-7.659787 -5.985248 1.705341,-8.616179 -5.123528 0.8993967,-8.423489 -4.128833 1.14939,-8.31772 -3.523571 1.37737,-8.238177 -2.989671 1.534721,-8.92634 -4.926647 0.9807169,-8.753438 -3.766887 1.210696,-8.626785 -3.016862 1.477782,-8.528264 -2.374403 1.675582,-9.24852 -4.95714 1.09099,-9.112953 -3.858744 1.324384,-8.996535 -3.148092 1.56193,-8.889021 -2.551064 1.73238,-9.59257 -5.168033 1.233901,-9.588147 -4.261922 1.476905,-9.545269 -3.67171 1.670334,-9.489524 -3.122438 1.794042,0.680,DnF
-2.433759 -6.9979 0.9628029,-2.930374 -6.877592 1.515041,-3.352961 -6.518664 1.800035,-3.622662 -6.115531 2.023843,-3.884153 -5.843587 2.252182,-3.075983 -4.875139 1.610469,-3.270857 -3.937291 1.891209,-3.352102 -3.342978 2.136751,-3.389135 -2.780141 2.356957,-2.760972 -4.667157 1.524375,-2.842287 -3.571468 1.798364,-2.856701 -2.916011 2.051666,-2.848726 -2.347619 2.25198,-2.458594 -4.703411 1.491049,-2.434189 -3.70567 1.732066,-2.409166 -3.099499 1.997229,-2.386736 -2.561271 2.21093,-2.149766 -4.93238 1.495791,-2.003561 -4.190783 1.736121,-1.908601 -3.737863 1.932827,-1.843488 -3.312532 2.105416,-9.383703 -7.392787 0.5538861,-8.848837 -7.231168 0.8675115,-8.354253 -6.730972 1.125117,-8.00044 -6.268513 1.409813,-7.659787 -5.985248 1.705341,-8.616179 -5.123528 0.8993967,-8.423489 -4.128833 1.14939,-8.31772 -3.523571 1.37737,-8.238177 -2.989671 1.534721,-8.92634 -4.926647 0.9807169,-8.753438 -3.766887 1.210696,-8.626785 -3.016862 1.477782,-8.528264 -2.374403 1.675582,-9.24852 -4.95714 1.09099,-9.112953 -3.858744 1.324384,-8.996535 -3.148092 1.56193,-8.889021 -2.551064 1.73238,-9.59257 -5.168033 1.233901,-9.588147 -4.261922 1.476905,-9.545269 -3.67171 1.670334,-9.489524 -3.122438 1.794042,0.700,DnF
-2.433759 -6.9979 0.9628029,-2.930374 -6.877592 1.515041,-3.352961 -6.518664 1.800035,-3.622662 -6.115531 2.023843,-3.884153 -5.843587 2.252182,-3.075983 -4.875139 1.610469,-3.270857 -3.937291 1.891209,-3.352102 -3.342978 2.136751,-3.389135 -2.780141 2.356957,-2.760972 -4.667157 1.524375,-2.842287 -3.571468 1.798364,-2.856701 -2.916011 2.051666,-2.848726 -2.347619 2.25198,-2.458594 -4.703411 1.491049,-2.434189 -3.70567 1.732066,-2.409166 -3.099499 1.997229,-2.386736 -2.561271 2.21093,-2.149766 -4.93238 1.495791,-2.003561 -4.190783 1.736121,-1.908601 -3.737863 1.932827,-1.843488 -3.312532 2.105416,-9.383703 -7.392787 0.5538861,-8.848837 -7.231168 0.8675115,-8.354253 -6.730972 1.125117,-8.00044 -6.268513 1.409813,-7.659787 -5.985248 1.705341,-8.616179 -5.123528 0.8993967,-8.423489 -4.128833 1.14939,-8.31772 -3.523571 1.37737,-8.238177 -2.989671 1.534721,-8.92634 -4.926647 0.9807169,-8.753438 -3.766887 1.210696,-8.626785 -3.016862 1.477782,-8.528264 -2.374403 1.675582,-9.24852 -4.95714 1.09099,-9.112953 -3.858744 1.324384,-8.996535 -3.148092 1.56193,-8.889021 -2.551064 1.73238,-9.59257 -5.168033 1.233901,-9.588147 -4.261922 1.476905,-9.545269 -3.67171 1.670334,-9.489524 -3.122438 1.794042,0.720,DnF
-2.378726 -7.125051 1.066967,-2.863552 -6.965286 1.611539,-3.282042 -6.591774 1.906858,-3.548767 -6.186426 2.139683,-3.80983 -5.922596 2.381351,-3.004412 -4.975479 1.759483,-3.191165 -4.051045 2.054029,-3.265615 -3.467081 2.29958,-3.299643 -2.906638 2.51485,-2.688061 -4.773478 1.678429,-2.757711 -3.685274 1.968905,-2.762108 -3.039305 2.222752,-2.743162 -2.478692 2.419722,-2.386751 -4.811588 1.64566,-2.355265 -3.822334 1.902317,-2.322624 -3.226136 2.165921,-2.290706 -2.701978 2.376079,-2.077791 -5.043046 1.650233,-1.92391 -4.309291 1.892601,-1.816501 -3.866098 2.085563,-1.7364 -3.454324 2.255962,-9.378918 -7.37302 0.5834359,-8.837402 -7.192529 0.9169341,-8.342402 -6.708416 1.194671,-7.987247 -6.252479 1.497337,-7.647007 -5.968482 1.813467,-8.60482 -5.104122 0.960537,-8.410666 -4.098213 1.225322,-8.307228 -3.492063 1.464684,-8.226735 -2.954714 1.628308,-8.91679 -4.903402 1.034714,-8.740584 -3.747777 1.282858,-8.61591 -3.004119 1.560474,-8.515474 -2.354519 1.765103,-9.238612 -4.931356 1.138484,-9.10318 -3.834585 1.379524,-8.990599 -3.126731 1.621409,-8.882074 -2.522813 1.795757,-9.583034 -5.140195 1.275744,-9.580529 -4.243913 1.519594,-9.537164 -3.653453 1.715357,-9.477078 -3.097262 1.844686,0.740,DnF
-2.378726 -7.125051 1.066967,-2.863552 -6.965286 1.611539,-3.282042 -6.591774 1.906858,-3.548767 -6.186426 2.139683,-3.80983 -5.922596 2.381351,-3.004412 -4.975479 1.759483,-3.191165 -4.051045 2.054029,-3.265615 -3.467081 2.29958,-3.299643 -2.906638 2.51485,-2.688061 -4.773478 1.678429,-2.757711 -3.685274 1.968905,-2.762108 -3.039305 2.222752,-2.743162 -2.478692 2.419722,-2.386751 -4.811588 1.64566,-2.355265 -3.822334 1.902317,-2.322624 -3.226136 2.165921,-2.290706 -2.701978 2.376079,-2.077791 -5.043046 1.650233,-1.92391 -4.309291 1.892601,-1.816501 -3.866098 2.085563,-1.7364 -3.454324 2.255962,-9.378918 -7.37302 0.5834359,-8.837402 -7.192529 0.9169341,-8.342402 -6.708416 1.194671,-7.987247 -6.252479 1.497337,-7.647007 -5.968482 1.813467,-8.60482 -5.104122 0.960537,-8.410666 -4.098213 1.225322,-8.307228 -3.492063 1.464684,-8.226735 -2.954714 1.628308,-8.91679 -4.903402 1.034714,-8.740584 -3.747777 1.282858,-8.61591 -3.004119 1.560474,-8.515474 -2.354519 1.765103,-9.238612 -4.931356 1.138484,-9.10318 -3.834585 1.379524,-8.990599 -3.126731 1.621409,-8.882074 -2.522813 1.795757,-9.583034 -5.140195 1.275744,-9.580529 -4.243913 1.519594,-9.537164 -3.653453 1.715357,-9.477078 -3.097262 1.844686,0.760,DnF
-2.378726 -7.125051 1.066967,-2.863552 -6.965286 1.611539,-3.282042 -6.591774 1.906858,-3.548767 -6.186426 2.139683,-3.80983 -5.922596 2.381351,-3.004412 -4.975479 1.759483,-3.191165 -4.051045 2.054029,-3.265615 -3.467081 2.29958,-3.299643 -2.906638 2.51485,-2.688061 -4.773478 1.678429,-2.757711 -3.685274 1.968905,-2.762108 -3.039305 2.222752,-2.743162 -2.478692 2.419722,-2.386751 -4.811588 1.64566,-2.355265 -3.822334 1.902317,-2.322624 -3.226136 2.165921,-2.290706 -2.701978 2.376079,-2.077791 -5.043046 1.650233,-1.92391 -4.309291 1.892601,-1.816501 -3.866098 2.085563,-1.7364 -3.454324 2.255962,-9.378918 -7.37302 0.5834359,-8.837402 -7.192529 0.9169341,-8.342402 -6.708416 1.194671,-7.987247 -6.252479 1.497337,-7.647007 -5.968482 1.813467,-8.60482 -5.104122 0.960537,-8.410666 -4.098213 1.225322,-8.307228 -3.492063 1.464684,-8.226735 -2.954714 1.628308,-8.91679 -4.903402 1.034714,-8.740584 -3.747777 1.282858,-8.61591 -3.004119 1.560474,-8.515474 -2.354519 1.765103,-9.238612 -4.931356 1.138484,-9.10318 -3.834585 1.379524,-8.990599 -3.126731 1.621409,-8.882074 -2.522813 1.795757,-9.583034 -5.140195 1.275744,-9.580529 -4.243913 1.519594,-9.537164 -3.653453 1.715357,-9.477078 -3.097262 1.844686,0.780,DnF
-2.313104 -7.22293 1.137457,-2.786738 -7.075727 1.737329,-3.197049 -6.713821 2.06246,-3.441247 -6.318496 2.314135,-3.686735 -6.044094 2.573622,-2.921917 -5.063767 1.903759,-3.092889 -4.138027 2.216923,-3.153139 -3.557944 2.477222,-3.173898 -2.993029 2.702807,-2.603222 -4.863122 1.805139,-2.655734 -3.780475 2.108977,-2.650239 -3.149817 2.370291,-2.616442 -2.586581 2.571533,-2.305543 -4.908271 1.75553,-2.261491 -3.929414 2.027865,-2.221636 -3.349431 2.308808,-2.177166 -2.83176 2.530677,-1.999119 -5.145853 1.749809,-1.83722 -4.432083 2.005645,-1.723027 -3.999486 2.211143,-1.633116 -3.593468 2.39203,-9.40207 -7.351352 0.5396762,-8.849533 -7.188556 0.8599694,-8.34534 -6.69703 1.122054,-7.978121 -6.23611 1.41056,-7.632402 -5.954595 1.710737,-8.605285 -5.102548 0.9000977,-8.404287 -4.096536 1.154254,-8.297302 -3.485517 1.38131,-8.217691 -2.950509 1.533215,-8.917935 -4.896059 0.9752066,-8.737307 -3.724725 1.210055,-8.608219 -2.972517 1.476669,-8.506312 -2.320696 1.674119,-9.240855 -4.919307 1.077388,-9.099972 -3.807714 1.312002,-8.984243 -3.091509 1.5463,-8.877163 -2.47996 1.714993,-9.586649 -5.122274 1.212291,-9.582793 -4.214775 1.449359,-9.539884 -3.625262 1.641862,-9.483467 -3.069111 1.766518,0.800,DnF
-2.313104 -7.22293 1.137457,-2.786738 -7.075727 1.737329,-3.197049 -6.713821 2.06246,-3.441247 -6.318496 2.314135,-3.686735 -6.044094 2.573622,-2.921917 -5.063767 1.903759,-3.092889 -4.138027 2.216923,-3.153139 -3.557944 2.477222,-3.173898 -2.993029 2.702807,-2.603222 -4.863122 1.805139,-2.655734 -3.780475 2.108977,-2.650239 -3.149817 2.370291,-2.616442 -2.586581 2.571533,-2.305543 -4.908271 1.75553,-2.261491 -3.929414 2.027865,-2.221636 -3.349431 2.308808,-2.177166 -2.83176 2.530677,-1.999119 -5.145853 1.749809,-1.83722 -4.432083 2.005645,-1.723027 -3.999486 2.211143,-1.633116 -3.593468 2.39203,-9.40207 -7.351352 0.5396762,-8.849533 -7.188556 0.8599694,-8.34534 -6.69703 1.122054,-7.978121 -6.23611 1.41056,-7.632402 -5.954595 1.710737,-8.605285 -5.102548 0.9000977,-8.404287 -4.096536 1.154254,-8.297302 -3.485517 1.38131,-8.217691 -2.950509 1.533215,-8.917935 -4.896059 0.9752066,-8.737307 -3.724725 1.210055,-8.608219 -2.972517 1.476669,-8.506312 -2.320696 1.674119,-9.240855 -4.919307 1.077388,-9.099972 -3.807714 1.312002,-8.984243 -3.091509 1.5463,-8.877163 -2.47996 1.714993,-9.586649 -5.122274 1.212291,-9.582793 -4.214775 1.449359,-9.539884 -3.625262 1.641862,-9.483467 -3.069111 1.766518,0.820,DnF
-2.313104 -7.22293 1.137457,-2.786738 -7.075727 1.737329,-3.197049 -6.713821 2.06246,-3.441247 -6.318496 2.314135,-3.686735 -6.044094 2.573622,-2.921917 -5.063767 1.903759,-3.092889 -4.138027 2.216923,-3.153139 -3.557944 2.477222,-3.173898 -2.993029 2.702807,-2.603222 -4.863122 1.805139,-2.655734 -3.780475 2.108977,-2.650239 -3.149817 2.370291,-2.616442 -2.586581 2.571533,-2.305543 -4.908271 1.75553,-2.261491 -3.929414 2.027865,-2.221636 -3.349431 2.308808,-2.177166 -2.83176 2.530677,-1.999119 -5.145853 1.749809,-1.83722 -4.432083 2.005645,-1.723027 -3.999486 2.211143,-1.633116 -3.593468 2.39203,-9.40207 -7.351352 0.5396762,-8.849533 -7.188556 0.8599694,-8.34534 -6.69703 1.122054,-7.978121 -6.23611 1.41056,-7.632402 -5.954595 1.710737,-8.605285 -5.102548 0.9000977,-8.404287 -4.096536 1.154254,-8.297302 -3.485517 1.38131,-8.217691 -2.950509 1.533215,-8.917935 -4.896059 0.9752066,-8.737307 -3.724725 1.210055,-8.608219 -2.972517 1.476669,-8.506312 -2.320696 1.674119,-9.240855 -4.919307 1.077388,-9.099972 -3.807714 1.312002,-8.984243 -3.091509 1.5463,-8.877163 -2.47996 1.714993,-9.586649 -5.122274 1.212291,-9.582793 -4.214775 1.449359,-9.539884 -3.625262 1.641862,-9.483467 -3.069111 1.766518,0.840,DnF
-2.230281 -7.313922 1.144269,-2.69211 -7.193449 1.799104,-3.080359 -6.847414 2.159076,-3.298746 -6.451416 2.437406,-3.526511 -6.16625 2.711836,-2.820181 -5.161926 1.97342,-2.978715 -4.248026 2.280618,-3.018125 -3.693904 2.531569,-3.022111 -3.154765 2.75478,-2.493248 -4.959506 1.848494,-2.541842 -3.896755 2.146308,-2.525709 -3.286646 2.400373,-2.488923 -2.731557 2.602078,-2.192924 -5.017015 1.777611,-2.138451 -4.044418 2.047346,-2.082394 -3.482705 2.326335,-2.027016 -2.972747 2.554364,-1.888535 -5.274808 1.754722,-1.728253 -4.563594 2.009518,-1.606556 -4.139411 2.221225,-1.512133 -3.737163 2.406799,-9.404997 -7.394662 0.7024478,-8.848166 -7.224364 1.030498,-8.344307 -6.709135 1.301657,-7.981381 -6.243885 1.602453,-7.631426 -5.958078 1.914521,-8.599283 -5.105569 1.077513,-8.408857 -4.107829 1.336009,-8.301027 -3.50314 1.565904,-8.212357 -2.973171 1.717924,-8.915711 -4.895111 1.153894,-8.741161 -3.724197 1.394892,-8.611581 -2.976438 1.667951,-8.506348 -2.322465 1.872916,-9.244883 -4.91893 1.259069,-9.102289 -3.807125 1.495693,-8.986626 -3.086963 1.728487,-8.877345 -2.468713 1.895206,-9.60169 -5.131208 1.393233,-9.593142 -4.218384 1.629796,-9.547415 -3.6337 1.81326,-9.490684 -3.08754 1.931576,0.860,DnF
-2.230281 -7.313922 1.144269,-2.69211 -7.193449 1.799104,-3.080359 -6.847414 2.159076,-3.298746 -6.451416 2.437406,-3.526511 -6.16625 2.711836,-2.820181 -5.161926 1.97342,-2.978715 -4.248026 2.280618,-3.018125 -3.693904 2.531569,-3.022111 -3.154765 2.75478,-2.493248 -4.959506 1.848494,-2.541842 -3.896755 2.146308,-2.525709 -3.286646 2.400373,-2.488923 -2.731557 2.602078,-2.192924 -5.017015 1.777611,-2.138451 -4.044418 2.047346,-2.082394 -3.482705 2.326335,-2.027016 -2.972747 2.554364,-1.888535 -5.274808 1.754722,-1.728253 -4.563594 2.009518,-1.606556 -4.139411 2.221225,-1.512133 -3.737163 2.406799,-9.404997 -7.394662 0.7024478,-8.848166 -7.224364 1.030498,-8.344307 -6.709135 1.301657,-7.981381 -6.243885 1.602453,-7.631426 -5.958078 1.914521,-8.599283 -5.105569 1.077513,-8.408857 -4.107829 1.336009,-8.301027 -3.50314 1.565904,-8.212357 -2.973171 1.717924,-8.915711 -4.895111 1.153894,-8.741161 -3.724197 1.394892,-8.611581 -2.976438 1.667951,-8.506348 -2.322465 1.872916,-9.244883 -4.91893 1.259069,-9.102289 -3.807125 1.495693,-8.986626 -3.086963 1.728487,-8.877345 -2.468713 1.895206,-9.60169 -5.131208 1.393233,-9.593142 -4.218384 1.629796,-9.547415 -3.6337 1.81326,-9.490684 -3.08754 1.931576,0.880,DnF
-2.230281 -7.313922 1.144269,-2.69211 -7.193449 1.799104,-3.080359 -6.847414 2.159076,-3.298746 -6.451416 2.437406,-3.526511 -6.16625 2.711836,-2.820181 -5.161926 1.97342,-2.978715 -4.248026 2.280618,-3.018125 -3.693904 2.531569,-3.022111 -3.154765 2.75478,-2.493248 -4.959506 1.848494,-2.541842 -3.896755 2.146308,-2.525709 -3.286646 2.400373,-2.488923 -2.731557 2.602078,-2.192924 -5.017015 1.777611,-2.138451 -4.044418 2.047346,-2.082394 -3.482705 2.326335,-2.027016 -2.972747 2.554364,-1.888535 -5.274808 1.754722,-1.728253 -4.563594 2.009518,-1.606556 -4.139411 2.221225,-1.512133 -3.737163 2.406799,-9.404997 -7.394662 0.7024478,-8.848166 -7.224364 1.030498,-8.344307 -6.709135 1.301657,-7.981381 -6.243885 1.602453,-7.631426 -5.958078 1.914521,-8.599283 -5.105569 1.077513,-8.408857 -4.107829 1.336009,-8.301027 -3.50314 1.565904,-8.212357 -2.973171 1.717924,-8.915711 -4.895111 1.153894,-8.741161 -3.724197 1.394892,-8.611581 -2.976438 1.667951,-8.506348 -2.322465 1.872916,-9.244883 -4.91893 1.259069,-9.102289 -3.807125 1.495693,-8.986626 -3.086963 1.728487,-8.877345 -2.468713 1.895206,-9.60169 -5.131208 1.393233,-9.593142 -4.218384 1.629796,-9.547415 -3.6337 1.81326,-9.490684 -3.08754 1.931576,0.900,DnF
-2.129406 -7.422156 1.54874,-2.565434 -7.348353 2.285946,-2.92486 -7.030181 2.707554,-3.298746 -6.451416 2.84207,-3.526511 -6.16625 3.116501,-2.820181 -5.161926 2.378084,-2.978715 -4.248026 2.685282,-3.018125 -3.693904 2.936234,-3.022111 -3.154765 3.159445,-2.493248 -4.959506 2.253159,-2.541842 -3.896755 2.550973,-2.525709 -3.286646 2.805038,-2.488923 -2.731557 3.006743,-2.192924 -5.017015 2.182275,-2.138451 -4.044418 2.45201,-2.082394 -3.482705 2.731,-2.027016 -2.972747 2.959028,-1.888535 -5.274808 2.159387,-1.728253 -4.563594 2.414183,-1.606556 -4.139411 2.625889,-1.512133 -3.737163 2.811464,-9.404997 -7.394662 0.7024478,-8.848166 -7.224364 1.030498,-8.344307 -6.709135 1.301657,-7.981381 -6.243885 1.602453,-7.631426 -5.958078 1.914521,-8.599283 -5.105569 1.077513,-8.408857 -4.107829 1.336009,-8.301027 -3.50314 1.565904,-8.212357 -2.973171 1.717924,-8.915711 -4.895111 1.153894,-8.741161 -3.724197 1.394892,-8.611581 -2.976438 1.667951,-8.506348 -2.322465 1.872916,-9.244883 -4.91893 1.259069,-9.102289 -3.807125 1.495693,-8.986626 -3.086963 1.728487,-8.877345 -2.468713 1.895206,-9.60169 -5.131208 1.393233,-9.593142 -4.218384 1.629796,-9.547415 -3.6337 1.81326,-9.490684 -3.08754 1.931576,0.920,DnF
-2.129406 -7.422156 1.122879,-2.565434 -7.348353 1.860085,-2.92486 -7.030181 2.281693,-3.113705 -6.64726 2.616029,-3.304697 -6.332424 2.938763,-2.688655 -5.296461 2.061376,-2.832762 -4.386556 2.392936,-2.847457 -3.845068 2.654446,-2.8273 -3.329541 2.871134,-2.355726 -5.093466 1.900341,-2.39324 -4.049633 2.218637,-2.353863 -3.451773 2.476589,-2.2978 -2.905674 2.679341,-2.061206 -5.158805 1.788046,-1.995959 -4.206739 2.072777,-1.926598 -3.667165 2.348729,-1.855397 -3.180007 2.570553,-1.768927 -5.423004 1.737406,-1.594693 -4.733371 1.999084,-1.459641 -4.323511 2.222114,-1.346289 -3.943198 2.41176,-9.412454 -7.415431 0.7193858,-8.866297 -7.236457 1.039138,-8.357892 -6.719103 1.298584,-7.993336 -6.247989 1.588732,-7.640475 -5.980831 1.891443,-8.606806 -5.125314 1.106842,-8.416627 -4.117404 1.352518,-8.307724 -3.509011 1.567302,-8.221044 -2.975833 1.710315,-8.920602 -4.913441 1.181914,-8.749201 -3.7294 1.416971,-8.618886 -2.977389 1.681613,-8.517167 -2.324489 1.878218,-9.244514 -4.932434 1.281332,-9.108486 -3.817968 1.515862,-8.994106 -3.100785 1.742965,-8.887164 -2.487522 1.90432,-9.592588 -5.135484 1.410623,-9.591434 -4.228774 1.648462,-9.548717 -3.650036 1.831436,-9.492664 -3.108137 1.945283,0.940,DnF
-2.129406 -7.422156 1.122879,-2.565434 -7.348353 1.860085,-2.92486 -7.030181 2.281693,-3.113705 -6.64726 2.616029,-3.304697 -6.332424 2.938763,-2.688655 -5.296461 2.061376,-2.832762 -4.386556 2.392936,-2.847457 -3.845068 2.654446,-2.8273 -3.329541 2.871134,-2.355726 -5.093466 1.900341,-2.39324 -4.049633 2.218637,-2.353863 -3.451773 2.476589,-2.2978 -2.905674 2.679341,-2.061206 -5.158805 1.788046,-1.995959 -4.206739 2.072777,-1.926598 -3.667165 2.348729,-1.855397 -3.180007 2.570553,-1.768927 -5.423004 1.737406,-1.594693 -4.733371 1.999084,-1.459641 -4.323511 2.222114,-1.346289 -3.943198 2.41176,-9.412454 -7.415431 0.7193858,-8.866297 -7.236457 1.039138,-8.357892 -6.719103 1.298584,-7.993336 -6.247989 1.588732,-7.640475 -5.980831 1.891443,-8.606806 -5.125314 1.106842,-8.416627 -4.117404 1.352518,-8.307724 -3.509011 1.567302,-8.221044 -2.975833 1.710315,-8.920602 -4.913441 1.181914,-8.749201 -3.7294 1.416971,-8.618886 -2.977389 1.681613,-8.517167 -2.324489 1.878218,-9.244514 -4.932434 1.281332,-9.108486 -3.817968 1.515862,-8.994106 -3.100785 1.742965,-8.887164 -2.487522 1.90432,-9.592588 -5.135484 1.410623,-9.591434 -4.228774 1.648462,-9.548717 -3.650036 1.831436,-9.492664 -3.108137 1.945283,0.960,DnF
-2.129406 -7.422156 1.122879,-2.565434 -7.348353 1.860085,-2.92486 -7.030181 2.281693,-3.113705 -6.64726 2.616029,-3.304697 -6.332424 2.938763,-2.688655 -5.296461 2.061376,-2.832762 -4.386556 2.392936,-2.847457 -3.845068 2.654446,-2.8273 -3.329541 2.871134,-2.355726 -5.093466 1.900341,-2.39324 -4.049633 2.218637,-2.353863 -3.451773 2.476589,-2.2978 -2.905674 2.679341,-2.061206 -5.158805 1.788046,-1.995959 -4.206739 2.072777,-1.926598 -3.667165 2.348729,-1.855397 -3.180007 2.570553,-1.768927 -5.423004 1.737406,-1.594693 -4.733371 1.999084,-1.459641 -4.323511 2.222114,-1.346289 -3.943198 2.41176,-9.412454 -7.415431 0.7193858,-8.866297 -7.236457 1.039138,-8.357892 -6.719103 1.298584,-7.993336 -6.247989 1.588732,-7.640475 -5.980831 1.891443,-8.606806 -5.125314 1.106842,-8.416627 -4.117404 1.352518,-8.307724 -3.509011 1.567302,-8.221044 -2.975833 1.710315,-8.920602 -4.913441 1.181914,-8.749201 -3.7294 1.416971,-8.618886 -2.977389 1.681613,-8.517167 -2.324489 1.878218,-9.244514 -4.932434 1.281332,-9.108486 -3.817968 1.515862,-8.994106 -3.100785 1.742965,-8.887164 -2.487522 1.90432,-9.592588 -5.135484 1.410623,-9.591434 -4.228774 1.648462,-9.548717 -3.650036 1.831436,-9.492664 -3.108137 1.945283,0.980,DnF
-1.947662 -7.699493 1.194674,-2.327692 -7.660774 1.882781,-2.637647 -7.273247 2.283655,-2.793013 -6.89558 2.60969,-2.913722 -6.622103 2.91374,-2.412835 -5.519342 2.094133,-2.503028 -4.605489 2.400381,-2.469509 -4.117873 2.654312,-2.396667 -3.68204 2.846627,-2.087657 -5.332136 1.940451,-2.070695 -4.288076 2.213287,-1.996812 -3.763088 2.424518,-1.903398 -3.298088 2.598122,-1.798031 -5.428236 1.827711,-1.704416 -4.463626 2.088327,-1.604559 -3.966303 2.274662,-1.491346 -3.541666 2.437288,-1.519621 -5.756441 1.773789,-1.321083 -5.056972 2.026455,-1.155879 -4.64948 2.231301,-0.9929276 -4.283518 2.420055,-9.421655 -7.469472 0.8088067,-8.867718 -7.290723 1.121978,-8.358918 -6.773818 1.377617,-7.997619 -6.300172 1.664159,-7.652527 -6.025246 1.959147,-8.614744 -5.151123 1.178973,-8.421832 -4.143796 1.423839,-8.308544 -3.526523 1.639042,-8.220187 -2.989836 1.781122,-8.92352 -4.938692 1.251427,-8.74925 -3.767107 1.476767,-8.616205 -3.016517 1.736726,-8.5144 -2.362909 1.934312,-9.248206 -4.956054 1.351705,-9.108453 -3.856376 1.569211,-8.989899 -3.145348 1.786048,-8.880513 -2.541676 1.942902,-9.59787 -5.157159 1.480997,-9.599323 -4.253299 1.705633,-9.554826 -3.671609 1.887142,-9.49677 -3.127353 2.005453,1.000,DnF
-1.947662 -7.699493 1.194674,-2.327692 -7.660774 1.882781,-2.637647 -7.273247 2.283655,-2.793013 -6.89558 2.60969,-2.913722 -6.622103 2.91374,-2.412835 -5.519342 2.094133,-2.503028 -4.605489 2.400381,-2.469509 -4.117873 2.654312,-2.396667 -3.68204 2.846627,-2.087657 -5.332136 1.940451,-2.070695 -4.288076 2.213287,-1.996812 -3.763088 2.424518,-1.903398 -3.298088 2.598122,-1.798031 -5.428236 1.827711,-1.704416 -4.463626 2.088327,-1.604559 -3.966303 2.274662,-1.491346 -3.541666 2.437288,-1.519621 -5.756441 1.773789,-1.321083 -5.056972 2.026455,-1.155879 -4.64948 2.231301,-0.9929276 -4.283518 2.420055,-9.421655 -7.469472 0.8088067,-8.867718 -7.290723 1.121978,-8.358918 -6.773818 1.377617,-7.997619 -6.300172 1.664159,-7.652527 -6.025246 1.959147,-8.614744 -5.151123 1.178973,-8.421832 -4.143796 1.423839,-8.308544 -3.526523 1.639042,-8.220187 -2.989836 1.781122,-8.92352 -4.938692 1.251427,-8.74925 -3.767107 1.476767,-8.616205 -3.016517 1.736726,-8.5144 -2.362909 1.934312,-9.248206 -4.956054 1.351705,-9.108453 -3.856376 1.569211,-8.989899 -3.145348 1.786048,-8.880513 -2.541676 1.942902,-9.59787 -5.157159 1.480997,-9.599323 -4.253299 1.705633,-9.554826 -3.671609 1.887142,-9.49677 -3.127353 2.005453,1.020,DnF
-1.947662 -7.699493 1.194674,-2.327692 -7.660774 1.882781,-2.637647 -7.273247 2.283655,-2.793013 -6.89558 2.60969,-2.913722 -6.622103 2.91374,-2.412835 -5.519342 2.094133,-2.503028 -4.605489 2.400381,-2.469509 -4.117873 2.654312,-2.396667 -3.68204 2.846627,-2.087657 -5.332136 1.940451,-2.070695 -4.288076 2.213287,-1.996812 -3.763088 2.424518,-1.903398 -3.298088 2.598122,-1.798031 -5.428236 1.827711,-1.704416 -4.463626 2.088327,-1.604559 -3.966303 2.274662,-1.491346 -3.541666 2.437288,-1.519621 -5.756441 1.773789,-1.321083 -5.056972 2.026455,-1.155879 -4.64948 2.231301,-0.9929276 -4.283518 2.420055,-9.421655 -7.469472 0.8088067,-8.867718 -7.290723 1.121978,-8.358918 -6.773818 1.377617,-7.997619 -6.300172 1.664159,-7.652527 -6.025246 1.959147,-8.614744 -5.151123 1.178973,-8.421832 -4.143796 1.423839,-8.308544 -3.526523 1.639042,-8.220187 -2.989836 1.781122,-8.92352 -4.938692 1.251427,-8.74925 -3.767107 1.476767,-8.616205 -3.016517 1.736726,-8.5144 -2.362909 1.934312,-9.248206 -4.956054 1.351705,-9.108453 -3.856376 1.569211,-8.989899 -3.145348 1.786048,-8.880513 -2.541676 1.942902,-9.59787 -5.157159 1.480997,-9.599323 -4.253299 1.705633,-9.554826 -3.671609 1.887142,-9.49677 -3.127353 2.005453,1.040,DnF
-1.816654 -7.846189 1.199836,-2.180976 -7.771299 1.99203,-2.49921 -7.404869 2.453923,-2.626249 -7.034833 2.822542,-2.753736 -6.77453 3.186327,-2.259905 -5.644932 2.143784,-2.340124 -4.756231 2.485991,-2.294744 -4.305871 2.786411,-2.215105 -3.887364 3.011133,-1.91807 -5.484573 1.974423,-1.894966 -4.506539 2.270991,-1.790528 -3.986617 2.560915,-1.67134 -3.508157 2.803458,-1.628592 -5.58846 1.862153,-1.515319 -4.664497 2.145339,-1.390338 -4.190736 2.434391,-1.265995 -3.763805 2.666903,-1.344088 -5.898739 1.819391,-1.157092 -5.217196 2.091347,-1.005572 -4.85761 2.335204,-0.8746786 -4.52169 2.539664,-9.430638 -7.488428 0.7867243,-8.877542 -7.30544 1.10311,-8.370014 -6.800813 1.359318,-8.010326 -6.320029 1.644806,-7.662214 -6.041399 1.938578,-8.618958 -5.179504 1.156135,-8.427383 -4.163278 1.393986,-8.31695 -3.544809 1.603004,-8.230251 -3.00902 1.742292,-8.930482 -4.96334 1.222231,-8.753634 -3.78497 1.442567,-8.623456 -3.036331 1.698793,-8.52422 -2.381202 1.892871,-9.253071 -4.973154 1.314369,-9.114315 -3.869642 1.527061,-9.000799 -3.168293 1.739162,-8.893066 -2.568361 1.895221,-9.600402 -5.16533 1.437418,-9.599377 -4.263904 1.658272,-9.556967 -3.689759 1.837098,-9.498287 -3.148512 1.952754,1.060,DnF
-1.816654 -7.846189 1.199836,-2.180976 -7.771299 1.99203,-2.49921 -7.404869 2.453923,-2.626249 -7.034833 2.822542,-2.753736 -6.77453 3.186327,-2.259905 -5.644932 2.143784,-2.340124 -4.756231 2.485991,-2.294744 -4.305871 2.786411,-2.215105 -3.887364 3.011133,-1.91807 -5.484573 1.974423,-1.894966 -4.506539 2.270991,-1.790528 -3.986617 2.560915,-1.67134 -3.508157 2.803458,-1.628592 -5.58846 1.862153,-1.515319 -4.664497 2.145339,-1.390338 -4.190736 2.434391,-1.265995 -3.763805 2.666903,-1.344088 -5.898739 1.819391,-1.157092 -5.217196 2.091347,-1.005572 -4.85761 2.335204,-0.8746786 -4.52169 2.539664,-9.430638 -7.488428 0.7867243,-8.877542 -7.30544 1.10311,-8.370014 -6.800813 1.359318,-8.010326 -6.320029 1.644806,-7.662214 -6.041399 1.938578,-8.618958 -5.179504 1.156135,-8.427383 -4.163278 1.393986,-8.31695 -3.544809 1.603004,-8.230251 -3.00902 1.742292,-8.930482 -4.96334 1.222231,-8.753634 -3.78497 1.442567,-8.623456 -3.036331 1.698793,-8.52422 -2.381202 1.892871,-9.253071 -4.973154 1.314369,-9.114315 -3.869642 1.527061,-9.000799 -3.168293 1.739162,-8.893066 -2.568361 1.895221,-9.600402 -5.16533 1.437418,-9.599377 -4.263904 1.658272,-9.556967 -3.689759 1.837098,-9.498287 -3.148512 1.952754,1.080,DnF
-1.816654 -7.846189 1.199836,-2.180976 -7.771299 1.99203,-2.49921 -7.404869 2.453923,-2.626249 -7.034833 2.822542,-2.753736 -6.77453 3.186327,-2.259905 -5.644932 2.143784,-2.340124 -4.756231 2.485991,-2.294744 -4.305871 2.786411,-2.215105 -3.887364 3.011133,-1.91807 -5.484573 1.974423,-1.894966 -4.506539 2.270991,-1.790528 -3.986617 2.560915,-1.67134 -3.508157 2.803458,-1.628592 -5.58846 1.862153,-1.515319 -4.664497 2.145339,-1.390338 -4.190736 2.434391,-1.265995 -3.763805 2.666903,-1.344088 -5.898739 1.819391,-1.157092 -5.217196 2.091347,-1.005572 -4.85761 2.335204,-0.8746786 -4.52169 2.539664,-9.430638 -7.488428 0.7867243,-8.877542 -7.30544 1.10311,-8.370014 -6.800813 1.359318,-8.010326 -6.320029 1.644806,-7.662214 -6.041399 1.938578,-8.618958 -5.179504 1.156135,-8.427383 -4.163278 1.393986,-8.31695 -3.544809 1.603004,-8.230251 -3.00902 1.742292,-8.930482 -4.96334 1.222231,-8.753634 -3.78497 1.442567,-8.623456 -3.036331 1.698793,-8.52422 -2.381202 1.892871,-9.253071 -4.973154 1.314369,-9.114315 -3.869642 1.527061,-9.000799 -3.168293 1.739162,-8.893066 -2.568361 1.895221,-9.600402 -5.16533 1.437418,-9.599377 -4.263904 1.658272,-9.556967 -3.689759 1.837098,-9.498287 -3.148512 1.952754,1.100,DnF
-1.691577 -7.96186 1.045063,-2.035277 -7.89385 1.825067,-2.346355 -7.536829 2.304733,-2.45851 -7.199809 2.691898,-2.536783 -6.962833 3.073306,-2.100364 -5.813735 2.004119,-2.164154 -4.918159 2.374883,-2.08887 -4.488647 2.701463,-1.962717 -4.128947 2.936062,-1.761061 -5.654716 1.846049,-1.732102 -4.674167 2.1749,-1.603603 -4.164966 2.487572,-1.449101 -3.742646 2.742172,-1.471395 -5.758895 1.740934,-1.355272 -4.836603 2.04918,-1.2113 -4.367807 2.351069,-1.060973 -3.973172 2.592928,-1.185899 -6.073837 1.702246,-0.9905477 -5.375286 1.987908,-0.8225098 -5.015861 2.237224,-0.6702938 -4.695199 2.44125,-9.426361 -7.505775 0.7840562,-8.876547 -7.319059 1.091189,-8.373262 -6.820865 1.344944,-8.013203 -6.348392 1.629838,-7.670767 -6.072517 1.92249,-8.62563 -5.187952 1.133799,-8.43189 -4.173178 1.376156,-8.318792 -3.560117 1.594778,-8.229331 -3.025477 1.741187,-8.93302 -4.978332 1.208978,-8.756594 -3.795918 1.436795,-8.623106 -3.045309 1.698328,-8.519275 -2.390134 1.891309,-9.253066 -4.994735 1.309761,-9.114343 -3.881641 1.531476,-8.997113 -3.168545 1.755133,-8.886868 -2.558075 1.916997,-9.597392 -5.194448 1.44266,-9.598927 -4.291356 1.668784,-9.55757 -3.705643 1.851607,-9.499537 -3.152189 1.968979,1.120,DnF
-1.691577 -7.96186 1.045063,-2.035277 -7.89385 1.825067,-2.346355 -7.536829 2.304733,-2.45851 -7.199809 2.691898,-2.536783 -6.962833 3.073306,-2.100364 -5.813735 2.004119,-2.164154 -4.918159 2.374883,-2.08887 -4.488647 2.701463,-1.962717 -4.128947 2.936062,-1.761061 -5.654716 1.846049,-1.732102 -4.674167 2.1749,-1.603603 -4.164966 2.487572,-1.449101 -3.742646 2.742172,-1.471395 -5.758895 1.740934,-1.355272 -4.836603 2.04918,-1.2113 -4.367807 2.351069,-1.060973 -3.973172 2.592928,-1.185899 -6.073837 1.702246,-0.9905477 -5.375286 1.987908,-0.8225098 -5.015861 2.237224,-0.6702938 -4.695199 2.44125,-9.426361 -7.505775 0.7840562,-8.876547 -7.319059 1.091189,-8.373262 -6.820865 1.344944,-8.013203 -6.348392 1.629838,-7.670767 -6.072517 1.92249,-8.62563 -5.187952 1.133799,-8.43189 -4.173178 1.376156,-8.318792 -3.560117 1.594778,-8.229331 -3.025477 1.741187,-8.93302 -4.978332 1.208978,-8.756594 -3.795918 1.436795,-8.623106 -3.045309 1.698328,-8.519275 -2.390134 1.891309,-9.253066 -4.994735 1.309761,-9.114343 -3.881641 1.531476,-8.997113 -3.168545 1.755133,-8.886868 -2.558075 1.916997,-9.597392 -5.194448 1.44266,-9.598927 -4.291356 1.668784,-9.55757 -3.705643 1.851607,-9.499537 -3.152189 1.968979,1.140,DnF
-1.691577 -7.96186 1.045063,-2.035277 -7.89385 1.825067,-2.346355 -7.536829 2.304733,-2.45851 -7.199809 2.691898,-2.536783 -6.962833 3.073306,-2.100364 -5.813735 2.004119,-2.164154 -4.918159 2.374883,-2.08887 -4.488647 2.701463,-1.962717 -4.128947 2.936062,-1.761061 -5.654716 1.846049,-1.732102 -4.674167 2.1749,-1.603603 -4.164966 2.487572,-1.449101 -3.742646 2.742172,-1.471395 -5.758895 1.740934,-1.355272 -4.836603 2.04918,-1.2113 -4.367807 2.351069,-1.060973 -3.973172 2.592928,-1.185899 -6.073837 1.702246,-0.9905477 -5.375286 1.987908,-0.8225098 -5.015861 2.237224,-0.6702938 -4.695199 2.44125,-9.426361 -7.505775 0.7840562,-8.876547 -7.319059 1.091189,-8.373262 -6.820865 1.344944,-8.013203 -6.348392 1.629838,-7.670767 -6.072517 1.92249,-8.62563 -5.187952 1.133799,-8.43189 -4.173178 1.376156,-8.318792 -3.560117 1.594778,-8.229331 -3.025477 1.741187,-8.93302 -4.978332 1.208978,-8.756594 -3.795918 1.436795,-8.623106 -3.045309 1.698328,-8.519275 -2.390134 1.891309,-9.253066 -4.994735 1.309761,-9.114343 -3.881641 1.531476,-8.997113 -3.168545 1.755133,-8.886868 -2.558075 1.916997,-9.597392 -5.194448 1.44266,-9.598927 -4.291356 1.668784,-9.55757 -3.705643 1.851607,-9.499537 -3.152189 1.968979,1.160,DnF
-1.553964 -8.050213 1.364001,-1.881601 -7.965409 2.156315,-2.157359 -7.614478 2.653856,-2.253077 -7.288164 3.057086,-2.348202 -7.052686 3.461453,-2.100364 -5.813735 2.323251,-2.164154 -4.918159 2.694015,-2.08887 -4.488647 3.020595,-1.962717 -4.128947 3.255194,-1.761061 -5.654716 2.165181,-1.732102 -4.674167 2.494032,-1.603603 -4.164966 2.806704,-1.449101 -3.742646 3.061304,-1.471395 -5.758895 2.060066,-1.355272 -4.836603 2.368312,-1.2113 -4.367807 2.670202,-1.060973 -3.973172 2.91206,-1.185899 -6.073837 2.021378,-0.9905477 -5.375286 2.30704,-0.8225098 -5.015861 2.556356,-0.6702938 -4.695199 2.760382,-9.426361 -7.505775 0.7840562,-8.876547 -7.319059 1.091189,-8.373262 -6.820865 1.344944,-8.013203 -6.348392 1.629838,-7.670767 -6.072517 1.92249,-8.62563 -5.187952 1.133799,-8.43189 -4.173178 1.376156,-8.318792 -3.560117 1.594778,-8.229331 -3.025477 1.741187,-8.93302 -4.978332 1.208978,-8.756594 -3.795918 1.436795,-8.623106 -3.045309 1.698328,-8.519275 -2.390134 1.891309,-9.253066 -4.994735 1.309761,-9.114343 -3.881641 1.531476,-8.997113 -3.168545 1.755133,-8.886868 -2.558075 1.916997,-9.597392 -5.194448 1.44266,-9.598927 -4.291356 1.668784,-9.55757 -3.705643 1.851607,-9.499537 -3.152189 1.968979,1.180,DnF
-1.553964 -8.050213 1.02725,-1.881601 -7.965409 1.819564,-2.157359 -7.614478 2.317105,-2.253077 -7.288164 2.720336,-2.348202 -7.052686 3.124702,-1.925154 -5.912614 2.071299,-1.967775 -5.030056 2.478696,-1.869063 -4.615263 2.830626,-1.71347 -4.318193 3.087292,-1.584536 -5.775138 1.90352,-1.538996 -4.806985 2.292049,-1.391466 -4.311599 2.633766,-1.213858 -3.930706 2.903538,-1.290197 -5.894942 1.786797,-1.155754 -4.974372 2.130049,-1.002041 -4.512159 2.444616,-0.8402414 -4.139982 2.697077,-1.000664 -6.215276 1.728116,-0.7979088 -5.500362 2.025053,-0.6244578 -5.145978 2.276024,-0.4696388 -4.83282 2.477587,-9.437719 -7.513349 0.7548522,-8.892236 -7.333394 1.077504,-8.386784 -6.833568 1.334101,-8.024446 -6.358562 1.616778,-7.67592 -6.090309 1.907697,-8.631932 -5.215621 1.135074,-8.433146 -4.18873 1.371196,-8.320098 -3.571327 1.579001,-8.233296 -3.028328 1.717157,-8.943005 -4.997451 1.195249,-8.763542 -3.811335 1.42427,-8.630161 -3.06123 1.676093,-8.525602 -2.404534 1.862453,-9.265271 -5.002885 1.282726,-9.122299 -3.88226 1.506529,-9.001958 -3.175829 1.721784,-8.888794 -2.575635 1.878233,-9.61232 -5.184885 1.400784,-9.609079 -4.27573 1.628099,-9.565583 -3.691598 1.812311,-9.504303 -3.140434 1.928712,1.200,DnF
-1.553964 -8.050213 1.02725,-1.881601 -7.965409 1.819564,-2.157359 -7.614478 2.317105,-2.253077 -7.288164 2.720336,-2.348202 -7.052686 3.124702,-1.925154 -5.912614 2.071299,-1.967775 -5.030056 2.478696,-1.869063 -4.615263 2.830626,-1.71347 -4.318193 3.087292,-1.584536 -5.775138 1.90352,-1.538996 -4.806985 2.292049,-1.391466 -4.311599 2.633766,-1.213858 -3.930706 2.903538,-1.290197 -5.894942 1.786797,-1.155754 -4.974372 2.130049,-1.002041 -4.512159 2.444616,-0.8402414 -4.139982 2.697077,-1.000664 -6.215276 1.728116,-0.7979088 -5.500362 2.025053,-0.6244578 -5.145978 2.276024,-0.4696388 -4.83282 2.477587,-9.437719 -7.513349 0.7548522,-8.892236 -7.333394 1.077504,-8.386784 -6.833568 1.334101,-8.024446 -6.358562 1.616778,-7.67592 -6.090309 1.907697,-8.631932 -5.215621 1.135074,-8.433146 -4.18873 1.371196,-8.320098 -3.571327 1.579001,-8.233296 -3.028328 1.717157,-8.943005 -4.997451 1.195249,-8.763542 -3.811335 1.42427,-8.630161 -3.06123 1.676093,-8.525602 -2.404534 1.862453,-9.265271 -5.002885 1.282726,-9.122299 -3.88226 1.506529,-9.001958 -3.175829 1.721784,-8.888794 -2.575635 1.878233,-9.61232 -5.184885 1.400784,-9.609079 -4.27573 1.628099,-9.565583 -3.691598 1.812311,-9.504303 -3.140434 1.928712,1.220,DnF
-1.553964 -8.050213 1.02725,-1.881601 -7.965409 1.819564,-2.157359 -7.614478 2.317105,-2.253077 -7.288164 2.720336,-2.348202 -7.052686 3.124702,-1.925154 -5.912614 2.071299,-1.967775 -5.030056 2.478696,-1.869063 -4.615263 2.830626,-1.71347 -4.318193 3.087292,-1.584536 -5.775138 1.90352,-1.538996 -4.806985 2.292049,-1.391466 -4.311599 2.633766,-1.213858 -3.930706 2.903538,-1.290197 -5.894942 1.786797,-1.155754 -4.974372 2.130049,-1.002041 -4.512159 2.444616,-0.8402414 -4.139982 2.697077,-1.000664 -6.215276 1.728116,-0.7979088 -5.500362 2.025053,-0.6244578 -5.145978 2.276024,-0.4696388 -4.83282 2.477587,-9.437719 -7.513349 0.7548522,-8.892236 -7.333394 1.077504,-8.386784 -6.833568 1.334101,-8.024446 -6.358562 1.616778,-7.67592 -6.090309 1.907697,-8.631932 -5.215621 1.135074,-8.433146 -4.18873 1.371196,-8.320098 -3.571327 1.579001,-8.233296 -3.028328 1.717157,-8.943005 -4.997451 1.195249,-8.763542 -3.811335 1.42427,-8.630161 -3.06123 1.676093,-8.525602 -2.404534 1.862453,-9.265271 -5.002885 1.282726,-9.122299 -3.88226 1.506529,-9.001958 -3.175829 1.721784,-8.888794 -2.575635 1.878233,-9.61232 -5.184885 1.400784,-9.609079 -4.27573 1.628099,-9.565583 -3.691598 1.812311,-9.504303 -3.140434 1.928712,1.240,DnF
-1.420847 -8.147696 0.9882323,-1.717662 -8.106243 1.85934,-1.946206 -7.783538 2.393673,-2.009831 -7.483755 2.823038,-2.123276 -7.25184 3.268374,-1.752375 -6.027347 2.109214,-1.755511 -5.134885 2.527923,-1.630293 -4.711528 2.895824,-1.446752 -4.452018 3.170454,-1.41205 -5.897218 1.897031,-1.347735 -4.922346 2.269151,-1.17926 -4.440177 2.620382,-0.9843464 -4.133724 2.911962,-1.127486 -6.022142 1.739504,-0.98279 -5.103656 2.051058,-0.8080888 -4.663524 2.389636,-0.6289425 -4.337619 2.672195,-0.8549595 -6.341354 1.645377,-0.640729 -5.642602 1.938999,-0.4465551 -5.31282 2.210024,-0.2744946 -5.030001 2.443993,-9.437141 -7.510824 0.7831249,-8.894377 -7.321352 1.096517,-8.390415 -6.816297 1.357438,-8.024559 -6.34235 1.649781,-7.671134 -6.069358 1.952521,-8.638737 -5.196565 1.141308,-8.437834 -4.187489 1.383873,-8.325193 -3.569908 1.597887,-8.236691 -3.03043 1.740534,-8.945551 -4.985056 1.218384,-8.76515 -3.812045 1.44499,-8.63221 -3.060746 1.697592,-8.527975 -2.405745 1.884679,-9.264409 -4.996833 1.323662,-9.123133 -3.88972 1.547155,-9.004287 -3.182131 1.76753,-8.893115 -2.575943 1.923767,-9.610577 -5.187171 1.461919,-9.607727 -4.27966 1.691688,-9.565978 -3.694282 1.873135,-9.508853 -3.137524 1.98724,1.260,DnF
-1.420847 -8.147696 0.9882323,-1.717662 -8.106243 1.85934,-1.946206 -7.783538 2.393673,-2.009831 -7.483755 2.823038,-2.123276 -7.25184 3.268374,-1.752375 -6.027347 2.109214,-1.755511 -5.134885 2.527923,-1.630293 -4.711528 2.895824,-1.446752 -4.452018 3.170454,-1.41205 -5.897218 1.897031,-1.347735 -4.922346 2.269151,-1.17926 -4.440177 2.620382,-0.9843464 -4.133724 2.911962,-1.127486 -6.022142 1.739504,-0.98279 -5.103656 2.051058,-0.8080888 -4.663524 2.389636,-0.6289425 -4.337619 2.672195,-0.8549595 -6.341354 1.645377,-0.640729 -5.642602 1.938999,-0.4465551 -5.31282 2.210024,-0.2744946 -5.030001 2.443993,-9.437141 -7.510824 0.7831249,-8.894377 -7.321352 1.096517,-8.390415 -6.816297 1.357438,-8.024559 -6.34235 1.649781,-7.671134 -6.069358 1.952521,-8.638737 -5.196565 1.141308,-8.437834 -4.187489 1.383873,-8.325193 -3.569908 1.597887,-8.236691 -3.03043 1.740534,-8.945551 -4.985056 1.218384,-8.76515 -3.812045 1.44499,-8.63221 -3.060746 1.697592,-8.527975 -2.405745 1.884679,-9.264409 -4.996833 1.323662,-9.123133 -3.88972 1.547155,-9.004287 -3.182131 1.76753,-8.893115 -2.575943 1.923767,-9.610577 -5.187171 1.461919,-9.607727 -4.27966 1.691688,-9.565978 -3.694282 1.873135,-9.508853 -3.137524 1.98724,1.280,DnF
-1.420847 -8.147696 0.9882323,-1.717662 -8.106243 1.85934,-1.946206 -7.783538 2.393673,-2.009831 -7.483755 2.823038,-2.123276 -7.25184 3.268374,-1.752375 -6.027347 2.109214,-1.755511 -5.134885 2.527923,-1.630293 -4.711528 2.895824,-1.446752 -4.452018 3.170454,-1.41205 -5.897218 1.897031,-1.347735 -4.922346 2.269151,-1.17926 -4.440177 2.620382,-0.9843464 -4.133724 2.911962,-1.127486 -6.022142 1.739504,-0.98279 -5.103656 2.051058,-0.8080888 -4.663524 2.389636,-0.6289425 -4.337619 2.672195,-0.8549595 -6.341354 1.645377,-0.640729 -5.642602 1.938999,-0.4465551 -5.31282 2.210024,-0.2744946 -5.030001 2.443993,-9.437141 -7.510824 0.7831249,-8.894377 -7.321352 1.096517,-8.390415 -6.816297 1.357438,-8.024559 -6.34235 1.649781,-7.671134 -6.069358 1.952521,-8.638737 -5.196565 1.141308,-8.437834 -4.187489 1.383873,-8.325193 -3.569908 1.597887,-8.236691 -3.03043 1.740534,-8.945551 -4.985056 1.218384,-8.76515 -3.812045 1.44499,-8.63221 -3.060746 1.697592,-8.527975 -2.405745 1.884679,-9.264409 -4.996833 1.323662,-9.123133 -3.88972 1.547155,-9.004287 -3.182131 1.76753,-8.893115 -2.575943 1.923767,-9.610577 -5.187171 1.461919,-9.607727 -4.27966 1.691688,-9.565978 -3.694282 1.873135,-9.508853 -3.137524 1.98724,1.300,DnF
-1.250168 -8.226669 0.8615666,-1.520244 -8.233992 1.809788,-1.722367 -7.93713 2.384553,-1.759286 -7.666111 2.843645,-1.872979 -7.459281 3.339603,-1.592881 -6.157933 2.06204,-1.565627 -5.261749 2.517633,-1.409549 -4.820362 2.925147,-1.199053 -4.59229 3.230516,-1.253564 -6.029111 1.80341,-1.166271 -5.065538 2.198899,-0.9648314 -4.585607 2.570794,-0.7447901 -4.315578 2.879368,-0.9711971 -6.141823 1.607544,-0.811389 -5.247838 1.92225,-0.6139183 -4.811485 2.284023,-0.4157095 -4.501672 2.579294,-0.7030535 -6.442178 1.484432,-0.4822712 -5.786995 1.773503,-0.269145 -5.448239 2.065945,-0.07560015 -5.138348 2.329057,-9.449481 -7.502399 0.7747465,-8.907134 -7.321662 1.100646,-8.399219 -6.8192 1.361456,-8.030449 -6.356645 1.646816,-7.679029 -6.103424 1.937501,-8.646947 -5.198259 1.164336,-8.442141 -4.188664 1.413769,-8.325775 -3.579797 1.631822,-8.234053 -3.042484 1.780951,-8.951402 -4.984769 1.234631,-8.769892 -3.810079 1.475134,-8.635111 -3.059958 1.735467,-8.529238 -2.404317 1.927603,-9.268629 -4.99651 1.330805,-9.126565 -3.886132 1.566092,-9.008957 -3.173841 1.79397,-8.897843 -2.563836 1.958111,-9.609885 -5.190723 1.459341,-9.608551 -4.286733 1.70073,-9.569061 -3.700487 1.89227,-9.514314 -3.148318 2.014358,1.320,DnF
-1.250168 -8.226669 0.8615666,-1.520244 -8.233992 1.809788,-1.722367 -7.93713 2.384553,-1.759286 -7.666111 2.843645,-1.872979 -7.459281 3.339603,-1.592881 -6.157933 2.06204,-1.565627 -5.261749 2.517633,-1.409549 -4.820362 2.925147,-1.199053 -4.59229 3.230516,-1.253564 -6.029111 1.80341,-1.166271 -5.065538 2.198899,-0.9648314 -4.585607 2.570794,-0.7447901 -4.315578 2.879368,-0.9711971 -6.141823 1.607544,-0.811389 -5.247838 1.92225,-0.6139183 -4.811485 2.284023,-0.4157095 -4.501672 2.579294,-0.7030535 -6.442178 1.484432,-0.4822712 -5.786995 1.773503,-0.269145 -5.448239 2.065945,-0.07560015 -5.138348 2.329057,-9.449481 -7.502399 0.7747465,-8.907134 -7.321662 1.100646,-8.399219 -6.8192 1.361456,-8.030449 -6.356645 1.646816,-7.679029 -6.103424 1.937501,-8.646947 -5.198259 1.164336,-8.442141 -4.188664 1.413769,-8.325775 -3.579797 1.631822,-8.234053 -3.042484 1.780951,-8.951402 -4.984769 1.234631,-8.769892 -3.810079 1.475134,-8.635111 -3.059958 1.735467,-8.529238 -2.404317 1.927603,-9.268629 -4.99651 1.330805,-9.126565 -3.886132 1.566092,-9.008957 -3.173841 1.79397,-8.897843 -2.563836 1.958111,-9.609885 -5.190723 1.459341,-9.608551 -4.286733 1.70073,-9.569061 -3.700487 1.89227,-9.514314 -3.148318 2.014358,1.340,Object Grabbed
-1.250168 -8.226669 0.8615666,-1.520244 -8.233992 1.809788,-1.722367 -7.93713 2.384553,-1.759286 -7.666111 2.843645,-1.872979 -7.459281 3.339603,-1.592881 -6.157933 2.06204,-1.565627 -5.261749 2.517633,-1.409549 -4.820362 2.925147,-1.199053 -4.59229 3.230516,-1.253564 -6.029111 1.80341,-1.166271 -5.065538 2.198899,-0.9648314 -4.585607 2.570794,-0.7447901 -4.315578 2.879368,-0.9711971 -6.141823 1.607544,-0.811389 -5.247838 1.92225,-0.6139183 -4.811485 2.284023,-0.4157095 -4.501672 2.579294,-0.7030535 -6.442178 1.484432,-0.4822712 -5.786995 1.773503,-0.269145 -5.448239 2.065945,-0.07560015 -5.138348 2.329057,-9.449481 -7.502399 0.7747465,-8.907134 -7.321662 1.100646,-8.399219 -6.8192 1.361456,-8.030449 -6.356645 1.646816,-7.679029 -6.103424 1.937501,-8.646947 -5.198259 1.164336,-8.442141 -4.188664 1.413769,-8.325775 -3.579797 1.631822,-8.234053 -3.042484 1.780951,-8.951402 -4.984769 1.234631,-8.769892 -3.810079 1.475134,-8.635111 -3.059958 1.735467,-8.529238 -2.404317 1.927603,-9.268629 -4.99651 1.330805,-9.126565 -3.886132 1.566092,-9.008957 -3.173841 1.79397,-8.897843 -2.563836 1.958111,-9.609885 -5.190723 1.459341,-9.608551 -4.286733 1.70073,-9.569061 -3.700487 1.89227,-9.514314 -3.148318 2.014358,1.360,DnF
-1.146663 -8.287832 0.7436864,-1.394821 -8.294405 1.667246,-1.579362 -8.013374 2.242132,-1.6182 -7.730865 2.696614,-1.698423 -7.506429 3.148602,-1.401203 -6.254936 1.918625,-1.341859 -5.384674 2.371032,-1.16689 -4.979543 2.774644,-0.944201 -4.804966 3.08052,-1.07206 -6.122914 1.673136,-0.9210672 -5.186107 2.064912,-0.6923513 -4.745556 2.414934,-0.4563303 -4.532405 2.707781,-0.8040342 -6.234942 1.483229,-0.615202 -5.367996 1.769256,-0.4007101 -4.946489 2.08512,-0.1898313 -4.691579 2.364337,-0.5606151 -6.540781 1.37242,-0.3243532 -5.921312 1.618626,-0.09659338 -5.60998 1.870358,0.1072621 -5.360543 2.112168,-9.449376 -7.502881 0.760445,-8.904238 -7.326148 1.091742,-8.404776 -6.825094 1.353943,-8.045786 -6.35222 1.639674,-7.692904 -6.096023 1.928733,-8.641697 -5.20425 1.15905,-8.448092 -4.193094 1.410175,-8.335265 -3.582253 1.626984,-8.245205 -3.048879 1.77459,-8.953924 -4.990207 1.227079,-8.779042 -3.806207 1.470916,-8.64404 -3.057023 1.73703,-8.535693 -2.401913 1.934156,-9.277846 -5.002321 1.318361,-9.137042 -3.880114 1.557427,-9.018641 -3.172067 1.784928,-8.905034 -2.562227 1.94826,-9.626856 -5.194415 1.440372,-9.622816 -4.286081 1.681816,-9.580043 -3.700628 1.867246,-9.522334 -3.143733 1.984725,1.380,DnF
-1.146663 -8.287832 0.7436864,-1.394821 -8.294405 1.667246,-1.579362 -8.013374 2.242132,-1.6182 -7.730865 2.696614,-1.698423 -7.506429 3.148602,-1.401203 -6.254936 1.918625,-1.341859 -5.384674 2.371032,-1.16689 -4.979543 2.774644,-0.944201 -4.804966 3.08052,-1.07206 -6.122914 1.673136,-0.9210672 -5.186107 2.064912,-0.6923513 -4.745556 2.414934,-0.4563303 -4.532405 2.707781,-0.8040342 -6.234942 1.483229,-0.615202 -5.367996 1.769256,-0.4007101 -4.946489 2.08512,-0.1898313 -4.691579 2.364337,-0.5606151 -6.540781 1.37242,-0.3243532 -5.921312 1.618626,-0.09659338 -5.60998 1.870358,0.1072621 -5.360543 2.112168,-9.449376 -7.502881 0.760445,-8.904238 -7.326148 1.091742,-8.404776 -6.825094 1.353943,-8.045786 -6.35222 1.639674,-7.692904 -6.096023 1.928733,-8.641697 -5.20425 1.15905,-8.448092 -4.193094 1.410175,-8.335265 -3.582253 1.626984,-8.245205 -3.048879 1.77459,-8.953924 -4.990207 1.227079,-8.779042 -3.806207 1.470916,-8.64404 -3.057023 1.73703,-8.535693 -2.401913 1.934156,-9.277846 -5.002321 1.318361,-9.137042 -3.880114 1.557427,-9.018641 -3.172067 1.784928,-8.905034 -2.562227 1.94826,-9.626856 -5.194415 1.440372,-9.622816 -4.286081 1.681816,-9.580043 -3.700628 1.867246,-9.522334 -3.143733 1.984725,1.400,DnF
-1.146663 -8.287832 0.7436864,-1.394821 -8.294405 1.667246,-1.579362 -8.013374 2.242132,-1.6182 -7.730865 2.696614,-1.698423 -7.506429 3.148602,-1.401203 -6.254936 1.918625,-1.341859 -5.384674 2.371032,-1.16689 -4.979543 2.774644,-0.944201 -4.804966 3.08052,-1.07206 -6.122914 1.673136,-0.9210672 -5.186107 2.064912,-0.6923513 -4.745556 2.414934,-0.4563303 -4.532405 2.707781,-0.8040342 -6.234942 1.483229,-0.615202 -5.367996 1.769256,-0.4007101 -4.946489 2.08512,-0.1898313 -4.691579 2.364337,-0.5606151 -6.540781 1.37242,-0.3243532 -5.921312 1.618626,-0.09659338 -5.60998 1.870358,0.1072621 -5.360543 2.112168,-9.449376 -7.502881 0.760445,-8.904238 -7.326148 1.091742,-8.404776 -6.825094 1.353943,-8.045786 -6.35222 1.639674,-7.692904 -6.096023 1.928733,-8.641697 -5.20425 1.15905,-8.448092 -4.193094 1.410175,-8.335265 -3.582253 1.626984,-8.245205 -3.048879 1.77459,-8.953924 -4.990207 1.227079,-8.779042 -3.806207 1.470916,-8.64404 -3.057023 1.73703,-8.535693 -2.401913 1.934156,-9.277846 -5.002321 1.318361,-9.137042 -3.880114 1.557427,-9.018641 -3.172067 1.784928,-8.905034 -2.562227 1.94826,-9.626856 -5.194415 1.440372,-9.622816 -4.286081 1.681816,-9.580043 -3.700628 1.867246,-9.522334 -3.143733 1.984725,1.420,DnF
-1.003497 -8.349041 0.6403377,-1.237022 -8.381983 1.5919,-1.378378 -8.139793 2.193339,-1.390136 -7.889779 2.673743,-1.461455 -7.666166 3.180089,-1.246813 -6.366429 1.917285,-1.174664 -5.495981 2.400501,-0.9889884 -5.095224 2.813668,-0.7520905 -4.962451 3.115883,-0.9242954 -6.255918 1.655462,-0.77349 -5.303159 2.100622,-0.5198827 -4.895519 2.470249,-0.2549391 -4.731541 2.770233,-0.6584611 -6.370157 1.456045,-0.4615307 -5.501346 1.787903,-0.217927 -5.110868 2.137246,0.02126217 -4.888679 2.43826,-0.4185896 -6.658538 1.324501,-0.1861434 -6.0344 1.59887,0.05691671 -5.750391 1.873556,0.2851086 -5.529839 2.139462,-9.444229 -7.528476 0.8008377,-8.907393 -7.336923 1.116122,-8.409002 -6.831274 1.374507,-8.050749 -6.362646 1.662508,-7.704609 -6.100997 1.96482,-8.65254 -5.206613 1.161552,-8.459374 -4.195137 1.39364,-8.349009 -3.581607 1.604129,-8.262129 -3.04711 1.749871,-8.958918 -4.996104 1.235194,-8.780975 -3.8192 1.451827,-8.648417 -3.066756 1.702141,-8.544574 -2.414238 1.888335,-9.279864 -5.009025 1.334011,-9.135795 -3.8959 1.548532,-9.016451 -3.182189 1.77016,-8.904663 -2.5775 1.929292,-9.626014 -5.202945 1.464738,-9.624585 -4.29644 1.688683,-9.584066 -3.707316 1.873734,-9.527361 -3.155716 1.992192,1.440,DnF
-1.003497 -8.349041 0.6403377,-1.237022 -8.381983 1.5919,-1.378378 -8.139793 2.193339,-1.390136 -7.889779 2.673743,-1.461455 -7.666166 3.180089,-1.246813 -6.366429 1.917285,-1.174664 -5.495981 2.400501,-0.9889884 -5.095224 2.813668,-0.7520905 -4.962451 3.115883,-0.9242954 -6.255918 1.655462,-0.77349 -5.303159 2.100622,-0.5198827 -4.895519 2.470249,-0.2549391 -4.731541 2.770233,-0.6584611 -6.370157 1.456045,-0.4615307 -5.501346 1.787903,-0.217927 -5.110868 2.137246,0.02126217 -4.888679 2.43826,-0.4185896 -6.658538 1.324501,-0.1861434 -6.0344 1.59887,0.05691671 -5.750391 1.873556,0.2851086 -5.529839 2.139462,-9.444229 -7.528476 0.8008377,-8.907393 -7.336923 1.116122,-8.409002 -6.831274 1.374507,-8.050749 -6.362646 1.662508,-7.704609 -6.100997 1.96482,-8.65254 -5.206613 1.161552,-8.459374 -4.195137 1.39364,-8.349009 -3.581607 1.604129,-8.262129 -3.04711 1.749871,-8.958918 -4.996104 1.235194,-8.780975 -3.8192 1.451827,-8.648417 -3.066756 1.702141,-8.544574 -2.414238 1.888335,-9.279864 -5.009025 1.334011,-9.135795 -3.8959 1.548532,-9.016451 -3.182189 1.77016,-8.904663 -2.5775 1.929292,-9.626014 -5.202945 1.464738,-9.624585 -4.29644 1.688683,-9.584066 -3.707316 1.873734,-9.527361 -3.155716 1.992192,1.460,DnF
-1.003497 -8.349041 0.6403377,-1.237022 -8.381983 1.5919,-1.378378 -8.139793 2.193339,-1.390136 -7.889779 2.673743,-1.461455 -7.666166 3.180089,-1.246813 -6.366429 1.917285,-1.174664 -5.495981 2.400501,-0.9889884 -5.095224 2.813668,-0.7520905 -4.962451 3.115883,-0.9242954 -6.255918 1.655462,-0.77349 -5.303159 2.100622,-0.5198827 -4.895519 2.470249,-0.2549391 -4.731541 2.770233,-0.6584611 -6.370157 1.456045,-0.4615307 -5.501346 1.787903,-0.217927 -5.110868 2.137246,0.02126217 -4.888679 2.43826,-0.4185896 -6.658538 1.324501,-0.1861434 -6.0344 1.59887,0.05691671 -5.750391 1.873556,0.2851086 -5.529839 2.139462,-9.444229 -7.528476 0.8008377,-8.907393 -7.336923 1.116122,-8.409002 -6.831274 1.374507,-8.050749 -6.362646 1.662508,-7.704609 -6.100997 1.96482,-8.65254 -5.206613 1.161552,-8.459374 -4.195137 1.39364,-8.349009 -3.581607 1.604129,-8.262129 -3.04711 1.749871,-8.958918 -4.996104 1.235194,-8.780975 -3.8192 1.451827,-8.648417 -3.066756 1.702141,-8.544574 -2.414238 1.888335,-9.279864 -5.009025 1.334011,-9.135795 -3.8959 1.548532,-9.016451 -3.182189 1.77016,-8.904663 -2.5775 1.929292,-9.626014 -5.202945 1.464738,-9.624585 -4.29644 1.688683,-9.584066 -3.707316 1.873734,-9.527361 -3.155716 1.992192,1.480,DnF
-0.9014993 -8.404894 0.5765811,-1.104904 -8.405792 1.510852,-1.218982 -8.154284 2.110199,-1.213244 -7.883449 2.592762,-1.247929 -7.620338 3.101776,-1.098907 -6.393723 1.801082,-0.990119 -5.561244 2.30273,-0.7738008 -5.214625 2.760459,-0.5234742 -5.182888 3.093098,-0.7895908 -6.307884 1.537516,-0.6221638 -5.380794 1.990482,-0.3464885 -5.017302 2.364509,-0.08259392 -4.936332 2.64963,-0.5286632 -6.4312 1.334584,-0.3209419 -5.571355 1.673033,-0.05719376 -5.223226 2.011196,0.1926413 -5.073175 2.294087,-0.2962656 -6.723322 1.201969,-0.05153418 -6.107841 1.465694,0.1966696 -5.829412 1.715214,0.4280634 -5.633444 1.951116,-9.466416 -7.537189 0.823137,-8.921376 -7.348093 1.140543,-8.418944 -6.846871 1.40683,-8.052126 -6.382903 1.702679,-7.698271 -6.113664 2.008731,-8.662569 -5.214885 1.204041,-8.46276 -4.215845 1.456331,-8.348532 -3.60963 1.681439,-8.260349 -3.077547 1.833349,-8.968132 -5.006033 1.287308,-8.789283 -3.839938 1.525079,-8.656277 -3.094879 1.787242,-8.553043 -2.444972 1.979766,-9.28928 -5.023837 1.396308,-9.149353 -3.91524 1.63161,-9.026783 -3.207305 1.862575,-8.913026 -2.604208 2.024355,-9.636111 -5.22278 1.536955,-9.635636 -4.313171 1.778548,-9.593024 -3.723629 1.966121,-9.535613 -3.163789 2.087483,1.500,DnF
-0.9014993 -8.404894 0.5765811,-1.104904 -8.405792 1.510852,-1.218982 -8.154284 2.110199,-1.213244 -7.883449 2.592762,-1.247929 -7.620338 3.101776,-1.098907 -6.393723 1.801082,-0.990119 -5.561244 2.30273,-0.7738008 -5.214625 2.760459,-0.5234742 -5.182888 3.093098,-0.7895908 -6.307884 1.537516,-0.6221638 -5.380794 1.990482,-0.3464885 -5.017302 2.364509,-0.08259392 -4.936332 2.64963,-0.5286632 -6.4312 1.334584,-0.3209419 -5.571355 1.673033,-0.05719376 -5.223226 2.011196,0.1926413 -5.073175 2.294087,-0.2962656 -6.723322 1.201969,-0.05153418 -6.107841 1.465694,0.1966696 -5.829412 1.715214,0.4280634 -5.633444 1.951116,-9.466416 -7.537189 0.823137,-8.921376 -7.348093 1.140543,-8.418944 -6.846871 1.40683,-8.052126 -6.382903 1.702679,-7.698271 -6.113664 2.008731,-8.662569 -5.214885 1.204041,-8.46276 -4.215845 1.456331,-8.348532 -3.60963 1.681439,-8.260349 -3.077547 1.833349,-8.968132 -5.006033 1.287308,-8.789283 -3.839938 1.525079,-8.656277 -3.094879 1.787242,-8.553043 -2.444972 1.979766,-9.28928 -5.023837 1.396308,-9.149353 -3.91524 1.63161,-9.026783 -3.207305 1.862575,-8.913026 -2.604208 2.024355,-9.636111 -5.22278 1.536955,-9.635636 -4.313171 1.778548,-9.593024 -3.723629 1.966121,-9.535613 -3.163789 2.087483,1.520,DnF
-0.9014993 -8.404894 0.5765811,-1.104904 -8.405792 1.510852,-1.218982 -8.154284 2.110199,-1.213244 -7.883449 2.592762,-1.247929 -7.620338 3.101776,-1.098907 -6.393723 1.801082,-0.990119 -5.561244 2.30273,-0.7738008 -5.214625 2.760459,-0.5234742 -5.182888 3.093098,-0.7895908 -6.307884 1.537516,-0.6221638 -5.380794 1.990482,-0.3464885 -5.017302 2.364509,-0.08259392 -4.936332 2.64963,-0.5286632 -6.4312 1.334584,-0.3209419 -5.571355 1.673033,-0.05719376 -5.223226 2.011196,0.1926413 -5.073175 2.294087,-0.2962656 -6.723322 1.201969,-0.05153418 -6.107841 1.465694,0.1966696 -5.829412 1.715214,0.4280634 -5.633444 1.951116,-9.466416 -7.537189 0.823137,-8.921376 -7.348093 1.140543,-8.418944 -6.846871 1.40683,-8.052126 -6.382903 1.702679,-7.698271 -6.113664 2.008731,-8.662569 -5.214885 1.204041,-8.46276 -4.215845 1.456331,-8.348532 -3.60963 1.681439,-8.260349 -3.077547 1.833349,-8.968132 -5.006033 1.287308,-8.789283 -3.839938 1.525079,-8.656277 -3.094879 1.787242,-8.553043 -2.444972 1.979766,-9.28928 -5.023837 1.396308,-9.149353 -3.91524 1.63161,-9.026783 -3.207305 1.862575,-8.913026 -2.604208 2.024355,-9.636111 -5.22278 1.536955,-9.635636 -4.313171 1.778548,-9.593024 -3.723629 1.966121,-9.535613 -3.163789 2.087483,1.540,DnF
-0.7868152 -8.393751 0.470957,-0.9796658 -8.480755 1.491373,-1.081241 -8.271385 2.122549,-1.068803 -8.003721 2.611662,-1.090097 -7.692093 3.122529,-0.9677696 -6.501895 1.842606,-0.8819551 -5.721955 2.361154,-0.6649685 -5.425363 2.824926,-0.4152412 -5.500354 3.162205,-0.6615372 -6.378969 1.529353,-0.481286 -5.496608 2.030498,-0.178278 -5.206542 2.462466,0.1057625 -5.236845 2.79411,-0.415164 -6.470414 1.281622,-0.1784916 -5.684806 1.659105,0.1184082 -5.419794 2.077852,0.3891678 -5.382452 2.425298,-0.2070017 -6.708061 1.104063,0.04109955 -6.162889 1.401398,0.2948294 -5.957126 1.723499,0.5306258 -5.841968 2.039765,-9.443529 -7.55204 0.8008841,-8.904364 -7.360713 1.118656,-8.410526 -6.860679 1.382063,-8.049711 -6.398083 1.675903,-7.694883 -6.131626 1.983742,-8.658999 -5.225098 1.151365,-8.461237 -4.219747 1.400298,-8.347581 -3.614444 1.627682,-8.26046 -3.083402 1.786327,-8.96347 -5.018436 1.234114,-8.785017 -3.843073 1.468206,-8.65078 -3.093888 1.73057,-8.545107 -2.437567 1.922069,-9.282441 -5.035707 1.344191,-9.143197 -3.920264 1.57776,-9.023469 -3.206198 1.808609,-8.909942 -2.593584 1.973799,-9.62624 -5.234043 1.488242,-9.630403 -4.327253 1.727876,-9.590196 -3.734237 1.918196,-9.531096 -3.171947 2.040636,1.560,DnF
-0.7868152 -8.393751 0.470957,-0.9796658 -8.480755 1.491373,-1.081241 -8.271385 2.122549,-1.068803 -8.003721 2.611662,-1.090097 -7.692093 3.122529,-0.9677696 -6.501895 1.842606,-0.8819551 -5.721955 2.361154,-0.6649685 -5.425363 2.824926,-0.4152412 -5.500354 3.162205,-0.6615372 -6.378969 1.529353,-0.481286 -5.496608 2.030498,-0.178278 -5.206542 2.462466,0.1057625 -5.236845 2.79411,-0.415164 -6.470414 1.281622,-0.1784916 -5.684806 1.659105,0.1184082 -5.419794 2.077852,0.3891678 -5.382452 2.425298,-0.2070017 -6.708061 1.104063,0.04109955 -6.162889 1.401398,0.2948294 -5.957126 1.723499,0.5306258 -5.841968 2.039765,-9.443529 -7.55204 0.8008841,-8.904364 -7.360713 1.118656,-8.410526 -6.860679 1.382063,-8.049711 -6.398083 1.675903,-7.694883 -6.131626 1.983742,-8.658999 -5.225098 1.151365,-8.461237 -4.219747 1.400298,-8.347581 -3.614444 1.627682,-8.26046 -3.083402 1.786327,-8.96347 -5.018436 1.234114,-8.785017 -3.843073 1.468206,-8.65078 -3.093888 1.73057,-8.545107 -2.437567 1.922069,-9.282441 -5.035707 1.344191,-9.143197 -3.920264 1.57776,-9.023469 -3.206198 1.808609,-8.909942 -2.593584 1.973799,-9.62624 -5.234043 1.488242,-9.630403 -4.327253 1.727876,-9.590196 -3.734237 1.918196,-9.531096 -3.171947 2.040636,1.580,DnF
-0.7868152 -8.393751 0.470957,-0.9796658 -8.480755 1.491373,-1.081241 -8.271385 2.122549,-1.068803 -8.003721 2.611662,-1.090097 -7.692093 3.122529,-0.9677696 -6.501895 1.842606,-0.8819551 -5.721955 2.361154,-0.6649685 -5.425363 2.824926,-0.4152412 -5.500354 3.162205,-0.6615372 -6.378969 1.529353,-0.481286 -5.496608 2.030498,-0.178278 -5.206542 2.462466,0.1057625 -5.236845 2.79411,-0.415164 -6.470414 1.281622,-0.1784916 -5.684806 1.659105,0.1184082 -5.419794 2.077852,0.3891678 -5.382452 2.425298,-0.2070017 -6.708061 1.104063,0.04109955 -6.162889 1.401398,0.2948294 -5.957126 1.723499,0.5306258 -5.841968 2.039765,-9.443529 -7.55204 0.8008841,-8.904364 -7.360713 1.118656,-8.410526 -6.860679 1.382063,-8.049711 -6.398083 1.675903,-7.694883 -6.131626 1.983742,-8.658999 -5.225098 1.151365,-8.461237 -4.219747 1.400298,-8.347581 -3.614444 1.627682,-8.26046 -3.083402 1.786327,-8.96347 -5.018436 1.234114,-8.785017 -3.843073 1.468206,-8.65078 -3.093888 1.73057,-8.545107 -2.437567 1.922069,-9.282441 -5.035707 1.344191,-9.143197 -3.920264 1.57776,-9.023469 -3.206198 1.808609,-8.909942 -2.593584 1.973799,-9.62624 -5.234043 1.488242,-9.630403 -4.327253 1.727876,-9.590196 -3.734237 1.918196,-9.531096 -3.171947 2.040636,1.600,DnF
-0.7036185 -8.397188 0.4478202,-0.9035435 -8.486816 1.469334,-1.018936 -8.250034 2.086071,-1.008646 -7.971094 2.566895,-0.968749 -7.616973 3.080782,-0.891881 -6.563262 1.890452,-0.7819958 -5.754943 2.425126,-0.5639229 -5.419511 2.866454,-0.3045335 -5.440277 3.168916,-0.5851049 -6.431715 1.582682,-0.3967443 -5.546121 2.107086,-0.08128119 -5.30018 2.558105,0.2233601 -5.376829 2.90677,-0.33639 -6.49691 1.335113,-0.09964561 -5.709652 1.736744,0.2158728 -5.504455 2.206713,0.5120459 -5.551573 2.584611,-0.1222906 -6.709475 1.148338,0.1316185 -6.165456 1.469505,0.3983421 -6.01967 1.819572,0.6498008 -6.00381 2.162493,-9.453054 -7.555996 0.773512,-8.906899 -7.352371 1.073672,-8.404817 -6.848581 1.328694,-8.035134 -6.383813 1.617981,-7.67892 -6.124897 1.919633,-8.653637 -5.233688 1.121105,-8.459202 -4.220975 1.36308,-8.345266 -3.61013 1.580909,-8.255733 -3.070443 1.728622,-8.956053 -5.035463 1.216442,-8.781412 -3.869377 1.448454,-8.647443 -3.120034 1.705718,-8.542186 -2.471078 1.889875,-9.274183 -5.054751 1.336383,-9.1386 -3.941587 1.574041,-9.016248 -3.229097 1.813533,-8.900583 -2.626044 1.977183,-9.620753 -5.250059 1.488272,-9.625456 -4.334129 1.738929,-9.588209 -3.734697 1.934421,-9.534967 -3.170642 2.056693,1.620,DnF
-0.7036185 -8.397188 0.4478202,-0.9035435 -8.486816 1.469334,-1.018936 -8.250034 2.086071,-1.008646 -7.971094 2.566895,-0.968749 -7.616973 3.080782,-0.891881 -6.563262 1.890452,-0.7819958 -5.754943 2.425126,-0.5639229 -5.419511 2.866454,-0.3045335 -5.440277 3.168916,-0.5851049 -6.431715 1.582682,-0.3967443 -5.546121 2.107086,-0.08128119 -5.30018 2.558105,0.2233601 -5.376829 2.90677,-0.33639 -6.49691 1.335113,-0.09964561 -5.709652 1.736744,0.2158728 -5.504455 2.206713,0.5120459 -5.551573 2.584611,-0.1222906 -6.709475 1.148338,0.1316185 -6.165456 1.469505,0.3983421 -6.01967 1.819572,0.6498008 -6.00381 2.162493,-9.453054 -7.555996 0.773512,-8.906899 -7.352371 1.073672,-8.404817 -6.848581 1.328694,-8.035134 -6.383813 1.617981,-7.67892 -6.124897 1.919633,-8.653637 -5.233688 1.121105,-8.459202 -4.220975 1.36308,-8.345266 -3.61013 1.580909,-8.255733 -3.070443 1.728622,-8.956053 -5.035463 1.216442,-8.781412 -3.869377 1.448454,-8.647443 -3.120034 1.705718,-8.542186 -2.471078 1.889875,-9.274183 -5.054751 1.336383,-9.1386 -3.941587 1.574041,-9.016248 -3.229097 1.813533,-8.900583 -2.626044 1.977183,-9.620753 -5.250059 1.488272,-9.625456 -4.334129 1.738929,-9.588209 -3.734697 1.934421,-9.534967 -3.170642 2.056693,1.640,DnF
-0.7036185 -8.397188 0.4478202,-0.9035435 -8.486816 1.469334,-1.018936 -8.250034 2.086071,-1.008646 -7.971094 2.566895,-0.968749 -7.616973 3.080782,-0.891881 -6.563262 1.890452,-0.7819958 -5.754943 2.425126,-0.5639229 -5.419511 2.866454,-0.3045335 -5.440277 3.168916,-0.5851049 -6.431715 1.582682,-0.3967443 -5.546121 2.107086,-0.08128119 -5.30018 2.558105,0.2233601 -5.376829 2.90677,-0.33639 -6.49691 1.335113,-0.09964561 -5.709652 1.736744,0.2158728 -5.504455 2.206713,0.5120459 -5.551573 2.584611,-0.1222906 -6.709475 1.148338,0.1316185 -6.165456 1.469505,0.3983421 -6.01967 1.819572,0.6498008 -6.00381 2.162493,-9.453054 -7.555996 0.773512,-8.906899 -7.352371 1.073672,-8.404817 -6.848581 1.328694,-8.035134 -6.383813 1.617981,-7.67892 -6.124897 1.919633,-8.653637 -5.233688 1.121105,-8.459202 -4.220975 1.36308,-8.345266 -3.61013 1.580909,-8.255733 -3.070443 1.728622,-8.956053 -5.035463 1.216442,-8.781412 -3.869377 1.448454,-8.647443 -3.120034 1.705718,-8.542186 -2.471078 1.889875,-9.274183 -5.054751 1.336383,-9.1386 -3.941587 1.574041,-9.016248 -3.229097 1.813533,-8.900583 -2.626044 1.977183,-9.620753 -5.250059 1.488272,-9.625456 -4.334129 1.738929,-9.588209 -3.734697 1.934421,-9.534967 -3.170642 2.056693,1.660,DnF
