TiagoOliveira98/HandTracking/DataLogging/JointData/Logs(1642645990)_Russel_Calculator.csv
WRIST,THUMB_CMC,THUMB_MCP,THUMB_IP,THUMB_TIP,INDEX_FINGER_MCP,INDEX_FINGER_PIP,INDEX_FINGER_DIP,INDEX_FINGER_TIP,MIDDLE_FINGER_MCP,MIDDLE_FINGER_PIP,MIDDLE_FINGER_DIP,MIDDLE_FINGER_TIP,RING_FINGER_MCP,RING_FINGER_PIP,RING_FINGER_DIP,RING_FINGER_TIP,PINKY_MCP,PINKY_PIP,PINKY_DIP,PINKY_TIP,WRIST2,THUMB_CMC2,THUMB_MCP2,THUMB_IP2,THUMB_TIP2,INDEX_FINGER_MCP2,INDEX_FINGER_PIP2,INDEX_FINGER_DIP2,INDEX_FINGER_TIP2,MIDDLE_FINGER_MCP2,MIDDLE_FINGER_PIP2,MIDDLE_FINGER_DIP2,MIDDLE_FINGER_TIP2,RING_FINGER_MCP2,RING_FINGER_PIP2,RING_FINGER_DIP2,RING_FINGER_TIP2,PINKY_MCP2,PINKY_PIP2,PINKY_DIP2,PINKY_TIP2,Timestamp,Event
10 0 0,10 7.47 0,10 7.47 0,10 7.47 0,10 7.47 0,10 7.47 0,10 7.47 0,10 7.47 0,10 7.47 0,10 7.47 0,10 7.47 0,10 7.47 0,10 7.47 0,10 7.47 0,10 7.47 0,10 7.47 0,10 7.47 0,10 7.47 0,10 7.47 0,10 7.47 0,10 7.47 0,10 0 0,10 7.47 0,10 7.47 0,10 7.47 0,10 7.47 0,10 7.47 0,10 7.47 0,10 7.47 0,10 7.47 0,10 7.47 0,10 7.47 0,10 7.47 0,10 7.47 0,10 7.47 0,10 7.47 0,10 7.47 0,10 7.47 0,10 7.47 0,10 7.47 0,10 7.47 0,10 7.47 0,0.010,
2 0 -9.699506,2 0 -9.699506,2 0 -9.699506,2 0 -9.699506,2 0 -9.699506,2 0 -9.699506,2 0 -9.699506,2 0 -9.699506,2 0 -9.699506,2 0 -9.699506,2 0 -9.699506,2 0 -9.699506,2 0 -9.699506,2 0 -9.699506,2 0 -9.699506,2 0 -9.699506,2 0 -9.699506,2 0 -9.699506,2 0 -9.699506,2 0 -9.699506,2 0 -9.699506,2 0 -10.1289,2 0 -10.1289,2 0 -10.1289,2 0 -10.1289,2 0 -10.1289,2 0 -10.1289,2 0 -10.1289,2 0 -10.1289,2 0 -10.1289,2 0 -10.1289,2 0 -10.1289,2 0 -10.1289,2 0 -10.1289,2 0 -10.1289,2 0 -10.1289,2 0 -10.1289,2 0 -10.1289,2 0 -10.1289,2 0 -10.1289,2 0 -10.1289,2 0 -10.1289,0.110,
2 0 -9.699506,2 0 -9.699506,2 0 -9.699506,2 0 -9.699506,2 0 -9.699506,2 0 -9.699506,2 0 -9.699506,2 0 -9.699506,2 0 -9.699506,2 0 -9.699506,2 0 -9.699506,2 0 -9.699506,2 0 -9.699506,2 0 -9.699506,2 0 -9.699506,2 0 -9.699506,2 0 -9.699506,2 0 -9.699506,2 0 -9.699506,2 0 -9.699506,2 0 -9.699506,2 0 -10.1289,2 0 -10.1289,2 0 -10.1289,2 0 -10.1289,2 0 -10.1289,2 0 -10.1289,2 0 -10.1289,2 0 -10.1289,2 0 -10.1289,2 0 -10.1289,2 0 -10.1289,2 0 -10.1289,2 0 -10.1289,2 0 -10.1289,2 0 -10.1289,2 0 -10.1289,2 0 -10.1289,2 0 -10.1289,2 0 -10.1289,2 0 -10.1289,2 0 -10.1289,0.210,
2 0 -9.699506,2 0 -9.699506,2 0 -9.699506,2 0 -9.699506,2 0 -9.699506,2 0 -9.699506,2 0 -9.699506,2 0 -9.699506,2 0 -9.699506,2 0 -9.699506,2 0 -9.699506,2 0 -9.699506,2 0 -9.699506,2 0 -9.699506,2 0 -9.699506,2 0 -9.699506,2 0 -9.699506,2 0 -9.699506,2 0 -9.699506,2 0 -9.699506,2 0 -9.699506,2 0 -10.1289,2 0 -10.1289,2 0 -10.1289,2 0 -10.1289,2 0 -10.1289,2 0 -10.1289,2 0 -10.1289,2 0 -10.1289,2 0 -10.1289,2 0 -10.1289,2 0 -10.1289,2 0 -10.1289,2 0 -10.1289,2 0 -10.1289,2 0 -10.1289,2 0 -10.1289,2 0 -10.1289,2 0 -10.1289,2 0 -10.1289,2 0 -10.1289,2 0 -10.1289,0.310,
2 0 -9.699506,2 0 -9.699506,2 0 -9.699506,2 0 -9.699506,2 0 -9.699506,2 0 -9.699506,2 0 -9.699506,2 0 -9.699506,2 0 -9.699506,2 0 -9.699506,2 0 -9.699506,2 0 -9.699506,2 0 -9.699506,2 0 -9.699506,2 0 -9.699506,2 0 -9.699506,2 0 -9.699506,2 0 -9.699506,2 0 -9.699506,2 0 -9.699506,2 0 -9.699506,2 0 -10.1289,2 0 -10.1289,2 0 -10.1289,2 0 -10.1289,2 0 -10.1289,2 0 -10.1289,2 0 -10.1289,2 0 -10.1289,2 0 -10.1289,2 0 -10.1289,2 0 -10.1289,2 0 -10.1289,2 0 -10.1289,2 0 -10.1289,2 0 -10.1289,2 0 -10.1289,2 0 -10.1289,2 0 -10.1289,2 0 -10.1289,2 0 -10.1289,2 0 -10.1289,0.410,
2 0 -9.699506,2 0 -9.699506,2 0 -9.699506,2 0 -9.699506,2 0 -9.699506,2 0 -9.699506,2 0 -9.699506,2 0 -9.699506,2 0 -9.699506,2 0 -9.699506,2 0 -9.699506,2 0 -9.699506,2 0 -9.699506,2 0 -9.699506,2 0 -9.699506,2 0 -9.699506,2 0 -9.699506,2 0 -9.699506,2 0 -9.699506,2 0 -9.699506,2 0 -9.699506,2 0 -10.1289,2 0 -10.1289,2 0 -10.1289,2 0 -10.1289,2 0 -10.1289,2 0 -10.1289,2 0 -10.1289,2 0 -10.1289,2 0 -10.1289,2 0 -10.1289,2 0 -10.1289,2 0 -10.1289,2 0 -10.1289,2 0 -10.1289,2 0 -10.1289,2 0 -10.1289,2 0 -10.1289,2 0 -10.1289,2 0 -10.1289,2 0 -10.1289,2 0 -10.1289,0.510,
2 0 -9.699506,2 0 -9.699506,2 0 -9.699506,2 0 -9.699506,2 0 -9.699506,2 0 -9.699506,2 0 -9.699506,2 0 -9.699506,2 0 -9.699506,2 0 -9.699506,2 0 -9.699506,2 0 -9.699506,2 0 -9.699506,2 0 -9.699506,2 0 -9.699506,2 0 -9.699506,2 0 -9.699506,2 0 -9.699506,2 0 -9.699506,2 0 -9.699506,2 0 -9.699506,2 0 -10.1289,2 0 -10.1289,2 0 -10.1289,2 0 -10.1289,2 0 -10.1289,2 0 -10.1289,2 0 -10.1289,2 0 -10.1289,2 0 -10.1289,2 0 -10.1289,2 0 -10.1289,2 0 -10.1289,2 0 -10.1289,2 0 -10.1289,2 0 -10.1289,2 0 -10.1289,2 0 -10.1289,2 0 -10.1289,2 0 -10.1289,2 0 -10.1289,2 0 -10.1289,0.610,
2 0 -9.699506,2 0 -9.699506,2 0 -9.699506,2 0 -9.699506,2 0 -9.699506,2 0 -9.699506,2 0 -9.699506,2 0 -9.699506,2 0 -9.699506,2 0 -9.699506,2 0 -9.699506,2 0 -9.699506,2 0 -9.699506,2 0 -9.699506,2 0 -9.699506,2 0 -9.699506,2 0 -9.699506,2 0 -9.699506,2 0 -9.699506,2 0 -9.699506,2 0 -9.699506,2 0 -10.1289,2 0 -10.1289,2 0 -10.1289,2 0 -10.1289,2 0 -10.1289,2 0 -10.1289,2 0 -10.1289,2 0 -10.1289,2 0 -10.1289,2 0 -10.1289,2 0 -10.1289,2 0 -10.1289,2 0 -10.1289,2 0 -10.1289,2 0 -10.1289,2 0 -10.1289,2 0 -10.1289,2 0 -10.1289,2 0 -10.1289,2 0 -10.1289,2 0 -10.1289,0.710,
2 0 -9.699506,2 0 -9.699506,2 0 -9.699506,2 0 -9.699506,2 0 -9.699506,2 0 -9.699506,2 0 -9.699506,2 0 -9.699506,2 0 -9.699506,2 0 -9.699506,2 0 -9.699506,2 0 -9.699506,2 0 -9.699506,2 0 -9.699506,2 0 -9.699506,2 0 -9.699506,2 0 -9.699506,2 0 -9.699506,2 0 -9.699506,2 0 -9.699506,2 0 -9.699506,2 0 -10.1289,2 0 -10.1289,2 0 -10.1289,2 0 -10.1289,2 0 -10.1289,2 0 -10.1289,2 0 -10.1289,2 0 -10.1289,2 0 -10.1289,2 0 -10.1289,2 0 -10.1289,2 0 -10.1289,2 0 -10.1289,2 0 -10.1289,2 0 -10.1289,2 0 -10.1289,2 0 -10.1289,2 0 -10.1289,2 0 -10.1289,2 0 -10.1289,2 0 -10.1289,0.810,
2 0 -9.699506,2 0 -9.699506,2 0 -9.699506,2 0 -9.699506,2 0 -9.699506,2 0 -9.699506,2 0 -9.699506,2 0 -9.699506,2 0 -9.699506,2 0 -9.699506,2 0 -9.699506,2 0 -9.699506,2 0 -9.699506,2 0 -9.699506,2 0 -9.699506,2 0 -9.699506,2 0 -9.699506,2 0 -9.699506,2 0 -9.699506,2 0 -9.699506,2 0 -9.699506,2 0 -10.1289,2 0 -10.1289,2 0 -10.1289,2 0 -10.1289,2 0 -10.1289,2 0 -10.1289,2 0 -10.1289,2 0 -10.1289,2 0 -10.1289,2 0 -10.1289,2 0 -10.1289,2 0 -10.1289,2 0 -10.1289,2 0 -10.1289,2 0 -10.1289,2 0 -10.1289,2 0 -10.1289,2 0 -10.1289,2 0 -10.1289,2 0 -10.1289,2 0 -10.1289,0.910,
2 0 -9.699506,2 0 -9.699506,2 0 -9.699506,2 0 -9.699506,2 0 -9.699506,2 0 -9.699506,2 0 -9.699506,2 0 -9.699506,2 0 -9.699506,2 0 -9.699506,2 0 -9.699506,2 0 -9.699506,2 0 -9.699506,2 0 -9.699506,2 0 -9.699506,2 0 -9.699506,2 0 -9.699506,2 0 -9.699506,2 0 -9.699506,2 0 -9.699506,2 0 -9.699506,2 0 -10.1289,2 0 -10.1289,2 0 -10.1289,2 0 -10.1289,2 0 -10.1289,2 0 -10.1289,2 0 -10.1289,2 0 -10.1289,2 0 -10.1289,2 0 -10.1289,2 0 -10.1289,2 0 -10.1289,2 0 -10.1289,2 0 -10.1289,2 0 -10.1289,2 0 -10.1289,2 0 -10.1289,2 0 -10.1289,2 0 -10.1289,2 0 -10.1289,2 0 -10.1289,1.010,
2 0 -9.699506,2 0 -9.699506,2 0 -9.699506,2 0 -9.699506,2 0 -9.699506,2 0 -9.699506,2 0 -9.699506,2 0 -9.699506,2 0 -9.699506,2 0 -9.699506,2 0 -9.699506,2 0 -9.699506,2 0 -9.699506,2 0 -9.699506,2 0 -9.699506,2 0 -9.699506,2 0 -9.699506,2 0 -9.699506,2 0 -9.699506,2 0 -9.699506,2 0 -9.699506,2 0 -10.1289,2 0 -10.1289,2 0 -10.1289,2 0 -10.1289,2 0 -10.1289,2 0 -10.1289,2 0 -10.1289,2 0 -10.1289,2 0 -10.1289,2 0 -10.1289,2 0 -10.1289,2 0 -10.1289,2 0 -10.1289,2 0 -10.1289,2 0 -10.1289,2 0 -10.1289,2 0 -10.1289,2 0 -10.1289,2 0 -10.1289,2 0 -10.1289,2 0 -10.1289,1.110,
2 0 -9.699506,2 0 -9.699506,2 0 -9.699506,2 0 -9.699506,2 0 -9.699506,2 0 -9.699506,2 0 -9.699506,2 0 -9.699506,2 0 -9.699506,2 0 -9.699506,2 0 -9.699506,2 0 -9.699506,2 0 -9.699506,2 0 -9.699506,2 0 -9.699506,2 0 -9.699506,2 0 -9.699506,2 0 -9.699506,2 0 -9.699506,2 0 -9.699506,2 0 -9.699506,2 0 -10.1289,2 0 -10.1289,2 0 -10.1289,2 0 -10.1289,2 0 -10.1289,2 0 -10.1289,2 0 -10.1289,2 0 -10.1289,2 0 -10.1289,2 0 -10.1289,2 0 -10.1289,2 0 -10.1289,2 0 -10.1289,2 0 -10.1289,2 0 -10.1289,2 0 -10.1289,2 0 -10.1289,2 0 -10.1289,2 0 -10.1289,2 0 -10.1289,2 0 -10.1289,1.210,
2 0 -9.699506,2 0 -9.699506,2 0 -9.699506,2 0 -9.699506,2 0 -9.699506,2 0 -9.699506,2 0 -9.699506,2 0 -9.699506,2 0 -9.699506,2 0 -9.699506,2 0 -9.699506,2 0 -9.699506,2 0 -9.699506,2 0 -9.699506,2 0 -9.699506,2 0 -9.699506,2 0 -9.699506,2 0 -9.699506,2 0 -9.699506,2 0 -9.699506,2 0 -9.699506,2 0 -10.1289,2 0 -10.1289,2 0 -10.1289,2 0 -10.1289,2 0 -10.1289,2 0 -10.1289,2 0 -10.1289,2 0 -10.1289,2 0 -10.1289,2 0 -10.1289,2 0 -10.1289,2 0 -10.1289,2 0 -10.1289,2 0 -10.1289,2 0 -10.1289,2 0 -10.1289,2 0 -10.1289,2 0 -10.1289,2 0 -10.1289,2 0 -10.1289,2 0 -10.1289,1.310,
2 0 -9.699506,2 0 -9.699506,2 0 -9.699506,2 0 -9.699506,2 0 -9.699506,2 0 -9.699506,2 0 -9.699506,2 0 -9.699506,2 0 -9.699506,2 0 -9.699506,2 0 -9.699506,2 0 -9.699506,2 0 -9.699506,2 0 -9.699506,2 0 -9.699506,2 0 -9.699506,2 0 -9.699506,2 0 -9.699506,2 0 -9.699506,2 0 -9.699506,2 0 -9.699506,2 0 -10.1289,2 0 -10.1289,2 0 -10.1289,2 0 -10.1289,2 0 -10.1289,2 0 -10.1289,2 0 -10.1289,2 0 -10.1289,2 0 -10.1289,2 0 -10.1289,2 0 -10.1289,2 0 -10.1289,2 0 -10.1289,2 0 -10.1289,2 0 -10.1289,2 0 -10.1289,2 0 -10.1289,2 0 -10.1289,2 0 -10.1289,2 0 -10.1289,2 0 -10.1289,1.410,
2 0 -9.699506,2 0 -9.699506,2 0 -9.699506,2 0 -9.699506,2 0 -9.699506,2 0 -9.699506,2 0 -9.699506,2 0 -9.699506,2 0 -9.699506,2 0 -9.699506,2 0 -9.699506,2 0 -9.699506,2 0 -9.699506,2 0 -9.699506,2 0 -9.699506,2 0 -9.699506,2 0 -9.699506,2 0 -9.699506,2 0 -9.699506,2 0 -9.699506,2 0 -9.699506,2 0 -10.1289,2 0 -10.1289,2 0 -10.1289,2 0 -10.1289,2 0 -10.1289,2 0 -10.1289,2 0 -10.1289,2 0 -10.1289,2 0 -10.1289,2 0 -10.1289,2 0 -10.1289,2 0 -10.1289,2 0 -10.1289,2 0 -10.1289,2 0 -10.1289,2 0 -10.1289,2 0 -10.1289,2 0 -10.1289,2 0 -10.1289,2 0 -10.1289,2 0 -10.1289,1.510,
2 0 -9.699506,2 0 -9.699506,2 0 -9.699506,2 0 -9.699506,2 0 -9.699506,2 0 -9.699506,2 0 -9.699506,2 0 -9.699506,2 0 -9.699506,2 0 -9.699506,2 0 -9.699506,2 0 -9.699506,2 0 -9.699506,2 0 -9.699506,2 0 -9.699506,2 0 -9.699506,2 0 -9.699506,2 0 -9.699506,2 0 -9.699506,2 0 -9.699506,2 0 -9.699506,2 0 -10.1289,2 0 -10.1289,2 0 -10.1289,2 0 -10.1289,2 0 -10.1289,2 0 -10.1289,2 0 -10.1289,2 0 -10.1289,2 0 -10.1289,2 0 -10.1289,2 0 -10.1289,2 0 -10.1289,2 0 -10.1289,2 0 -10.1289,2 0 -10.1289,2 0 -10.1289,2 0 -10.1289,2 0 -10.1289,2 0 -10.1289,2 0 -10.1289,2 0 -10.1289,1.610,
2 0 -9.699506,2 0 -9.699506,2 0 -9.699506,2 0 -9.699506,2 0 -9.699506,2 0 -9.699506,2 0 -9.699506,2 0 -9.699506,2 0 -9.699506,2 0 -9.699506,2 0 -9.699506,2 0 -9.699506,2 0 -9.699506,2 0 -9.699506,2 0 -9.699506,2 0 -9.699506,2 0 -9.699506,2 0 -9.699506,2 0 -9.699506,2 0 -9.699506,2 0 -9.699506,2 0 -10.1289,2 0 -10.1289,2 0 -10.1289,2 0 -10.1289,2 0 -10.1289,2 0 -10.1289,2 0 -10.1289,2 0 -10.1289,2 0 -10.1289,2 0 -10.1289,2 0 -10.1289,2 0 -10.1289,2 0 -10.1289,2 0 -10.1289,2 0 -10.1289,2 0 -10.1289,2 0 -10.1289,2 0 -10.1289,2 0 -10.1289,2 0 -10.1289,2 0 -10.1289,1.710,
2 0 -9.699506,2 0 -9.699506,2 0 -9.699506,2 0 -9.699506,2 0 -9.699506,2 0 -9.699506,2 0 -9.699506,2 0 -9.699506,2 0 -9.699506,2 0 -9.699506,2 0 -9.699506,2 0 -9.699506,2 0 -9.699506,2 0 -9.699506,2 0 -9.699506,2 0 -9.699506,2 0 -9.699506,2 0 -9.699506,2 0 -9.699506,2 0 -9.699506,2 0 -9.699506,2 0 -10.1289,2 0 -10.1289,2 0 -10.1289,2 0 -10.1289,2 0 -10.1289,2 0 -10.1289,2 0 -10.1289,2 0 -10.1289,2 0 -10.1289,2 0 -10.1289,2 0 -10.1289,2 0 -10.1289,2 0 -10.1289,2 0 -10.1289,2 0 -10.1289,2 0 -10.1289,2 0 -10.1289,2 0 -10.1289,2 0 -10.1289,2 0 -10.1289,2 0 -10.1289,1.810,
2 0 -9.699506,2 0 -9.699506,2 0 -9.699506,2 0 -9.699506,2 0 -9.699506,2 0 -9.699506,2 0 -9.699506,2 0 -9.699506,2 0 -9.699506,2 0 -9.699506,2 0 -9.699506,2 0 -9.699506,2 0 -9.699506,2 0 -9.699506,2 0 -9.699506,2 0 -9.699506,2 0 -9.699506,2 0 -9.699506,2 0 -9.699506,2 0 -9.699506,2 0 -9.699506,2 0 -10.1289,2 0 -10.1289,2 0 -10.1289,2 0 -10.1289,2 0 -10.1289,2 0 -10.1289,2 0 -10.1289,2 0 -10.1289,2 0 -10.1289,2 0 -10.1289,2 0 -10.1289,2 0 -10.1289,2 0 -10.1289,2 0 -10.1289,2 0 -10.1289,2 0 -10.1289,2 0 -10.1289,2 0 -10.1289,2 0 -10.1289,2 0 -10.1289,2 0 -10.1289,1.910,
2 0 -9.699506,2 0 -9.699506,2 0 -9.699506,2 0 -9.699506,2 0 -9.699506,2 0 -9.699506,2 0 -9.699506,2 0 -9.699506,2 0 -9.699506,2 0 -9.699506,2 0 -9.699506,2 0 -9.699506,2 0 -9.699506,2 0 -9.699506,2 0 -9.699506,2 0 -9.699506,2 0 -9.699506,2 0 -9.699506,2 0 -9.699506,2 0 -9.699506,2 0 -9.699506,2 0 -10.1289,2 0 -10.1289,2 0 -10.1289,2 0 -10.1289,2 0 -10.1289,2 0 -10.1289,2 0 -10.1289,2 0 -10.1289,2 0 -10.1289,2 0 -10.1289,2 0 -10.1289,2 0 -10.1289,2 0 -10.1289,2 0 -10.1289,2 0 -10.1289,2 0 -10.1289,2 0 -10.1289,2 0 -10.1289,2 0 -10.1289,2 0 -10.1289,2 0 -10.1289,2.010,
2 0 -9.699506,2 0 -9.699506,2 0 -9.699506,2 0 -9.699506,2 0 -9.699506,2 0 -9.699506,2 0 -9.699506,2 0 -9.699506,2 0 -9.699506,2 0 -9.699506,2 0 -9.699506,2 0 -9.699506,2 0 -9.699506,2 0 -9.699506,2 0 -9.699506,2 0 -9.699506,2 0 -9.699506,2 0 -9.699506,2 0 -9.699506,2 0 -9.699506,2 0 -9.699506,2 0 -10.1289,2 0 -10.1289,2 0 -10.1289,2 0 -10.1289,2 0 -10.1289,2 0 -10.1289,2 0 -10.1289,2 0 -10.1289,2 0 -10.1289,2 0 -10.1289,2 0 -10.1289,2 0 -10.1289,2 0 -10.1289,2 0 -10.1289,2 0 -10.1289,2 0 -10.1289,2 0 -10.1289,2 0 -10.1289,2 0 -10.1289,2 0 -10.1289,2 0 -10.1289,2.110,
2 0 -9.699506,2 0 -9.699506,2 0 -9.699506,2 0 -9.699506,2 0 -9.699506,2 0 -9.699506,2 0 -9.699506,2 0 -9.699506,2 0 -9.699506,2 0 -9.699506,2 0 -9.699506,2 0 -9.699506,2 0 -9.699506,2 0 -9.699506,2 0 -9.699506,2 0 -9.699506,2 0 -9.699506,2 0 -9.699506,2 0 -9.699506,2 0 -9.699506,2 0 -9.699506,2 0 -10.1289,2 0 -10.1289,2 0 -10.1289,2 0 -10.1289,2 0 -10.1289,2 0 -10.1289,2 0 -10.1289,2 0 -10.1289,2 0 -10.1289,2 0 -10.1289,2 0 -10.1289,2 0 -10.1289,2 0 -10.1289,2 0 -10.1289,2 0 -10.1289,2 0 -10.1289,2 0 -10.1289,2 0 -10.1289,2 0 -10.1289,2 0 -10.1289,2 0 -10.1289,2.210,
2 0 -9.699506,2 0 -9.699506,2 0 -9.699506,2 0 -9.699506,2 0 -9.699506,2 0 -9.699506,2 0 -9.699506,2 0 -9.699506,2 0 -9.699506,2 0 -9.699506,2 0 -9.699506,2 0 -9.699506,2 0 -9.699506,2 0 -9.699506,2 0 -9.699506,2 0 -9.699506,2 0 -9.699506,2 0 -9.699506,2 0 -9.699506,2 0 -9.699506,2 0 -9.699506,2 0 -10.1289,2 0 -10.1289,2 0 -10.1289,2 0 -10.1289,2 0 -10.1289,2 0 -10.1289,2 0 -10.1289,2 0 -10.1289,2 0 -10.1289,2 0 -10.1289,2 0 -10.1289,2 0 -10.1289,2 0 -10.1289,2 0 -10.1289,2 0 -10.1289,2 0 -10.1289,2 0 -10.1289,2 0 -10.1289,2 0 -10.1289,2 0 -10.1289,2 0 -10.1289,2.310,
2 0 -9.699506,2 0 -9.699506,2 0 -9.699506,2 0 -9.699506,2 0 -9.699506,2 0 -9.699506,2 0 -9.699506,2 0 -9.699506,2 0 -9.699506,2 0 -9.699506,2 0 -9.699506,2 0 -9.699506,2 0 -9.699506,2 0 -9.699506,2 0 -9.699506,2 0 -9.699506,2 0 -9.699506,2 0 -9.699506,2 0 -9.699506,2 0 -9.699506,2 0 -9.699506,2 0 -10.1289,2 0 -10.1289,2 0 -10.1289,2 0 -10.1289,2 0 -10.1289,2 0 -10.1289,2 0 -10.1289,2 0 -10.1289,2 0 -10.1289,2 0 -10.1289,2 0 -10.1289,2 0 -10.1289,2 0 -10.1289,2 0 -10.1289,2 0 -10.1289,2 0 -10.1289,2 0 -10.1289,2 0 -10.1289,2 0 -10.1289,2 0 -10.1289,2 0 -10.1289,2.410,
2 0 -9.699506,2 0 -9.699506,2 0 -9.699506,2 0 -9.699506,2 0 -9.699506,2 0 -9.699506,2 0 -9.699506,2 0 -9.699506,2 0 -9.699506,2 0 -9.699506,2 0 -9.699506,2 0 -9.699506,2 0 -9.699506,2 0 -9.699506,2 0 -9.699506,2 0 -9.699506,2 0 -9.699506,2 0 -9.699506,2 0 -9.699506,2 0 -9.699506,2 0 -9.699506,2 0 -10.1289,2 0 -10.1289,2 0 -10.1289,2 0 -10.1289,2 0 -10.1289,2 0 -10.1289,2 0 -10.1289,2 0 -10.1289,2 0 -10.1289,2 0 -10.1289,2 0 -10.1289,2 0 -10.1289,2 0 -10.1289,2 0 -10.1289,2 0 -10.1289,2 0 -10.1289,2 0 -10.1289,2 0 -10.1289,2 0 -10.1289,2 0 -10.1289,2 0 -10.1289,2.510,
2 0 -9.699506,2 0 -9.699506,2 0 -9.699506,2 0 -9.699506,2 0 -9.699506,2 0 -9.699506,2 0 -9.699506,2 0 -9.699506,2 0 -9.699506,2 0 -9.699506,2 0 -9.699506,2 0 -9.699506,2 0 -9.699506,2 0 -9.699506,2 0 -9.699506,2 0 -9.699506,2 0 -9.699506,2 0 -9.699506,2 0 -9.699506,2 0 -9.699506,2 0 -9.699506,2 0 -10.1289,2 0 -10.1289,2 0 -10.1289,2 0 -10.1289,2 0 -10.1289,2 0 -10.1289,2 0 -10.1289,2 0 -10.1289,2 0 -10.1289,2 0 -10.1289,2 0 -10.1289,2 0 -10.1289,2 0 -10.1289,2 0 -10.1289,2 0 -10.1289,2 0 -10.1289,2 0 -10.1289,2 0 -10.1289,2 0 -10.1289,2 0 -10.1289,2 0 -10.1289,2.610,
2 0 -9.699506,2 0 -9.699506,2 0 -9.699506,2 0 -9.699506,2 0 -9.699506,2 0 -9.699506,2 0 -9.699506,2 0 -9.699506,2 0 -9.699506,2 0 -9.699506,2 0 -9.699506,2 0 -9.699506,2 0 -9.699506,2 0 -9.699506,2 0 -9.699506,2 0 -9.699506,2 0 -9.699506,2 0 -9.699506,2 0 -9.699506,2 0 -9.699506,2 0 -9.699506,2 0 -10.1289,2 0 -10.1289,2 0 -10.1289,2 0 -10.1289,2 0 -10.1289,2 0 -10.1289,2 0 -10.1289,2 0 -10.1289,2 0 -10.1289,2 0 -10.1289,2 0 -10.1289,2 0 -10.1289,2 0 -10.1289,2 0 -10.1289,2 0 -10.1289,2 0 -10.1289,2 0 -10.1289,2 0 -10.1289,2 0 -10.1289,2 0 -10.1289,2 0 -10.1289,2.710,
2 0 -9.699506,2 0 -9.699506,2 0 -9.699506,2 0 -9.699506,2 0 -9.699506,2 0 -9.699506,2 0 -9.699506,2 0 -9.699506,2 0 -9.699506,2 0 -9.699506,2 0 -9.699506,2 0 -9.699506,2 0 -9.699506,2 0 -9.699506,2 0 -9.699506,2 0 -9.699506,2 0 -9.699506,2 0 -9.699506,2 0 -9.699506,2 0 -9.699506,2 0 -9.699506,2 0 -10.1289,2 0 -10.1289,2 0 -10.1289,2 0 -10.1289,2 0 -10.1289,2 0 -10.1289,2 0 -10.1289,2 0 -10.1289,2 0 -10.1289,2 0 -10.1289,2 0 -10.1289,2 0 -10.1289,2 0 -10.1289,2 0 -10.1289,2 0 -10.1289,2 0 -10.1289,2 0 -10.1289,2 0 -10.1289,2 0 -10.1289,2 0 -10.1289,2 0 -10.1289,2.810,
2 0 -9.699506,2 0 -9.699506,2 0 -9.699506,2 0 -9.699506,2 0 -9.699506,2 0 -9.699506,2 0 -9.699506,2 0 -9.699506,2 0 -9.699506,2 0 -9.699506,2 0 -9.699506,2 0 -9.699506,2 0 -9.699506,2 0 -9.699506,2 0 -9.699506,2 0 -9.699506,2 0 -9.699506,2 0 -9.699506,2 0 -9.699506,2 0 -9.699506,2 0 -9.699506,2 0 -10.1289,2 0 -10.1289,2 0 -10.1289,2 0 -10.1289,2 0 -10.1289,2 0 -10.1289,2 0 -10.1289,2 0 -10.1289,2 0 -10.1289,2 0 -10.1289,2 0 -10.1289,2 0 -10.1289,2 0 -10.1289,2 0 -10.1289,2 0 -10.1289,2 0 -10.1289,2 0 -10.1289,2 0 -10.1289,2 0 -10.1289,2 0 -10.1289,2 0 -10.1289,2.910,
2 0 -9.699506,2 0 -9.699506,2 0 -9.699506,2 0 -9.699506,2 0 -9.699506,2 0 -9.699506,2 0 -9.699506,2 0 -9.699506,2 0 -9.699506,2 0 -9.699506,2 0 -9.699506,2 0 -9.699506,2 0 -9.699506,2 0 -9.699506,2 0 -9.699506,2 0 -9.699506,2 0 -9.699506,2 0 -9.699506,2 0 -9.699506,2 0 -9.699506,2 0 -9.699506,2 0 -10.1289,2 0 -10.1289,2 0 -10.1289,2 0 -10.1289,2 0 -10.1289,2 0 -10.1289,2 0 -10.1289,2 0 -10.1289,2 0 -10.1289,2 0 -10.1289,2 0 -10.1289,2 0 -10.1289,2 0 -10.1289,2 0 -10.1289,2 0 -10.1289,2 0 -10.1289,2 0 -10.1289,2 0 -10.1289,2 0 -10.1289,2 0 -10.1289,2 0 -10.1289,3.010,
2 0 -9.699506,2 0 -9.699506,2 0 -9.699506,2 0 -9.699506,2 0 -9.699506,2 0 -9.699506,2 0 -9.699506,2 0 -9.699506,2 0 -9.699506,2 0 -9.699506,2 0 -9.699506,2 0 -9.699506,2 0 -9.699506,2 0 -9.699506,2 0 -9.699506,2 0 -9.699506,2 0 -9.699506,2 0 -9.699506,2 0 -9.699506,2 0 -9.699506,2 0 -9.699506,2 0 -10.1289,2 0 -10.1289,2 0 -10.1289,2 0 -10.1289,2 0 -10.1289,2 0 -10.1289,2 0 -10.1289,2 0 -10.1289,2 0 -10.1289,2 0 -10.1289,2 0 -10.1289,2 0 -10.1289,2 0 -10.1289,2 0 -10.1289,2 0 -10.1289,2 0 -10.1289,2 0 -10.1289,2 0 -10.1289,2 0 -10.1289,2 0 -10.1289,2 0 -10.1289,3.110,
2 0 -9.699506,2 0 -9.699506,2 0 -9.699506,2 0 -9.699506,2 0 -9.699506,2 0 -9.699506,2 0 -9.699506,2 0 -9.699506,2 0 -9.699506,2 0 -9.699506,2 0 -9.699506,2 0 -9.699506,2 0 -9.699506,2 0 -9.699506,2 0 -9.699506,2 0 -9.699506,2 0 -9.699506,2 0 -9.699506,2 0 -9.699506,2 0 -9.699506,2 0 -9.699506,2 0 -10.1289,2 0 -10.1289,2 0 -10.1289,2 0 -10.1289,2 0 -10.1289,2 0 -10.1289,2 0 -10.1289,2 0 -10.1289,2 0 -10.1289,2 0 -10.1289,2 0 -10.1289,2 0 -10.1289,2 0 -10.1289,2 0 -10.1289,2 0 -10.1289,2 0 -10.1289,2 0 -10.1289,2 0 -10.1289,2 0 -10.1289,2 0 -10.1289,2 0 -10.1289,3.210,
2 0 -9.699506,2 0 -9.699506,2 0 -9.699506,2 0 -9.699506,2 0 -9.699506,2 0 -9.699506,2 0 -9.699506,2 0 -9.699506,2 0 -9.699506,2 0 -9.699506,2 0 -9.699506,2 0 -9.699506,2 0 -9.699506,2 0 -9.699506,2 0 -9.699506,2 0 -9.699506,2 0 -9.699506,2 0 -9.699506,2 0 -9.699506,2 0 -9.699506,2 0 -9.699506,2 0 -10.1289,2 0 -10.1289,2 0 -10.1289,2 0 -10.1289,2 0 -10.1289,2 0 -10.1289,2 0 -10.1289,2 0 -10.1289,2 0 -10.1289,2 0 -10.1289,2 0 -10.1289,2 0 -10.1289,2 0 -10.1289,2 0 -10.1289,2 0 -10.1289,2 0 -10.1289,2 0 -10.1289,2 0 -10.1289,2 0 -10.1289,2 0 -10.1289,2 0 -10.1289,3.310,
2 0 -9.699506,2 0 -9.699506,2 0 -9.699506,2 0 -9.699506,2 0 -9.699506,2 0 -9.699506,2 0 -9.699506,2 0 -9.699506,2 0 -9.699506,2 0 -9.699506,2 0 -9.699506,2 0 -9.699506,2 0 -9.699506,2 0 -9.699506,2 0 -9.699506,2 0 -9.699506,2 0 -9.699506,2 0 -9.699506,2 0 -9.699506,2 0 -9.699506,2 0 -9.699506,2 0 -10.1289,2 0 -10.1289,2 0 -10.1289,2 0 -10.1289,2 0 -10.1289,2 0 -10.1289,2 0 -10.1289,2 0 -10.1289,2 0 -10.1289,2 0 -10.1289,2 0 -10.1289,2 0 -10.1289,2 0 -10.1289,2 0 -10.1289,2 0 -10.1289,2 0 -10.1289,2 0 -10.1289,2 0 -10.1289,2 0 -10.1289,2 0 -10.1289,2 0 -10.1289,3.410,
2 0 -9.699506,2 0 -9.699506,2 0 -9.699506,2 0 -9.699506,2 0 -9.699506,2 0 -9.699506,2 0 -9.699506,2 0 -9.699506,2 0 -9.699506,2 0 -9.699506,2 0 -9.699506,2 0 -9.699506,2 0 -9.699506,2 0 -9.699506,2 0 -9.699506,2 0 -9.699506,2 0 -9.699506,2 0 -9.699506,2 0 -9.699506,2 0 -9.699506,2 0 -9.699506,2 0 -10.1289,2 0 -10.1289,2 0 -10.1289,2 0 -10.1289,2 0 -10.1289,2 0 -10.1289,2 0 -10.1289,2 0 -10.1289,2 0 -10.1289,2 0 -10.1289,2 0 -10.1289,2 0 -10.1289,2 0 -10.1289,2 0 -10.1289,2 0 -10.1289,2 0 -10.1289,2 0 -10.1289,2 0 -10.1289,2 0 -10.1289,2 0 -10.1289,2 0 -10.1289,3.510,
2 0 -9.699506,2 0 -9.699506,2 0 -9.699506,2 0 -9.699506,2 0 -9.699506,2 0 -9.699506,2 0 -9.699506,2 0 -9.699506,2 0 -9.699506,2 0 -9.699506,2 0 -9.699506,2 0 -9.699506,2 0 -9.699506,2 0 -9.699506,2 0 -9.699506,2 0 -9.699506,2 0 -9.699506,2 0 -9.699506,2 0 -9.699506,2 0 -9.699506,2 0 -9.699506,2 0 -10.1289,2 0 -10.1289,2 0 -10.1289,2 0 -10.1289,2 0 -10.1289,2 0 -10.1289,2 0 -10.1289,2 0 -10.1289,2 0 -10.1289,2 0 -10.1289,2 0 -10.1289,2 0 -10.1289,2 0 -10.1289,2 0 -10.1289,2 0 -10.1289,2 0 -10.1289,2 0 -10.1289,2 0 -10.1289,2 0 -10.1289,2 0 -10.1289,2 0 -10.1289,3.610,
2 0 -9.699506,2 0 -9.699506,2 0 -9.699506,2 0 -9.699506,2 0 -9.699506,2 0 -9.699506,2 0 -9.699506,2 0 -9.699506,2 0 -9.699506,2 0 -9.699506,2 0 -9.699506,2 0 -9.699506,2 0 -9.699506,2 0 -9.699506,2 0 -9.699506,2 0 -9.699506,2 0 -9.699506,2 0 -9.699506,2 0 -9.699506,2 0 -9.699506,2 0 -9.699506,2 0 -10.1289,2 0 -10.1289,2 0 -10.1289,2 0 -10.1289,2 0 -10.1289,2 0 -10.1289,2 0 -10.1289,2 0 -10.1289,2 0 -10.1289,2 0 -10.1289,2 0 -10.1289,2 0 -10.1289,2 0 -10.1289,2 0 -10.1289,2 0 -10.1289,2 0 -10.1289,2 0 -10.1289,2 0 -10.1289,2 0 -10.1289,2 0 -10.1289,2 0 -10.1289,3.710,
2 0 -9.699506,2 0 -9.699506,2 0 -9.699506,2 0 -9.699506,2 0 -9.699506,2 0 -9.699506,2 0 -9.699506,2 0 -9.699506,2 0 -9.699506,2 0 -9.699506,2 0 -9.699506,2 0 -9.699506,2 0 -9.699506,2 0 -9.699506,2 0 -9.699506,2 0 -9.699506,2 0 -9.699506,2 0 -9.699506,2 0 -9.699506,2 0 -9.699506,2 0 -9.699506,2 0 -10.1289,2 0 -10.1289,2 0 -10.1289,2 0 -10.1289,2 0 -10.1289,2 0 -10.1289,2 0 -10.1289,2 0 -10.1289,2 0 -10.1289,2 0 -10.1289,2 0 -10.1289,2 0 -10.1289,2 0 -10.1289,2 0 -10.1289,2 0 -10.1289,2 0 -10.1289,2 0 -10.1289,2 0 -10.1289,2 0 -10.1289,2 0 -10.1289,2 0 -10.1289,3.810,
2 0 -9.699506,2 0 -9.699506,2 0 -9.699506,2 0 -9.699506,2 0 -9.699506,2 0 -9.699506,2 0 -9.699506,2 0 -9.699506,2 0 -9.699506,2 0 -9.699506,2 0 -9.699506,2 0 -9.699506,2 0 -9.699506,2 0 -9.699506,2 0 -9.699506,2 0 -9.699506,2 0 -9.699506,2 0 -9.699506,2 0 -9.699506,2 0 -9.699506,2 0 -9.699506,2 0 -10.1289,2 0 -10.1289,2 0 -10.1289,2 0 -10.1289,2 0 -10.1289,2 0 -10.1289,2 0 -10.1289,2 0 -10.1289,2 0 -10.1289,2 0 -10.1289,2 0 -10.1289,2 0 -10.1289,2 0 -10.1289,2 0 -10.1289,2 0 -10.1289,2 0 -10.1289,2 0 -10.1289,2 0 -10.1289,2 0 -10.1289,2 0 -10.1289,2 0 -10.1289,3.910,
2 0 -9.699506,2 0 -9.699506,2 0 -9.699506,2 0 -9.699506,2 0 -9.699506,2 0 -9.699506,2 0 -9.699506,2 0 -9.699506,2 0 -9.699506,2 0 -9.699506,2 0 -9.699506,2 0 -9.699506,2 0 -9.699506,2 0 -9.699506,2 0 -9.699506,2 0 -9.699506,2 0 -9.699506,2 0 -9.699506,2 0 -9.699506,2 0 -9.699506,2 0 -9.699506,2 0 -10.1289,2 0 -10.1289,2 0 -10.1289,2 0 -10.1289,2 0 -10.1289,2 0 -10.1289,2 0 -10.1289,2 0 -10.1289,2 0 -10.1289,2 0 -10.1289,2 0 -10.1289,2 0 -10.1289,2 0 -10.1289,2 0 -10.1289,2 0 -10.1289,2 0 -10.1289,2 0 -10.1289,2 0 -10.1289,2 0 -10.1289,2 0 -10.1289,2 0 -10.1289,4.010,
2 0 -9.699506,2 0 -9.699506,2 0 -9.699506,2 0 -9.699506,2 0 -9.699506,2 0 -9.699506,2 0 -9.699506,2 0 -9.699506,2 0 -9.699506,2 0 -9.699506,2 0 -9.699506,2 0 -9.699506,2 0 -9.699506,2 0 -9.699506,2 0 -9.699506,2 0 -9.699506,2 0 -9.699506,2 0 -9.699506,2 0 -9.699506,2 0 -9.699506,2 0 -9.699506,2 0 -10.1289,2 0 -10.1289,2 0 -10.1289,2 0 -10.1289,2 0 -10.1289,2 0 -10.1289,2 0 -10.1289,2 0 -10.1289,2 0 -10.1289,2 0 -10.1289,2 0 -10.1289,2 0 -10.1289,2 0 -10.1289,2 0 -10.1289,2 0 -10.1289,2 0 -10.1289,2 0 -10.1289,2 0 -10.1289,2 0 -10.1289,2 0 -10.1289,2 0 -10.1289,4.110,
2 0 -9.699506,2 0 -9.699506,2 0 -9.699506,2 0 -9.699506,2 0 -9.699506,2 0 -9.699506,2 0 -9.699506,2 0 -9.699506,2 0 -9.699506,2 0 -9.699506,2 0 -9.699506,2 0 -9.699506,2 0 -9.699506,2 0 -9.699506,2 0 -9.699506,2 0 -9.699506,2 0 -9.699506,2 0 -9.699506,2 0 -9.699506,2 0 -9.699506,2 0 -9.699506,2 0 -10.1289,2 0 -10.1289,2 0 -10.1289,2 0 -10.1289,2 0 -10.1289,2 0 -10.1289,2 0 -10.1289,2 0 -10.1289,2 0 -10.1289,2 0 -10.1289,2 0 -10.1289,2 0 -10.1289,2 0 -10.1289,2 0 -10.1289,2 0 -10.1289,2 0 -10.1289,2 0 -10.1289,2 0 -10.1289,2 0 -10.1289,2 0 -10.1289,2 0 -10.1289,4.210,
2 0 -9.699506,2 0 -9.699506,2 0 -9.699506,2 0 -9.699506,2 0 -9.699506,2 0 -9.699506,2 0 -9.699506,2 0 -9.699506,2 0 -9.699506,2 0 -9.699506,2 0 -9.699506,2 0 -9.699506,2 0 -9.699506,2 0 -9.699506,2 0 -9.699506,2 0 -9.699506,2 0 -9.699506,2 0 -9.699506,2 0 -9.699506,2 0 -9.699506,2 0 -9.699506,2 0 -10.1289,2 0 -10.1289,2 0 -10.1289,2 0 -10.1289,2 0 -10.1289,2 0 -10.1289,2 0 -10.1289,2 0 -10.1289,2 0 -10.1289,2 0 -10.1289,2 0 -10.1289,2 0 -10.1289,2 0 -10.1289,2 0 -10.1289,2 0 -10.1289,2 0 -10.1289,2 0 -10.1289,2 0 -10.1289,2 0 -10.1289,2 0 -10.1289,2 0 -10.1289,4.310,
2 0 -9.699506,2 0 -9.699506,2 0 -9.699506,2 0 -9.699506,2 0 -9.699506,2 0 -9.699506,2 0 -9.699506,2 0 -9.699506,2 0 -9.699506,2 0 -9.699506,2 0 -9.699506,2 0 -9.699506,2 0 -9.699506,2 0 -9.699506,2 0 -9.699506,2 0 -9.699506,2 0 -9.699506,2 0 -9.699506,2 0 -9.699506,2 0 -9.699506,2 0 -9.699506,2 0 -10.1289,2 0 -10.1289,2 0 -10.1289,2 0 -10.1289,2 0 -10.1289,2 0 -10.1289,2 0 -10.1289,2 0 -10.1289,2 0 -10.1289,2 0 -10.1289,2 0 -10.1289,2 0 -10.1289,2 0 -10.1289,2 0 -10.1289,2 0 -10.1289,2 0 -10.1289,2 0 -10.1289,2 0 -10.1289,2 0 -10.1289,2 0 -10.1289,2 0 -10.1289,4.410,
2 0 -9.699506,2 0 -9.699506,2 0 -9.699506,2 0 -9.699506,2 0 -9.699506,2 0 -9.699506,2 0 -9.699506,2 0 -9.699506,2 0 -9.699506,2 0 -9.699506,2 0 -9.699506,2 0 -9.699506,2 0 -9.699506,2 0 -9.699506,2 0 -9.699506,2 0 -9.699506,2 0 -9.699506,2 0 -9.699506,2 0 -9.699506,2 0 -9.699506,2 0 -9.699506,2 0 -10.1289,2 0 -10.1289,2 0 -10.1289,2 0 -10.1289,2 0 -10.1289,2 0 -10.1289,2 0 -10.1289,2 0 -10.1289,2 0 -10.1289,2 0 -10.1289,2 0 -10.1289,2 0 -10.1289,2 0 -10.1289,2 0 -10.1289,2 0 -10.1289,2 0 -10.1289,2 0 -10.1289,2 0 -10.1289,2 0 -10.1289,2 0 -10.1289,2 0 -10.1289,4.510,
2 0 -9.699506,2 0 -9.699506,2 0 -9.699506,2 0 -9.699506,2 0 -9.699506,2 0 -9.699506,2 0 -9.699506,2 0 -9.699506,2 0 -9.699506,2 0 -9.699506,2 0 -9.699506,2 0 -9.699506,2 0 -9.699506,2 0 -9.699506,2 0 -9.699506,2 0 -9.699506,2 0 -9.699506,2 0 -9.699506,2 0 -9.699506,2 0 -9.699506,2 0 -9.699506,2 0 -10.1289,2 0 -10.1289,2 0 -10.1289,2 0 -10.1289,2 0 -10.1289,2 0 -10.1289,2 0 -10.1289,2 0 -10.1289,2 0 -10.1289,2 0 -10.1289,2 0 -10.1289,2 0 -10.1289,2 0 -10.1289,2 0 -10.1289,2 0 -10.1289,2 0 -10.1289,2 0 -10.1289,2 0 -10.1289,2 0 -10.1289,2 0 -10.1289,2 0 -10.1289,4.610,
2 0 -9.699506,2 0 -9.699506,2 0 -9.699506,2 0 -9.699506,2 0 -9.699506,2 0 -9.699506,2 0 -9.699506,2 0 -9.699506,2 0 -9.699506,2 0 -9.699506,2 0 -9.699506,2 0 -9.699506,2 0 -9.699506,2 0 -9.699506,2 0 -9.699506,2 0 -9.699506,2 0 -9.699506,2 0 -9.699506,2 0 -9.699506,2 0 -9.699506,2 0 -9.699506,2 0 -10.1289,2 0 -10.1289,2 0 -10.1289,2 0 -10.1289,2 0 -10.1289,2 0 -10.1289,2 0 -10.1289,2 0 -10.1289,2 0 -10.1289,2 0 -10.1289,2 0 -10.1289,2 0 -10.1289,2 0 -10.1289,2 0 -10.1289,2 0 -10.1289,2 0 -10.1289,2 0 -10.1289,2 0 -10.1289,2 0 -10.1289,2 0 -10.1289,2 0 -10.1289,4.710,
2 0 -9.699506,2 0 -9.699506,2 0 -9.699506,2 0 -9.699506,2 0 -9.699506,2 0 -9.699506,2 0 -9.699506,2 0 -9.699506,2 0 -9.699506,2 0 -9.699506,2 0 -9.699506,2 0 -9.699506,2 0 -9.699506,2 0 -9.699506,2 0 -9.699506,2 0 -9.699506,2 0 -9.699506,2 0 -9.699506,2 0 -9.699506,2 0 -9.699506,2 0 -9.699506,2 0 -10.1289,2 0 -10.1289,2 0 -10.1289,2 0 -10.1289,2 0 -10.1289,2 0 -10.1289,2 0 -10.1289,2 0 -10.1289,2 0 -10.1289,2 0 -10.1289,2 0 -10.1289,2 0 -10.1289,2 0 -10.1289,2 0 -10.1289,2 0 -10.1289,2 0 -10.1289,2 0 -10.1289,2 0 -10.1289,2 0 -10.1289,2 0 -10.1289,2 0 -10.1289,4.810,
2 0 -9.699506,2 0 -9.699506,2 0 -9.699506,2 0 -9.699506,2 0 -9.699506,2 0 -9.699506,2 0 -9.699506,2 0 -9.699506,2 0 -9.699506,2 0 -9.699506,2 0 -9.699506,2 0 -9.699506,2 0 -9.699506,2 0 -9.699506,2 0 -9.699506,2 0 -9.699506,2 0 -9.699506,2 0 -9.699506,2 0 -9.699506,2 0 -9.699506,2 0 -9.699506,2 0 -10.1289,2 0 -10.1289,2 0 -10.1289,2 0 -10.1289,2 0 -10.1289,2 0 -10.1289,2 0 -10.1289,2 0 -10.1289,2 0 -10.1289,2 0 -10.1289,2 0 -10.1289,2 0 -10.1289,2 0 -10.1289,2 0 -10.1289,2 0 -10.1289,2 0 -10.1289,2 0 -10.1289,2 0 -10.1289,2 0 -10.1289,2 0 -10.1289,2 0 -10.1289,4.910,
2 0 -9.699506,2 0 -9.699506,2 0 -9.699506,2 0 -9.699506,2 0 -9.699506,2 0 -9.699506,2 0 -9.699506,2 0 -9.699506,2 0 -9.699506,2 0 -9.699506,2 0 -9.699506,2 0 -9.699506,2 0 -9.699506,2 0 -9.699506,2 0 -9.699506,2 0 -9.699506,2 0 -9.699506,2 0 -9.699506,2 0 -9.699506,2 0 -9.699506,2 0 -9.699506,2 0 -10.1289,2 0 -10.1289,2 0 -10.1289,2 0 -10.1289,2 0 -10.1289,2 0 -10.1289,2 0 -10.1289,2 0 -10.1289,2 0 -10.1289,2 0 -10.1289,2 0 -10.1289,2 0 -10.1289,2 0 -10.1289,2 0 -10.1289,2 0 -10.1289,2 0 -10.1289,2 0 -10.1289,2 0 -10.1289,2 0 -10.1289,2 0 -10.1289,2 0 -10.1289,5.010,
2 0 -9.699506,2 0 -9.699506,2 0 -9.699506,2 0 -9.699506,2 0 -9.699506,2 0 -9.699506,2 0 -9.699506,2 0 -9.699506,2 0 -9.699506,2 0 -9.699506,2 0 -9.699506,2 0 -9.699506,2 0 -9.699506,2 0 -9.699506,2 0 -9.699506,2 0 -9.699506,2 0 -9.699506,2 0 -9.699506,2 0 -9.699506,2 0 -9.699506,2 0 -9.699506,2 0 -10.1289,2 0 -10.1289,2 0 -10.1289,2 0 -10.1289,2 0 -10.1289,2 0 -10.1289,2 0 -10.1289,2 0 -10.1289,2 0 -10.1289,2 0 -10.1289,2 0 -10.1289,2 0 -10.1289,2 0 -10.1289,2 0 -10.1289,2 0 -10.1289,2 0 -10.1289,2 0 -10.1289,2 0 -10.1289,2 0 -10.1289,2 0 -10.1289,2 0 -10.1289,5.110,
2 0 -9.699506,2 0 -9.699506,2 0 -9.699506,2 0 -9.699506,2 0 -9.699506,2 0 -9.699506,2 0 -9.699506,2 0 -9.699506,2 0 -9.699506,2 0 -9.699506,2 0 -9.699506,2 0 -9.699506,2 0 -9.699506,2 0 -9.699506,2 0 -9.699506,2 0 -9.699506,2 0 -9.699506,2 0 -9.699506,2 0 -9.699506,2 0 -9.699506,2 0 -9.699506,2 0 -10.1289,2 0 -10.1289,2 0 -10.1289,2 0 -10.1289,2 0 -10.1289,2 0 -10.1289,2 0 -10.1289,2 0 -10.1289,2 0 -10.1289,2 0 -10.1289,2 0 -10.1289,2 0 -10.1289,2 0 -10.1289,2 0 -10.1289,2 0 -10.1289,2 0 -10.1289,2 0 -10.1289,2 0 -10.1289,2 0 -10.1289,2 0 -10.1289,2 0 -10.1289,5.210,
2 0 -9.699506,2 0 -9.699506,2 0 -9.699506,2 0 -9.699506,2 0 -9.699506,2 0 -9.699506,2 0 -9.699506,2 0 -9.699506,2 0 -9.699506,2 0 -9.699506,2 0 -9.699506,2 0 -9.699506,2 0 -9.699506,2 0 -9.699506,2 0 -9.699506,2 0 -9.699506,2 0 -9.699506,2 0 -9.699506,2 0 -9.699506,2 0 -9.699506,2 0 -9.699506,2 0 -10.1289,2 0 -10.1289,2 0 -10.1289,2 0 -10.1289,2 0 -10.1289,2 0 -10.1289,2 0 -10.1289,2 0 -10.1289,2 0 -10.1289,2 0 -10.1289,2 0 -10.1289,2 0 -10.1289,2 0 -10.1289,2 0 -10.1289,2 0 -10.1289,2 0 -10.1289,2 0 -10.1289,2 0 -10.1289,2 0 -10.1289,2 0 -10.1289,2 0 -10.1289,5.310,
2 0 -9.699506,2 0 -9.699506,2 0 -9.699506,2 0 -9.699506,2 0 -9.699506,2 0 -9.699506,2 0 -9.699506,2 0 -9.699506,2 0 -9.699506,2 0 -9.699506,2 0 -9.699506,2 0 -9.699506,2 0 -9.699506,2 0 -9.699506,2 0 -9.699506,2 0 -9.699506,2 0 -9.699506,2 0 -9.699506,2 0 -9.699506,2 0 -9.699506,2 0 -9.699506,2 0 -10.1289,2 0 -10.1289,2 0 -10.1289,2 0 -10.1289,2 0 -10.1289,2 0 -10.1289,2 0 -10.1289,2 0 -10.1289,2 0 -10.1289,2 0 -10.1289,2 0 -10.1289,2 0 -10.1289,2 0 -10.1289,2 0 -10.1289,2 0 -10.1289,2 0 -10.1289,2 0 -10.1289,2 0 -10.1289,2 0 -10.1289,2 0 -10.1289,2 0 -10.1289,5.410,
2 0 -9.699506,2 0 -9.699506,2 0 -9.699506,2 0 -9.699506,2 0 -9.699506,2 0 -9.699506,2 0 -9.699506,2 0 -9.699506,2 0 -9.699506,2 0 -9.699506,2 0 -9.699506,2 0 -9.699506,2 0 -9.699506,2 0 -9.699506,2 0 -9.699506,2 0 -9.699506,2 0 -9.699506,2 0 -9.699506,2 0 -9.699506,2 0 -9.699506,2 0 -9.699506,2 0 -10.1289,2 0 -10.1289,2 0 -10.1289,2 0 -10.1289,2 0 -10.1289,2 0 -10.1289,2 0 -10.1289,2 0 -10.1289,2 0 -10.1289,2 0 -10.1289,2 0 -10.1289,2 0 -10.1289,2 0 -10.1289,2 0 -10.1289,2 0 -10.1289,2 0 -10.1289,2 0 -10.1289,2 0 -10.1289,2 0 -10.1289,2 0 -10.1289,2 0 -10.1289,5.510,
2 0 -9.699506,2 0 -9.699506,2 0 -9.699506,2 0 -9.699506,2 0 -9.699506,2 0 -9.699506,2 0 -9.699506,2 0 -9.699506,2 0 -9.699506,2 0 -9.699506,2 0 -9.699506,2 0 -9.699506,2 0 -9.699506,2 0 -9.699506,2 0 -9.699506,2 0 -9.699506,2 0 -9.699506,2 0 -9.699506,2 0 -9.699506,2 0 -9.699506,2 0 -9.699506,2 0 -10.1289,2 0 -10.1289,2 0 -10.1289,2 0 -10.1289,2 0 -10.1289,2 0 -10.1289,2 0 -10.1289,2 0 -10.1289,2 0 -10.1289,2 0 -10.1289,2 0 -10.1289,2 0 -10.1289,2 0 -10.1289,2 0 -10.1289,2 0 -10.1289,2 0 -10.1289,2 0 -10.1289,2 0 -10.1289,2 0 -10.1289,2 0 -10.1289,2 0 -10.1289,5.610,
2 0 -9.699506,2 0 -9.699506,2 0 -9.699506,2 0 -9.699506,2 0 -9.699506,2 0 -9.699506,2 0 -9.699506,2 0 -9.699506,2 0 -9.699506,2 0 -9.699506,2 0 -9.699506,2 0 -9.699506,2 0 -9.699506,2 0 -9.699506,2 0 -9.699506,2 0 -9.699506,2 0 -9.699506,2 0 -9.699506,2 0 -9.699506,2 0 -9.699506,2 0 -9.699506,2 0 -10.1289,2 0 -10.1289,2 0 -10.1289,2 0 -10.1289,2 0 -10.1289,2 0 -10.1289,2 0 -10.1289,2 0 -10.1289,2 0 -10.1289,2 0 -10.1289,2 0 -10.1289,2 0 -10.1289,2 0 -10.1289,2 0 -10.1289,2 0 -10.1289,2 0 -10.1289,2 0 -10.1289,2 0 -10.1289,2 0 -10.1289,2 0 -10.1289,2 0 -10.1289,5.710,
2 0 -9.699506,2 0 -9.699506,2 0 -9.699506,2 0 -9.699506,2 0 -9.699506,2 0 -9.699506,2 0 -9.699506,2 0 -9.699506,2 0 -9.699506,2 0 -9.699506,2 0 -9.699506,2 0 -9.699506,2 0 -9.699506,2 0 -9.699506,2 0 -9.699506,2 0 -9.699506,2 0 -9.699506,2 0 -9.699506,2 0 -9.699506,2 0 -9.699506,2 0 -9.699506,2 0 -10.1289,2 0 -10.1289,2 0 -10.1289,2 0 -10.1289,2 0 -10.1289,2 0 -10.1289,2 0 -10.1289,2 0 -10.1289,2 0 -10.1289,2 0 -10.1289,2 0 -10.1289,2 0 -10.1289,2 0 -10.1289,2 0 -10.1289,2 0 -10.1289,2 0 -10.1289,2 0 -10.1289,2 0 -10.1289,2 0 -10.1289,2 0 -10.1289,2 0 -10.1289,5.810,
2 0 -9.699506,2 0 -9.699506,2 0 -9.699506,2 0 -9.699506,2 0 -9.699506,2 0 -9.699506,2 0 -9.699506,2 0 -9.699506,2 0 -9.699506,2 0 -9.699506,2 0 -9.699506,2 0 -9.699506,2 0 -9.699506,2 0 -9.699506,2 0 -9.699506,2 0 -9.699506,2 0 -9.699506,2 0 -9.699506,2 0 -9.699506,2 0 -9.699506,2 0 -9.699506,2 0 -10.1289,2 0 -10.1289,2 0 -10.1289,2 0 -10.1289,2 0 -10.1289,2 0 -10.1289,2 0 -10.1289,2 0 -10.1289,2 0 -10.1289,2 0 -10.1289,2 0 -10.1289,2 0 -10.1289,2 0 -10.1289,2 0 -10.1289,2 0 -10.1289,2 0 -10.1289,2 0 -10.1289,2 0 -10.1289,2 0 -10.1289,2 0 -10.1289,2 0 -10.1289,5.910,
2 0 -9.699506,2 0 -9.699506,2 0 -9.699506,2 0 -9.699506,2 0 -9.699506,2 0 -9.699506,2 0 -9.699506,2 0 -9.699506,2 0 -9.699506,2 0 -9.699506,2 0 -9.699506,2 0 -9.699506,2 0 -9.699506,2 0 -9.699506,2 0 -9.699506,2 0 -9.699506,2 0 -9.699506,2 0 -9.699506,2 0 -9.699506,2 0 -9.699506,2 0 -9.699506,2 0 -10.1289,2 0 -10.1289,2 0 -10.1289,2 0 -10.1289,2 0 -10.1289,2 0 -10.1289,2 0 -10.1289,2 0 -10.1289,2 0 -10.1289,2 0 -10.1289,2 0 -10.1289,2 0 -10.1289,2 0 -10.1289,2 0 -10.1289,2 0 -10.1289,2 0 -10.1289,2 0 -10.1289,2 0 -10.1289,2 0 -10.1289,2 0 -10.1289,2 0 -10.1289,6.010,
2 0 -9.699506,2 0 -9.699506,2 0 -9.699506,2 0 -9.699506,2 0 -9.699506,2 0 -9.699506,2 0 -9.699506,2 0 -9.699506,2 0 -9.699506,2 0 -9.699506,2 0 -9.699506,2 0 -9.699506,2 0 -9.699506,2 0 -9.699506,2 0 -9.699506,2 0 -9.699506,2 0 -9.699506,2 0 -9.699506,2 0 -9.699506,2 0 -9.699506,2 0 -9.699506,2 0 -10.1289,2 0 -10.1289,2 0 -10.1289,2 0 -10.1289,2 0 -10.1289,2 0 -10.1289,2 0 -10.1289,2 0 -10.1289,2 0 -10.1289,2 0 -10.1289,2 0 -10.1289,2 0 -10.1289,2 0 -10.1289,2 0 -10.1289,2 0 -10.1289,2 0 -10.1289,2 0 -10.1289,2 0 -10.1289,2 0 -10.1289,2 0 -10.1289,2 0 -10.1289,6.110,
2 0 -9.699506,2 0 -9.699506,2 0 -9.699506,2 0 -9.699506,2 0 -9.699506,2 0 -9.699506,2 0 -9.699506,2 0 -9.699506,2 0 -9.699506,2 0 -9.699506,2 0 -9.699506,2 0 -9.699506,2 0 -9.699506,2 0 -9.699506,2 0 -9.699506,2 0 -9.699506,2 0 -9.699506,2 0 -9.699506,2 0 -9.699506,2 0 -9.699506,2 0 -9.699506,2 0 -10.1289,2 0 -10.1289,2 0 -10.1289,2 0 -10.1289,2 0 -10.1289,2 0 -10.1289,2 0 -10.1289,2 0 -10.1289,2 0 -10.1289,2 0 -10.1289,2 0 -10.1289,2 0 -10.1289,2 0 -10.1289,2 0 -10.1289,2 0 -10.1289,2 0 -10.1289,2 0 -10.1289,2 0 -10.1289,2 0 -10.1289,2 0 -10.1289,2 0 -10.1289,6.210,
2 0 -9.699506,2 0 -9.699506,2 0 -9.699506,2 0 -9.699506,2 0 -9.699506,2 0 -9.699506,2 0 -9.699506,2 0 -9.699506,2 0 -9.699506,2 0 -9.699506,2 0 -9.699506,2 0 -9.699506,2 0 -9.699506,2 0 -9.699506,2 0 -9.699506,2 0 -9.699506,2 0 -9.699506,2 0 -9.699506,2 0 -9.699506,2 0 -9.699506,2 0 -9.699506,2 0 -10.1289,2 0 -10.1289,2 0 -10.1289,2 0 -10.1289,2 0 -10.1289,2 0 -10.1289,2 0 -10.1289,2 0 -10.1289,2 0 -10.1289,2 0 -10.1289,2 0 -10.1289,2 0 -10.1289,2 0 -10.1289,2 0 -10.1289,2 0 -10.1289,2 0 -10.1289,2 0 -10.1289,2 0 -10.1289,2 0 -10.1289,2 0 -10.1289,2 0 -10.1289,6.310,
2 0 -9.699506,2 0 -9.699506,2 0 -9.699506,2 0 -9.699506,2 0 -9.699506,2 0 -9.699506,2 0 -9.699506,2 0 -9.699506,2 0 -9.699506,2 0 -9.699506,2 0 -9.699506,2 0 -9.699506,2 0 -9.699506,2 0 -9.699506,2 0 -9.699506,2 0 -9.699506,2 0 -9.699506,2 0 -9.699506,2 0 -9.699506,2 0 -9.699506,2 0 -9.699506,2 0 -10.1289,2 0 -10.1289,2 0 -10.1289,2 0 -10.1289,2 0 -10.1289,2 0 -10.1289,2 0 -10.1289,2 0 -10.1289,2 0 -10.1289,2 0 -10.1289,2 0 -10.1289,2 0 -10.1289,2 0 -10.1289,2 0 -10.1289,2 0 -10.1289,2 0 -10.1289,2 0 -10.1289,2 0 -10.1289,2 0 -10.1289,2 0 -10.1289,2 0 -10.1289,6.410,
2 0 -9.699506,2 0 -9.699506,2 0 -9.699506,2 0 -9.699506,2 0 -9.699506,2 0 -9.699506,2 0 -9.699506,2 0 -9.699506,2 0 -9.699506,2 0 -9.699506,2 0 -9.699506,2 0 -9.699506,2 0 -9.699506,2 0 -9.699506,2 0 -9.699506,2 0 -9.699506,2 0 -9.699506,2 0 -9.699506,2 0 -9.699506,2 0 -9.699506,2 0 -9.699506,2 0 -10.1289,2 0 -10.1289,2 0 -10.1289,2 0 -10.1289,2 0 -10.1289,2 0 -10.1289,2 0 -10.1289,2 0 -10.1289,2 0 -10.1289,2 0 -10.1289,2 0 -10.1289,2 0 -10.1289,2 0 -10.1289,2 0 -10.1289,2 0 -10.1289,2 0 -10.1289,2 0 -10.1289,2 0 -10.1289,2 0 -10.1289,2 0 -10.1289,2 0 -10.1289,6.510,
2 0 -9.699506,2 0 -9.699506,2 0 -9.699506,2 0 -9.699506,2 0 -9.699506,2 0 -9.699506,2 0 -9.699506,2 0 -9.699506,2 0 -9.699506,2 0 -9.699506,2 0 -9.699506,2 0 -9.699506,2 0 -9.699506,2 0 -9.699506,2 0 -9.699506,2 0 -9.699506,2 0 -9.699506,2 0 -9.699506,2 0 -9.699506,2 0 -9.699506,2 0 -9.699506,2 0 -10.1289,2 0 -10.1289,2 0 -10.1289,2 0 -10.1289,2 0 -10.1289,2 0 -10.1289,2 0 -10.1289,2 0 -10.1289,2 0 -10.1289,2 0 -10.1289,2 0 -10.1289,2 0 -10.1289,2 0 -10.1289,2 0 -10.1289,2 0 -10.1289,2 0 -10.1289,2 0 -10.1289,2 0 -10.1289,2 0 -10.1289,2 0 -10.1289,2 0 -10.1289,6.610,
2 0 -9.699506,2 0 -9.699506,2 0 -9.699506,2 0 -9.699506,2 0 -9.699506,2 0 -9.699506,2 0 -9.699506,2 0 -9.699506,2 0 -9.699506,2 0 -9.699506,2 0 -9.699506,2 0 -9.699506,2 0 -9.699506,2 0 -9.699506,2 0 -9.699506,2 0 -9.699506,2 0 -9.699506,2 0 -9.699506,2 0 -9.699506,2 0 -9.699506,2 0 -9.699506,2 0 -10.1289,2 0 -10.1289,2 0 -10.1289,2 0 -10.1289,2 0 -10.1289,2 0 -10.1289,2 0 -10.1289,2 0 -10.1289,2 0 -10.1289,2 0 -10.1289,2 0 -10.1289,2 0 -10.1289,2 0 -10.1289,2 0 -10.1289,2 0 -10.1289,2 0 -10.1289,2 0 -10.1289,2 0 -10.1289,2 0 -10.1289,2 0 -10.1289,2 0 -10.1289,6.710,
2 0 -9.699506,2 0 -9.699506,2 0 -9.699506,2 0 -9.699506,2 0 -9.699506,2 0 -9.699506,2 0 -9.699506,2 0 -9.699506,2 0 -9.699506,2 0 -9.699506,2 0 -9.699506,2 0 -9.699506,2 0 -9.699506,2 0 -9.699506,2 0 -9.699506,2 0 -9.699506,2 0 -9.699506,2 0 -9.699506,2 0 -9.699506,2 0 -9.699506,2 0 -9.699506,2 0 -10.1289,2 0 -10.1289,2 0 -10.1289,2 0 -10.1289,2 0 -10.1289,2 0 -10.1289,2 0 -10.1289,2 0 -10.1289,2 0 -10.1289,2 0 -10.1289,2 0 -10.1289,2 0 -10.1289,2 0 -10.1289,2 0 -10.1289,2 0 -10.1289,2 0 -10.1289,2 0 -10.1289,2 0 -10.1289,2 0 -10.1289,2 0 -10.1289,2 0 -10.1289,6.810,
2 0 -9.699506,2 0 -9.699506,2 0 -9.699506,2 0 -9.699506,2 0 -9.699506,2 0 -9.699506,2 0 -9.699506,2 0 -9.699506,2 0 -9.699506,2 0 -9.699506,2 0 -9.699506,2 0 -9.699506,2 0 -9.699506,2 0 -9.699506,2 0 -9.699506,2 0 -9.699506,2 0 -9.699506,2 0 -9.699506,2 0 -9.699506,2 0 -9.699506,2 0 -9.699506,2 0 -10.1289,2 0 -10.1289,2 0 -10.1289,2 0 -10.1289,2 0 -10.1289,2 0 -10.1289,2 0 -10.1289,2 0 -10.1289,2 0 -10.1289,2 0 -10.1289,2 0 -10.1289,2 0 -10.1289,2 0 -10.1289,2 0 -10.1289,2 0 -10.1289,2 0 -10.1289,2 0 -10.1289,2 0 -10.1289,2 0 -10.1289,2 0 -10.1289,2 0 -10.1289,6.910,
2 0 -9.699506,2 0 -9.699506,2 0 -9.699506,2 0 -9.699506,2 0 -9.699506,2 0 -9.699506,2 0 -9.699506,2 0 -9.699506,2 0 -9.699506,2 0 -9.699506,2 0 -9.699506,2 0 -9.699506,2 0 -9.699506,2 0 -9.699506,2 0 -9.699506,2 0 -9.699506,2 0 -9.699506,2 0 -9.699506,2 0 -9.699506,2 0 -9.699506,2 0 -9.699506,2 0 -10.1289,2 0 -10.1289,2 0 -10.1289,2 0 -10.1289,2 0 -10.1289,2 0 -10.1289,2 0 -10.1289,2 0 -10.1289,2 0 -10.1289,2 0 -10.1289,2 0 -10.1289,2 0 -10.1289,2 0 -10.1289,2 0 -10.1289,2 0 -10.1289,2 0 -10.1289,2 0 -10.1289,2 0 -10.1289,2 0 -10.1289,2 0 -10.1289,2 0 -10.1289,7.010,
2 0 -9.699506,2 0 -9.699506,2 0 -9.699506,2 0 -9.699506,2 0 -9.699506,2 0 -9.699506,2 0 -9.699506,2 0 -9.699506,2 0 -9.699506,2 0 -9.699506,2 0 -9.699506,2 0 -9.699506,2 0 -9.699506,2 0 -9.699506,2 0 -9.699506,2 0 -9.699506,2 0 -9.699506,2 0 -9.699506,2 0 -9.699506,2 0 -9.699506,2 0 -9.699506,2 0 -10.1289,2 0 -10.1289,2 0 -10.1289,2 0 -10.1289,2 0 -10.1289,2 0 -10.1289,2 0 -10.1289,2 0 -10.1289,2 0 -10.1289,2 0 -10.1289,2 0 -10.1289,2 0 -10.1289,2 0 -10.1289,2 0 -10.1289,2 0 -10.1289,2 0 -10.1289,2 0 -10.1289,2 0 -10.1289,2 0 -10.1289,2 0 -10.1289,2 0 -10.1289,7.110,
2 0 -9.699506,2 0 -9.699506,2 0 -9.699506,2 0 -9.699506,2 0 -9.699506,2 0 -9.699506,2 0 -9.699506,2 0 -9.699506,2 0 -9.699506,2 0 -9.699506,2 0 -9.699506,2 0 -9.699506,2 0 -9.699506,2 0 -9.699506,2 0 -9.699506,2 0 -9.699506,2 0 -9.699506,2 0 -9.699506,2 0 -9.699506,2 0 -9.699506,2 0 -9.699506,2 0 -10.1289,2 0 -10.1289,2 0 -10.1289,2 0 -10.1289,2 0 -10.1289,2 0 -10.1289,2 0 -10.1289,2 0 -10.1289,2 0 -10.1289,2 0 -10.1289,2 0 -10.1289,2 0 -10.1289,2 0 -10.1289,2 0 -10.1289,2 0 -10.1289,2 0 -10.1289,2 0 -10.1289,2 0 -10.1289,2 0 -10.1289,2 0 -10.1289,2 0 -10.1289,7.210,
2 0 -9.699506,2 0 -9.699506,2 0 -9.699506,2 0 -9.699506,2 0 -9.699506,2 0 -9.699506,2 0 -9.699506,2 0 -9.699506,2 0 -9.699506,2 0 -9.699506,2 0 -9.699506,2 0 -9.699506,2 0 -9.699506,2 0 -9.699506,2 0 -9.699506,2 0 -9.699506,2 0 -9.699506,2 0 -9.699506,2 0 -9.699506,2 0 -9.699506,2 0 -9.699506,2 0 -10.1289,2 0 -10.1289,2 0 -10.1289,2 0 -10.1289,2 0 -10.1289,2 0 -10.1289,2 0 -10.1289,2 0 -10.1289,2 0 -10.1289,2 0 -10.1289,2 0 -10.1289,2 0 -10.1289,2 0 -10.1289,2 0 -10.1289,2 0 -10.1289,2 0 -10.1289,2 0 -10.1289,2 0 -10.1289,2 0 -10.1289,2 0 -10.1289,2 0 -10.1289,7.310,
2 0 -9.699506,2 0 -9.699506,2 0 -9.699506,2 0 -9.699506,2 0 -9.699506,2 0 -9.699506,2 0 -9.699506,2 0 -9.699506,2 0 -9.699506,2 0 -9.699506,2 0 -9.699506,2 0 -9.699506,2 0 -9.699506,2 0 -9.699506,2 0 -9.699506,2 0 -9.699506,2 0 -9.699506,2 0 -9.699506,2 0 -9.699506,2 0 -9.699506,2 0 -9.699506,2 0 -10.1289,2 0 -10.1289,2 0 -10.1289,2 0 -10.1289,2 0 -10.1289,2 0 -10.1289,2 0 -10.1289,2 0 -10.1289,2 0 -10.1289,2 0 -10.1289,2 0 -10.1289,2 0 -10.1289,2 0 -10.1289,2 0 -10.1289,2 0 -10.1289,2 0 -10.1289,2 0 -10.1289,2 0 -10.1289,2 0 -10.1289,2 0 -10.1289,2 0 -10.1289,7.410,
2 0 -9.699506,2 0 -9.699506,2 0 -9.699506,2 0 -9.699506,2 0 -9.699506,2 0 -9.699506,2 0 -9.699506,2 0 -9.699506,2 0 -9.699506,2 0 -9.699506,2 0 -9.699506,2 0 -9.699506,2 0 -9.699506,2 0 -9.699506,2 0 -9.699506,2 0 -9.699506,2 0 -9.699506,2 0 -9.699506,2 0 -9.699506,2 0 -9.699506,2 0 -9.699506,2 0 -10.1289,2 0 -10.1289,2 0 -10.1289,2 0 -10.1289,2 0 -10.1289,2 0 -10.1289,2 0 -10.1289,2 0 -10.1289,2 0 -10.1289,2 0 -10.1289,2 0 -10.1289,2 0 -10.1289,2 0 -10.1289,2 0 -10.1289,2 0 -10.1289,2 0 -10.1289,2 0 -10.1289,2 0 -10.1289,2 0 -10.1289,2 0 -10.1289,2 0 -10.1289,7.510,
2 0 -9.699506,2 0 -9.699506,2 0 -9.699506,2 0 -9.699506,2 0 -9.699506,2 0 -9.699506,2 0 -9.699506,2 0 -9.699506,2 0 -9.699506,2 0 -9.699506,2 0 -9.699506,2 0 -9.699506,2 0 -9.699506,2 0 -9.699506,2 0 -9.699506,2 0 -9.699506,2 0 -9.699506,2 0 -9.699506,2 0 -9.699506,2 0 -9.699506,2 0 -9.699506,2 0 -10.1289,2 0 -10.1289,2 0 -10.1289,2 0 -10.1289,2 0 -10.1289,2 0 -10.1289,2 0 -10.1289,2 0 -10.1289,2 0 -10.1289,2 0 -10.1289,2 0 -10.1289,2 0 -10.1289,2 0 -10.1289,2 0 -10.1289,2 0 -10.1289,2 0 -10.1289,2 0 -10.1289,2 0 -10.1289,2 0 -10.1289,2 0 -10.1289,2 0 -10.1289,7.610,
2 0 -9.699506,2 0 -9.699506,2 0 -9.699506,2 0 -9.699506,2 0 -9.699506,2 0 -9.699506,2 0 -9.699506,2 0 -9.699506,2 0 -9.699506,2 0 -9.699506,2 0 -9.699506,2 0 -9.699506,2 0 -9.699506,2 0 -9.699506,2 0 -9.699506,2 0 -9.699506,2 0 -9.699506,2 0 -9.699506,2 0 -9.699506,2 0 -9.699506,2 0 -9.699506,2 0 -10.1289,2 0 -10.1289,2 0 -10.1289,2 0 -10.1289,2 0 -10.1289,2 0 -10.1289,2 0 -10.1289,2 0 -10.1289,2 0 -10.1289,2 0 -10.1289,2 0 -10.1289,2 0 -10.1289,2 0 -10.1289,2 0 -10.1289,2 0 -10.1289,2 0 -10.1289,2 0 -10.1289,2 0 -10.1289,2 0 -10.1289,2 0 -10.1289,2 0 -10.1289,7.710,
2 0 -9.699506,2 0 -9.699506,2 0 -9.699506,2 0 -9.699506,2 0 -9.699506,2 0 -9.699506,2 0 -9.699506,2 0 -9.699506,2 0 -9.699506,2 0 -9.699506,2 0 -9.699506,2 0 -9.699506,2 0 -9.699506,2 0 -9.699506,2 0 -9.699506,2 0 -9.699506,2 0 -9.699506,2 0 -9.699506,2 0 -9.699506,2 0 -9.699506,2 0 -9.699506,2 0 -10.1289,2 0 -10.1289,2 0 -10.1289,2 0 -10.1289,2 0 -10.1289,2 0 -10.1289,2 0 -10.1289,2 0 -10.1289,2 0 -10.1289,2 0 -10.1289,2 0 -10.1289,2 0 -10.1289,2 0 -10.1289,2 0 -10.1289,2 0 -10.1289,2 0 -10.1289,2 0 -10.1289,2 0 -10.1289,2 0 -10.1289,2 0 -10.1289,2 0 -10.1289,7.810,
2 0 -9.699506,2 0 -9.699506,2 0 -9.699506,2 0 -9.699506,2 0 -9.699506,2 0 -9.699506,2 0 -9.699506,2 0 -9.699506,2 0 -9.699506,2 0 -9.699506,2 0 -9.699506,2 0 -9.699506,2 0 -9.699506,2 0 -9.699506,2 0 -9.699506,2 0 -9.699506,2 0 -9.699506,2 0 -9.699506,2 0 -9.699506,2 0 -9.699506,2 0 -9.699506,2 0 -10.1289,2 0 -10.1289,2 0 -10.1289,2 0 -10.1289,2 0 -10.1289,2 0 -10.1289,2 0 -10.1289,2 0 -10.1289,2 0 -10.1289,2 0 -10.1289,2 0 -10.1289,2 0 -10.1289,2 0 -10.1289,2 0 -10.1289,2 0 -10.1289,2 0 -10.1289,2 0 -10.1289,2 0 -10.1289,2 0 -10.1289,2 0 -10.1289,2 0 -10.1289,7.910,
2 0 -9.699506,2 0 -9.699506,2 0 -9.699506,2 0 -9.699506,2 0 -9.699506,2 0 -9.699506,2 0 -9.699506,2 0 -9.699506,2 0 -9.699506,2 0 -9.699506,2 0 -9.699506,2 0 -9.699506,2 0 -9.699506,2 0 -9.699506,2 0 -9.699506,2 0 -9.699506,2 0 -9.699506,2 0 -9.699506,2 0 -9.699506,2 0 -9.699506,2 0 -9.699506,2 0 -10.1289,2 0 -10.1289,2 0 -10.1289,2 0 -10.1289,2 0 -10.1289,2 0 -10.1289,2 0 -10.1289,2 0 -10.1289,2 0 -10.1289,2 0 -10.1289,2 0 -10.1289,2 0 -10.1289,2 0 -10.1289,2 0 -10.1289,2 0 -10.1289,2 0 -10.1289,2 0 -10.1289,2 0 -10.1289,2 0 -10.1289,2 0 -10.1289,2 0 -10.1289,8.010,
2 0 -9.699506,2 0 -9.699506,2 0 -9.699506,2 0 -9.699506,2 0 -9.699506,2 0 -9.699506,2 0 -9.699506,2 0 -9.699506,2 0 -9.699506,2 0 -9.699506,2 0 -9.699506,2 0 -9.699506,2 0 -9.699506,2 0 -9.699506,2 0 -9.699506,2 0 -9.699506,2 0 -9.699506,2 0 -9.699506,2 0 -9.699506,2 0 -9.699506,2 0 -9.699506,2 0 -10.1289,2 0 -10.1289,2 0 -10.1289,2 0 -10.1289,2 0 -10.1289,2 0 -10.1289,2 0 -10.1289,2 0 -10.1289,2 0 -10.1289,2 0 -10.1289,2 0 -10.1289,2 0 -10.1289,2 0 -10.1289,2 0 -10.1289,2 0 -10.1289,2 0 -10.1289,2 0 -10.1289,2 0 -10.1289,2 0 -10.1289,2 0 -10.1289,2 0 -10.1289,8.110,
2 0 -9.699506,2 0 -9.699506,2 0 -9.699506,2 0 -9.699506,2 0 -9.699506,2 0 -9.699506,2 0 -9.699506,2 0 -9.699506,2 0 -9.699506,2 0 -9.699506,2 0 -9.699506,2 0 -9.699506,2 0 -9.699506,2 0 -9.699506,2 0 -9.699506,2 0 -9.699506,2 0 -9.699506,2 0 -9.699506,2 0 -9.699506,2 0 -9.699506,2 0 -9.699506,2 0 -10.1289,2 0 -10.1289,2 0 -10.1289,2 0 -10.1289,2 0 -10.1289,2 0 -10.1289,2 0 -10.1289,2 0 -10.1289,2 0 -10.1289,2 0 -10.1289,2 0 -10.1289,2 0 -10.1289,2 0 -10.1289,2 0 -10.1289,2 0 -10.1289,2 0 -10.1289,2 0 -10.1289,2 0 -10.1289,2 0 -10.1289,2 0 -10.1289,2 0 -10.1289,8.210,
2 0 -9.699506,2 0 -9.699506,2 0 -9.699506,2 0 -9.699506,2 0 -9.699506,2 0 -9.699506,2 0 -9.699506,2 0 -9.699506,2 0 -9.699506,2 0 -9.699506,2 0 -9.699506,2 0 -9.699506,2 0 -9.699506,2 0 -9.699506,2 0 -9.699506,2 0 -9.699506,2 0 -9.699506,2 0 -9.699506,2 0 -9.699506,2 0 -9.699506,2 0 -9.699506,2 0 -10.1289,2 0 -10.1289,2 0 -10.1289,2 0 -10.1289,2 0 -10.1289,2 0 -10.1289,2 0 -10.1289,2 0 -10.1289,2 0 -10.1289,2 0 -10.1289,2 0 -10.1289,2 0 -10.1289,2 0 -10.1289,2 0 -10.1289,2 0 -10.1289,2 0 -10.1289,2 0 -10.1289,2 0 -10.1289,2 0 -10.1289,2 0 -10.1289,2 0 -10.1289,8.310,
2 0 -9.699506,2 0 -9.699506,2 0 -9.699506,2 0 -9.699506,2 0 -9.699506,2 0 -9.699506,2 0 -9.699506,2 0 -9.699506,2 0 -9.699506,2 0 -9.699506,2 0 -9.699506,2 0 -9.699506,2 0 -9.699506,2 0 -9.699506,2 0 -9.699506,2 0 -9.699506,2 0 -9.699506,2 0 -9.699506,2 0 -9.699506,2 0 -9.699506,2 0 -9.699506,2 0 -10.1289,2 0 -10.1289,2 0 -10.1289,2 0 -10.1289,2 0 -10.1289,2 0 -10.1289,2 0 -10.1289,2 0 -10.1289,2 0 -10.1289,2 0 -10.1289,2 0 -10.1289,2 0 -10.1289,2 0 -10.1289,2 0 -10.1289,2 0 -10.1289,2 0 -10.1289,2 0 -10.1289,2 0 -10.1289,2 0 -10.1289,2 0 -10.1289,2 0 -10.1289,8.410,
2 0 -9.699506,2 0 -9.699506,2 0 -9.699506,2 0 -9.699506,2 0 -9.699506,2 0 -9.699506,2 0 -9.699506,2 0 -9.699506,2 0 -9.699506,2 0 -9.699506,2 0 -9.699506,2 0 -9.699506,2 0 -9.699506,2 0 -9.699506,2 0 -9.699506,2 0 -9.699506,2 0 -9.699506,2 0 -9.699506,2 0 -9.699506,2 0 -9.699506,2 0 -9.699506,2 0 -10.1289,2 0 -10.1289,2 0 -10.1289,2 0 -10.1289,2 0 -10.1289,2 0 -10.1289,2 0 -10.1289,2 0 -10.1289,2 0 -10.1289,2 0 -10.1289,2 0 -10.1289,2 0 -10.1289,2 0 -10.1289,2 0 -10.1289,2 0 -10.1289,2 0 -10.1289,2 0 -10.1289,2 0 -10.1289,2 0 -10.1289,2 0 -10.1289,2 0 -10.1289,8.510,
2 0 -9.699506,2 0 -9.699506,2 0 -9.699506,2 0 -9.699506,2 0 -9.699506,2 0 -9.699506,2 0 -9.699506,2 0 -9.699506,2 0 -9.699506,2 0 -9.699506,2 0 -9.699506,2 0 -9.699506,2 0 -9.699506,2 0 -9.699506,2 0 -9.699506,2 0 -9.699506,2 0 -9.699506,2 0 -9.699506,2 0 -9.699506,2 0 -9.699506,2 0 -9.699506,2 0 -10.1289,2 0 -10.1289,2 0 -10.1289,2 0 -10.1289,2 0 -10.1289,2 0 -10.1289,2 0 -10.1289,2 0 -10.1289,2 0 -10.1289,2 0 -10.1289,2 0 -10.1289,2 0 -10.1289,2 0 -10.1289,2 0 -10.1289,2 0 -10.1289,2 0 -10.1289,2 0 -10.1289,2 0 -10.1289,2 0 -10.1289,2 0 -10.1289,2 0 -10.1289,8.610,
2 0 -9.699506,2 0 -9.699506,2 0 -9.699506,2 0 -9.699506,2 0 -9.699506,2 0 -9.699506,2 0 -9.699506,2 0 -9.699506,2 0 -9.699506,2 0 -9.699506,2 0 -9.699506,2 0 -9.699506,2 0 -9.699506,2 0 -9.699506,2 0 -9.699506,2 0 -9.699506,2 0 -9.699506,2 0 -9.699506,2 0 -9.699506,2 0 -9.699506,2 0 -9.699506,2 0 -10.1289,2 0 -10.1289,2 0 -10.1289,2 0 -10.1289,2 0 -10.1289,2 0 -10.1289,2 0 -10.1289,2 0 -10.1289,2 0 -10.1289,2 0 -10.1289,2 0 -10.1289,2 0 -10.1289,2 0 -10.1289,2 0 -10.1289,2 0 -10.1289,2 0 -10.1289,2 0 -10.1289,2 0 -10.1289,2 0 -10.1289,2 0 -10.1289,2 0 -10.1289,8.710,
2 0 -9.699506,2 0 -9.699506,2 0 -9.699506,2 0 -9.699506,2 0 -9.699506,2 0 -9.699506,2 0 -9.699506,2 0 -9.699506,2 0 -9.699506,2 0 -9.699506,2 0 -9.699506,2 0 -9.699506,2 0 -9.699506,2 0 -9.699506,2 0 -9.699506,2 0 -9.699506,2 0 -9.699506,2 0 -9.699506,2 0 -9.699506,2 0 -9.699506,2 0 -9.699506,2 0 -10.1289,2 0 -10.1289,2 0 -10.1289,2 0 -10.1289,2 0 -10.1289,2 0 -10.1289,2 0 -10.1289,2 0 -10.1289,2 0 -10.1289,2 0 -10.1289,2 0 -10.1289,2 0 -10.1289,2 0 -10.1289,2 0 -10.1289,2 0 -10.1289,2 0 -10.1289,2 0 -10.1289,2 0 -10.1289,2 0 -10.1289,2 0 -10.1289,2 0 -10.1289,8.810,
2 0 -9.699506,2 0 -9.699506,2 0 -9.699506,2 0 -9.699506,2 0 -9.699506,2 0 -9.699506,2 0 -9.699506,2 0 -9.699506,2 0 -9.699506,2 0 -9.699506,2 0 -9.699506,2 0 -9.699506,2 0 -9.699506,2 0 -9.699506,2 0 -9.699506,2 0 -9.699506,2 0 -9.699506,2 0 -9.699506,2 0 -9.699506,2 0 -9.699506,2 0 -9.699506,2 0 -10.1289,2 0 -10.1289,2 0 -10.1289,2 0 -10.1289,2 0 -10.1289,2 0 -10.1289,2 0 -10.1289,2 0 -10.1289,2 0 -10.1289,2 0 -10.1289,2 0 -10.1289,2 0 -10.1289,2 0 -10.1289,2 0 -10.1289,2 0 -10.1289,2 0 -10.1289,2 0 -10.1289,2 0 -10.1289,2 0 -10.1289,2 0 -10.1289,2 0 -10.1289,8.910,
2 0 -9.699506,2 0 -9.699506,2 0 -9.699506,2 0 -9.699506,2 0 -9.699506,2 0 -9.699506,2 0 -9.699506,2 0 -9.699506,2 0 -9.699506,2 0 -9.699506,2 0 -9.699506,2 0 -9.699506,2 0 -9.699506,2 0 -9.699506,2 0 -9.699506,2 0 -9.699506,2 0 -9.699506,2 0 -9.699506,2 0 -9.699506,2 0 -9.699506,2 0 -9.699506,2 0 -10.1289,2 0 -10.1289,2 0 -10.1289,2 0 -10.1289,2 0 -10.1289,2 0 -10.1289,2 0 -10.1289,2 0 -10.1289,2 0 -10.1289,2 0 -10.1289,2 0 -10.1289,2 0 -10.1289,2 0 -10.1289,2 0 -10.1289,2 0 -10.1289,2 0 -10.1289,2 0 -10.1289,2 0 -10.1289,2 0 -10.1289,2 0 -10.1289,2 0 -10.1289,9.010,
2 0 -9.699506,2 0 -9.699506,2 0 -9.699506,2 0 -9.699506,2 0 -9.699506,2 0 -9.699506,2 0 -9.699506,2 0 -9.699506,2 0 -9.699506,2 0 -9.699506,2 0 -9.699506,2 0 -9.699506,2 0 -9.699506,2 0 -9.699506,2 0 -9.699506,2 0 -9.699506,2 0 -9.699506,2 0 -9.699506,2 0 -9.699506,2 0 -9.699506,2 0 -9.699506,2 0 -10.1289,2 0 -10.1289,2 0 -10.1289,2 0 -10.1289,2 0 -10.1289,2 0 -10.1289,2 0 -10.1289,2 0 -10.1289,2 0 -10.1289,2 0 -10.1289,2 0 -10.1289,2 0 -10.1289,2 0 -10.1289,2 0 -10.1289,2 0 -10.1289,2 0 -10.1289,2 0 -10.1289,2 0 -10.1289,2 0 -10.1289,2 0 -10.1289,2 0 -10.1289,9.110,
2 0 -9.699506,2 0 -9.699506,2 0 -9.699506,2 0 -9.699506,2 0 -9.699506,2 0 -9.699506,2 0 -9.699506,2 0 -9.699506,2 0 -9.699506,2 0 -9.699506,2 0 -9.699506,2 0 -9.699506,2 0 -9.699506,2 0 -9.699506,2 0 -9.699506,2 0 -9.699506,2 0 -9.699506,2 0 -9.699506,2 0 -9.699506,2 0 -9.699506,2 0 -9.699506,2 0 -10.1289,2 0 -10.1289,2 0 -10.1289,2 0 -10.1289,2 0 -10.1289,2 0 -10.1289,2 0 -10.1289,2 0 -10.1289,2 0 -10.1289,2 0 -10.1289,2 0 -10.1289,2 0 -10.1289,2 0 -10.1289,2 0 -10.1289,2 0 -10.1289,2 0 -10.1289,2 0 -10.1289,2 0 -10.1289,2 0 -10.1289,2 0 -10.1289,2 0 -10.1289,9.210,
2 0 -9.699506,2 0 -9.699506,2 0 -9.699506,2 0 -9.699506,2 0 -9.699506,2 0 -9.699506,2 0 -9.699506,2 0 -9.699506,2 0 -9.699506,2 0 -9.699506,2 0 -9.699506,2 0 -9.699506,2 0 -9.699506,2 0 -9.699506,2 0 -9.699506,2 0 -9.699506,2 0 -9.699506,2 0 -9.699506,2 0 -9.699506,2 0 -9.699506,2 0 -9.699506,2 0 -10.1289,2 0 -10.1289,2 0 -10.1289,2 0 -10.1289,2 0 -10.1289,2 0 -10.1289,2 0 -10.1289,2 0 -10.1289,2 0 -10.1289,2 0 -10.1289,2 0 -10.1289,2 0 -10.1289,2 0 -10.1289,2 0 -10.1289,2 0 -10.1289,2 0 -10.1289,2 0 -10.1289,2 0 -10.1289,2 0 -10.1289,2 0 -10.1289,2 0 -10.1289,9.310,
2 0 -9.699506,2 0 -9.699506,2 0 -9.699506,2 0 -9.699506,2 0 -9.699506,2 0 -9.699506,2 0 -9.699506,2 0 -9.699506,2 0 -9.699506,2 0 -9.699506,2 0 -9.699506,2 0 -9.699506,2 0 -9.699506,2 0 -9.699506,2 0 -9.699506,2 0 -9.699506,2 0 -9.699506,2 0 -9.699506,2 0 -9.699506,2 0 -9.699506,2 0 -9.699506,2 0 -10.1289,2 0 -10.1289,2 0 -10.1289,2 0 -10.1289,2 0 -10.1289,2 0 -10.1289,2 0 -10.1289,2 0 -10.1289,2 0 -10.1289,2 0 -10.1289,2 0 -10.1289,2 0 -10.1289,2 0 -10.1289,2 0 -10.1289,2 0 -10.1289,2 0 -10.1289,2 0 -10.1289,2 0 -10.1289,2 0 -10.1289,2 0 -10.1289,2 0 -10.1289,9.410,
2 0 -9.699506,2 0 -9.699506,2 0 -9.699506,2 0 -9.699506,2 0 -9.699506,2 0 -9.699506,2 0 -9.699506,2 0 -9.699506,2 0 -9.699506,2 0 -9.699506,2 0 -9.699506,2 0 -9.699506,2 0 -9.699506,2 0 -9.699506,2 0 -9.699506,2 0 -9.699506,2 0 -9.699506,2 0 -9.699506,2 0 -9.699506,2 0 -9.699506,2 0 -9.699506,2 0 -10.1289,2 0 -10.1289,2 0 -10.1289,2 0 -10.1289,2 0 -10.1289,2 0 -10.1289,2 0 -10.1289,2 0 -10.1289,2 0 -10.1289,2 0 -10.1289,2 0 -10.1289,2 0 -10.1289,2 0 -10.1289,2 0 -10.1289,2 0 -10.1289,2 0 -10.1289,2 0 -10.1289,2 0 -10.1289,2 0 -10.1289,2 0 -10.1289,2 0 -10.1289,9.510,
2 0 -9.699506,2 0 -9.699506,2 0 -9.699506,2 0 -9.699506,2 0 -9.699506,2 0 -9.699506,2 0 -9.699506,2 0 -9.699506,2 0 -9.699506,2 0 -9.699506,2 0 -9.699506,2 0 -9.699506,2 0 -9.699506,2 0 -9.699506,2 0 -9.699506,2 0 -9.699506,2 0 -9.699506,2 0 -9.699506,2 0 -9.699506,2 0 -9.699506,2 0 -9.699506,2 0 -10.1289,2 0 -10.1289,2 0 -10.1289,2 0 -10.1289,2 0 -10.1289,2 0 -10.1289,2 0 -10.1289,2 0 -10.1289,2 0 -10.1289,2 0 -10.1289,2 0 -10.1289,2 0 -10.1289,2 0 -10.1289,2 0 -10.1289,2 0 -10.1289,2 0 -10.1289,2 0 -10.1289,2 0 -10.1289,2 0 -10.1289,2 0 -10.1289,2 0 -10.1289,9.610,
2 0 -9.699506,2 0 -9.699506,2 0 -9.699506,2 0 -9.699506,2 0 -9.699506,2 0 -9.699506,2 0 -9.699506,2 0 -9.699506,2 0 -9.699506,2 0 -9.699506,2 0 -9.699506,2 0 -9.699506,2 0 -9.699506,2 0 -9.699506,2 0 -9.699506,2 0 -9.699506,2 0 -9.699506,2 0 -9.699506,2 0 -9.699506,2 0 -9.699506,2 0 -9.699506,2 0 -10.1289,2 0 -10.1289,2 0 -10.1289,2 0 -10.1289,2 0 -10.1289,2 0 -10.1289,2 0 -10.1289,2 0 -10.1289,2 0 -10.1289,2 0 -10.1289,2 0 -10.1289,2 0 -10.1289,2 0 -10.1289,2 0 -10.1289,2 0 -10.1289,2 0 -10.1289,2 0 -10.1289,2 0 -10.1289,2 0 -10.1289,2 0 -10.1289,2 0 -10.1289,9.710,
2 0 -9.699506,2 0 -9.699506,2 0 -9.699506,2 0 -9.699506,2 0 -9.699506,2 0 -9.699506,2 0 -9.699506,2 0 -9.699506,2 0 -9.699506,2 0 -9.699506,2 0 -9.699506,2 0 -9.699506,2 0 -9.699506,2 0 -9.699506,2 0 -9.699506,2 0 -9.699506,2 0 -9.699506,2 0 -9.699506,2 0 -9.699506,2 0 -9.699506,2 0 -9.699506,2 0 -10.1289,2 0 -10.1289,2 0 -10.1289,2 0 -10.1289,2 0 -10.1289,2 0 -10.1289,2 0 -10.1289,2 0 -10.1289,2 0 -10.1289,2 0 -10.1289,2 0 -10.1289,2 0 -10.1289,2 0 -10.1289,2 0 -10.1289,2 0 -10.1289,2 0 -10.1289,2 0 -10.1289,2 0 -10.1289,2 0 -10.1289,2 0 -10.1289,2 0 -10.1289,9.810,
2 0 -9.699506,2 0 -9.699506,2 0 -9.699506,2 0 -9.699506,2 0 -9.699506,2 0 -9.699506,2 0 -9.699506,2 0 -9.699506,2 0 -9.699506,2 0 -9.699506,2 0 -9.699506,2 0 -9.699506,2 0 -9.699506,2 0 -9.699506,2 0 -9.699506,2 0 -9.699506,2 0 -9.699506,2 0 -9.699506,2 0 -9.699506,2 0 -9.699506,2 0 -9.699506,2 0 -10.1289,2 0 -10.1289,2 0 -10.1289,2 0 -10.1289,2 0 -10.1289,2 0 -10.1289,2 0 -10.1289,2 0 -10.1289,2 0 -10.1289,2 0 -10.1289,2 0 -10.1289,2 0 -10.1289,2 0 -10.1289,2 0 -10.1289,2 0 -10.1289,2 0 -10.1289,2 0 -10.1289,2 0 -10.1289,2 0 -10.1289,2 0 -10.1289,2 0 -10.1289,9.910,
2 0 -9.699506,2 0 -9.699506,2 0 -9.699506,2 0 -9.699506,2 0 -9.699506,2 0 -9.699506,2 0 -9.699506,2 0 -9.699506,2 0 -9.699506,2 0 -9.699506,2 0 -9.699506,2 0 -9.699506,2 0 -9.699506,2 0 -9.699506,2 0 -9.699506,2 0 -9.699506,2 0 -9.699506,2 0 -9.699506,2 0 -9.699506,2 0 -9.699506,2 0 -9.699506,2 0 -10.1289,2 0 -10.1289,2 0 -10.1289,2 0 -10.1289,2 0 -10.1289,2 0 -10.1289,2 0 -10.1289,2 0 -10.1289,2 0 -10.1289,2 0 -10.1289,2 0 -10.1289,2 0 -10.1289,2 0 -10.1289,2 0 -10.1289,2 0 -10.1289,2 0 -10.1289,2 0 -10.1289,2 0 -10.1289,2 0 -10.1289,2 0 -10.1289,2 0 -10.1289,10.010,
2 0 -9.699506,2 0 -9.699506,2 0 -9.699506,2 0 -9.699506,2 0 -9.699506,2 0 -9.699506,2 0 -9.699506,2 0 -9.699506,2 0 -9.699506,2 0 -9.699506,2 0 -9.699506,2 0 -9.699506,2 0 -9.699506,2 0 -9.699506,2 0 -9.699506,2 0 -9.699506,2 0 -9.699506,2 0 -9.699506,2 0 -9.699506,2 0 -9.699506,2 0 -9.699506,2 0 -10.1289,2 0 -10.1289,2 0 -10.1289,2 0 -10.1289,2 0 -10.1289,2 0 -10.1289,2 0 -10.1289,2 0 -10.1289,2 0 -10.1289,2 0 -10.1289,2 0 -10.1289,2 0 -10.1289,2 0 -10.1289,2 0 -10.1289,2 0 -10.1289,2 0 -10.1289,2 0 -10.1289,2 0 -10.1289,2 0 -10.1289,2 0 -10.1289,2 0 -10.1289,10.110,
2 0 -9.699506,2 0 -9.699506,2 0 -9.699506,2 0 -9.699506,2 0 -9.699506,2 0 -9.699506,2 0 -9.699506,2 0 -9.699506,2 0 -9.699506,2 0 -9.699506,2 0 -9.699506,2 0 -9.699506,2 0 -9.699506,2 0 -9.699506,2 0 -9.699506,2 0 -9.699506,2 0 -9.699506,2 0 -9.699506,2 0 -9.699506,2 0 -9.699506,2 0 -9.699506,2 0 -10.1289,2 0 -10.1289,2 0 -10.1289,2 0 -10.1289,2 0 -10.1289,2 0 -10.1289,2 0 -10.1289,2 0 -10.1289,2 0 -10.1289,2 0 -10.1289,2 0 -10.1289,2 0 -10.1289,2 0 -10.1289,2 0 -10.1289,2 0 -10.1289,2 0 -10.1289,2 0 -10.1289,2 0 -10.1289,2 0 -10.1289,2 0 -10.1289,2 0 -10.1289,10.210,
2 0 -9.699506,2 0 -9.699506,2 0 -9.699506,2 0 -9.699506,2 0 -9.699506,2 0 -9.699506,2 0 -9.699506,2 0 -9.699506,2 0 -9.699506,2 0 -9.699506,2 0 -9.699506,2 0 -9.699506,2 0 -9.699506,2 0 -9.699506,2 0 -9.699506,2 0 -9.699506,2 0 -9.699506,2 0 -9.699506,2 0 -9.699506,2 0 -9.699506,2 0 -9.699506,2 0 -10.1289,2 0 -10.1289,2 0 -10.1289,2 0 -10.1289,2 0 -10.1289,2 0 -10.1289,2 0 -10.1289,2 0 -10.1289,2 0 -10.1289,2 0 -10.1289,2 0 -10.1289,2 0 -10.1289,2 0 -10.1289,2 0 -10.1289,2 0 -10.1289,2 0 -10.1289,2 0 -10.1289,2 0 -10.1289,2 0 -10.1289,2 0 -10.1289,2 0 -10.1289,10.310,
2 0 -9.699506,2 0 -9.699506,2 0 -9.699506,2 0 -9.699506,2 0 -9.699506,2 0 -9.699506,2 0 -9.699506,2 0 -9.699506,2 0 -9.699506,2 0 -9.699506,2 0 -9.699506,2 0 -9.699506,2 0 -9.699506,2 0 -9.699506,2 0 -9.699506,2 0 -9.699506,2 0 -9.699506,2 0 -9.699506,2 0 -9.699506,2 0 -9.699506,2 0 -9.699506,2 0 -10.1289,2 0 -10.1289,2 0 -10.1289,2 0 -10.1289,2 0 -10.1289,2 0 -10.1289,2 0 -10.1289,2 0 -10.1289,2 0 -10.1289,2 0 -10.1289,2 0 -10.1289,2 0 -10.1289,2 0 -10.1289,2 0 -10.1289,2 0 -10.1289,2 0 -10.1289,2 0 -10.1289,2 0 -10.1289,2 0 -10.1289,2 0 -10.1289,2 0 -10.1289,10.410,
2 0 -9.699506,2 0 -9.699506,2 0 -9.699506,2 0 -9.699506,2 0 -9.699506,2 0 -9.699506,2 0 -9.699506,2 0 -9.699506,2 0 -9.699506,2 0 -9.699506,2 0 -9.699506,2 0 -9.699506,2 0 -9.699506,2 0 -9.699506,2 0 -9.699506,2 0 -9.699506,2 0 -9.699506,2 0 -9.699506,2 0 -9.699506,2 0 -9.699506,2 0 -9.699506,2 0 -10.1289,2 0 -10.1289,2 0 -10.1289,2 0 -10.1289,2 0 -10.1289,2 0 -10.1289,2 0 -10.1289,2 0 -10.1289,2 0 -10.1289,2 0 -10.1289,2 0 -10.1289,2 0 -10.1289,2 0 -10.1289,2 0 -10.1289,2 0 -10.1289,2 0 -10.1289,2 0 -10.1289,2 0 -10.1289,2 0 -10.1289,2 0 -10.1289,2 0 -10.1289,10.510,
2 0 -9.699506,2 0 -9.699506,2 0 -9.699506,2 0 -9.699506,2 0 -9.699506,2 0 -9.699506,2 0 -9.699506,2 0 -9.699506,2 0 -9.699506,2 0 -9.699506,2 0 -9.699506,2 0 -9.699506,2 0 -9.699506,2 0 -9.699506,2 0 -9.699506,2 0 -9.699506,2 0 -9.699506,2 0 -9.699506,2 0 -9.699506,2 0 -9.699506,2 0 -9.699506,2 0 -10.1289,2 0 -10.1289,2 0 -10.1289,2 0 -10.1289,2 0 -10.1289,2 0 -10.1289,2 0 -10.1289,2 0 -10.1289,2 0 -10.1289,2 0 -10.1289,2 0 -10.1289,2 0 -10.1289,2 0 -10.1289,2 0 -10.1289,2 0 -10.1289,2 0 -10.1289,2 0 -10.1289,2 0 -10.1289,2 0 -10.1289,2 0 -10.1289,2 0 -10.1289,10.610,
2 0 -9.699506,2 0 -9.699506,2 0 -9.699506,2 0 -9.699506,2 0 -9.699506,2 0 -9.699506,2 0 -9.699506,2 0 -9.699506,2 0 -9.699506,2 0 -9.699506,2 0 -9.699506,2 0 -9.699506,2 0 -9.699506,2 0 -9.699506,2 0 -9.699506,2 0 -9.699506,2 0 -9.699506,2 0 -9.699506,2 0 -9.699506,2 0 -9.699506,2 0 -9.699506,2 0 -10.1289,2 0 -10.1289,2 0 -10.1289,2 0 -10.1289,2 0 -10.1289,2 0 -10.1289,2 0 -10.1289,2 0 -10.1289,2 0 -10.1289,2 0 -10.1289,2 0 -10.1289,2 0 -10.1289,2 0 -10.1289,2 0 -10.1289,2 0 -10.1289,2 0 -10.1289,2 0 -10.1289,2 0 -10.1289,2 0 -10.1289,2 0 -10.1289,2 0 -10.1289,10.710,
2 0 -9.699506,2 0 -9.699506,2 0 -9.699506,2 0 -9.699506,2 0 -9.699506,2 0 -9.699506,2 0 -9.699506,2 0 -9.699506,2 0 -9.699506,2 0 -9.699506,2 0 -9.699506,2 0 -9.699506,2 0 -9.699506,2 0 -9.699506,2 0 -9.699506,2 0 -9.699506,2 0 -9.699506,2 0 -9.699506,2 0 -9.699506,2 0 -9.699506,2 0 -9.699506,2 0 -10.1289,2 0 -10.1289,2 0 -10.1289,2 0 -10.1289,2 0 -10.1289,2 0 -10.1289,2 0 -10.1289,2 0 -10.1289,2 0 -10.1289,2 0 -10.1289,2 0 -10.1289,2 0 -10.1289,2 0 -10.1289,2 0 -10.1289,2 0 -10.1289,2 0 -10.1289,2 0 -10.1289,2 0 -10.1289,2 0 -10.1289,2 0 -10.1289,2 0 -10.1289,10.810,
2 0 -9.699506,2 0 -9.699506,2 0 -9.699506,2 0 -9.699506,2 0 -9.699506,2 0 -9.699506,2 0 -9.699506,2 0 -9.699506,2 0 -9.699506,2 0 -9.699506,2 0 -9.699506,2 0 -9.699506,2 0 -9.699506,2 0 -9.699506,2 0 -9.699506,2 0 -9.699506,2 0 -9.699506,2 0 -9.699506,2 0 -9.699506,2 0 -9.699506,2 0 -9.699506,2 0 -10.1289,2 0 -10.1289,2 0 -10.1289,2 0 -10.1289,2 0 -10.1289,2 0 -10.1289,2 0 -10.1289,2 0 -10.1289,2 0 -10.1289,2 0 -10.1289,2 0 -10.1289,2 0 -10.1289,2 0 -10.1289,2 0 -10.1289,2 0 -10.1289,2 0 -10.1289,2 0 -10.1289,2 0 -10.1289,2 0 -10.1289,2 0 -10.1289,2 0 -10.1289,10.910,
2 0 -9.699506,2 0 -9.699506,2 0 -9.699506,2 0 -9.699506,2 0 -9.699506,2 0 -9.699506,2 0 -9.699506,2 0 -9.699506,2 0 -9.699506,2 0 -9.699506,2 0 -9.699506,2 0 -9.699506,2 0 -9.699506,2 0 -9.699506,2 0 -9.699506,2 0 -9.699506,2 0 -9.699506,2 0 -9.699506,2 0 -9.699506,2 0 -9.699506,2 0 -9.699506,2 0 -10.1289,2 0 -10.1289,2 0 -10.1289,2 0 -10.1289,2 0 -10.1289,2 0 -10.1289,2 0 -10.1289,2 0 -10.1289,2 0 -10.1289,2 0 -10.1289,2 0 -10.1289,2 0 -10.1289,2 0 -10.1289,2 0 -10.1289,2 0 -10.1289,2 0 -10.1289,2 0 -10.1289,2 0 -10.1289,2 0 -10.1289,2 0 -10.1289,2 0 -10.1289,11.010,
2 0 -9.699506,2 0 -9.699506,2 0 -9.699506,2 0 -9.699506,2 0 -9.699506,2 0 -9.699506,2 0 -9.699506,2 0 -9.699506,2 0 -9.699506,2 0 -9.699506,2 0 -9.699506,2 0 -9.699506,2 0 -9.699506,2 0 -9.699506,2 0 -9.699506,2 0 -9.699506,2 0 -9.699506,2 0 -9.699506,2 0 -9.699506,2 0 -9.699506,2 0 -9.699506,2 0 -10.1289,2 0 -10.1289,2 0 -10.1289,2 0 -10.1289,2 0 -10.1289,2 0 -10.1289,2 0 -10.1289,2 0 -10.1289,2 0 -10.1289,2 0 -10.1289,2 0 -10.1289,2 0 -10.1289,2 0 -10.1289,2 0 -10.1289,2 0 -10.1289,2 0 -10.1289,2 0 -10.1289,2 0 -10.1289,2 0 -10.1289,2 0 -10.1289,2 0 -10.1289,11.110,
2 0 -9.699506,2 0 -9.699506,2 0 -9.699506,2 0 -9.699506,2 0 -9.699506,2 0 -9.699506,2 0 -9.699506,2 0 -9.699506,2 0 -9.699506,2 0 -9.699506,2 0 -9.699506,2 0 -9.699506,2 0 -9.699506,2 0 -9.699506,2 0 -9.699506,2 0 -9.699506,2 0 -9.699506,2 0 -9.699506,2 0 -9.699506,2 0 -9.699506,2 0 -9.699506,2 0 -10.1289,2 0 -10.1289,2 0 -10.1289,2 0 -10.1289,2 0 -10.1289,2 0 -10.1289,2 0 -10.1289,2 0 -10.1289,2 0 -10.1289,2 0 -10.1289,2 0 -10.1289,2 0 -10.1289,2 0 -10.1289,2 0 -10.1289,2 0 -10.1289,2 0 -10.1289,2 0 -10.1289,2 0 -10.1289,2 0 -10.1289,2 0 -10.1289,2 0 -10.1289,11.210,
2 0 -9.699506,2 0 -9.699506,2 0 -9.699506,2 0 -9.699506,2 0 -9.699506,2 0 -9.699506,2 0 -9.699506,2 0 -9.699506,2 0 -9.699506,2 0 -9.699506,2 0 -9.699506,2 0 -9.699506,2 0 -9.699506,2 0 -9.699506,2 0 -9.699506,2 0 -9.699506,2 0 -9.699506,2 0 -9.699506,2 0 -9.699506,2 0 -9.699506,2 0 -9.699506,2 0 -10.1289,2 0 -10.1289,2 0 -10.1289,2 0 -10.1289,2 0 -10.1289,2 0 -10.1289,2 0 -10.1289,2 0 -10.1289,2 0 -10.1289,2 0 -10.1289,2 0 -10.1289,2 0 -10.1289,2 0 -10.1289,2 0 -10.1289,2 0 -10.1289,2 0 -10.1289,2 0 -10.1289,2 0 -10.1289,2 0 -10.1289,2 0 -10.1289,2 0 -10.1289,11.310,
2 0 -9.699506,2 0 -9.699506,2 0 -9.699506,2 0 -9.699506,2 0 -9.699506,2 0 -9.699506,2 0 -9.699506,2 0 -9.699506,2 0 -9.699506,2 0 -9.699506,2 0 -9.699506,2 0 -9.699506,2 0 -9.699506,2 0 -9.699506,2 0 -9.699506,2 0 -9.699506,2 0 -9.699506,2 0 -9.699506,2 0 -9.699506,2 0 -9.699506,2 0 -9.699506,2 0 -10.1289,2 0 -10.1289,2 0 -10.1289,2 0 -10.1289,2 0 -10.1289,2 0 -10.1289,2 0 -10.1289,2 0 -10.1289,2 0 -10.1289,2 0 -10.1289,2 0 -10.1289,2 0 -10.1289,2 0 -10.1289,2 0 -10.1289,2 0 -10.1289,2 0 -10.1289,2 0 -10.1289,2 0 -10.1289,2 0 -10.1289,2 0 -10.1289,2 0 -10.1289,11.410,
2 0 -9.699506,2 0 -9.699506,2 0 -9.699506,2 0 -9.699506,2 0 -9.699506,2 0 -9.699506,2 0 -9.699506,2 0 -9.699506,2 0 -9.699506,2 0 -9.699506,2 0 -9.699506,2 0 -9.699506,2 0 -9.699506,2 0 -9.699506,2 0 -9.699506,2 0 -9.699506,2 0 -9.699506,2 0 -9.699506,2 0 -9.699506,2 0 -9.699506,2 0 -9.699506,2 0 -10.1289,2 0 -10.1289,2 0 -10.1289,2 0 -10.1289,2 0 -10.1289,2 0 -10.1289,2 0 -10.1289,2 0 -10.1289,2 0 -10.1289,2 0 -10.1289,2 0 -10.1289,2 0 -10.1289,2 0 -10.1289,2 0 -10.1289,2 0 -10.1289,2 0 -10.1289,2 0 -10.1289,2 0 -10.1289,2 0 -10.1289,2 0 -10.1289,2 0 -10.1289,11.510,
1.829027 0 -9.512124,2.345867 0 -9.492874,1.438316 0 -9.55184,1.244901 0 -9.551613,2.703104 0 -9.477465,3.056532 0 -9.530593,3.623948 0 -9.557796,0.6941199 0 -9.569417,0.8784218 0 -9.568929,2.1493 0 -9.501646,1.624581 0 -9.557839,3.435009 0 -9.532544,1.064079 0 -9.550549,3.254889 0 -9.518276,0.5054817 0 -9.560976,2.001372 0 -9.404122,0.3145752 0 -9.580131,2.532573 0 -9.473819,3.813406 0 -9.541249,2.887081 0 -9.544055,0.1194525 0 -9.564462,2 0 -10.1289,3.286002 0 -10.15675,3.091795 0 -10.16429,2.151552 0 -10.29883,5.62683 0 -10.14024,2.718786 0 -10.26787,2.351076 0 -10.25521,4.33808 0 -10.11237,4.174991 0 -10.2631,3.817983 0 -10.18402,2.906184 0 -10.21035,3.453943 0 -10.23833,4.685492 0 -10.11707,5.43085 0 -10.12886,5.247031 0 -10.15167,2.527902 0 -10.25887,4.882002 0 -10.11323,3.646744 0 -10.28317,3.998234 0 -10.16167,5.061961 0 -10.19336,4.512617 0 -10.22116,11.610,
2 0 -9.699506,2 0 -9.699506,2 0 -9.699506,2 0 -9.699506,2 0 -9.699506,2 0 -9.699506,2 0 -9.699506,2 0 -9.699506,2 0 -9.699506,2 0 -9.699506,2 0 -9.699506,2 0 -9.699506,2 0 -9.699506,2 0 -9.699506,2 0 -9.699506,2 0 -9.699506,2 0 -9.699506,2 0 -9.699506,2 0 -9.699506,2 0 -9.699506,2 0 -9.699506,2 0 -10.1289,2 0 -10.1289,2 0 -10.1289,2 0 -10.1289,2 0 -10.1289,2 0 -10.1289,2 0 -10.1289,2 0 -10.1289,2 0 -10.1289,2 0 -10.1289,2 0 -10.1289,2 0 -10.1289,2 0 -10.1289,2 0 -10.1289,2 0 -10.1289,2 0 -10.1289,2 0 -10.1289,2 0 -10.1289,2 0 -10.1289,2 0 -10.1289,2 0 -10.1289,11.710,
2 0 -9.699506,2 0 -9.699506,2 0 -9.699506,2 0 -9.699506,2 0 -9.699506,2 0 -9.699506,2 0 -9.699506,2 0 -9.699506,2 0 -9.699506,2 0 -9.699506,2 0 -9.699506,2 0 -9.699506,2 0 -9.699506,2 0 -9.699506,2 0 -9.699506,2 0 -9.699506,2 0 -9.699506,2 0 -9.699506,2 0 -9.699506,2 0 -9.699506,2 0 -9.699506,2 0 -10.1289,2 0 -10.1289,2 0 -10.1289,2 0 -10.1289,2 0 -10.1289,2 0 -10.1289,2 0 -10.1289,2 0 -10.1289,2 0 -10.1289,2 0 -10.1289,2 0 -10.1289,2 0 -10.1289,2 0 -10.1289,2 0 -10.1289,2 0 -10.1289,2 0 -10.1289,2 0 -10.1289,2 0 -10.1289,2 0 -10.1289,2 0 -10.1289,2 0 -10.1289,11.810,
2 0 -9.699506,2 0 -9.699506,2 0 -9.699506,2 0 -9.699506,2 0 -9.699506,2 0 -9.699506,2 0 -9.699506,2 0 -9.699506,2 0 -9.699506,2 0 -9.699506,2 0 -9.699506,2 0 -9.699506,2 0 -9.699506,2 0 -9.699506,2 0 -9.699506,2 0 -9.699506,2 0 -9.699506,2 0 -9.699506,2 0 -9.699506,2 0 -9.699506,2 0 -9.699506,2 0 -10.1289,2 0 -10.1289,2 0 -10.1289,2 0 -10.1289,2 0 -10.1289,2 0 -10.1289,2 0 -10.1289,2 0 -10.1289,2 0 -10.1289,2 0 -10.1289,2 0 -10.1289,2 0 -10.1289,2 0 -10.1289,2 0 -10.1289,2 0 -10.1289,2 0 -10.1289,2 0 -10.1289,2 0 -10.1289,2 0 -10.1289,2 0 -10.1289,2 0 -10.1289,11.910,
1.921481 0 -9.599505,2.177051 0 -9.591581,1.733301 0 -9.599505,1.635219 0 -9.599505,2.340147 0 -9.581959,2.513986 0 -9.599505,2.788417 0 -9.599505,1.370049 0 -9.599505,1.454379 0 -9.599505,2.077051 0 -9.593566,1.816232 0 -9.599505,2.699296 0 -9.599505,1.554247 0 -9.599505,2.615314 0 -9.599505,1.270583 0 -9.599505,2.008954 0 -9.560301,1.179684 0 -9.599505,2.264352 0 -9.584968,2.887489 0 -9.599505,2.439135 0 -9.599505,1.080566 0 -9.599505,2 0 -10.1289,2.641454 0 -10.133,2.54161 0 -10.13345,2.1 0 -10.19751,3.816062 0 -10.13513,2.358632 0 -10.19224,2.189139 0 -10.19119,3.176977 0 -10.13484,3.076977 0 -10.18793,2.901605 0 -10.14036,2.458632 0 -10.16413,2.720468 0 -10.1742,3.345092 0 -10.13245,3.715077 0 -10.13275,3.625603 0 -10.14166,2.267672 0 -10.19111,3.441563 0 -10.13333,2.820467 0 -10.19275,2.989077 0 -10.13391,3.534086 0 -10.15429,3.265615 0 -10.17378,12.010,
2 0 -9.699506,2 0 -9.699506,2 0 -9.699506,2 0 -9.699506,2 0 -9.699506,2 0 -9.699506,2 0 -9.699506,2 0 -9.699506,2 0 -9.699506,2 0 -9.699506,2 0 -9.699506,2 0 -9.699506,2 0 -9.699506,2 0 -9.699506,2 0 -9.699506,2 0 -9.699506,2 0 -9.699506,2 0 -9.699506,2 0 -9.699506,2 0 -9.699506,2 0 -9.699506,2 0 -10.1289,2 0 -10.1289,2 0 -10.1289,2 0 -10.1289,2 0 -10.1289,2 0 -10.1289,2 0 -10.1289,2 0 -10.1289,2 0 -10.1289,2 0 -10.1289,2 0 -10.1289,2 0 -10.1289,2 0 -10.1289,2 0 -10.1289,2 0 -10.1289,2 0 -10.1289,2 0 -10.1289,2 0 -10.1289,2 0 -10.1289,2 0 -10.1289,2 0 -10.1289,12.110,
2 0 -9.699506,2 0 -9.699506,2 0 -9.699506,2 0 -9.699506,2 0 -9.699506,2 0 -9.699506,2 0 -9.699506,2 0 -9.699506,2 0 -9.699506,2 0 -9.699506,2 0 -9.699506,2 0 -9.699506,2 0 -9.699506,2 0 -9.699506,2 0 -9.699506,2 0 -9.699506,2 0 -9.699506,2 0 -9.699506,2 0 -9.699506,2 0 -9.699506,2 0 -9.699506,2 0 -10.1289,2 0 -10.1289,2 0 -10.1289,2 0 -10.1289,2 0 -10.1289,2 0 -10.1289,2 0 -10.1289,2 0 -10.1289,2 0 -10.1289,2 0 -10.1289,2 0 -10.1289,2 0 -10.1289,2 0 -10.1289,2 0 -10.1289,2 0 -10.1289,2 0 -10.1289,2 0 -10.1289,2 0 -10.1289,2 0 -10.1289,2 0 -10.1289,2 0 -10.1289,12.210,
1.921475 0 -9.599505,2.177047 0 -9.591526,1.733292 0 -9.599505,1.635218 0 -9.599505,2.340146 0 -9.581927,2.513986 0 -9.599505,2.788381 0 -9.599505,1.370054 0 -9.599505,1.454374 0 -9.599505,2.077047 0 -9.593554,1.81622 0 -9.599505,2.699319 0 -9.599505,1.554244 0 -9.599505,2.615301 0 -9.599505,1.270571 0 -9.599505,2.008958 0 -9.560409,1.179683 0 -9.599505,2.264352 0 -9.584937,2.887457 0 -9.599505,2.43912 0 -9.599505,1.080577 0 -9.599505,2 0 -10.1289,2.641485 0 -10.13302,2.541606 0 -10.13346,2.1 0 -10.19748,3.816068 0 -10.13515,2.35865 0 -10.19224,2.18914 0 -10.19112,3.177001 0 -10.13486,3.077001 0 -10.18785,2.901626 0 -10.14044,2.45865 0 -10.16405,2.720489 0 -10.17414,3.345098 0 -10.13247,3.715067 0 -10.13277,3.625618 0 -10.14165,2.267676 0 -10.19104,3.441581 0 -10.13333,2.820489 0 -10.19262,2.989084 0 -10.13397,3.534108 0 -10.15426,3.265631 0 -10.17367,12.310,
2 0 -9.699506,2 0 -9.699506,2 0 -9.699506,2 0 -9.699506,2 0 -9.699506,2 0 -9.699506,2 0 -9.699506,2 0 -9.699506,2 0 -9.699506,2 0 -9.699506,2 0 -9.699506,2 0 -9.699506,2 0 -9.699506,2 0 -9.699506,2 0 -9.699506,2 0 -9.699506,2 0 -9.699506,2 0 -9.699506,2 0 -9.699506,2 0 -9.699506,2 0 -9.699506,2 0 -10.1289,2 0 -10.1289,2 0 -10.1289,2 0 -10.1289,2 0 -10.1289,2 0 -10.1289,2 0 -10.1289,2 0 -10.1289,2 0 -10.1289,2 0 -10.1289,2 0 -10.1289,2 0 -10.1289,2 0 -10.1289,2 0 -10.1289,2 0 -10.1289,2 0 -10.1289,2 0 -10.1289,2 0 -10.1289,2 0 -10.1289,2 0 -10.1289,2 0 -10.1289,12.410,
2 0 -9.699506,2 0 -9.699506,2 0 -9.699506,2 0 -9.699506,2 0 -9.699506,2 0 -9.699506,2 0 -9.699506,2 0 -9.699506,2 0 -9.699506,2 0 -9.699506,2 0 -9.699506,2 0 -9.699506,2 0 -9.699506,2 0 -9.699506,2 0 -9.699506,2 0 -9.699506,2 0 -9.699506,2 0 -9.699506,2 0 -9.699506,2 0 -9.699506,2 0 -9.699506,2 0 -10.1289,2 0 -10.1289,2 0 -10.1289,2 0 -10.1289,2 0 -10.1289,2 0 -10.1289,2 0 -10.1289,2 0 -10.1289,2 0 -10.1289,2 0 -10.1289,2 0 -10.1289,2 0 -10.1289,2 0 -10.1289,2 0 -10.1289,2 0 -10.1289,2 0 -10.1289,2 0 -10.1289,2 0 -10.1289,2 0 -10.1289,2 0 -10.1289,2 0 -10.1289,12.510,
2 0 -9.699506,2 0 -9.699506,2 0 -9.699506,2 0 -9.699506,2 0 -9.699506,2 0 -9.699506,2 0 -9.699506,2 0 -9.699506,2 0 -9.699506,2 0 -9.699506,2 0 -9.699506,2 0 -9.699506,2 0 -9.699506,2 0 -9.699506,2 0 -9.699506,2 0 -9.699506,2 0 -9.699506,2 0 -9.699506,2 0 -9.699506,2 0 -9.699506,2 0 -9.699506,2 0 -10.1289,2 0 -10.1289,2 0 -10.1289,2 0 -10.1289,2 0 -10.1289,2 0 -10.1289,2 0 -10.1289,2 0 -10.1289,2 0 -10.1289,2 0 -10.1289,2 0 -10.1289,2 0 -10.1289,2 0 -10.1289,2 0 -10.1289,2 0 -10.1289,2 0 -10.1289,2 0 -10.1289,2 0 -10.1289,2 0 -10.1289,2 0 -10.1289,2 0 -10.1289,12.610,
2 0 -9.699506,2 0 -9.699506,2 0 -9.699506,2 0 -9.699506,2 0 -9.699506,2 0 -9.699506,2 0 -9.699506,2 0 -9.699506,2 0 -9.699506,2 0 -9.699506,2 0 -9.699506,2 0 -9.699506,2 0 -9.699506,2 0 -9.699506,2 0 -9.699506,2 0 -9.699506,2 0 -9.699506,2 0 -9.699506,2 0 -9.699506,2 0 -9.699506,2 0 -9.699506,2 0 -10.1289,2 0 -10.1289,2 0 -10.1289,2 0 -10.1289,2 0 -10.1289,2 0 -10.1289,2 0 -10.1289,2 0 -10.1289,2 0 -10.1289,2 0 -10.1289,2 0 -10.1289,2 0 -10.1289,2 0 -10.1289,2 0 -10.1289,2 0 -10.1289,2 0 -10.1289,2 0 -10.1289,2 0 -10.1289,2 0 -10.1289,2 0 -10.1289,2 0 -10.1289,12.710,
2 0 -9.699506,2 0 -9.699506,2 0 -9.699506,2 0 -9.699506,2 0 -9.699506,2 0 -9.699506,2 0 -9.699506,2 0 -9.699506,2 0 -9.699506,2 0 -9.699506,2 0 -9.699506,2 0 -9.699506,2 0 -9.699506,2 0 -9.699506,2 0 -9.699506,2 0 -9.699506,2 0 -9.699506,2 0 -9.699506,2 0 -9.699506,2 0 -9.699506,2 0 -9.699506,2 0 -10.1289,2 0 -10.1289,2 0 -10.1289,2 0 -10.1289,2 0 -10.1289,2 0 -10.1289,2 0 -10.1289,2 0 -10.1289,2 0 -10.1289,2 0 -10.1289,2 0 -10.1289,2 0 -10.1289,2 0 -10.1289,2 0 -10.1289,2 0 -10.1289,2 0 -10.1289,2 0 -10.1289,2 0 -10.1289,2 0 -10.1289,2 0 -10.1289,2 0 -10.1289,12.810,
2 0 -9.699506,2 0 -9.699506,2 0 -9.699506,2 0 -9.699506,2 0 -9.699506,2 0 -9.699506,2 0 -9.699506,2 0 -9.699506,2 0 -9.699506,2 0 -9.699506,2 0 -9.699506,2 0 -9.699506,2 0 -9.699506,2 0 -9.699506,2 0 -9.699506,2 0 -9.699506,2 0 -9.699506,2 0 -9.699506,2 0 -9.699506,2 0 -9.699506,2 0 -9.699506,2 0 -10.1289,2 0 -10.1289,2 0 -10.1289,2 0 -10.1289,2 0 -10.1289,2 0 -10.1289,2 0 -10.1289,2 0 -10.1289,2 0 -10.1289,2 0 -10.1289,2 0 -10.1289,2 0 -10.1289,2 0 -10.1289,2 0 -10.1289,2 0 -10.1289,2 0 -10.1289,2 0 -10.1289,2 0 -10.1289,2 0 -10.1289,2 0 -10.1289,2 0 -10.1289,12.910,
2 0 -9.699506,2 0 -9.699506,2 0 -9.699506,2 0 -9.699506,2 0 -9.699506,2 0 -9.699506,2 0 -9.699506,2 0 -9.699506,2 0 -9.699506,2 0 -9.699506,2 0 -9.699506,2 0 -9.699506,2 0 -9.699506,2 0 -9.699506,2 0 -9.699506,2 0 -9.699506,2 0 -9.699506,2 0 -9.699506,2 0 -9.699506,2 0 -9.699506,2 0 -9.699506,2 0 -10.1289,2 0 -10.1289,2 0 -10.1289,2 0 -10.1289,2 0 -10.1289,2 0 -10.1289,2 0 -10.1289,2 0 -10.1289,2 0 -10.1289,2 0 -10.1289,2 0 -10.1289,2 0 -10.1289,2 0 -10.1289,2 0 -10.1289,2 0 -10.1289,2 0 -10.1289,2 0 -10.1289,2 0 -10.1289,2 0 -10.1289,2 0 -10.1289,2 0 -10.1289,13.010,
2 0 -9.699506,2 0 -9.699506,2 0 -9.699506,2 0 -9.699506,2 0 -9.699506,2 0 -9.699506,2 0 -9.699506,2 0 -9.699506,2 0 -9.699506,2 0 -9.699506,2 0 -9.699506,2 0 -9.699506,2 0 -9.699506,2 0 -9.699506,2 0 -9.699506,2 0 -9.699506,2 0 -9.699506,2 0 -9.699506,2 0 -9.699506,2 0 -9.699506,2 0 -9.699506,2 0 -10.1289,2 0 -10.1289,2 0 -10.1289,2 0 -10.1289,2 0 -10.1289,2 0 -10.1289,2 0 -10.1289,2 0 -10.1289,2 0 -10.1289,2 0 -10.1289,2 0 -10.1289,2 0 -10.1289,2 0 -10.1289,2 0 -10.1289,2 0 -10.1289,2 0 -10.1289,2 0 -10.1289,2 0 -10.1289,2 0 -10.1289,2 0 -10.1289,2 0 -10.1289,13.110,
2 0 -9.699506,2 0 -9.699506,2 0 -9.699506,2 0 -9.699506,2 0 -9.699506,2 0 -9.699506,2 0 -9.699506,2 0 -9.699506,2 0 -9.699506,2 0 -9.699506,2 0 -9.699506,2 0 -9.699506,2 0 -9.699506,2 0 -9.699506,2 0 -9.699506,2 0 -9.699506,2 0 -9.699506,2 0 -9.699506,2 0 -9.699506,2 0 -9.699506,2 0 -9.699506,2 0 -10.1289,2 0 -10.1289,2 0 -10.1289,2 0 -10.1289,2 0 -10.1289,2 0 -10.1289,2 0 -10.1289,2 0 -10.1289,2 0 -10.1289,2 0 -10.1289,2 0 -10.1289,2 0 -10.1289,2 0 -10.1289,2 0 -10.1289,2 0 -10.1289,2 0 -10.1289,2 0 -10.1289,2 0 -10.1289,2 0 -10.1289,2 0 -10.1289,2 0 -10.1289,13.210,
2 0 -9.699506,2 0 -9.699506,2 0 -9.699506,2 0 -9.699506,2 0 -9.699506,2 0 -9.699506,2 0 -9.699506,2 0 -9.699506,2 0 -9.699506,2 0 -9.699506,2 0 -9.699506,2 0 -9.699506,2 0 -9.699506,2 0 -9.699506,2 0 -9.699506,2 0 -9.699506,2 0 -9.699506,2 0 -9.699506,2 0 -9.699506,2 0 -9.699506,2 0 -9.699506,2 0 -10.1289,2 0 -10.1289,2 0 -10.1289,2 0 -10.1289,2 0 -10.1289,2 0 -10.1289,2 0 -10.1289,2 0 -10.1289,2 0 -10.1289,2 0 -10.1289,2 0 -10.1289,2 0 -10.1289,2 0 -10.1289,2 0 -10.1289,2 0 -10.1289,2 0 -10.1289,2 0 -10.1289,2 0 -10.1289,2 0 -10.1289,2 0 -10.1289,2 0 -10.1289,13.310,
2 0 -9.699506,2 0 -9.699506,2 0 -9.699506,2 0 -9.699506,2 0 -9.699506,2 0 -9.699506,2 0 -9.699506,2 0 -9.699506,2 0 -9.699506,2 0 -9.699506,2 0 -9.699506,2 0 -9.699506,2 0 -9.699506,2 0 -9.699506,2 0 -9.699506,2 0 -9.699506,2 0 -9.699506,2 0 -9.699506,2 0 -9.699506,2 0 -9.699506,2 0 -9.699506,2 0 -10.1289,2 0 -10.1289,2 0 -10.1289,2 0 -10.1289,2 0 -10.1289,2 0 -10.1289,2 0 -10.1289,2 0 -10.1289,2 0 -10.1289,2 0 -10.1289,2 0 -10.1289,2 0 -10.1289,2 0 -10.1289,2 0 -10.1289,2 0 -10.1289,2 0 -10.1289,2 0 -10.1289,2 0 -10.1289,2 0 -10.1289,2 0 -10.1289,2 0 -10.1289,13.410,
2 0 -9.699506,2 0 -9.699506,2 0 -9.699506,2 0 -9.699506,2 0 -9.699506,2 0 -9.699506,2 0 -9.699506,2 0 -9.699506,2 0 -9.699506,2 0 -9.699506,2 0 -9.699506,2 0 -9.699506,2 0 -9.699506,2 0 -9.699506,2 0 -9.699506,2 0 -9.699506,2 0 -9.699506,2 0 -9.699506,2 0 -9.699506,2 0 -9.699506,2 0 -9.699506,2 0 -10.1289,2 0 -10.1289,2 0 -10.1289,2 0 -10.1289,2 0 -10.1289,2 0 -10.1289,2 0 -10.1289,2 0 -10.1289,2 0 -10.1289,2 0 -10.1289,2 0 -10.1289,2 0 -10.1289,2 0 -10.1289,2 0 -10.1289,2 0 -10.1289,2 0 -10.1289,2 0 -10.1289,2 0 -10.1289,2 0 -10.1289,2 0 -10.1289,2 0 -10.1289,13.510,
2 0 -9.699506,2 0 -9.699506,2 0 -9.699506,2 0 -9.699506,2 0 -9.699506,2 0 -9.699506,2 0 -9.699506,2 0 -9.699506,2 0 -9.699506,2 0 -9.699506,2 0 -9.699506,2 0 -9.699506,2 0 -9.699506,2 0 -9.699506,2 0 -9.699506,2 0 -9.699506,2 0 -9.699506,2 0 -9.699506,2 0 -9.699506,2 0 -9.699506,2 0 -9.699506,2 0 -10.1289,2 0 -10.1289,2 0 -10.1289,2 0 -10.1289,2 0 -10.1289,2 0 -10.1289,2 0 -10.1289,2 0 -10.1289,2 0 -10.1289,2 0 -10.1289,2 0 -10.1289,2 0 -10.1289,2 0 -10.1289,2 0 -10.1289,2 0 -10.1289,2 0 -10.1289,2 0 -10.1289,2 0 -10.1289,2 0 -10.1289,2 0 -10.1289,2 0 -10.1289,13.610,
2 0 -9.699506,2 0 -9.699506,2 0 -9.699506,2 0 -9.699506,2 0 -9.699506,2 0 -9.699506,2 0 -9.699506,2 0 -9.699506,2 0 -9.699506,2 0 -9.699506,2 0 -9.699506,2 0 -9.699506,2 0 -9.699506,2 0 -9.699506,2 0 -9.699506,2 0 -9.699506,2 0 -9.699506,2 0 -9.699506,2 0 -9.699506,2 0 -9.699506,2 0 -9.699506,2 0 -10.1289,2 0 -10.1289,2 0 -10.1289,2 0 -10.1289,2 0 -10.1289,2 0 -10.1289,2 0 -10.1289,2 0 -10.1289,2 0 -10.1289,2 0 -10.1289,2 0 -10.1289,2 0 -10.1289,2 0 -10.1289,2 0 -10.1289,2 0 -10.1289,2 0 -10.1289,2 0 -10.1289,2 0 -10.1289,2 0 -10.1289,2 0 -10.1289,2 0 -10.1289,13.710,
2 0 -9.699506,2 0 -9.699506,2 0 -9.699506,2 0 -9.699506,2 0 -9.699506,2 0 -9.699506,2 0 -9.699506,2 0 -9.699506,2 0 -9.699506,2 0 -9.699506,2 0 -9.699506,2 0 -9.699506,2 0 -9.699506,2 0 -9.699506,2 0 -9.699506,2 0 -9.699506,2 0 -9.699506,2 0 -9.699506,2 0 -9.699506,2 0 -9.699506,2 0 -9.699506,2 0 -10.1289,2 0 -10.1289,2 0 -10.1289,2 0 -10.1289,2 0 -10.1289,2 0 -10.1289,2 0 -10.1289,2 0 -10.1289,2 0 -10.1289,2 0 -10.1289,2 0 -10.1289,2 0 -10.1289,2 0 -10.1289,2 0 -10.1289,2 0 -10.1289,2 0 -10.1289,2 0 -10.1289,2 0 -10.1289,2 0 -10.1289,2 0 -10.1289,2 0 -10.1289,13.810,
2 0 -9.699506,2 0 -9.699506,2 0 -9.699506,2 0 -9.699506,2 0 -9.699506,2 0 -9.699506,2 0 -9.699506,2 0 -9.699506,2 0 -9.699506,2 0 -9.699506,2 0 -9.699506,2 0 -9.699506,2 0 -9.699506,2 0 -9.699506,2 0 -9.699506,2 0 -9.699506,2 0 -9.699506,2 0 -9.699506,2 0 -9.699506,2 0 -9.699506,2 0 -9.699506,2 0 -10.1289,2 0 -10.1289,2 0 -10.1289,2 0 -10.1289,2 0 -10.1289,2 0 -10.1289,2 0 -10.1289,2 0 -10.1289,2 0 -10.1289,2 0 -10.1289,2 0 -10.1289,2 0 -10.1289,2 0 -10.1289,2 0 -10.1289,2 0 -10.1289,2 0 -10.1289,2 0 -10.1289,2 0 -10.1289,2 0 -10.1289,2 0 -10.1289,2 0 -10.1289,13.910,
2 0 -9.699506,2 0 -9.699506,2 0 -9.699506,2 0 -9.699506,2 0 -9.699506,2 0 -9.699506,2 0 -9.699506,2 0 -9.699506,2 0 -9.699506,2 0 -9.699506,2 0 -9.699506,2 0 -9.699506,2 0 -9.699506,2 0 -9.699506,2 0 -9.699506,2 0 -9.699506,2 0 -9.699506,2 0 -9.699506,2 0 -9.699506,2 0 -9.699506,2 0 -9.699506,2 0 -10.1289,2 0 -10.1289,2 0 -10.1289,2 0 -10.1289,2 0 -10.1289,2 0 -10.1289,2 0 -10.1289,2 0 -10.1289,2 0 -10.1289,2 0 -10.1289,2 0 -10.1289,2 0 -10.1289,2 0 -10.1289,2 0 -10.1289,2 0 -10.1289,2 0 -10.1289,2 0 -10.1289,2 0 -10.1289,2 0 -10.1289,2 0 -10.1289,2 0 -10.1289,14.010,
2 0 -9.699506,2 0 -9.699506,2 0 -9.699506,2 0 -9.699506,2 0 -9.699506,2 0 -9.699506,2 0 -9.699506,2 0 -9.699506,2 0 -9.699506,2 0 -9.699506,2 0 -9.699506,2 0 -9.699506,2 0 -9.699506,2 0 -9.699506,2 0 -9.699506,2 0 -9.699506,2 0 -9.699506,2 0 -9.699506,2 0 -9.699506,2 0 -9.699506,2 0 -9.699506,2 0 -10.1289,2 0 -10.1289,2 0 -10.1289,2 0 -10.1289,2 0 -10.1289,2 0 -10.1289,2 0 -10.1289,2 0 -10.1289,2 0 -10.1289,2 0 -10.1289,2 0 -10.1289,2 0 -10.1289,2 0 -10.1289,2 0 -10.1289,2 0 -10.1289,2 0 -10.1289,2 0 -10.1289,2 0 -10.1289,2 0 -10.1289,2 0 -10.1289,2 0 -10.1289,14.110,
2 0 -9.699506,2 0 -9.699506,2 0 -9.699506,2 0 -9.699506,2 0 -9.699506,2 0 -9.699506,2 0 -9.699506,2 0 -9.699506,2 0 -9.699506,2 0 -9.699506,2 0 -9.699506,2 0 -9.699506,2 0 -9.699506,2 0 -9.699506,2 0 -9.699506,2 0 -9.699506,2 0 -9.699506,2 0 -9.699506,2 0 -9.699506,2 0 -9.699506,2 0 -9.699506,2 0 -10.1289,2 0 -10.1289,2 0 -10.1289,2 0 -10.1289,2 0 -10.1289,2 0 -10.1289,2 0 -10.1289,2 0 -10.1289,2 0 -10.1289,2 0 -10.1289,2 0 -10.1289,2 0 -10.1289,2 0 -10.1289,2 0 -10.1289,2 0 -10.1289,2 0 -10.1289,2 0 -10.1289,2 0 -10.1289,2 0 -10.1289,2 0 -10.1289,2 0 -10.1289,14.210,
2 0 -9.699506,2 0 -9.699506,2 0 -9.699506,2 0 -9.699506,2 0 -9.699506,2 0 -9.699506,2 0 -9.699506,2 0 -9.699506,2 0 -9.699506,2 0 -9.699506,2 0 -9.699506,2 0 -9.699506,2 0 -9.699506,2 0 -9.699506,2 0 -9.699506,2 0 -9.699506,2 0 -9.699506,2 0 -9.699506,2 0 -9.699506,2 0 -9.699506,2 0 -9.699506,2 0 -10.1289,2 0 -10.1289,2 0 -10.1289,2 0 -10.1289,2 0 -10.1289,2 0 -10.1289,2 0 -10.1289,2 0 -10.1289,2 0 -10.1289,2 0 -10.1289,2 0 -10.1289,2 0 -10.1289,2 0 -10.1289,2 0 -10.1289,2 0 -10.1289,2 0 -10.1289,2 0 -10.1289,2 0 -10.1289,2 0 -10.1289,2 0 -10.1289,2 0 -10.1289,14.310,
2 0 -9.699506,2 0 -9.699506,2 0 -9.699506,2 0 -9.699506,2 0 -9.699506,2 0 -9.699506,2 0 -9.699506,2 0 -9.699506,2 0 -9.699506,2 0 -9.699506,2 0 -9.699506,2 0 -9.699506,2 0 -9.699506,2 0 -9.699506,2 0 -9.699506,2 0 -9.699506,2 0 -9.699506,2 0 -9.699506,2 0 -9.699506,2 0 -9.699506,2 0 -9.699506,2 0 -10.1289,2 0 -10.1289,2 0 -10.1289,2 0 -10.1289,2 0 -10.1289,2 0 -10.1289,2 0 -10.1289,2 0 -10.1289,2 0 -10.1289,2 0 -10.1289,2 0 -10.1289,2 0 -10.1289,2 0 -10.1289,2 0 -10.1289,2 0 -10.1289,2 0 -10.1289,2 0 -10.1289,2 0 -10.1289,2 0 -10.1289,2 0 -10.1289,2 0 -10.1289,14.410,
2 0 -9.699506,2 0 -9.699506,2 0 -9.699506,2 0 -9.699506,2 0 -9.699506,2 0 -9.699506,2 0 -9.699506,2 0 -9.699506,2 0 -9.699506,2 0 -9.699506,2 0 -9.699506,2 0 -9.699506,2 0 -9.699506,2 0 -9.699506,2 0 -9.699506,2 0 -9.699506,2 0 -9.699506,2 0 -9.699506,2 0 -9.699506,2 0 -9.699506,2 0 -9.699506,2 0 -10.1289,2 0 -10.1289,2 0 -10.1289,2 0 -10.1289,2 0 -10.1289,2 0 -10.1289,2 0 -10.1289,2 0 -10.1289,2 0 -10.1289,2 0 -10.1289,2 0 -10.1289,2 0 -10.1289,2 0 -10.1289,2 0 -10.1289,2 0 -10.1289,2 0 -10.1289,2 0 -10.1289,2 0 -10.1289,2 0 -10.1289,2 0 -10.1289,2 0 -10.1289,14.510,
2 0 -9.699506,2 0 -9.699506,2 0 -9.699506,2 0 -9.699506,2 0 -9.699506,2 0 -9.699506,2 0 -9.699506,2 0 -9.699506,2 0 -9.699506,2 0 -9.699506,2 0 -9.699506,2 0 -9.699506,2 0 -9.699506,2 0 -9.699506,2 0 -9.699506,2 0 -9.699506,2 0 -9.699506,2 0 -9.699506,2 0 -9.699506,2 0 -9.699506,2 0 -9.699506,2 0 -10.1289,2 0 -10.1289,2 0 -10.1289,2 0 -10.1289,2 0 -10.1289,2 0 -10.1289,2 0 -10.1289,2 0 -10.1289,2 0 -10.1289,2 0 -10.1289,2 0 -10.1289,2 0 -10.1289,2 0 -10.1289,2 0 -10.1289,2 0 -10.1289,2 0 -10.1289,2 0 -10.1289,2 0 -10.1289,2 0 -10.1289,2 0 -10.1289,2 0 -10.1289,14.610,
2 0 -9.699506,2 0 -9.699506,2 0 -9.699506,2 0 -9.699506,2 0 -9.699506,2 0 -9.699506,2 0 -9.699506,2 0 -9.699506,2 0 -9.699506,2 0 -9.699506,2 0 -9.699506,2 0 -9.699506,2 0 -9.699506,2 0 -9.699506,2 0 -9.699506,2 0 -9.699506,2 0 -9.699506,2 0 -9.699506,2 0 -9.699506,2 0 -9.699506,2 0 -9.699506,2 0 -10.1289,2 0 -10.1289,2 0 -10.1289,2 0 -10.1289,2 0 -10.1289,2 0 -10.1289,2 0 -10.1289,2 0 -10.1289,2 0 -10.1289,2 0 -10.1289,2 0 -10.1289,2 0 -10.1289,2 0 -10.1289,2 0 -10.1289,2 0 -10.1289,2 0 -10.1289,2 0 -10.1289,2 0 -10.1289,2 0 -10.1289,2 0 -10.1289,2 0 -10.1289,14.710,
2 0 -9.699506,2 0 -9.699506,2 0 -9.699506,2 0 -9.699506,2 0 -9.699506,2 0 -9.699506,2 0 -9.699506,2 0 -9.699506,2 0 -9.699506,2 0 -9.699506,2 0 -9.699506,2 0 -9.699506,2 0 -9.699506,2 0 -9.699506,2 0 -9.699506,2 0 -9.699506,2 0 -9.699506,2 0 -9.699506,2 0 -9.699506,2 0 -9.699506,2 0 -9.699506,2 0 -10.1289,2 0 -10.1289,2 0 -10.1289,2 0 -10.1289,2 0 -10.1289,2 0 -10.1289,2 0 -10.1289,2 0 -10.1289,2 0 -10.1289,2 0 -10.1289,2 0 -10.1289,2 0 -10.1289,2 0 -10.1289,2 0 -10.1289,2 0 -10.1289,2 0 -10.1289,2 0 -10.1289,2 0 -10.1289,2 0 -10.1289,2 0 -10.1289,2 0 -10.1289,14.810,
2 0 -9.699506,2 0 -9.699506,2 0 -9.699506,2 0 -9.699506,2 0 -9.699506,2 0 -9.699506,2 0 -9.699506,2 0 -9.699506,2 0 -9.699506,2 0 -9.699506,2 0 -9.699506,2 0 -9.699506,2 0 -9.699506,2 0 -9.699506,2 0 -9.699506,2 0 -9.699506,2 0 -9.699506,2 0 -9.699506,2 0 -9.699506,2 0 -9.699506,2 0 -9.699506,2 0 -10.1289,2 0 -10.1289,2 0 -10.1289,2 0 -10.1289,2 0 -10.1289,2 0 -10.1289,2 0 -10.1289,2 0 -10.1289,2 0 -10.1289,2 0 -10.1289,2 0 -10.1289,2 0 -10.1289,2 0 -10.1289,2 0 -10.1289,2 0 -10.1289,2 0 -10.1289,2 0 -10.1289,2 0 -10.1289,2 0 -10.1289,2 0 -10.1289,2 0 -10.1289,14.910,
2 0 -9.699506,2 0 -9.699506,2 0 -9.699506,2 0 -9.699506,2 0 -9.699506,2 0 -9.699506,2 0 -9.699506,2 0 -9.699506,2 0 -9.699506,2 0 -9.699506,2 0 -9.699506,2 0 -9.699506,2 0 -9.699506,2 0 -9.699506,2 0 -9.699506,2 0 -9.699506,2 0 -9.699506,2 0 -9.699506,2 0 -9.699506,2 0 -9.699506,2 0 -9.699506,2 0 -10.1289,2 0 -10.1289,2 0 -10.1289,2 0 -10.1289,2 0 -10.1289,2 0 -10.1289,2 0 -10.1289,2 0 -10.1289,2 0 -10.1289,2 0 -10.1289,2 0 -10.1289,2 0 -10.1289,2 0 -10.1289,2 0 -10.1289,2 0 -10.1289,2 0 -10.1289,2 0 -10.1289,2 0 -10.1289,2 0 -10.1289,2 0 -10.1289,2 0 -10.1289,15.010,
2 0 -9.699506,2 0 -9.699506,2 0 -9.699506,2 0 -9.699506,2 0 -9.699506,2 0 -9.699506,2 0 -9.699506,2 0 -9.699506,2 0 -9.699506,2 0 -9.699506,2 0 -9.699506,2 0 -9.699506,2 0 -9.699506,2 0 -9.699506,2 0 -9.699506,2 0 -9.699506,2 0 -9.699506,2 0 -9.699506,2 0 -9.699506,2 0 -9.699506,2 0 -9.699506,2 0 -10.1289,2 0 -10.1289,2 0 -10.1289,2 0 -10.1289,2 0 -10.1289,2 0 -10.1289,2 0 -10.1289,2 0 -10.1289,2 0 -10.1289,2 0 -10.1289,2 0 -10.1289,2 0 -10.1289,2 0 -10.1289,2 0 -10.1289,2 0 -10.1289,2 0 -10.1289,2 0 -10.1289,2 0 -10.1289,2 0 -10.1289,2 0 -10.1289,2 0 -10.1289,15.110,
2 0 -9.699506,2 0 -9.699506,2 0 -9.699506,2 0 -9.699506,2 0 -9.699506,2 0 -9.699506,2 0 -9.699506,2 0 -9.699506,2 0 -9.699506,2 0 -9.699506,2 0 -9.699506,2 0 -9.699506,2 0 -9.699506,2 0 -9.699506,2 0 -9.699506,2 0 -9.699506,2 0 -9.699506,2 0 -9.699506,2 0 -9.699506,2 0 -9.699506,2 0 -9.699506,2 0 -10.1289,2 0 -10.1289,2 0 -10.1289,2 0 -10.1289,2 0 -10.1289,2 0 -10.1289,2 0 -10.1289,2 0 -10.1289,2 0 -10.1289,2 0 -10.1289,2 0 -10.1289,2 0 -10.1289,2 0 -10.1289,2 0 -10.1289,2 0 -10.1289,2 0 -10.1289,2 0 -10.1289,2 0 -10.1289,2 0 -10.1289,2 0 -10.1289,2 0 -10.1289,15.210,
2 0 -9.699506,2 0 -9.699506,2 0 -9.699506,2 0 -9.699506,2 0 -9.699506,2 0 -9.699506,2 0 -9.699506,2 0 -9.699506,2 0 -9.699506,2 0 -9.699506,2 0 -9.699506,2 0 -9.699506,2 0 -9.699506,2 0 -9.699506,2 0 -9.699506,2 0 -9.699506,2 0 -9.699506,2 0 -9.699506,2 0 -9.699506,2 0 -9.699506,2 0 -9.699506,2 0 -10.1289,2 0 -10.1289,2 0 -10.1289,2 0 -10.1289,2 0 -10.1289,2 0 -10.1289,2 0 -10.1289,2 0 -10.1289,2 0 -10.1289,2 0 -10.1289,2 0 -10.1289,2 0 -10.1289,2 0 -10.1289,2 0 -10.1289,2 0 -10.1289,2 0 -10.1289,2 0 -10.1289,2 0 -10.1289,2 0 -10.1289,2 0 -10.1289,2 0 -10.1289,15.310,
2 0 -9.699506,2 0 -9.699506,2 0 -9.699506,2 0 -9.699506,2 0 -9.699506,2 0 -9.699506,2 0 -9.699506,2 0 -9.699506,2 0 -9.699506,2 0 -9.699506,2 0 -9.699506,2 0 -9.699506,2 0 -9.699506,2 0 -9.699506,2 0 -9.699506,2 0 -9.699506,2 0 -9.699506,2 0 -9.699506,2 0 -9.699506,2 0 -9.699506,2 0 -9.699506,2 0 -10.1289,2 0 -10.1289,2 0 -10.1289,2 0 -10.1289,2 0 -10.1289,2 0 -10.1289,2 0 -10.1289,2 0 -10.1289,2 0 -10.1289,2 0 -10.1289,2 0 -10.1289,2 0 -10.1289,2 0 -10.1289,2 0 -10.1289,2 0 -10.1289,2 0 -10.1289,2 0 -10.1289,2 0 -10.1289,2 0 -10.1289,2 0 -10.1289,2 0 -10.1289,15.410,
2 0 -9.699506,2 0 -9.699506,2 0 -9.699506,2 0 -9.699506,2 0 -9.699506,2 0 -9.699506,2 0 -9.699506,2 0 -9.699506,2 0 -9.699506,2 0 -9.699506,2 0 -9.699506,2 0 -9.699506,2 0 -9.699506,2 0 -9.699506,2 0 -9.699506,2 0 -9.699506,2 0 -9.699506,2 0 -9.699506,2 0 -9.699506,2 0 -9.699506,2 0 -9.699506,2 0 -10.1289,2 0 -10.1289,2 0 -10.1289,2 0 -10.1289,2 0 -10.1289,2 0 -10.1289,2 0 -10.1289,2 0 -10.1289,2 0 -10.1289,2 0 -10.1289,2 0 -10.1289,2 0 -10.1289,2 0 -10.1289,2 0 -10.1289,2 0 -10.1289,2 0 -10.1289,2 0 -10.1289,2 0 -10.1289,2 0 -10.1289,2 0 -10.1289,2 0 -10.1289,15.510,
2 0 -9.699506,2 0 -9.699506,2 0 -9.699506,2 0 -9.699506,2 0 -9.699506,2 0 -9.699506,2 0 -9.699506,2 0 -9.699506,2 0 -9.699506,2 0 -9.699506,2 0 -9.699506,2 0 -9.699506,2 0 -9.699506,2 0 -9.699506,2 0 -9.699506,2 0 -9.699506,2 0 -9.699506,2 0 -9.699506,2 0 -9.699506,2 0 -9.699506,2 0 -9.699506,2 0 -10.1289,2 0 -10.1289,2 0 -10.1289,2 0 -10.1289,2 0 -10.1289,2 0 -10.1289,2 0 -10.1289,2 0 -10.1289,2 0 -10.1289,2 0 -10.1289,2 0 -10.1289,2 0 -10.1289,2 0 -10.1289,2 0 -10.1289,2 0 -10.1289,2 0 -10.1289,2 0 -10.1289,2 0 -10.1289,2 0 -10.1289,2 0 -10.1289,2 0 -10.1289,15.610,
2 0 -9.699506,2 0 -9.699506,2 0 -9.699506,2 0 -9.699506,2 0 -9.699506,2 0 -9.699506,2 0 -9.699506,2 0 -9.699506,2 0 -9.699506,2 0 -9.699506,2 0 -9.699506,2 0 -9.699506,2 0 -9.699506,2 0 -9.699506,2 0 -9.699506,2 0 -9.699506,2 0 -9.699506,2 0 -9.699506,2 0 -9.699506,2 0 -9.699506,2 0 -9.699506,2 0 -10.1289,2 0 -10.1289,2 0 -10.1289,2 0 -10.1289,2 0 -10.1289,2 0 -10.1289,2 0 -10.1289,2 0 -10.1289,2 0 -10.1289,2 0 -10.1289,2 0 -10.1289,2 0 -10.1289,2 0 -10.1289,2 0 -10.1289,2 0 -10.1289,2 0 -10.1289,2 0 -10.1289,2 0 -10.1289,2 0 -10.1289,2 0 -10.1289,2 0 -10.1289,15.710,
2 0 -9.699506,2 0 -9.699506,2 0 -9.699506,2 0 -9.699506,2 0 -9.699506,2 0 -9.699506,2 0 -9.699506,2 0 -9.699506,2 0 -9.699506,2 0 -9.699506,2 0 -9.699506,2 0 -9.699506,2 0 -9.699506,2 0 -9.699506,2 0 -9.699506,2 0 -9.699506,2 0 -9.699506,2 0 -9.699506,2 0 -9.699506,2 0 -9.699506,2 0 -9.699506,2 0 -10.1289,2 0 -10.1289,2 0 -10.1289,2 0 -10.1289,2 0 -10.1289,2 0 -10.1289,2 0 -10.1289,2 0 -10.1289,2 0 -10.1289,2 0 -10.1289,2 0 -10.1289,2 0 -10.1289,2 0 -10.1289,2 0 -10.1289,2 0 -10.1289,2 0 -10.1289,2 0 -10.1289,2 0 -10.1289,2 0 -10.1289,2 0 -10.1289,2 0 -10.1289,15.810,
2 0 -9.699506,2 0 -9.699506,2 0 -9.699506,2 0 -9.699506,2 0 -9.699506,2 0 -9.699506,2 0 -9.699506,2 0 -9.699506,2 0 -9.699506,2 0 -9.699506,2 0 -9.699506,2 0 -9.699506,2 0 -9.699506,2 0 -9.699506,2 0 -9.699506,2 0 -9.699506,2 0 -9.699506,2 0 -9.699506,2 0 -9.699506,2 0 -9.699506,2 0 -9.699506,2 0 -10.1289,2 0 -10.1289,2 0 -10.1289,2 0 -10.1289,2 0 -10.1289,2 0 -10.1289,2 0 -10.1289,2 0 -10.1289,2 0 -10.1289,2 0 -10.1289,2 0 -10.1289,2 0 -10.1289,2 0 -10.1289,2 0 -10.1289,2 0 -10.1289,2 0 -10.1289,2 0 -10.1289,2 0 -10.1289,2 0 -10.1289,2 0 -10.1289,2 0 -10.1289,15.910,
2 0 -9.699506,2 0 -9.699506,2 0 -9.699506,2 0 -9.699506,2 0 -9.699506,2 0 -9.699506,2 0 -9.699506,2 0 -9.699506,2 0 -9.699506,2 0 -9.699506,2 0 -9.699506,2 0 -9.699506,2 0 -9.699506,2 0 -9.699506,2 0 -9.699506,2 0 -9.699506,2 0 -9.699506,2 0 -9.699506,2 0 -9.699506,2 0 -9.699506,2 0 -9.699506,2 0 -10.1289,2 0 -10.1289,2 0 -10.1289,2 0 -10.1289,2 0 -10.1289,2 0 -10.1289,2 0 -10.1289,2 0 -10.1289,2 0 -10.1289,2 0 -10.1289,2 0 -10.1289,2 0 -10.1289,2 0 -10.1289,2 0 -10.1289,2 0 -10.1289,2 0 -10.1289,2 0 -10.1289,2 0 -10.1289,2 0 -10.1289,2 0 -10.1289,2 0 -10.1289,16.010,
2 0 -9.699506,2 0 -9.699506,2 0 -9.699506,2 0 -9.699506,2 0 -9.699506,2 0 -9.699506,2 0 -9.699506,2 0 -9.699506,2 0 -9.699506,2 0 -9.699506,2 0 -9.699506,2 0 -9.699506,2 0 -9.699506,2 0 -9.699506,2 0 -9.699506,2 0 -9.699506,2 0 -9.699506,2 0 -9.699506,2 0 -9.699506,2 0 -9.699506,2 0 -9.699506,2 0 -10.1289,2 0 -10.1289,2 0 -10.1289,2 0 -10.1289,2 0 -10.1289,2 0 -10.1289,2 0 -10.1289,2 0 -10.1289,2 0 -10.1289,2 0 -10.1289,2 0 -10.1289,2 0 -10.1289,2 0 -10.1289,2 0 -10.1289,2 0 -10.1289,2 0 -10.1289,2 0 -10.1289,2 0 -10.1289,2 0 -10.1289,2 0 -10.1289,2 0 -10.1289,16.110,
2 0 -9.699506,2 0 -9.699506,2 0 -9.699506,2 0 -9.699506,2 0 -9.699506,2 0 -9.699506,2 0 -9.699506,2 0 -9.699506,2 0 -9.699506,2 0 -9.699506,2 0 -9.699506,2 0 -9.699506,2 0 -9.699506,2 0 -9.699506,2 0 -9.699506,2 0 -9.699506,2 0 -9.699506,2 0 -9.699506,2 0 -9.699506,2 0 -9.699506,2 0 -9.699506,2 0 -10.1289,2 0 -10.1289,2 0 -10.1289,2 0 -10.1289,2 0 -10.1289,2 0 -10.1289,2 0 -10.1289,2 0 -10.1289,2 0 -10.1289,2 0 -10.1289,2 0 -10.1289,2 0 -10.1289,2 0 -10.1289,2 0 -10.1289,2 0 -10.1289,2 0 -10.1289,2 0 -10.1289,2 0 -10.1289,2 0 -10.1289,2 0 -10.1289,2 0 -10.1289,16.210,
2 0 -9.699506,2 0 -9.699506,2 0 -9.699506,2 0 -9.699506,2 0 -9.699506,2 0 -9.699506,2 0 -9.699506,2 0 -9.699506,2 0 -9.699506,2 0 -9.699506,2 0 -9.699506,2 0 -9.699506,2 0 -9.699506,2 0 -9.699506,2 0 -9.699506,2 0 -9.699506,2 0 -9.699506,2 0 -9.699506,2 0 -9.699506,2 0 -9.699506,2 0 -9.699506,2 0 -10.1289,2 0 -10.1289,2 0 -10.1289,2 0 -10.1289,2 0 -10.1289,2 0 -10.1289,2 0 -10.1289,2 0 -10.1289,2 0 -10.1289,2 0 -10.1289,2 0 -10.1289,2 0 -10.1289,2 0 -10.1289,2 0 -10.1289,2 0 -10.1289,2 0 -10.1289,2 0 -10.1289,2 0 -10.1289,2 0 -10.1289,2 0 -10.1289,2 0 -10.1289,16.310,
2 0 -9.699506,2 0 -9.699506,2 0 -9.699506,2 0 -9.699506,2 0 -9.699506,2 0 -9.699506,2 0 -9.699506,2 0 -9.699506,2 0 -9.699506,2 0 -9.699506,2 0 -9.699506,2 0 -9.699506,2 0 -9.699506,2 0 -9.699506,2 0 -9.699506,2 0 -9.699506,2 0 -9.699506,2 0 -9.699506,2 0 -9.699506,2 0 -9.699506,2 0 -9.699506,2 0 -10.1289,2 0 -10.1289,2 0 -10.1289,2 0 -10.1289,2 0 -10.1289,2 0 -10.1289,2 0 -10.1289,2 0 -10.1289,2 0 -10.1289,2 0 -10.1289,2 0 -10.1289,2 0 -10.1289,2 0 -10.1289,2 0 -10.1289,2 0 -10.1289,2 0 -10.1289,2 0 -10.1289,2 0 -10.1289,2 0 -10.1289,2 0 -10.1289,2 0 -10.1289,16.410,
2 0 -9.699506,2 0 -9.699506,2 0 -9.699506,2 0 -9.699506,2 0 -9.699506,2 0 -9.699506,2 0 -9.699506,2 0 -9.699506,2 0 -9.699506,2 0 -9.699506,2 0 -9.699506,2 0 -9.699506,2 0 -9.699506,2 0 -9.699506,2 0 -9.699506,2 0 -9.699506,2 0 -9.699506,2 0 -9.699506,2 0 -9.699506,2 0 -9.699506,2 0 -9.699506,-11.32713 -14.69178 -5.304609,-11.65464 -14.84752 -5.00482,-11.94873 -14.82246 -4.700179,-12.13661 -14.7979 -4.418932,-12.1915 -14.81247 -4.145444,-11.98673 -13.89066 -4.65934,-12.06543 -13.51151 -4.322077,-12.08 -13.68348 -4.191029,-12.06808 -13.85282 -4.163567,-11.81734 -13.58459 -4.646182,-11.86341 -13.29735 -4.278801,-11.87433 -13.67524 -4.149025,-11.85856 -13.92867 -4.071919,-11.62466 -13.3756 -4.622543,-11.68101 -13.04876 -4.280911,-11.69212 -13.38433 -4.241299,-11.6568 -13.63845 -4.247667,-11.41799 -13.27125 -4.577743,-11.46631 -12.86926 -4.332053,-11.48769 -13.0091 -4.276127,-11.46729 -13.17195 -4.270252,16.510,Left Hand Closed
2 0 -9.699506,2 0 -9.699506,2 0 -9.699506,2 0 -9.699506,2 0 -9.699506,2 0 -9.699506,2 0 -9.699506,2 0 -9.699506,2 0 -9.699506,2 0 -9.699506,2 0 -9.699506,2 0 -9.699506,2 0 -9.699506,2 0 -9.699506,2 0 -9.699506,2 0 -9.699506,2 0 -9.699506,2 0 -9.699506,2 0 -9.699506,2 0 -9.699506,2 0 -9.699506,-11.32713 -14.69178 -5.304609,-11.65464 -14.84752 -5.00482,-11.94873 -14.82246 -4.700179,-12.13661 -14.7979 -4.418932,-12.1915 -14.81247 -4.145444,-11.98673 -13.89066 -4.65934,-12.06543 -13.51151 -4.322077,-12.08 -13.68348 -4.191029,-12.06808 -13.85282 -4.163567,-11.81734 -13.58459 -4.646182,-11.86341 -13.29735 -4.278801,-11.87433 -13.67524 -4.149025,-11.85856 -13.92867 -4.071919,-11.62466 -13.3756 -4.622543,-11.68101 -13.04876 -4.280911,-11.69212 -13.38433 -4.241299,-11.6568 -13.63845 -4.247667,-11.41799 -13.27125 -4.577743,-11.46631 -12.86926 -4.332053,-11.48769 -13.0091 -4.276127,-11.46729 -13.17195 -4.270252,16.610,Left Hand Closed
2 0 -9.699506,2 0 -9.699506,2 0 -9.699506,2 0 -9.699506,2 0 -9.699506,2 0 -9.699506,2 0 -9.699506,2 0 -9.699506,2 0 -9.699506,2 0 -9.699506,2 0 -9.699506,2 0 -9.699506,2 0 -9.699506,2 0 -9.699506,2 0 -9.699506,2 0 -9.699506,2 0 -9.699506,2 0 -9.699506,2 0 -9.699506,2 0 -9.699506,2 0 -9.699506,-11.32713 -14.69178 -5.304609,-11.65464 -14.84752 -5.00482,-11.94873 -14.82246 -4.700179,-12.13661 -14.7979 -4.418932,-12.1915 -14.81247 -4.145444,-11.98673 -13.89066 -4.65934,-12.06543 -13.51151 -4.322077,-12.08 -13.68348 -4.191029,-12.06808 -13.85282 -4.163567,-11.81734 -13.58459 -4.646182,-11.86341 -13.29735 -4.278801,-11.87433 -13.67524 -4.149025,-11.85856 -13.92867 -4.071919,-11.62466 -13.3756 -4.622543,-11.68101 -13.04876 -4.280911,-11.69212 -13.38433 -4.241299,-11.6568 -13.63845 -4.247667,-11.41799 -13.27125 -4.577743,-11.46631 -12.86926 -4.332053,-11.48769 -13.0091 -4.276127,-11.46729 -13.17195 -4.270252,16.710,Left Hand Closed
2 0 -9.699506,2 0 -9.699506,2 0 -9.699506,2 0 -9.699506,2 0 -9.699506,2 0 -9.699506,2 0 -9.699506,2 0 -9.699506,2 0 -9.699506,2 0 -9.699506,2 0 -9.699506,2 0 -9.699506,2 0 -9.699506,2 0 -9.699506,2 0 -9.699506,2 0 -9.699506,2 0 -9.699506,2 0 -9.699506,2 0 -9.699506,2 0 -9.699506,2 0 -9.699506,-11.32713 -14.69178 -5.304609,-11.65464 -14.84752 -5.00482,-11.94873 -14.82246 -4.700179,-12.13661 -14.7979 -4.418932,-12.1915 -14.81247 -4.145444,-11.98673 -13.89066 -4.65934,-12.06543 -13.51151 -4.322077,-12.08 -13.68348 -4.191029,-12.06808 -13.85282 -4.163567,-11.81734 -13.58459 -4.646182,-11.86341 -13.29735 -4.278801,-11.87433 -13.67524 -4.149025,-11.85856 -13.92867 -4.071919,-11.62466 -13.3756 -4.622543,-11.68101 -13.04876 -4.280911,-11.69212 -13.38433 -4.241299,-11.6568 -13.63845 -4.247667,-11.41799 -13.27125 -4.577743,-11.46631 -12.86926 -4.332053,-11.48769 -13.0091 -4.276127,-11.46729 -13.17195 -4.270252,16.810,Left Hand Closed
