TiagoOliveira98/HandTracking/DataLogging/JointData/Logs(1642779657)_Tiago_Calculator.csv
WRIST,THUMB_CMC,THUMB_MCP,THUMB_IP,THUMB_TIP,INDEX_FINGER_MCP,INDEX_FINGER_PIP,INDEX_FINGER_DIP,INDEX_FINGER_TIP,MIDDLE_FINGER_MCP,MIDDLE_FINGER_PIP,MIDDLE_FINGER_DIP,MIDDLE_FINGER_TIP,RING_FINGER_MCP,RING_FINGER_PIP,RING_FINGER_DIP,RING_FINGER_TIP,PINKY_MCP,PINKY_PIP,PINKY_DIP,PINKY_TIP,WRIST2,THUMB_CMC2,THUMB_MCP2,THUMB_IP2,THUMB_TIP2,INDEX_FINGER_MCP2,INDEX_FINGER_PIP2,INDEX_FINGER_DIP2,INDEX_FINGER_TIP2,MIDDLE_FINGER_MCP2,MIDDLE_FINGER_PIP2,MIDDLE_FINGER_DIP2,MIDDLE_FINGER_TIP2,RING_FINGER_MCP2,RING_FINGER_PIP2,RING_FINGER_DIP2,RING_FINGER_TIP2,PINKY_MCP2,PINKY_PIP2,PINKY_DIP2,PINKY_TIP2,Timestamp,Event
10 0 0,10 7.47 0,10 7.47 0,10 7.47 0,10 7.47 0,10 7.47 0,10 7.47 0,10 7.47 0,10 7.47 0,10 7.47 0,10 7.47 0,10 7.47 0,10 7.47 0,10 7.47 0,10 7.47 0,10 7.47 0,10 7.47 0,10 7.47 0,10 7.47 0,10 7.47 0,10 7.47 0,10 0 0,10 7.47 0,10 7.47 0,10 7.47 0,10 7.47 0,10 7.47 0,10 7.47 0,10 7.47 0,10 7.47 0,10 7.47 0,10 7.47 0,10 7.47 0,10 7.47 0,10 7.47 0,10 7.47 0,10 7.47 0,10 7.47 0,10 7.47 0,10 7.47 0,10 7.47 0,10 7.47 0,0.010,
2 0 -9.279975,2 0 -9.279975,2 0 -9.279975,2 0 -9.279975,2 0 -9.279975,2 0 -9.279975,2 0 -9.279975,2 0 -9.279975,2 0 -9.279975,2 0 -9.279975,2 0 -9.279975,2 0 -9.279975,2 0 -9.279975,2 0 -9.279975,2 0 -9.279975,2 0 -9.279975,2 0 -9.279975,2 0 -9.279975,2 0 -9.279975,2 0 -9.279975,2 0 -9.279975,2 0 -10.59351,2 0 -10.59351,2 0 -10.59351,2 0 -10.59351,2 0 -10.59351,2 0 -10.59351,2 0 -10.59351,2 0 -10.59351,2 0 -10.59351,2 0 -10.59351,2 0 -10.59351,2 0 -10.59351,2 0 -10.59351,2 0 -10.59351,2 0 -10.59351,2 0 -10.59351,2 0 -10.59351,2 0 -10.59351,2 0 -10.59351,2 0 -10.59351,2 0 -10.59351,0.110,
2 0 -9.279975,2 0 -9.279975,2 0 -9.279975,2 0 -9.279975,2 0 -9.279975,2 0 -9.279975,2 0 -9.279975,2 0 -9.279975,2 0 -9.279975,2 0 -9.279975,2 0 -9.279975,2 0 -9.279975,2 0 -9.279975,2 0 -9.279975,2 0 -9.279975,2 0 -9.279975,2 0 -9.279975,2 0 -9.279975,2 0 -9.279975,2 0 -9.279975,2 0 -9.279975,2 0 -10.59351,2 0 -10.59351,2 0 -10.59351,2 0 -10.59351,2 0 -10.59351,2 0 -10.59351,2 0 -10.59351,2 0 -10.59351,2 0 -10.59351,2 0 -10.59351,2 0 -10.59351,2 0 -10.59351,2 0 -10.59351,2 0 -10.59351,2 0 -10.59351,2 0 -10.59351,2 0 -10.59351,2 0 -10.59351,2 0 -10.59351,2 0 -10.59351,2 0 -10.59351,0.210,
2 0 -9.279975,2 0 -9.279975,2 0 -9.279975,2 0 -9.279975,2 0 -9.279975,2 0 -9.279975,2 0 -9.279975,2 0 -9.279975,2 0 -9.279975,2 0 -9.279975,2 0 -9.279975,2 0 -9.279975,2 0 -9.279975,2 0 -9.279975,2 0 -9.279975,2 0 -9.279975,2 0 -9.279975,2 0 -9.279975,2 0 -9.279975,2 0 -9.279975,2 0 -9.279975,2 0 -10.59351,2 0 -10.59351,2 0 -10.59351,2 0 -10.59351,2 0 -10.59351,2 0 -10.59351,2 0 -10.59351,2 0 -10.59351,2 0 -10.59351,2 0 -10.59351,2 0 -10.59351,2 0 -10.59351,2 0 -10.59351,2 0 -10.59351,2 0 -10.59351,2 0 -10.59351,2 0 -10.59351,2 0 -10.59351,2 0 -10.59351,2 0 -10.59351,2 0 -10.59351,0.310,
2 0 -9.279975,2 0 -9.279975,2 0 -9.279975,2 0 -9.279975,2 0 -9.279975,2 0 -9.279975,2 0 -9.279975,2 0 -9.279975,2 0 -9.279975,2 0 -9.279975,2 0 -9.279975,2 0 -9.279975,2 0 -9.279975,2 0 -9.279975,2 0 -9.279975,2 0 -9.279975,2 0 -9.279975,2 0 -9.279975,2 0 -9.279975,2 0 -9.279975,2 0 -9.279975,2 0 -10.59351,2 0 -10.59351,2 0 -10.59351,2 0 -10.59351,2 0 -10.59351,2 0 -10.59351,2 0 -10.59351,2 0 -10.59351,2 0 -10.59351,2 0 -10.59351,2 0 -10.59351,2 0 -10.59351,2 0 -10.59351,2 0 -10.59351,2 0 -10.59351,2 0 -10.59351,2 0 -10.59351,2 0 -10.59351,2 0 -10.59351,2 0 -10.59351,2 0 -10.59351,0.410,
2 0 -9.279975,2 0 -9.279975,2 0 -9.279975,2 0 -9.279975,2 0 -9.279975,2 0 -9.279975,2 0 -9.279975,2 0 -9.279975,2 0 -9.279975,2 0 -9.279975,2 0 -9.279975,2 0 -9.279975,2 0 -9.279975,2 0 -9.279975,2 0 -9.279975,2 0 -9.279975,2 0 -9.279975,2 0 -9.279975,2 0 -9.279975,2 0 -9.279975,2 0 -9.279975,2 0 -10.59351,2 0 -10.59351,2 0 -10.59351,2 0 -10.59351,2 0 -10.59351,2 0 -10.59351,2 0 -10.59351,2 0 -10.59351,2 0 -10.59351,2 0 -10.59351,2 0 -10.59351,2 0 -10.59351,2 0 -10.59351,2 0 -10.59351,2 0 -10.59351,2 0 -10.59351,2 0 -10.59351,2 0 -10.59351,2 0 -10.59351,2 0 -10.59351,2 0 -10.59351,0.510,
2 0 -9.279975,2 0 -9.279975,2 0 -9.279975,2 0 -9.279975,2 0 -9.279975,2 0 -9.279975,2 0 -9.279975,2 0 -9.279975,2 0 -9.279975,2 0 -9.279975,2 0 -9.279975,2 0 -9.279975,2 0 -9.279975,2 0 -9.279975,2 0 -9.279975,2 0 -9.279975,2 0 -9.279975,2 0 -9.279975,2 0 -9.279975,2 0 -9.279975,2 0 -9.279975,2 0 -10.59351,2 0 -10.59351,2 0 -10.59351,2 0 -10.59351,2 0 -10.59351,2 0 -10.59351,2 0 -10.59351,2 0 -10.59351,2 0 -10.59351,2 0 -10.59351,2 0 -10.59351,2 0 -10.59351,2 0 -10.59351,2 0 -10.59351,2 0 -10.59351,2 0 -10.59351,2 0 -10.59351,2 0 -10.59351,2 0 -10.59351,2 0 -10.59351,2 0 -10.59351,0.610,
2 0 -9.279975,2 0 -9.279975,2 0 -9.279975,2 0 -9.279975,2 0 -9.279975,2 0 -9.279975,2 0 -9.279975,2 0 -9.279975,2 0 -9.279975,2 0 -9.279975,2 0 -9.279975,2 0 -9.279975,2 0 -9.279975,2 0 -9.279975,2 0 -9.279975,2 0 -9.279975,2 0 -9.279975,2 0 -9.279975,2 0 -9.279975,2 0 -9.279975,2 0 -9.279975,2 0 -10.59351,2 0 -10.59351,2 0 -10.59351,2 0 -10.59351,2 0 -10.59351,2 0 -10.59351,2 0 -10.59351,2 0 -10.59351,2 0 -10.59351,2 0 -10.59351,2 0 -10.59351,2 0 -10.59351,2 0 -10.59351,2 0 -10.59351,2 0 -10.59351,2 0 -10.59351,2 0 -10.59351,2 0 -10.59351,2 0 -10.59351,2 0 -10.59351,2 0 -10.59351,0.710,
2 0 -9.279975,2 0 -9.279975,2 0 -9.279975,2 0 -9.279975,2 0 -9.279975,2 0 -9.279975,2 0 -9.279975,2 0 -9.279975,2 0 -9.279975,2 0 -9.279975,2 0 -9.279975,2 0 -9.279975,2 0 -9.279975,2 0 -9.279975,2 0 -9.279975,2 0 -9.279975,2 0 -9.279975,2 0 -9.279975,2 0 -9.279975,2 0 -9.279975,2 0 -9.279975,2 0 -10.59351,2 0 -10.59351,2 0 -10.59351,2 0 -10.59351,2 0 -10.59351,2 0 -10.59351,2 0 -10.59351,2 0 -10.59351,2 0 -10.59351,2 0 -10.59351,2 0 -10.59351,2 0 -10.59351,2 0 -10.59351,2 0 -10.59351,2 0 -10.59351,2 0 -10.59351,2 0 -10.59351,2 0 -10.59351,2 0 -10.59351,2 0 -10.59351,2 0 -10.59351,0.810,
2 0 -9.279975,2 0 -9.279975,2 0 -9.279975,2 0 -9.279975,2 0 -9.279975,2 0 -9.279975,2 0 -9.279975,2 0 -9.279975,2 0 -9.279975,2 0 -9.279975,2 0 -9.279975,2 0 -9.279975,2 0 -9.279975,2 0 -9.279975,2 0 -9.279975,2 0 -9.279975,2 0 -9.279975,2 0 -9.279975,2 0 -9.279975,2 0 -9.279975,2 0 -9.279975,2 0 -10.59351,2 0 -10.59351,2 0 -10.59351,2 0 -10.59351,2 0 -10.59351,2 0 -10.59351,2 0 -10.59351,2 0 -10.59351,2 0 -10.59351,2 0 -10.59351,2 0 -10.59351,2 0 -10.59351,2 0 -10.59351,2 0 -10.59351,2 0 -10.59351,2 0 -10.59351,2 0 -10.59351,2 0 -10.59351,2 0 -10.59351,2 0 -10.59351,2 0 -10.59351,0.910,
2 0 -9.279975,2 0 -9.279975,2 0 -9.279975,2 0 -9.279975,2 0 -9.279975,2 0 -9.279975,2 0 -9.279975,2 0 -9.279975,2 0 -9.279975,2 0 -9.279975,2 0 -9.279975,2 0 -9.279975,2 0 -9.279975,2 0 -9.279975,2 0 -9.279975,2 0 -9.279975,2 0 -9.279975,2 0 -9.279975,2 0 -9.279975,2 0 -9.279975,2 0 -9.279975,2 0 -10.59351,2 0 -10.59351,2 0 -10.59351,2 0 -10.59351,2 0 -10.59351,2 0 -10.59351,2 0 -10.59351,2 0 -10.59351,2 0 -10.59351,2 0 -10.59351,2 0 -10.59351,2 0 -10.59351,2 0 -10.59351,2 0 -10.59351,2 0 -10.59351,2 0 -10.59351,2 0 -10.59351,2 0 -10.59351,2 0 -10.59351,2 0 -10.59351,2 0 -10.59351,1.010,
2 0 -9.279975,2 0 -9.279975,2 0 -9.279975,2 0 -9.279975,2 0 -9.279975,2 0 -9.279975,2 0 -9.279975,2 0 -9.279975,2 0 -9.279975,2 0 -9.279975,2 0 -9.279975,2 0 -9.279975,2 0 -9.279975,2 0 -9.279975,2 0 -9.279975,2 0 -9.279975,2 0 -9.279975,2 0 -9.279975,2 0 -9.279975,2 0 -9.279975,2 0 -9.279975,2 0 -10.59351,2 0 -10.59351,2 0 -10.59351,2 0 -10.59351,2 0 -10.59351,2 0 -10.59351,2 0 -10.59351,2 0 -10.59351,2 0 -10.59351,2 0 -10.59351,2 0 -10.59351,2 0 -10.59351,2 0 -10.59351,2 0 -10.59351,2 0 -10.59351,2 0 -10.59351,2 0 -10.59351,2 0 -10.59351,2 0 -10.59351,2 0 -10.59351,2 0 -10.59351,1.110,
2 0 -9.279975,2 0 -9.279975,2 0 -9.279975,2 0 -9.279975,2 0 -9.279975,2 0 -9.279975,2 0 -9.279975,2 0 -9.279975,2 0 -9.279975,2 0 -9.279975,2 0 -9.279975,2 0 -9.279975,2 0 -9.279975,2 0 -9.279975,2 0 -9.279975,2 0 -9.279975,2 0 -9.279975,2 0 -9.279975,2 0 -9.279975,2 0 -9.279975,2 0 -9.279975,2 0 -10.59351,2 0 -10.59351,2 0 -10.59351,2 0 -10.59351,2 0 -10.59351,2 0 -10.59351,2 0 -10.59351,2 0 -10.59351,2 0 -10.59351,2 0 -10.59351,2 0 -10.59351,2 0 -10.59351,2 0 -10.59351,2 0 -10.59351,2 0 -10.59351,2 0 -10.59351,2 0 -10.59351,2 0 -10.59351,2 0 -10.59351,2 0 -10.59351,2 0 -10.59351,1.210,
2 0 -9.279975,2 0 -9.279975,2 0 -9.279975,2 0 -9.279975,2 0 -9.279975,2 0 -9.279975,2 0 -9.279975,2 0 -9.279975,2 0 -9.279975,2 0 -9.279975,2 0 -9.279975,2 0 -9.279975,2 0 -9.279975,2 0 -9.279975,2 0 -9.279975,2 0 -9.279975,2 0 -9.279975,2 0 -9.279975,2 0 -9.279975,2 0 -9.279975,2 0 -9.279975,2 0 -10.59351,2 0 -10.59351,2 0 -10.59351,2 0 -10.59351,2 0 -10.59351,2 0 -10.59351,2 0 -10.59351,2 0 -10.59351,2 0 -10.59351,2 0 -10.59351,2 0 -10.59351,2 0 -10.59351,2 0 -10.59351,2 0 -10.59351,2 0 -10.59351,2 0 -10.59351,2 0 -10.59351,2 0 -10.59351,2 0 -10.59351,2 0 -10.59351,2 0 -10.59351,1.310,
2 0 -9.279975,2 0 -9.279975,2 0 -9.279975,2 0 -9.279975,2 0 -9.279975,2 0 -9.279975,2 0 -9.279975,2 0 -9.279975,2 0 -9.279975,2 0 -9.279975,2 0 -9.279975,2 0 -9.279975,2 0 -9.279975,2 0 -9.279975,2 0 -9.279975,2 0 -9.279975,2 0 -9.279975,2 0 -9.279975,2 0 -9.279975,2 0 -9.279975,2 0 -9.279975,2 0 -10.59351,2 0 -10.59351,2 0 -10.59351,2 0 -10.59351,2 0 -10.59351,2 0 -10.59351,2 0 -10.59351,2 0 -10.59351,2 0 -10.59351,2 0 -10.59351,2 0 -10.59351,2 0 -10.59351,2 0 -10.59351,2 0 -10.59351,2 0 -10.59351,2 0 -10.59351,2 0 -10.59351,2 0 -10.59351,2 0 -10.59351,2 0 -10.59351,2 0 -10.59351,1.410,
2 0 -9.279975,2 0 -9.279975,2 0 -9.279975,2 0 -9.279975,2 0 -9.279975,2 0 -9.279975,2 0 -9.279975,2 0 -9.279975,2 0 -9.279975,2 0 -9.279975,2 0 -9.279975,2 0 -9.279975,2 0 -9.279975,2 0 -9.279975,2 0 -9.279975,2 0 -9.279975,2 0 -9.279975,2 0 -9.279975,2 0 -9.279975,2 0 -9.279975,2 0 -9.279975,2 0 -10.59351,2 0 -10.59351,2 0 -10.59351,2 0 -10.59351,2 0 -10.59351,2 0 -10.59351,2 0 -10.59351,2 0 -10.59351,2 0 -10.59351,2 0 -10.59351,2 0 -10.59351,2 0 -10.59351,2 0 -10.59351,2 0 -10.59351,2 0 -10.59351,2 0 -10.59351,2 0 -10.59351,2 0 -10.59351,2 0 -10.59351,2 0 -10.59351,2 0 -10.59351,1.510,
2 0 -9.279975,2 0 -9.279975,2 0 -9.279975,2 0 -9.279975,2 0 -9.279975,2 0 -9.279975,2 0 -9.279975,2 0 -9.279975,2 0 -9.279975,2 0 -9.279975,2 0 -9.279975,2 0 -9.279975,2 0 -9.279975,2 0 -9.279975,2 0 -9.279975,2 0 -9.279975,2 0 -9.279975,2 0 -9.279975,2 0 -9.279975,2 0 -9.279975,2 0 -9.279975,2 0 -10.59351,2 0 -10.59351,2 0 -10.59351,2 0 -10.59351,2 0 -10.59351,2 0 -10.59351,2 0 -10.59351,2 0 -10.59351,2 0 -10.59351,2 0 -10.59351,2 0 -10.59351,2 0 -10.59351,2 0 -10.59351,2 0 -10.59351,2 0 -10.59351,2 0 -10.59351,2 0 -10.59351,2 0 -10.59351,2 0 -10.59351,2 0 -10.59351,2 0 -10.59351,1.610,
2 0 -9.279975,2 0 -9.279975,2 0 -9.279975,2 0 -9.279975,2 0 -9.279975,2 0 -9.279975,2 0 -9.279975,2 0 -9.279975,2 0 -9.279975,2 0 -9.279975,2 0 -9.279975,2 0 -9.279975,2 0 -9.279975,2 0 -9.279975,2 0 -9.279975,2 0 -9.279975,2 0 -9.279975,2 0 -9.279975,2 0 -9.279975,2 0 -9.279975,2 0 -9.279975,2 0 -10.59351,2 0 -10.59351,2 0 -10.59351,2 0 -10.59351,2 0 -10.59351,2 0 -10.59351,2 0 -10.59351,2 0 -10.59351,2 0 -10.59351,2 0 -10.59351,2 0 -10.59351,2 0 -10.59351,2 0 -10.59351,2 0 -10.59351,2 0 -10.59351,2 0 -10.59351,2 0 -10.59351,2 0 -10.59351,2 0 -10.59351,2 0 -10.59351,2 0 -10.59351,1.710,
2 0 -9.279975,2 0 -9.279975,2 0 -9.279975,2 0 -9.279975,2 0 -9.279975,2 0 -9.279975,2 0 -9.279975,2 0 -9.279975,2 0 -9.279975,2 0 -9.279975,2 0 -9.279975,2 0 -9.279975,2 0 -9.279975,2 0 -9.279975,2 0 -9.279975,2 0 -9.279975,2 0 -9.279975,2 0 -9.279975,2 0 -9.279975,2 0 -9.279975,2 0 -9.279975,2 0 -10.59351,2 0 -10.59351,2 0 -10.59351,2 0 -10.59351,2 0 -10.59351,2 0 -10.59351,2 0 -10.59351,2 0 -10.59351,2 0 -10.59351,2 0 -10.59351,2 0 -10.59351,2 0 -10.59351,2 0 -10.59351,2 0 -10.59351,2 0 -10.59351,2 0 -10.59351,2 0 -10.59351,2 0 -10.59351,2 0 -10.59351,2 0 -10.59351,2 0 -10.59351,1.810,
2 0 -9.279975,2 0 -9.279975,2 0 -9.279975,2 0 -9.279975,2 0 -9.279975,2 0 -9.279975,2 0 -9.279975,2 0 -9.279975,2 0 -9.279975,2 0 -9.279975,2 0 -9.279975,2 0 -9.279975,2 0 -9.279975,2 0 -9.279975,2 0 -9.279975,2 0 -9.279975,2 0 -9.279975,2 0 -9.279975,2 0 -9.279975,2 0 -9.279975,2 0 -9.279975,2 0 -10.59351,2 0 -10.59351,2 0 -10.59351,2 0 -10.59351,2 0 -10.59351,2 0 -10.59351,2 0 -10.59351,2 0 -10.59351,2 0 -10.59351,2 0 -10.59351,2 0 -10.59351,2 0 -10.59351,2 0 -10.59351,2 0 -10.59351,2 0 -10.59351,2 0 -10.59351,2 0 -10.59351,2 0 -10.59351,2 0 -10.59351,2 0 -10.59351,2 0 -10.59351,1.910,
2 0 -9.279975,2 0 -9.279975,2 0 -9.279975,2 0 -9.279975,2 0 -9.279975,2 0 -9.279975,2 0 -9.279975,2 0 -9.279975,2 0 -9.279975,2 0 -9.279975,2 0 -9.279975,2 0 -9.279975,2 0 -9.279975,2 0 -9.279975,2 0 -9.279975,2 0 -9.279975,2 0 -9.279975,2 0 -9.279975,2 0 -9.279975,2 0 -9.279975,2 0 -9.279975,2 0 -10.59351,2 0 -10.59351,2 0 -10.59351,2 0 -10.59351,2 0 -10.59351,2 0 -10.59351,2 0 -10.59351,2 0 -10.59351,2 0 -10.59351,2 0 -10.59351,2 0 -10.59351,2 0 -10.59351,2 0 -10.59351,2 0 -10.59351,2 0 -10.59351,2 0 -10.59351,2 0 -10.59351,2 0 -10.59351,2 0 -10.59351,2 0 -10.59351,2 0 -10.59351,2.010,
2 0 -9.279975,2 0 -9.279975,2 0 -9.279975,2 0 -9.279975,2 0 -9.279975,2 0 -9.279975,2 0 -9.279975,2 0 -9.279975,2 0 -9.279975,2 0 -9.279975,2 0 -9.279975,2 0 -9.279975,2 0 -9.279975,2 0 -9.279975,2 0 -9.279975,2 0 -9.279975,2 0 -9.279975,2 0 -9.279975,2 0 -9.279975,2 0 -9.279975,2 0 -9.279975,2 0 -10.59351,2 0 -10.59351,2 0 -10.59351,2 0 -10.59351,2 0 -10.59351,2 0 -10.59351,2 0 -10.59351,2 0 -10.59351,2 0 -10.59351,2 0 -10.59351,2 0 -10.59351,2 0 -10.59351,2 0 -10.59351,2 0 -10.59351,2 0 -10.59351,2 0 -10.59351,2 0 -10.59351,2 0 -10.59351,2 0 -10.59351,2 0 -10.59351,2 0 -10.59351,2.110,
2 0 -9.279975,2 0 -9.279975,2 0 -9.279975,2 0 -9.279975,2 0 -9.279975,2 0 -9.279975,2 0 -9.279975,2 0 -9.279975,2 0 -9.279975,2 0 -9.279975,2 0 -9.279975,2 0 -9.279975,2 0 -9.279975,2 0 -9.279975,2 0 -9.279975,2 0 -9.279975,2 0 -9.279975,2 0 -9.279975,2 0 -9.279975,2 0 -9.279975,2 0 -9.279975,2 0 -10.59351,2 0 -10.59351,2 0 -10.59351,2 0 -10.59351,2 0 -10.59351,2 0 -10.59351,2 0 -10.59351,2 0 -10.59351,2 0 -10.59351,2 0 -10.59351,2 0 -10.59351,2 0 -10.59351,2 0 -10.59351,2 0 -10.59351,2 0 -10.59351,2 0 -10.59351,2 0 -10.59351,2 0 -10.59351,2 0 -10.59351,2 0 -10.59351,2 0 -10.59351,2.210,
2 0 -9.279975,2 0 -9.279975,2 0 -9.279975,2 0 -9.279975,2 0 -9.279975,2 0 -9.279975,2 0 -9.279975,2 0 -9.279975,2 0 -9.279975,2 0 -9.279975,2 0 -9.279975,2 0 -9.279975,2 0 -9.279975,2 0 -9.279975,2 0 -9.279975,2 0 -9.279975,2 0 -9.279975,2 0 -9.279975,2 0 -9.279975,2 0 -9.279975,2 0 -9.279975,2 0 -10.59351,2 0 -10.59351,2 0 -10.59351,2 0 -10.59351,2 0 -10.59351,2 0 -10.59351,2 0 -10.59351,2 0 -10.59351,2 0 -10.59351,2 0 -10.59351,2 0 -10.59351,2 0 -10.59351,2 0 -10.59351,2 0 -10.59351,2 0 -10.59351,2 0 -10.59351,2 0 -10.59351,2 0 -10.59351,2 0 -10.59351,2 0 -10.59351,2 0 -10.59351,2.310,
2 0 -9.279975,2 0 -9.279975,2 0 -9.279975,2 0 -9.279975,2 0 -9.279975,2 0 -9.279975,2 0 -9.279975,2 0 -9.279975,2 0 -9.279975,2 0 -9.279975,2 0 -9.279975,2 0 -9.279975,2 0 -9.279975,2 0 -9.279975,2 0 -9.279975,2 0 -9.279975,2 0 -9.279975,2 0 -9.279975,2 0 -9.279975,2 0 -9.279975,2 0 -9.279975,2 0 -10.59351,2 0 -10.59351,2 0 -10.59351,2 0 -10.59351,2 0 -10.59351,2 0 -10.59351,2 0 -10.59351,2 0 -10.59351,2 0 -10.59351,2 0 -10.59351,2 0 -10.59351,2 0 -10.59351,2 0 -10.59351,2 0 -10.59351,2 0 -10.59351,2 0 -10.59351,2 0 -10.59351,2 0 -10.59351,2 0 -10.59351,2 0 -10.59351,2 0 -10.59351,2.410,
2 0 -9.279975,2 0 -9.279975,2 0 -9.279975,2 0 -9.279975,2 0 -9.279975,2 0 -9.279975,2 0 -9.279975,2 0 -9.279975,2 0 -9.279975,2 0 -9.279975,2 0 -9.279975,2 0 -9.279975,2 0 -9.279975,2 0 -9.279975,2 0 -9.279975,2 0 -9.279975,2 0 -9.279975,2 0 -9.279975,2 0 -9.279975,2 0 -9.279975,2 0 -9.279975,2 0 -10.59351,2 0 -10.59351,2 0 -10.59351,2 0 -10.59351,2 0 -10.59351,2 0 -10.59351,2 0 -10.59351,2 0 -10.59351,2 0 -10.59351,2 0 -10.59351,2 0 -10.59351,2 0 -10.59351,2 0 -10.59351,2 0 -10.59351,2 0 -10.59351,2 0 -10.59351,2 0 -10.59351,2 0 -10.59351,2 0 -10.59351,2 0 -10.59351,2 0 -10.59351,2.510,
2 0 -9.279975,2 0 -9.279975,2 0 -9.279975,2 0 -9.279975,2 0 -9.279975,2 0 -9.279975,2 0 -9.279975,2 0 -9.279975,2 0 -9.279975,2 0 -9.279975,2 0 -9.279975,2 0 -9.279975,2 0 -9.279975,2 0 -9.279975,2 0 -9.279975,2 0 -9.279975,2 0 -9.279975,2 0 -9.279975,2 0 -9.279975,2 0 -9.279975,2 0 -9.279975,2 0 -10.59351,2 0 -10.59351,2 0 -10.59351,2 0 -10.59351,2 0 -10.59351,2 0 -10.59351,2 0 -10.59351,2 0 -10.59351,2 0 -10.59351,2 0 -10.59351,2 0 -10.59351,2 0 -10.59351,2 0 -10.59351,2 0 -10.59351,2 0 -10.59351,2 0 -10.59351,2 0 -10.59351,2 0 -10.59351,2 0 -10.59351,2 0 -10.59351,2 0 -10.59351,2.610,
2 0 -9.279975,2 0 -9.279975,2 0 -9.279975,2 0 -9.279975,2 0 -9.279975,2 0 -9.279975,2 0 -9.279975,2 0 -9.279975,2 0 -9.279975,2 0 -9.279975,2 0 -9.279975,2 0 -9.279975,2 0 -9.279975,2 0 -9.279975,2 0 -9.279975,2 0 -9.279975,2 0 -9.279975,2 0 -9.279975,2 0 -9.279975,2 0 -9.279975,2 0 -9.279975,2 0 -10.59351,2 0 -10.59351,2 0 -10.59351,2 0 -10.59351,2 0 -10.59351,2 0 -10.59351,2 0 -10.59351,2 0 -10.59351,2 0 -10.59351,2 0 -10.59351,2 0 -10.59351,2 0 -10.59351,2 0 -10.59351,2 0 -10.59351,2 0 -10.59351,2 0 -10.59351,2 0 -10.59351,2 0 -10.59351,2 0 -10.59351,2 0 -10.59351,2 0 -10.59351,2.710,
2 0 -9.279975,2 0 -9.279975,2 0 -9.279975,2 0 -9.279975,2 0 -9.279975,2 0 -9.279975,2 0 -9.279975,2 0 -9.279975,2 0 -9.279975,2 0 -9.279975,2 0 -9.279975,2 0 -9.279975,2 0 -9.279975,2 0 -9.279975,2 0 -9.279975,2 0 -9.279975,2 0 -9.279975,2 0 -9.279975,2 0 -9.279975,2 0 -9.279975,2 0 -9.279975,2 0 -10.59351,2 0 -10.59351,2 0 -10.59351,2 0 -10.59351,2 0 -10.59351,2 0 -10.59351,2 0 -10.59351,2 0 -10.59351,2 0 -10.59351,2 0 -10.59351,2 0 -10.59351,2 0 -10.59351,2 0 -10.59351,2 0 -10.59351,2 0 -10.59351,2 0 -10.59351,2 0 -10.59351,2 0 -10.59351,2 0 -10.59351,2 0 -10.59351,2 0 -10.59351,2.810,
2 0 -9.279975,2 0 -9.279975,2 0 -9.279975,2 0 -9.279975,2 0 -9.279975,2 0 -9.279975,2 0 -9.279975,2 0 -9.279975,2 0 -9.279975,2 0 -9.279975,2 0 -9.279975,2 0 -9.279975,2 0 -9.279975,2 0 -9.279975,2 0 -9.279975,2 0 -9.279975,2 0 -9.279975,2 0 -9.279975,2 0 -9.279975,2 0 -9.279975,2 0 -9.279975,2 0 -10.59351,2 0 -10.59351,2 0 -10.59351,2 0 -10.59351,2 0 -10.59351,2 0 -10.59351,2 0 -10.59351,2 0 -10.59351,2 0 -10.59351,2 0 -10.59351,2 0 -10.59351,2 0 -10.59351,2 0 -10.59351,2 0 -10.59351,2 0 -10.59351,2 0 -10.59351,2 0 -10.59351,2 0 -10.59351,2 0 -10.59351,2 0 -10.59351,2 0 -10.59351,2.910,
2 0 -9.279975,2 0 -9.279975,2 0 -9.279975,2 0 -9.279975,2 0 -9.279975,2 0 -9.279975,2 0 -9.279975,2 0 -9.279975,2 0 -9.279975,2 0 -9.279975,2 0 -9.279975,2 0 -9.279975,2 0 -9.279975,2 0 -9.279975,2 0 -9.279975,2 0 -9.279975,2 0 -9.279975,2 0 -9.279975,2 0 -9.279975,2 0 -9.279975,2 0 -9.279975,2 0 -10.59351,2 0 -10.59351,2 0 -10.59351,2 0 -10.59351,2 0 -10.59351,2 0 -10.59351,2 0 -10.59351,2 0 -10.59351,2 0 -10.59351,2 0 -10.59351,2 0 -10.59351,2 0 -10.59351,2 0 -10.59351,2 0 -10.59351,2 0 -10.59351,2 0 -10.59351,2 0 -10.59351,2 0 -10.59351,2 0 -10.59351,2 0 -10.59351,2 0 -10.59351,3.010,
2 0 -9.279975,2 0 -9.279975,2 0 -9.279975,2 0 -9.279975,2 0 -9.279975,2 0 -9.279975,2 0 -9.279975,2 0 -9.279975,2 0 -9.279975,2 0 -9.279975,2 0 -9.279975,2 0 -9.279975,2 0 -9.279975,2 0 -9.279975,2 0 -9.279975,2 0 -9.279975,2 0 -9.279975,2 0 -9.279975,2 0 -9.279975,2 0 -9.279975,2 0 -9.279975,2 0 -10.59351,2 0 -10.59351,2 0 -10.59351,2 0 -10.59351,2 0 -10.59351,2 0 -10.59351,2 0 -10.59351,2 0 -10.59351,2 0 -10.59351,2 0 -10.59351,2 0 -10.59351,2 0 -10.59351,2 0 -10.59351,2 0 -10.59351,2 0 -10.59351,2 0 -10.59351,2 0 -10.59351,2 0 -10.59351,2 0 -10.59351,2 0 -10.59351,2 0 -10.59351,3.110,
2 0 -9.279975,2 0 -9.279975,2 0 -9.279975,2 0 -9.279975,2 0 -9.279975,2 0 -9.279975,2 0 -9.279975,2 0 -9.279975,2 0 -9.279975,2 0 -9.279975,2 0 -9.279975,2 0 -9.279975,2 0 -9.279975,2 0 -9.279975,2 0 -9.279975,2 0 -9.279975,2 0 -9.279975,2 0 -9.279975,2 0 -9.279975,2 0 -9.279975,2 0 -9.279975,2 0 -10.59351,2 0 -10.59351,2 0 -10.59351,2 0 -10.59351,2 0 -10.59351,2 0 -10.59351,2 0 -10.59351,2 0 -10.59351,2 0 -10.59351,2 0 -10.59351,2 0 -10.59351,2 0 -10.59351,2 0 -10.59351,2 0 -10.59351,2 0 -10.59351,2 0 -10.59351,2 0 -10.59351,2 0 -10.59351,2 0 -10.59351,2 0 -10.59351,2 0 -10.59351,3.210,
2 0 -9.279975,2 0 -9.279975,2 0 -9.279975,2 0 -9.279975,2 0 -9.279975,2 0 -9.279975,2 0 -9.279975,2 0 -9.279975,2 0 -9.279975,2 0 -9.279975,2 0 -9.279975,2 0 -9.279975,2 0 -9.279975,2 0 -9.279975,2 0 -9.279975,2 0 -9.279975,2 0 -9.279975,2 0 -9.279975,2 0 -9.279975,2 0 -9.279975,2 0 -9.279975,2 0 -10.59351,2 0 -10.59351,2 0 -10.59351,2 0 -10.59351,2 0 -10.59351,2 0 -10.59351,2 0 -10.59351,2 0 -10.59351,2 0 -10.59351,2 0 -10.59351,2 0 -10.59351,2 0 -10.59351,2 0 -10.59351,2 0 -10.59351,2 0 -10.59351,2 0 -10.59351,2 0 -10.59351,2 0 -10.59351,2 0 -10.59351,2 0 -10.59351,2 0 -10.59351,3.310,
2 0 -9.279975,2 0 -9.279975,2 0 -9.279975,2 0 -9.279975,2 0 -9.279975,2 0 -9.279975,2 0 -9.279975,2 0 -9.279975,2 0 -9.279975,2 0 -9.279975,2 0 -9.279975,2 0 -9.279975,2 0 -9.279975,2 0 -9.279975,2 0 -9.279975,2 0 -9.279975,2 0 -9.279975,2 0 -9.279975,2 0 -9.279975,2 0 -9.279975,2 0 -9.279975,2 0 -10.59351,2 0 -10.59351,2 0 -10.59351,2 0 -10.59351,2 0 -10.59351,2 0 -10.59351,2 0 -10.59351,2 0 -10.59351,2 0 -10.59351,2 0 -10.59351,2 0 -10.59351,2 0 -10.59351,2 0 -10.59351,2 0 -10.59351,2 0 -10.59351,2 0 -10.59351,2 0 -10.59351,2 0 -10.59351,2 0 -10.59351,2 0 -10.59351,2 0 -10.59351,3.410,
2 0 -9.279975,2 0 -9.279975,2 0 -9.279975,2 0 -9.279975,2 0 -9.279975,2 0 -9.279975,2 0 -9.279975,2 0 -9.279975,2 0 -9.279975,2 0 -9.279975,2 0 -9.279975,2 0 -9.279975,2 0 -9.279975,2 0 -9.279975,2 0 -9.279975,2 0 -9.279975,2 0 -9.279975,2 0 -9.279975,2 0 -9.279975,2 0 -9.279975,2 0 -9.279975,2 0 -10.59351,2 0 -10.59351,2 0 -10.59351,2 0 -10.59351,2 0 -10.59351,2 0 -10.59351,2 0 -10.59351,2 0 -10.59351,2 0 -10.59351,2 0 -10.59351,2 0 -10.59351,2 0 -10.59351,2 0 -10.59351,2 0 -10.59351,2 0 -10.59351,2 0 -10.59351,2 0 -10.59351,2 0 -10.59351,2 0 -10.59351,2 0 -10.59351,2 0 -10.59351,3.510,
2 0 -9.279975,2 0 -9.279975,2 0 -9.279975,2 0 -9.279975,2 0 -9.279975,2 0 -9.279975,2 0 -9.279975,2 0 -9.279975,2 0 -9.279975,2 0 -9.279975,2 0 -9.279975,2 0 -9.279975,2 0 -9.279975,2 0 -9.279975,2 0 -9.279975,2 0 -9.279975,2 0 -9.279975,2 0 -9.279975,2 0 -9.279975,2 0 -9.279975,2 0 -9.279975,2 0 -10.59351,2 0 -10.59351,2 0 -10.59351,2 0 -10.59351,2 0 -10.59351,2 0 -10.59351,2 0 -10.59351,2 0 -10.59351,2 0 -10.59351,2 0 -10.59351,2 0 -10.59351,2 0 -10.59351,2 0 -10.59351,2 0 -10.59351,2 0 -10.59351,2 0 -10.59351,2 0 -10.59351,2 0 -10.59351,2 0 -10.59351,2 0 -10.59351,2 0 -10.59351,3.610,
2 0 -9.279975,2 0 -9.279975,2 0 -9.279975,2 0 -9.279975,2 0 -9.279975,2 0 -9.279975,2 0 -9.279975,2 0 -9.279975,2 0 -9.279975,2 0 -9.279975,2 0 -9.279975,2 0 -9.279975,2 0 -9.279975,2 0 -9.279975,2 0 -9.279975,2 0 -9.279975,2 0 -9.279975,2 0 -9.279975,2 0 -9.279975,2 0 -9.279975,2 0 -9.279975,2 0 -10.59351,2 0 -10.59351,2 0 -10.59351,2 0 -10.59351,2 0 -10.59351,2 0 -10.59351,2 0 -10.59351,2 0 -10.59351,2 0 -10.59351,2 0 -10.59351,2 0 -10.59351,2 0 -10.59351,2 0 -10.59351,2 0 -10.59351,2 0 -10.59351,2 0 -10.59351,2 0 -10.59351,2 0 -10.59351,2 0 -10.59351,2 0 -10.59351,2 0 -10.59351,3.710,
2 0 -9.279975,2 0 -9.279975,2 0 -9.279975,2 0 -9.279975,2 0 -9.279975,2 0 -9.279975,2 0 -9.279975,2 0 -9.279975,2 0 -9.279975,2 0 -9.279975,2 0 -9.279975,2 0 -9.279975,2 0 -9.279975,2 0 -9.279975,2 0 -9.279975,2 0 -9.279975,2 0 -9.279975,2 0 -9.279975,2 0 -9.279975,2 0 -9.279975,2 0 -9.279975,2 0 -10.59351,2 0 -10.59351,2 0 -10.59351,2 0 -10.59351,2 0 -10.59351,2 0 -10.59351,2 0 -10.59351,2 0 -10.59351,2 0 -10.59351,2 0 -10.59351,2 0 -10.59351,2 0 -10.59351,2 0 -10.59351,2 0 -10.59351,2 0 -10.59351,2 0 -10.59351,2 0 -10.59351,2 0 -10.59351,2 0 -10.59351,2 0 -10.59351,2 0 -10.59351,3.810,
2 0 -9.279975,2 0 -9.279975,2 0 -9.279975,2 0 -9.279975,2 0 -9.279975,2 0 -9.279975,2 0 -9.279975,2 0 -9.279975,2 0 -9.279975,2 0 -9.279975,2 0 -9.279975,2 0 -9.279975,2 0 -9.279975,2 0 -9.279975,2 0 -9.279975,2 0 -9.279975,2 0 -9.279975,2 0 -9.279975,2 0 -9.279975,2 0 -9.279975,2 0 -9.279975,2 0 -10.59351,2 0 -10.59351,2 0 -10.59351,2 0 -10.59351,2 0 -10.59351,2 0 -10.59351,2 0 -10.59351,2 0 -10.59351,2 0 -10.59351,2 0 -10.59351,2 0 -10.59351,2 0 -10.59351,2 0 -10.59351,2 0 -10.59351,2 0 -10.59351,2 0 -10.59351,2 0 -10.59351,2 0 -10.59351,2 0 -10.59351,2 0 -10.59351,2 0 -10.59351,3.910,
2 0 -9.279975,2 0 -9.279975,2 0 -9.279975,2 0 -9.279975,2 0 -9.279975,2 0 -9.279975,2 0 -9.279975,2 0 -9.279975,2 0 -9.279975,2 0 -9.279975,2 0 -9.279975,2 0 -9.279975,2 0 -9.279975,2 0 -9.279975,2 0 -9.279975,2 0 -9.279975,2 0 -9.279975,2 0 -9.279975,2 0 -9.279975,2 0 -9.279975,2 0 -9.279975,2 0 -10.59351,2 0 -10.59351,2 0 -10.59351,2 0 -10.59351,2 0 -10.59351,2 0 -10.59351,2 0 -10.59351,2 0 -10.59351,2 0 -10.59351,2 0 -10.59351,2 0 -10.59351,2 0 -10.59351,2 0 -10.59351,2 0 -10.59351,2 0 -10.59351,2 0 -10.59351,2 0 -10.59351,2 0 -10.59351,2 0 -10.59351,2 0 -10.59351,2 0 -10.59351,4.010,
2 0 -9.279975,2 0 -9.279975,2 0 -9.279975,2 0 -9.279975,2 0 -9.279975,2 0 -9.279975,2 0 -9.279975,2 0 -9.279975,2 0 -9.279975,2 0 -9.279975,2 0 -9.279975,2 0 -9.279975,2 0 -9.279975,2 0 -9.279975,2 0 -9.279975,2 0 -9.279975,2 0 -9.279975,2 0 -9.279975,2 0 -9.279975,2 0 -9.279975,2 0 -9.279975,2 0 -10.59351,2 0 -10.59351,2 0 -10.59351,2 0 -10.59351,2 0 -10.59351,2 0 -10.59351,2 0 -10.59351,2 0 -10.59351,2 0 -10.59351,2 0 -10.59351,2 0 -10.59351,2 0 -10.59351,2 0 -10.59351,2 0 -10.59351,2 0 -10.59351,2 0 -10.59351,2 0 -10.59351,2 0 -10.59351,2 0 -10.59351,2 0 -10.59351,2 0 -10.59351,4.110,
2 0 -9.279975,2 0 -9.279975,2 0 -9.279975,2 0 -9.279975,2 0 -9.279975,2 0 -9.279975,2 0 -9.279975,2 0 -9.279975,2 0 -9.279975,2 0 -9.279975,2 0 -9.279975,2 0 -9.279975,2 0 -9.279975,2 0 -9.279975,2 0 -9.279975,2 0 -9.279975,2 0 -9.279975,2 0 -9.279975,2 0 -9.279975,2 0 -9.279975,2 0 -9.279975,2 0 -10.59351,2 0 -10.59351,2 0 -10.59351,2 0 -10.59351,2 0 -10.59351,2 0 -10.59351,2 0 -10.59351,2 0 -10.59351,2 0 -10.59351,2 0 -10.59351,2 0 -10.59351,2 0 -10.59351,2 0 -10.59351,2 0 -10.59351,2 0 -10.59351,2 0 -10.59351,2 0 -10.59351,2 0 -10.59351,2 0 -10.59351,2 0 -10.59351,2 0 -10.59351,4.210,
2 0 -9.279975,2 0 -9.279975,2 0 -9.279975,2 0 -9.279975,2 0 -9.279975,2 0 -9.279975,2 0 -9.279975,2 0 -9.279975,2 0 -9.279975,2 0 -9.279975,2 0 -9.279975,2 0 -9.279975,2 0 -9.279975,2 0 -9.279975,2 0 -9.279975,2 0 -9.279975,2 0 -9.279975,2 0 -9.279975,2 0 -9.279975,2 0 -9.279975,2 0 -9.279975,2 0 -10.59351,2 0 -10.59351,2 0 -10.59351,2 0 -10.59351,2 0 -10.59351,2 0 -10.59351,2 0 -10.59351,2 0 -10.59351,2 0 -10.59351,2 0 -10.59351,2 0 -10.59351,2 0 -10.59351,2 0 -10.59351,2 0 -10.59351,2 0 -10.59351,2 0 -10.59351,2 0 -10.59351,2 0 -10.59351,2 0 -10.59351,2 0 -10.59351,2 0 -10.59351,4.310,
2 0 -9.279975,2 0 -9.279975,2 0 -9.279975,2 0 -9.279975,2 0 -9.279975,2 0 -9.279975,2 0 -9.279975,2 0 -9.279975,2 0 -9.279975,2 0 -9.279975,2 0 -9.279975,2 0 -9.279975,2 0 -9.279975,2 0 -9.279975,2 0 -9.279975,2 0 -9.279975,2 0 -9.279975,2 0 -9.279975,2 0 -9.279975,2 0 -9.279975,2 0 -9.279975,2 0 -10.59351,2 0 -10.59351,2 0 -10.59351,2 0 -10.59351,2 0 -10.59351,2 0 -10.59351,2 0 -10.59351,2 0 -10.59351,2 0 -10.59351,2 0 -10.59351,2 0 -10.59351,2 0 -10.59351,2 0 -10.59351,2 0 -10.59351,2 0 -10.59351,2 0 -10.59351,2 0 -10.59351,2 0 -10.59351,2 0 -10.59351,2 0 -10.59351,2 0 -10.59351,4.410,
2 0 -9.279975,2 0 -9.279975,2 0 -9.279975,2 0 -9.279975,2 0 -9.279975,2 0 -9.279975,2 0 -9.279975,2 0 -9.279975,2 0 -9.279975,2 0 -9.279975,2 0 -9.279975,2 0 -9.279975,2 0 -9.279975,2 0 -9.279975,2 0 -9.279975,2 0 -9.279975,2 0 -9.279975,2 0 -9.279975,2 0 -9.279975,2 0 -9.279975,2 0 -9.279975,2 0 -10.59351,2 0 -10.59351,2 0 -10.59351,2 0 -10.59351,2 0 -10.59351,2 0 -10.59351,2 0 -10.59351,2 0 -10.59351,2 0 -10.59351,2 0 -10.59351,2 0 -10.59351,2 0 -10.59351,2 0 -10.59351,2 0 -10.59351,2 0 -10.59351,2 0 -10.59351,2 0 -10.59351,2 0 -10.59351,2 0 -10.59351,2 0 -10.59351,2 0 -10.59351,4.510,
2 0 -9.279975,2 0 -9.279975,2 0 -9.279975,2 0 -9.279975,2 0 -9.279975,2 0 -9.279975,2 0 -9.279975,2 0 -9.279975,2 0 -9.279975,2 0 -9.279975,2 0 -9.279975,2 0 -9.279975,2 0 -9.279975,2 0 -9.279975,2 0 -9.279975,2 0 -9.279975,2 0 -9.279975,2 0 -9.279975,2 0 -9.279975,2 0 -9.279975,2 0 -9.279975,2 0 -10.59351,2 0 -10.59351,2 0 -10.59351,2 0 -10.59351,2 0 -10.59351,2 0 -10.59351,2 0 -10.59351,2 0 -10.59351,2 0 -10.59351,2 0 -10.59351,2 0 -10.59351,2 0 -10.59351,2 0 -10.59351,2 0 -10.59351,2 0 -10.59351,2 0 -10.59351,2 0 -10.59351,2 0 -10.59351,2 0 -10.59351,2 0 -10.59351,2 0 -10.59351,4.610,
2 0 -9.279975,2 0 -9.279975,2 0 -9.279975,2 0 -9.279975,2 0 -9.279975,2 0 -9.279975,2 0 -9.279975,2 0 -9.279975,2 0 -9.279975,2 0 -9.279975,2 0 -9.279975,2 0 -9.279975,2 0 -9.279975,2 0 -9.279975,2 0 -9.279975,2 0 -9.279975,2 0 -9.279975,2 0 -9.279975,2 0 -9.279975,2 0 -9.279975,2 0 -9.279975,2 0 -10.59351,2 0 -10.59351,2 0 -10.59351,2 0 -10.59351,2 0 -10.59351,2 0 -10.59351,2 0 -10.59351,2 0 -10.59351,2 0 -10.59351,2 0 -10.59351,2 0 -10.59351,2 0 -10.59351,2 0 -10.59351,2 0 -10.59351,2 0 -10.59351,2 0 -10.59351,2 0 -10.59351,2 0 -10.59351,2 0 -10.59351,2 0 -10.59351,2 0 -10.59351,4.710,
2 0 -9.279975,2 0 -9.279975,2 0 -9.279975,2 0 -9.279975,2 0 -9.279975,2 0 -9.279975,2 0 -9.279975,2 0 -9.279975,2 0 -9.279975,2 0 -9.279975,2 0 -9.279975,2 0 -9.279975,2 0 -9.279975,2 0 -9.279975,2 0 -9.279975,2 0 -9.279975,2 0 -9.279975,2 0 -9.279975,2 0 -9.279975,2 0 -9.279975,2 0 -9.279975,2 0 -10.59351,2 0 -10.59351,2 0 -10.59351,2 0 -10.59351,2 0 -10.59351,2 0 -10.59351,2 0 -10.59351,2 0 -10.59351,2 0 -10.59351,2 0 -10.59351,2 0 -10.59351,2 0 -10.59351,2 0 -10.59351,2 0 -10.59351,2 0 -10.59351,2 0 -10.59351,2 0 -10.59351,2 0 -10.59351,2 0 -10.59351,2 0 -10.59351,2 0 -10.59351,4.810,
2 0 -9.279975,2 0 -9.279975,2 0 -9.279975,2 0 -9.279975,2 0 -9.279975,2 0 -9.279975,2 0 -9.279975,2 0 -9.279975,2 0 -9.279975,2 0 -9.279975,2 0 -9.279975,2 0 -9.279975,2 0 -9.279975,2 0 -9.279975,2 0 -9.279975,2 0 -9.279975,2 0 -9.279975,2 0 -9.279975,2 0 -9.279975,2 0 -9.279975,2 0 -9.279975,2 0 -10.59351,2 0 -10.59351,2 0 -10.59351,2 0 -10.59351,2 0 -10.59351,2 0 -10.59351,2 0 -10.59351,2 0 -10.59351,2 0 -10.59351,2 0 -10.59351,2 0 -10.59351,2 0 -10.59351,2 0 -10.59351,2 0 -10.59351,2 0 -10.59351,2 0 -10.59351,2 0 -10.59351,2 0 -10.59351,2 0 -10.59351,2 0 -10.59351,2 0 -10.59351,4.910,
2 0 -9.279975,2 0 -9.279975,2 0 -9.279975,2 0 -9.279975,2 0 -9.279975,2 0 -9.279975,2 0 -9.279975,2 0 -9.279975,2 0 -9.279975,2 0 -9.279975,2 0 -9.279975,2 0 -9.279975,2 0 -9.279975,2 0 -9.279975,2 0 -9.279975,2 0 -9.279975,2 0 -9.279975,2 0 -9.279975,2 0 -9.279975,2 0 -9.279975,2 0 -9.279975,2 0 -10.59351,2 0 -10.59351,2 0 -10.59351,2 0 -10.59351,2 0 -10.59351,2 0 -10.59351,2 0 -10.59351,2 0 -10.59351,2 0 -10.59351,2 0 -10.59351,2 0 -10.59351,2 0 -10.59351,2 0 -10.59351,2 0 -10.59351,2 0 -10.59351,2 0 -10.59351,2 0 -10.59351,2 0 -10.59351,2 0 -10.59351,2 0 -10.59351,2 0 -10.59351,5.010,
2 0 -9.279975,2 0 -9.279975,2 0 -9.279975,2 0 -9.279975,2 0 -9.279975,2 0 -9.279975,2 0 -9.279975,2 0 -9.279975,2 0 -9.279975,2 0 -9.279975,2 0 -9.279975,2 0 -9.279975,2 0 -9.279975,2 0 -9.279975,2 0 -9.279975,2 0 -9.279975,2 0 -9.279975,2 0 -9.279975,2 0 -9.279975,2 0 -9.279975,2 0 -9.279975,2 0 -10.59351,2 0 -10.59351,2 0 -10.59351,2 0 -10.59351,2 0 -10.59351,2 0 -10.59351,2 0 -10.59351,2 0 -10.59351,2 0 -10.59351,2 0 -10.59351,2 0 -10.59351,2 0 -10.59351,2 0 -10.59351,2 0 -10.59351,2 0 -10.59351,2 0 -10.59351,2 0 -10.59351,2 0 -10.59351,2 0 -10.59351,2 0 -10.59351,2 0 -10.59351,5.110,
2 0 -9.279975,2 0 -9.279975,2 0 -9.279975,2 0 -9.279975,2 0 -9.279975,2 0 -9.279975,2 0 -9.279975,2 0 -9.279975,2 0 -9.279975,2 0 -9.279975,2 0 -9.279975,2 0 -9.279975,2 0 -9.279975,2 0 -9.279975,2 0 -9.279975,2 0 -9.279975,2 0 -9.279975,2 0 -9.279975,2 0 -9.279975,2 0 -9.279975,2 0 -9.279975,2 0 -10.59351,2 0 -10.59351,2 0 -10.59351,2 0 -10.59351,2 0 -10.59351,2 0 -10.59351,2 0 -10.59351,2 0 -10.59351,2 0 -10.59351,2 0 -10.59351,2 0 -10.59351,2 0 -10.59351,2 0 -10.59351,2 0 -10.59351,2 0 -10.59351,2 0 -10.59351,2 0 -10.59351,2 0 -10.59351,2 0 -10.59351,2 0 -10.59351,2 0 -10.59351,5.210,
2 0 -9.279975,2 0 -9.279975,2 0 -9.279975,2 0 -9.279975,2 0 -9.279975,2 0 -9.279975,2 0 -9.279975,2 0 -9.279975,2 0 -9.279975,2 0 -9.279975,2 0 -9.279975,2 0 -9.279975,2 0 -9.279975,2 0 -9.279975,2 0 -9.279975,2 0 -9.279975,2 0 -9.279975,2 0 -9.279975,2 0 -9.279975,2 0 -9.279975,2 0 -9.279975,2 0 -10.59351,2 0 -10.59351,2 0 -10.59351,2 0 -10.59351,2 0 -10.59351,2 0 -10.59351,2 0 -10.59351,2 0 -10.59351,2 0 -10.59351,2 0 -10.59351,2 0 -10.59351,2 0 -10.59351,2 0 -10.59351,2 0 -10.59351,2 0 -10.59351,2 0 -10.59351,2 0 -10.59351,2 0 -10.59351,2 0 -10.59351,2 0 -10.59351,2 0 -10.59351,5.310,
2 0 -9.279975,2 0 -9.279975,2 0 -9.279975,2 0 -9.279975,2 0 -9.279975,2 0 -9.279975,2 0 -9.279975,2 0 -9.279975,2 0 -9.279975,2 0 -9.279975,2 0 -9.279975,2 0 -9.279975,2 0 -9.279975,2 0 -9.279975,2 0 -9.279975,2 0 -9.279975,2 0 -9.279975,2 0 -9.279975,2 0 -9.279975,2 0 -9.279975,2 0 -9.279975,2 0 -10.59351,2 0 -10.59351,2 0 -10.59351,2 0 -10.59351,2 0 -10.59351,2 0 -10.59351,2 0 -10.59351,2 0 -10.59351,2 0 -10.59351,2 0 -10.59351,2 0 -10.59351,2 0 -10.59351,2 0 -10.59351,2 0 -10.59351,2 0 -10.59351,2 0 -10.59351,2 0 -10.59351,2 0 -10.59351,2 0 -10.59351,2 0 -10.59351,2 0 -10.59351,5.410,
2 0 -9.279975,2 0 -9.279975,2 0 -9.279975,2 0 -9.279975,2 0 -9.279975,2 0 -9.279975,2 0 -9.279975,2 0 -9.279975,2 0 -9.279975,2 0 -9.279975,2 0 -9.279975,2 0 -9.279975,2 0 -9.279975,2 0 -9.279975,2 0 -9.279975,2 0 -9.279975,2 0 -9.279975,2 0 -9.279975,2 0 -9.279975,2 0 -9.279975,2 0 -9.279975,2 0 -10.59351,2 0 -10.59351,2 0 -10.59351,2 0 -10.59351,2 0 -10.59351,2 0 -10.59351,2 0 -10.59351,2 0 -10.59351,2 0 -10.59351,2 0 -10.59351,2 0 -10.59351,2 0 -10.59351,2 0 -10.59351,2 0 -10.59351,2 0 -10.59351,2 0 -10.59351,2 0 -10.59351,2 0 -10.59351,2 0 -10.59351,2 0 -10.59351,2 0 -10.59351,5.510,
2 0 -9.279975,2 0 -9.279975,2 0 -9.279975,2 0 -9.279975,2 0 -9.279975,2 0 -9.279975,2 0 -9.279975,2 0 -9.279975,2 0 -9.279975,2 0 -9.279975,2 0 -9.279975,2 0 -9.279975,2 0 -9.279975,2 0 -9.279975,2 0 -9.279975,2 0 -9.279975,2 0 -9.279975,2 0 -9.279975,2 0 -9.279975,2 0 -9.279975,2 0 -9.279975,2 0 -10.59351,2 0 -10.59351,2 0 -10.59351,2 0 -10.59351,2 0 -10.59351,2 0 -10.59351,2 0 -10.59351,2 0 -10.59351,2 0 -10.59351,2 0 -10.59351,2 0 -10.59351,2 0 -10.59351,2 0 -10.59351,2 0 -10.59351,2 0 -10.59351,2 0 -10.59351,2 0 -10.59351,2 0 -10.59351,2 0 -10.59351,2 0 -10.59351,2 0 -10.59351,5.610,
2 0 -9.279975,2 0 -9.279975,2 0 -9.279975,2 0 -9.279975,2 0 -9.279975,2 0 -9.279975,2 0 -9.279975,2 0 -9.279975,2 0 -9.279975,2 0 -9.279975,2 0 -9.279975,2 0 -9.279975,2 0 -9.279975,2 0 -9.279975,2 0 -9.279975,2 0 -9.279975,2 0 -9.279975,2 0 -9.279975,2 0 -9.279975,2 0 -9.279975,2 0 -9.279975,2 0 -10.59351,2 0 -10.59351,2 0 -10.59351,2 0 -10.59351,2 0 -10.59351,2 0 -10.59351,2 0 -10.59351,2 0 -10.59351,2 0 -10.59351,2 0 -10.59351,2 0 -10.59351,2 0 -10.59351,2 0 -10.59351,2 0 -10.59351,2 0 -10.59351,2 0 -10.59351,2 0 -10.59351,2 0 -10.59351,2 0 -10.59351,2 0 -10.59351,2 0 -10.59351,5.710,
2 0 -9.279975,2 0 -9.279975,2 0 -9.279975,2 0 -9.279975,2 0 -9.279975,2 0 -9.279975,2 0 -9.279975,2 0 -9.279975,2 0 -9.279975,2 0 -9.279975,2 0 -9.279975,2 0 -9.279975,2 0 -9.279975,2 0 -9.279975,2 0 -9.279975,2 0 -9.279975,2 0 -9.279975,2 0 -9.279975,2 0 -9.279975,2 0 -9.279975,2 0 -9.279975,2 0 -10.59351,2 0 -10.59351,2 0 -10.59351,2 0 -10.59351,2 0 -10.59351,2 0 -10.59351,2 0 -10.59351,2 0 -10.59351,2 0 -10.59351,2 0 -10.59351,2 0 -10.59351,2 0 -10.59351,2 0 -10.59351,2 0 -10.59351,2 0 -10.59351,2 0 -10.59351,2 0 -10.59351,2 0 -10.59351,2 0 -10.59351,2 0 -10.59351,2 0 -10.59351,5.810,
2 0 -9.279975,2 0 -9.279975,2 0 -9.279975,2 0 -9.279975,2 0 -9.279975,2 0 -9.279975,2 0 -9.279975,2 0 -9.279975,2 0 -9.279975,2 0 -9.279975,2 0 -9.279975,2 0 -9.279975,2 0 -9.279975,2 0 -9.279975,2 0 -9.279975,2 0 -9.279975,2 0 -9.279975,2 0 -9.279975,2 0 -9.279975,2 0 -9.279975,2 0 -9.279975,2 0 -10.59351,2 0 -10.59351,2 0 -10.59351,2 0 -10.59351,2 0 -10.59351,2 0 -10.59351,2 0 -10.59351,2 0 -10.59351,2 0 -10.59351,2 0 -10.59351,2 0 -10.59351,2 0 -10.59351,2 0 -10.59351,2 0 -10.59351,2 0 -10.59351,2 0 -10.59351,2 0 -10.59351,2 0 -10.59351,2 0 -10.59351,2 0 -10.59351,2 0 -10.59351,5.910,
2 0 -9.279975,2 0 -9.279975,2 0 -9.279975,2 0 -9.279975,2 0 -9.279975,2 0 -9.279975,2 0 -9.279975,2 0 -9.279975,2 0 -9.279975,2 0 -9.279975,2 0 -9.279975,2 0 -9.279975,2 0 -9.279975,2 0 -9.279975,2 0 -9.279975,2 0 -9.279975,2 0 -9.279975,2 0 -9.279975,2 0 -9.279975,2 0 -9.279975,2 0 -9.279975,2 0 -10.59351,2 0 -10.59351,2 0 -10.59351,2 0 -10.59351,2 0 -10.59351,2 0 -10.59351,2 0 -10.59351,2 0 -10.59351,2 0 -10.59351,2 0 -10.59351,2 0 -10.59351,2 0 -10.59351,2 0 -10.59351,2 0 -10.59351,2 0 -10.59351,2 0 -10.59351,2 0 -10.59351,2 0 -10.59351,2 0 -10.59351,2 0 -10.59351,2 0 -10.59351,6.010,
2 0 -9.279975,2 0 -9.279975,2 0 -9.279975,2 0 -9.279975,2 0 -9.279975,2 0 -9.279975,2 0 -9.279975,2 0 -9.279975,2 0 -9.279975,2 0 -9.279975,2 0 -9.279975,2 0 -9.279975,2 0 -9.279975,2 0 -9.279975,2 0 -9.279975,2 0 -9.279975,2 0 -9.279975,2 0 -9.279975,2 0 -9.279975,2 0 -9.279975,2 0 -9.279975,2 0 -10.59351,2 0 -10.59351,2 0 -10.59351,2 0 -10.59351,2 0 -10.59351,2 0 -10.59351,2 0 -10.59351,2 0 -10.59351,2 0 -10.59351,2 0 -10.59351,2 0 -10.59351,2 0 -10.59351,2 0 -10.59351,2 0 -10.59351,2 0 -10.59351,2 0 -10.59351,2 0 -10.59351,2 0 -10.59351,2 0 -10.59351,2 0 -10.59351,2 0 -10.59351,6.110,
1.943139 0 -9.092637,2.188281 0 -9.179975,1.76601 0 -9.179975,1.692891 0 -9.179975,2.362104 0 -9.179975,2.542153 0 -9.179975,2.814611 0 -9.179975,1.409429 0 -9.179975,1.509436 0 -9.179975,2.088408 0 -9.179975,1.845686 0 -9.179975,2.724238 0 -9.179975,1.592917 0 -9.179975,2.624492 0 -9.179975,1.322325 0 -9.179975,2.001743 0 -9.179975,1.222331 0 -9.179975,2.261925 0 -9.179975,2.915535 0 -9.179975,2.442162 0 -9.179975,1.127486 0 -9.179975,2 0 -10.59351,2.649998 0 -10.5826,2.549998 0 -10.60835,2.1 0 -10.63349,3.848396 0 -10.60096,2.366666 0 -10.62016,2.183333 0 -10.64701,3.199987 0 -10.59809,3.099987 0 -10.61242,2.916687 0 -10.58018,2.466666 0 -10.61022,2.733334 0 -10.58005,3.383085 0 -10.60334,3.753542 0 -10.5996,3.653542 0 -10.5982,2.283333 0 -10.62337,3.466627 0 -10.59698,2.833333 0 -10.59747,3.016686 0 -10.63272,3.566627 0 -10.60005,3.283085 0 -10.60437,6.210,
2 0 -9.279975,2 0 -9.279975,2 0 -9.279975,2 0 -9.279975,2 0 -9.279975,2 0 -9.279975,2 0 -9.279975,2 0 -9.279975,2 0 -9.279975,2 0 -9.279975,2 0 -9.279975,2 0 -9.279975,2 0 -9.279975,2 0 -9.279975,2 0 -9.279975,2 0 -9.279975,2 0 -9.279975,2 0 -9.279975,2 0 -9.279975,2 0 -9.279975,2 0 -9.279975,2 0 -10.59351,2 0 -10.59351,2 0 -10.59351,2 0 -10.59351,2 0 -10.59351,2 0 -10.59351,2 0 -10.59351,2 0 -10.59351,2 0 -10.59351,2 0 -10.59351,2 0 -10.59351,2 0 -10.59351,2 0 -10.59351,2 0 -10.59351,2 0 -10.59351,2 0 -10.59351,2 0 -10.59351,2 0 -10.59351,2 0 -10.59351,2 0 -10.59351,2 0 -10.59351,6.310,
2 0 -9.279975,2 0 -9.279975,2 0 -9.279975,2 0 -9.279975,2 0 -9.279975,2 0 -9.279975,2 0 -9.279975,2 0 -9.279975,2 0 -9.279975,2 0 -9.279975,2 0 -9.279975,2 0 -9.279975,2 0 -9.279975,2 0 -9.279975,2 0 -9.279975,2 0 -9.279975,2 0 -9.279975,2 0 -9.279975,2 0 -9.279975,2 0 -9.279975,2 0 -9.279975,2 0 -10.59351,2 0 -10.59351,2 0 -10.59351,2 0 -10.59351,2 0 -10.59351,2 0 -10.59351,2 0 -10.59351,2 0 -10.59351,2 0 -10.59351,2 0 -10.59351,2 0 -10.59351,2 0 -10.59351,2 0 -10.59351,2 0 -10.59351,2 0 -10.59351,2 0 -10.59351,2 0 -10.59351,2 0 -10.59351,2 0 -10.59351,2 0 -10.59351,2 0 -10.59351,6.410,
2 0 -9.279975,2 0 -9.279975,2 0 -9.279975,2 0 -9.279975,2 0 -9.279975,2 0 -9.279975,2 0 -9.279975,2 0 -9.279975,2 0 -9.279975,2 0 -9.279975,2 0 -9.279975,2 0 -9.279975,2 0 -9.279975,2 0 -9.279975,2 0 -9.279975,2 0 -9.279975,2 0 -9.279975,2 0 -9.279975,2 0 -9.279975,2 0 -9.279975,2 0 -9.279975,2 0 -10.59351,2 0 -10.59351,2 0 -10.59351,2 0 -10.59351,2 0 -10.59351,2 0 -10.59351,2 0 -10.59351,2 0 -10.59351,2 0 -10.59351,2 0 -10.59351,2 0 -10.59351,2 0 -10.59351,2 0 -10.59351,2 0 -10.59351,2 0 -10.59351,2 0 -10.59351,2 0 -10.59351,2 0 -10.59351,2 0 -10.59351,2 0 -10.59351,2 0 -10.59351,6.510,
2 0 -9.279975,2 0 -9.279975,2 0 -9.279975,2 0 -9.279975,2 0 -9.279975,2 0 -9.279975,2 0 -9.279975,2 0 -9.279975,2 0 -9.279975,2 0 -9.279975,2 0 -9.279975,2 0 -9.279975,2 0 -9.279975,2 0 -9.279975,2 0 -9.279975,2 0 -9.279975,2 0 -9.279975,2 0 -9.279975,2 0 -9.279975,2 0 -9.279975,2 0 -9.279975,2 0 -10.59351,2 0 -10.59351,2 0 -10.59351,2 0 -10.59351,2 0 -10.59351,2 0 -10.59351,2 0 -10.59351,2 0 -10.59351,2 0 -10.59351,2 0 -10.59351,2 0 -10.59351,2 0 -10.59351,2 0 -10.59351,2 0 -10.59351,2 0 -10.59351,2 0 -10.59351,2 0 -10.59351,2 0 -10.59351,2 0 -10.59351,2 0 -10.59351,2 0 -10.59351,6.610,
2 0 -9.279975,2 0 -9.279975,2 0 -9.279975,2 0 -9.279975,2 0 -9.279975,2 0 -9.279975,2 0 -9.279975,2 0 -9.279975,2 0 -9.279975,2 0 -9.279975,2 0 -9.279975,2 0 -9.279975,2 0 -9.279975,2 0 -9.279975,2 0 -9.279975,2 0 -9.279975,2 0 -9.279975,2 0 -9.279975,2 0 -9.279975,2 0 -9.279975,2 0 -9.279975,2 0 -10.59351,2 0 -10.59351,2 0 -10.59351,2 0 -10.59351,2 0 -10.59351,2 0 -10.59351,2 0 -10.59351,2 0 -10.59351,2 0 -10.59351,2 0 -10.59351,2 0 -10.59351,2 0 -10.59351,2 0 -10.59351,2 0 -10.59351,2 0 -10.59351,2 0 -10.59351,2 0 -10.59351,2 0 -10.59351,2 0 -10.59351,2 0 -10.59351,2 0 -10.59351,6.710,
2 0 -9.279975,2 0 -9.279975,2 0 -9.279975,2 0 -9.279975,2 0 -9.279975,2 0 -9.279975,2 0 -9.279975,2 0 -9.279975,2 0 -9.279975,2 0 -9.279975,2 0 -9.279975,2 0 -9.279975,2 0 -9.279975,2 0 -9.279975,2 0 -9.279975,2 0 -9.279975,2 0 -9.279975,2 0 -9.279975,2 0 -9.279975,2 0 -9.279975,2 0 -9.279975,2 0 -10.59351,2 0 -10.59351,2 0 -10.59351,2 0 -10.59351,2 0 -10.59351,2 0 -10.59351,2 0 -10.59351,2 0 -10.59351,2 0 -10.59351,2 0 -10.59351,2 0 -10.59351,2 0 -10.59351,2 0 -10.59351,2 0 -10.59351,2 0 -10.59351,2 0 -10.59351,2 0 -10.59351,2 0 -10.59351,2 0 -10.59351,2 0 -10.59351,2 0 -10.59351,6.810,
2 0 -9.279975,2 0 -9.279975,2 0 -9.279975,2 0 -9.279975,2 0 -9.279975,2 0 -9.279975,2 0 -9.279975,2 0 -9.279975,2 0 -9.279975,2 0 -9.279975,2 0 -9.279975,2 0 -9.279975,2 0 -9.279975,2 0 -9.279975,2 0 -9.279975,2 0 -9.279975,2 0 -9.279975,2 0 -9.279975,2 0 -9.279975,2 0 -9.279975,2 0 -9.279975,2 0 -10.59351,2 0 -10.59351,2 0 -10.59351,2 0 -10.59351,2 0 -10.59351,2 0 -10.59351,2 0 -10.59351,2 0 -10.59351,2 0 -10.59351,2 0 -10.59351,2 0 -10.59351,2 0 -10.59351,2 0 -10.59351,2 0 -10.59351,2 0 -10.59351,2 0 -10.59351,2 0 -10.59351,2 0 -10.59351,2 0 -10.59351,2 0 -10.59351,2 0 -10.59351,6.910,
2 0 -9.279975,2 0 -9.279975,2 0 -9.279975,2 0 -9.279975,2 0 -9.279975,2 0 -9.279975,2 0 -9.279975,2 0 -9.279975,2 0 -9.279975,2 0 -9.279975,2 0 -9.279975,2 0 -9.279975,2 0 -9.279975,2 0 -9.279975,2 0 -9.279975,2 0 -9.279975,2 0 -9.279975,2 0 -9.279975,2 0 -9.279975,2 0 -9.279975,2 0 -9.279975,2 0 -10.59351,2 0 -10.59351,2 0 -10.59351,2 0 -10.59351,2 0 -10.59351,2 0 -10.59351,2 0 -10.59351,2 0 -10.59351,2 0 -10.59351,2 0 -10.59351,2 0 -10.59351,2 0 -10.59351,2 0 -10.59351,2 0 -10.59351,2 0 -10.59351,2 0 -10.59351,2 0 -10.59351,2 0 -10.59351,2 0 -10.59351,2 0 -10.59351,2 0 -10.59351,7.010,
2 0 -9.279975,2 0 -9.279975,2 0 -9.279975,2 0 -9.279975,2 0 -9.279975,2 0 -9.279975,2 0 -9.279975,2 0 -9.279975,2 0 -9.279975,2 0 -9.279975,2 0 -9.279975,2 0 -9.279975,2 0 -9.279975,2 0 -9.279975,2 0 -9.279975,2 0 -9.279975,2 0 -9.279975,2 0 -9.279975,2 0 -9.279975,2 0 -9.279975,2 0 -9.279975,2 0 -10.59351,2 0 -10.59351,2 0 -10.59351,2 0 -10.59351,2 0 -10.59351,2 0 -10.59351,2 0 -10.59351,2 0 -10.59351,2 0 -10.59351,2 0 -10.59351,2 0 -10.59351,2 0 -10.59351,2 0 -10.59351,2 0 -10.59351,2 0 -10.59351,2 0 -10.59351,2 0 -10.59351,2 0 -10.59351,2 0 -10.59351,2 0 -10.59351,2 0 -10.59351,7.110,
-3.415077 -9.584175 0.06448283,-4.114391 -8.682718 -0.4638301,-4.534538 -7.909136 -0.3947304,-4.842838 -7.41212 -0.1984913,-5.132739 -7.190803 0.001016065,-4.311571 -6.832096 0.5608224,-5.068388 -6.184878 0.8349633,-5.525978 -6.460895 0.9510137,-5.76642 -6.817184 1.058348,-4.127972 -7.195983 1.021338,-5.006227 -6.674688 1.253472,-5.412918 -7.144079 1.165627,-5.556269 -7.654388 1.114318,-4.029997 -7.75165 1.408526,-4.862974 -7.284931 1.598203,-5.200718 -7.614861 1.41645,-5.283774 -8.041071 1.297462,-4.018585 -8.415495 1.748328,-4.65064 -8.005579 1.836873,-4.901405 -8.149427 1.662267,-4.978979 -8.405563 1.534998,2 0 -10.59351,2 0 -10.59351,2 0 -10.59351,2 0 -10.59351,2 0 -10.59351,2 0 -10.59351,2 0 -10.59351,2 0 -10.59351,2 0 -10.59351,2 0 -10.59351,2 0 -10.59351,2 0 -10.59351,2 0 -10.59351,2 0 -10.59351,2 0 -10.59351,2 0 -10.59351,2 0 -10.59351,2 0 -10.59351,2 0 -10.59351,2 0 -10.59351,2 0 -10.59351,7.210,
-3.60228 -9.556473 0.3037037,-4.139343 -8.463684 -0.4702907,-4.434931 -7.629824 -0.5796614,-4.678724 -7.069324 -0.4956179,-4.909119 -6.718 -0.3517176,-4.317705 -6.719517 0.2753425,-4.886303 -5.913248 0.5000327,-5.327971 -6.053465 0.5481851,-5.588316 -6.383939 0.5826795,-4.218783 -6.940359 0.8256339,-4.910542 -6.115984 1.067255,-5.41663 -6.39608 1.02898,-5.721261 -6.765353 0.9173862,-4.182505 -7.41024 1.323782,-4.814119 -6.673676 1.547031,-5.285976 -6.880867 1.529697,-5.55379 -7.203544 1.447892,-4.204905 -8.055355 1.733392,-4.656408 -7.539491 1.904157,-4.992208 -7.45825 1.896666,-5.201144 -7.506265 1.836466,2 0 -10.59351,2 0 -10.59351,2 0 -10.59351,2 0 -10.59351,2 0 -10.59351,2 0 -10.59351,2 0 -10.59351,2 0 -10.59351,2 0 -10.59351,2 0 -10.59351,2 0 -10.59351,2 0 -10.59351,2 0 -10.59351,2 0 -10.59351,2 0 -10.59351,2 0 -10.59351,2 0 -10.59351,2 0 -10.59351,2 0 -10.59351,2 0 -10.59351,2 0 -10.59351,7.310,
-3.605639 -8.629194 0.1927544,-4.30993 -7.595566 -0.6188175,-4.616117 -6.850777 -0.7535637,-4.85524 -6.325405 -0.7036083,-5.066885 -5.906277 -0.6252268,-4.334838 -5.798737 -0.05001666,-4.901488 -5.147199 0.1147382,-5.355576 -5.292436 0.1134216,-5.646545 -5.619401 0.1350695,-4.223544 -6.01379 0.5121791,-4.973801 -5.403634 0.7076374,-5.457872 -5.693815 0.6532338,-5.74477 -6.053892 0.5117946,-4.203094 -6.430632 1.022009,-4.921694 -5.85906 1.147933,-5.390486 -6.097259 1.049059,-5.645942 -6.475034 0.9132112,-4.246603 -6.97279 1.46459,-4.784277 -6.523941 1.529717,-5.131696 -6.533885 1.44934,-5.325823 -6.70532 1.340654,2 0 -10.59351,2 0 -10.59351,2 0 -10.59351,2 0 -10.59351,2 0 -10.59351,2 0 -10.59351,2 0 -10.59351,2 0 -10.59351,2 0 -10.59351,2 0 -10.59351,2 0 -10.59351,2 0 -10.59351,2 0 -10.59351,2 0 -10.59351,2 0 -10.59351,2 0 -10.59351,2 0 -10.59351,2 0 -10.59351,2 0 -10.59351,2 0 -10.59351,2 0 -10.59351,7.410,
-3.669212 -8.36582 0.2731692,-4.468011 -7.479364 -0.5649181,-4.756648 -6.729187 -0.7529076,-4.981306 -6.176905 -0.7174444,-5.19751 -5.740401 -0.6475321,-4.369722 -5.547444 -0.2086987,-4.943491 -5.000644 -0.1061293,-5.381178 -5.226181 -0.1016827,-5.666438 -5.604352 -0.07115039,-4.24574 -5.699427 0.3574067,-5.016734 -5.222375 0.5021638,-5.474462 -5.631673 0.4701914,-5.732176 -6.106843 0.3514369,-4.218924 -6.06907 0.8796056,-4.980585 -5.637704 0.9690274,-5.450449 -6.019159 0.8955419,-5.701265 -6.521238 0.7938943,-4.270055 -6.562921 1.351277,-4.850883 -6.213383 1.370337,-5.234596 -6.327115 1.308149,-5.461463 -6.599055 1.229291,2 0 -10.59351,2 0 -10.59351,2 0 -10.59351,2 0 -10.59351,2 0 -10.59351,2 0 -10.59351,2 0 -10.59351,2 0 -10.59351,2 0 -10.59351,2 0 -10.59351,2 0 -10.59351,2 0 -10.59351,2 0 -10.59351,2 0 -10.59351,2 0 -10.59351,2 0 -10.59351,2 0 -10.59351,2 0 -10.59351,2 0 -10.59351,2 0 -10.59351,2 0 -10.59351,7.510,
-3.701872 -8.058907 0.3603401,-4.495028 -7.169627 -0.2222517,-4.819681 -6.416072 -0.2980279,-5.05588 -5.887081 -0.195672,-5.24513 -5.424002 -0.07810932,-4.43609 -5.208091 0.2032828,-5.011251 -4.812897 0.4696751,-5.434973 -5.055507 0.5788592,-5.701949 -5.425873 0.6622784,-4.270727 -5.384621 0.6918806,-5.035067 -5.051326 1.003876,-5.459559 -5.450284 1.049877,-5.724697 -5.868511 0.9892378,-4.196728 -5.784992 1.166245,-4.936794 -5.460327 1.46809,-5.390482 -5.802513 1.507623,-5.657701 -6.244337 1.456501,-4.201108 -6.316498 1.595987,-4.732313 -6.05252 1.835272,-5.083353 -6.167979 1.905864,-5.305017 -6.407686 1.919953,2 0 -10.59351,2 0 -10.59351,2 0 -10.59351,2 0 -10.59351,2 0 -10.59351,2 0 -10.59351,2 0 -10.59351,2 0 -10.59351,2 0 -10.59351,2 0 -10.59351,2 0 -10.59351,2 0 -10.59351,2 0 -10.59351,2 0 -10.59351,2 0 -10.59351,2 0 -10.59351,2 0 -10.59351,2 0 -10.59351,2 0 -10.59351,2 0 -10.59351,2 0 -10.59351,7.610,
-3.802494 -7.497369 -0.2740382,-4.582578 -6.73969 -0.8132898,-4.884755 -6.074514 -0.9401793,-5.087782 -5.610417 -0.8724105,-5.279615 -5.170248 -0.7945772,-4.554171 -4.948754 -0.6655924,-5.01979 -4.480709 -0.4007776,-5.391223 -4.739999 -0.2503241,-5.625611 -5.1278 -0.1346201,-4.390301 -4.993808 -0.1962324,-5.002123 -4.603488 0.1481701,-5.385784 -5.053018 0.2615798,-5.622765 -5.517577 0.2409353,-4.278198 -5.240226 0.2697312,-4.879409 -4.860906 0.5812716,-5.29426 -5.299127 0.6711173,-5.522059 -5.851856 0.6542977,-4.232279 -5.641154 0.7200653,-4.692406 -5.336807 0.906513,-5.0231 -5.537804 0.9677547,-5.226821 -5.930219 0.9772238,2 0 -10.59351,2 0 -10.59351,2 0 -10.59351,2 0 -10.59351,2 0 -10.59351,2 0 -10.59351,2 0 -10.59351,2 0 -10.59351,2 0 -10.59351,2 0 -10.59351,2 0 -10.59351,2 0 -10.59351,2 0 -10.59351,2 0 -10.59351,2 0 -10.59351,2 0 -10.59351,2 0 -10.59351,2 0 -10.59351,2 0 -10.59351,2 0 -10.59351,2 0 -10.59351,7.710,
-3.856113 -7.254711 -0.8352051,-4.567751 -6.633839 -1.24848,-4.885134 -6.003946 -1.357104,-5.068968 -5.526251 -1.280406,-5.238878 -5.09221 -1.214633,-4.736871 -5.006625 -1.26265,-5.125167 -4.51703 -1.00585,-5.448606 -4.718517 -0.8231133,-5.675383 -5.051627 -0.6771887,-4.543207 -4.942167 -0.8505421,-5.053198 -4.466823 -0.532352,-5.405466 -4.818629 -0.3572692,-5.64332 -5.217329 -0.2853915,-4.368842 -5.044567 -0.4234541,-4.902759 -4.60688 -0.1400946,-5.265245 -5.00164 -0.02436709,-5.475424 -5.499572 0.01605541,-4.23094 -5.310373 0.006042242,-4.688931 -5.016773 0.162047,-4.981047 -5.257548 0.2207553,-5.159158 -5.637607 0.2465833,2 0 -10.59351,2 0 -10.59351,2 0 -10.59351,2 0 -10.59351,2 0 -10.59351,2 0 -10.59351,2 0 -10.59351,2 0 -10.59351,2 0 -10.59351,2 0 -10.59351,2 0 -10.59351,2 0 -10.59351,2 0 -10.59351,2 0 -10.59351,2 0 -10.59351,2 0 -10.59351,2 0 -10.59351,2 0 -10.59351,2 0 -10.59351,2 0 -10.59351,2 0 -10.59351,7.810,Right Hand Closed 
-4.0319 -7.04342 -1.789669,-4.585531 -6.719898 -2.047569,-4.928134 -6.058049 -2.073793,-5.087868 -5.5254 -1.929222,-5.205727 -5.026909 -1.795862,-4.84939 -5.119258 -2.116428,-5.169518 -4.610427 -1.815234,-5.46665 -4.734863 -1.586994,-5.695503 -5.028404 -1.423704,-4.657152 -4.997147 -1.771213,-5.084382 -4.438443 -1.416893,-5.4226 -4.675508 -1.18826,-5.657529 -5.046531 -1.067632,-4.46163 -5.009956 -1.39587,-4.930346 -4.470474 -1.079233,-5.271667 -4.81797 -0.9182842,-5.476404 -5.303576 -0.8293117,-4.285938 -5.164318 -1.018857,-4.699989 -4.792798 -0.7992548,-4.976055 -5.009052 -0.698324,-5.166716 -5.381319 -0.6334536,2 0 -10.59351,2 0 -10.59351,2 0 -10.59351,2 0 -10.59351,2 0 -10.59351,2 0 -10.59351,2 0 -10.59351,2 0 -10.59351,2 0 -10.59351,2 0 -10.59351,2 0 -10.59351,2 0 -10.59351,2 0 -10.59351,2 0 -10.59351,2 0 -10.59351,2 0 -10.59351,2 0 -10.59351,2 0 -10.59351,2 0 -10.59351,2 0 -10.59351,2 0 -10.59351,7.910,Right Hand Closed 
-3.532131 -8.613295 1.983776,-4.448606 -7.70753 1.331403,-5.019925 -7.139715 1.296051,-5.499275 -6.80031 1.457158,-5.86492 -6.559934 1.687709,-4.813244 -5.61715 1.815677,-5.116308 -4.305788 2.140339,-5.477559 -4.320276 2.482287,-5.688253 -4.663184 2.722039,-4.590519 -5.606453 2.424394,-4.949574 -4.117227 2.726217,-5.383307 -4.406402 2.881027,-5.627464 -4.968599 2.955683,-4.368619 -5.814485 2.990509,-4.62612 -4.368827 3.32283,-5.103465 -4.527681 3.40146,-5.434712 -5.014833 3.403434,-4.136593 -6.211196 3.487573,-4.330338 -4.985654 3.757221,-4.72987 -4.850978 3.803419,-5.090021 -5.061285 3.818391,2 0 -10.59351,2 0 -10.59351,2 0 -10.59351,2 0 -10.59351,2 0 -10.59351,2 0 -10.59351,2 0 -10.59351,2 0 -10.59351,2 0 -10.59351,2 0 -10.59351,2 0 -10.59351,2 0 -10.59351,2 0 -10.59351,2 0 -10.59351,2 0 -10.59351,2 0 -10.59351,2 0 -10.59351,2 0 -10.59351,2 0 -10.59351,2 0 -10.59351,2 0 -10.59351,8.010,
-3.541529 -8.530819 1.149293,-4.228422 -7.638212 0.3964369,-4.632771 -6.814666 0.1953428,-4.912296 -6.319961 0.195447,-5.135857 -5.893384 0.2179731,-4.66484 -5.751131 0.649232,-4.89175 -4.568565 0.6659623,-5.241206 -4.460128 0.679315,-5.522086 -4.693779 0.6888725,-4.540085 -5.724221 1.207744,-4.882048 -4.302639 1.275093,-5.285372 -4.344347 1.375614,-5.556915 -4.790141 1.421877,-4.407107 -5.861267 1.728383,-4.713758 -4.458784 1.817204,-5.122903 -4.439594 1.835342,-5.399099 -4.789899 1.814754,-4.253136 -6.173097 2.184069,-4.53196 -5.15167 2.28872,-4.860723 -4.930219 2.307349,-5.143663 -5.004122 2.337169,2 0 -10.59351,2 0 -10.59351,2 0 -10.59351,2 0 -10.59351,2 0 -10.59351,2 0 -10.59351,2 0 -10.59351,2 0 -10.59351,2 0 -10.59351,2 0 -10.59351,2 0 -10.59351,2 0 -10.59351,2 0 -10.59351,2 0 -10.59351,2 0 -10.59351,2 0 -10.59351,2 0 -10.59351,2 0 -10.59351,2 0 -10.59351,2 0 -10.59351,2 0 -10.59351,8.110,
-3.614739 -8.377378 1.206509,-4.352097 -7.37593 0.5925267,-4.777539 -6.476873 0.3902089,-5.056259 -5.879963 0.3735921,-5.304396 -5.363031 0.3563545,-4.667971 -5.577508 0.560724,-4.886017 -4.456022 0.5861185,-5.263624 -4.348797 0.617736,-5.59029 -4.526317 0.6343771,-4.511837 -5.523706 1.04042,-4.836264 -4.18892 1.139169,-5.272357 -4.240206 1.347891,-5.582201 -4.653373 1.472635,-4.361551 -5.617527 1.499665,-4.661909 -4.329286 1.595486,-5.103792 -4.339502 1.726641,-5.409789 -4.683257 1.787951,-4.201106 -5.859121 1.903718,-4.487625 -4.966545 2.027731,-4.836344 -4.801536 2.119263,-5.131516 -4.917776 2.215234,2 0 -10.59351,2 0 -10.59351,2 0 -10.59351,2 0 -10.59351,2 0 -10.59351,2 0 -10.59351,2 0 -10.59351,2 0 -10.59351,2 0 -10.59351,2 0 -10.59351,2 0 -10.59351,2 0 -10.59351,2 0 -10.59351,2 0 -10.59351,2 0 -10.59351,2 0 -10.59351,2 0 -10.59351,2 0 -10.59351,2 0 -10.59351,2 0 -10.59351,2 0 -10.59351,8.210,
-3.793892 -7.822666 0.6922264,-4.573568 -6.845916 0.2263384,-5.016921 -6.047524 0.06664991,-5.269842 -5.423014 0.08604878,-5.543513 -4.855224 0.1154472,-4.908039 -5.274318 -0.08665359,-5.127319 -4.429725 0.02400571,-5.394711 -4.284166 0.182891,-5.642296 -4.391107 0.2990351,-4.703262 -5.14994 0.3094082,-4.987737 -4.146856 0.4985096,-5.326755 -4.201108 0.7933761,-5.574245 -4.560581 1.014014,-4.487325 -5.147762 0.7255803,-4.758001 -4.175525 0.9314398,-5.111388 -4.272333 1.116232,-5.358732 -4.669935 1.217671,-4.249578 -5.269968 1.088716,-4.509375 -4.544914 1.255501,-4.791245 -4.502204 1.349288,-5.013674 -4.739964 1.426604,2 0 -10.59351,2 0 -10.59351,2 0 -10.59351,2 0 -10.59351,2 0 -10.59351,2 0 -10.59351,2 0 -10.59351,2 0 -10.59351,2 0 -10.59351,2 0 -10.59351,2 0 -10.59351,2 0 -10.59351,2 0 -10.59351,2 0 -10.59351,2 0 -10.59351,2 0 -10.59351,2 0 -10.59351,2 0 -10.59351,2 0 -10.59351,2 0 -10.59351,2 0 -10.59351,8.310,
-3.994549 -7.242378 -0.552315,-4.675375 -6.482779 -0.8245595,-5.060501 -5.80998 -0.8978984,-5.269468 -5.227062 -0.8225984,-5.56229 -4.676958 -0.7556602,-4.989693 -5.003327 -1.139161,-5.203417 -4.276382 -0.8909377,-5.437653 -4.18741 -0.648713,-5.647377 -4.332231 -0.4845695,-4.79494 -4.895294 -0.8120916,-5.061876 -4.034664 -0.48007,-5.332495 -4.163389 -0.1611153,-5.538894 -4.518547 0.04353815,-4.580845 -4.898521 -0.4348923,-4.832442 -4.08875 -0.1019465,-5.112289 -4.252595 0.1315236,-5.313845 -4.655702 0.2336177,-4.33733 -5.011167 -0.08373106,-4.57407 -4.408172 0.1895099,-4.831573 -4.421443 0.3548822,-5.045365 -4.658525 0.4739128,2 0 -10.59351,2 0 -10.59351,2 0 -10.59351,2 0 -10.59351,2 0 -10.59351,2 0 -10.59351,2 0 -10.59351,2 0 -10.59351,2 0 -10.59351,2 0 -10.59351,2 0 -10.59351,2 0 -10.59351,2 0 -10.59351,2 0 -10.59351,2 0 -10.59351,2 0 -10.59351,2 0 -10.59351,2 0 -10.59351,2 0 -10.59351,2 0 -10.59351,2 0 -10.59351,8.410,
-4.055983 -7.044511 -1.218954,-4.649199 -6.421393 -1.403453,-5.00515 -5.788066 -1.453803,-5.181271 -5.196956 -1.385405,-5.459626 -4.662308 -1.321665,-4.967531 -4.990398 -1.733279,-5.187359 -4.289445 -1.49101,-5.412798 -4.167957 -1.218332,-5.612339 -4.278724 -1.021122,-4.786192 -4.874158 -1.463709,-5.037246 -4.055248 -1.136362,-5.290784 -4.111442 -0.8159556,-5.489159 -4.390457 -0.5895178,-4.576578 -4.858864 -1.131802,-4.816378 -4.085031 -0.812684,-5.05694 -4.233587 -0.5968785,-5.227574 -4.612695 -0.4872609,-4.330586 -4.93759 -0.8245537,-4.555048 -4.342569 -0.5514667,-4.773848 -4.365673 -0.3900771,-4.952816 -4.608228 -0.2573113,2 0 -10.59351,2 0 -10.59351,2 0 -10.59351,2 0 -10.59351,2 0 -10.59351,2 0 -10.59351,2 0 -10.59351,2 0 -10.59351,2 0 -10.59351,2 0 -10.59351,2 0 -10.59351,2 0 -10.59351,2 0 -10.59351,2 0 -10.59351,2 0 -10.59351,2 0 -10.59351,2 0 -10.59351,2 0 -10.59351,2 0 -10.59351,2 0 -10.59351,2 0 -10.59351,8.510,
-4.100109 -6.790173 -2.016727,-4.596897 -6.415696 -2.110753,-4.965591 -5.773975 -2.130953,-5.142417 -5.172286 -2.048024,-5.419437 -4.667446 -1.964466,-4.930977 -4.985101 -2.493309,-5.136262 -4.377622 -2.243226,-5.35888 -4.242798 -1.934169,-5.577787 -4.322664 -1.705307,-4.747963 -4.835388 -2.271098,-4.983778 -4.088436 -1.951238,-5.251345 -4.08069 -1.583479,-5.482435 -4.323009 -1.337461,-4.543503 -4.783624 -1.983362,-4.78142 -4.070459 -1.708933,-5.025661 -4.211681 -1.466136,-5.205837 -4.586912 -1.322953,-4.304647 -4.801663 -1.705093,-4.546372 -4.263973 -1.457248,-4.76637 -4.318376 -1.294818,-4.944353 -4.588119 -1.155213,2 0 -10.59351,2 0 -10.59351,2 0 -10.59351,2 0 -10.59351,2 0 -10.59351,2 0 -10.59351,2 0 -10.59351,2 0 -10.59351,2 0 -10.59351,2 0 -10.59351,2 0 -10.59351,2 0 -10.59351,2 0 -10.59351,2 0 -10.59351,2 0 -10.59351,2 0 -10.59351,2 0 -10.59351,2 0 -10.59351,2 0 -10.59351,2 0 -10.59351,2 0 -10.59351,8.610,
-3.573472 -8.363777 1.958176,-4.376623 -7.189306 1.440091,-4.837815 -6.38186 1.372694,-5.187073 -5.771389 1.475466,-5.468369 -5.257526 1.628795,-4.592402 -5.294248 1.58306,-4.897642 -4.099473 1.77435,-5.214695 -4.068205 2.014921,-5.392435 -4.378124 2.193806,-4.400812 -5.263617 2.066423,-4.750668 -3.927758 2.287259,-5.131074 -4.139754 2.452026,-5.347112 -4.651706 2.528607,-4.232067 -5.452777 2.5309,-4.503754 -4.184555 2.734583,-4.8904 -4.242073 2.862938,-5.13503 -4.601516 2.92775,-4.084146 -5.855844 2.946638,-4.276999 -4.845401 3.151783,-4.602257 -4.602477 3.249629,-4.878214 -4.651464 3.346071,2 0 -10.59351,2 0 -10.59351,2 0 -10.59351,2 0 -10.59351,2 0 -10.59351,2 0 -10.59351,2 0 -10.59351,2 0 -10.59351,2 0 -10.59351,2 0 -10.59351,2 0 -10.59351,2 0 -10.59351,2 0 -10.59351,2 0 -10.59351,2 0 -10.59351,2 0 -10.59351,2 0 -10.59351,2 0 -10.59351,2 0 -10.59351,2 0 -10.59351,2 0 -10.59351,8.710,
-3.692772 -7.848181 0.8457242,-4.461256 -6.858935 0.4757309,-4.895905 -6.064857 0.3795663,-5.130579 -5.428668 0.4416881,-5.402781 -4.856462 0.5279094,-4.80599 -5.184895 0.1978377,-5.025768 -4.37758 0.3703328,-5.274059 -4.22871 0.6065819,-5.455654 -4.352135 0.7682793,-4.594732 -5.113462 0.5697223,-4.823044 -4.106483 0.836311,-5.111995 -4.176916 1.175866,-5.301062 -4.562866 1.388046,-4.370935 -5.216894 0.9776827,-4.55452 -4.199234 1.242733,-4.844927 -4.274206 1.508442,-5.045709 -4.639373 1.637301,-4.104005 -5.454399 1.336618,-4.274267 -4.675941 1.565904,-4.530288 -4.540284 1.71786,-4.749269 -4.660327 1.845401,2 0 -10.59351,2 0 -10.59351,2 0 -10.59351,2 0 -10.59351,2 0 -10.59351,2 0 -10.59351,2 0 -10.59351,2 0 -10.59351,2 0 -10.59351,2 0 -10.59351,2 0 -10.59351,2 0 -10.59351,2 0 -10.59351,2 0 -10.59351,2 0 -10.59351,2 0 -10.59351,2 0 -10.59351,2 0 -10.59351,2 0 -10.59351,2 0 -10.59351,2 0 -10.59351,8.810,
-3.813364 -7.572546 0.2460072,-4.522993 -6.720356 -0.01693237,-4.933739 -5.98497 -0.07335806,-5.154041 -5.359465 0.01248139,-5.429977 -4.794556 0.09778658,-4.878604 -5.100956 -0.3658898,-5.081078 -4.36742 -0.1858491,-5.300682 -4.255435 0.06632438,-5.474218 -4.392887 0.2598642,-4.661238 -5.003862 -0.05298078,-4.893275 -4.096038 0.2387756,-5.147633 -4.199515 0.5934343,-5.309883 -4.590292 0.8306051,-4.423588 -5.035913 0.3048487,-4.61461 -4.164348 0.5918173,-4.874434 -4.283042 0.8625586,-5.042631 -4.670728 0.9941757,-4.140829 -5.178188 0.6226196,-4.298609 -4.488985 0.862315,-4.532745 -4.455335 1.027027,-4.721448 -4.66251 1.15205,2 0 -10.59351,2 0 -10.59351,2 0 -10.59351,2 0 -10.59351,2 0 -10.59351,2 0 -10.59351,2 0 -10.59351,2 0 -10.59351,2 0 -10.59351,2 0 -10.59351,2 0 -10.59351,2 0 -10.59351,2 0 -10.59351,2 0 -10.59351,2 0 -10.59351,2 0 -10.59351,2 0 -10.59351,2 0 -10.59351,2 0 -10.59351,2 0 -10.59351,2 0 -10.59351,8.910,
-3.978056 -6.981197 -1.419946,-4.548721 -6.405223 -1.521331,-4.918607 -5.806707 -1.5179,-5.112055 -5.240926 -1.408568,-5.381095 -4.711893 -1.308971,-4.918531 -4.981653 -1.853158,-5.144423 -4.321453 -1.601137,-5.349997 -4.211969 -1.301497,-5.524936 -4.345657 -1.070866,-4.723302 -4.872599 -1.621801,-4.965401 -4.078964 -1.286322,-5.194288 -4.138927 -0.9188603,-5.352211 -4.441972 -0.6602711,-4.499957 -4.861381 -1.325933,-4.708958 -4.109716 -1.023129,-4.925653 -4.24046 -0.7580639,-5.065899 -4.606699 -0.6082221,-4.234719 -4.934 -1.051519,-4.409463 -4.343664 -0.7831044,-4.613857 -4.352188 -0.5996341,-4.776497 -4.586858 -0.4475951,2 0 -10.59351,2 0 -10.59351,2 0 -10.59351,2 0 -10.59351,2 0 -10.59351,2 0 -10.59351,2 0 -10.59351,2 0 -10.59351,2 0 -10.59351,2 0 -10.59351,2 0 -10.59351,2 0 -10.59351,2 0 -10.59351,2 0 -10.59351,2 0 -10.59351,2 0 -10.59351,2 0 -10.59351,2 0 -10.59351,2 0 -10.59351,2 0 -10.59351,2 0 -10.59351,9.010,
-4.02211 -6.886689 -1.880669,-4.535955 -6.435081 -1.972923,-4.903122 -5.810503 -1.978626,-5.087298 -5.229331 -1.875792,-5.365678 -4.711446 -1.779409,-4.880996 -5.029562 -2.291766,-5.108279 -4.413099 -2.018986,-5.326859 -4.306122 -1.727261,-5.525167 -4.414011 -1.517644,-4.695788 -4.890787 -2.056749,-4.945365 -4.125002 -1.701832,-5.20131 -4.173795 -1.3363,-5.400925 -4.456547 -1.104281,-4.484537 -4.852998 -1.759014,-4.715036 -4.124128 -1.454939,-4.961376 -4.281874 -1.202039,-5.138649 -4.657081 -1.06058,-4.231529 -4.896999 -1.478799,-4.450941 -4.350904 -1.214042,-4.682367 -4.383517 -1.045274,-4.876905 -4.629856 -0.9013013,2 0 -10.59351,2 0 -10.59351,2 0 -10.59351,2 0 -10.59351,2 0 -10.59351,2 0 -10.59351,2 0 -10.59351,2 0 -10.59351,2 0 -10.59351,2 0 -10.59351,2 0 -10.59351,2 0 -10.59351,2 0 -10.59351,2 0 -10.59351,2 0 -10.59351,2 0 -10.59351,2 0 -10.59351,2 0 -10.59351,2 0 -10.59351,2 0 -10.59351,2 0 -10.59351,9.110,
-3.543437 -8.397785 2.213013,-4.098211 -7.470868 2.215559,-4.51749 -6.704184 2.371009,-4.857252 -6.184785 2.529891,-5.099098 -5.788368 2.713803,-4.430813 -5.35479 2.478517,-4.792737 -4.092954 2.657397,-5.130384 -4.133901 2.930345,-5.301873 -4.474525 3.158824,-4.348669 -5.240806 2.620547,-4.797003 -3.907618 2.657994,-5.160355 -4.150089 2.716031,-5.32303 -4.697296 2.789153,-4.274463 -5.381419 2.751278,-4.653749 -4.159013 2.772989,-5.011745 -4.280351 2.724756,-5.186387 -4.766486 2.727234,-4.205941 -5.752069 2.883547,-4.467941 -4.790273 2.936988,-4.816555 -4.659131 2.917785,-5.048513 -4.842647 2.906002,2 0 -10.59351,2 0 -10.59351,2 0 -10.59351,2 0 -10.59351,2 0 -10.59351,2 0 -10.59351,2 0 -10.59351,2 0 -10.59351,2 0 -10.59351,2 0 -10.59351,2 0 -10.59351,2 0 -10.59351,2 0 -10.59351,2 0 -10.59351,2 0 -10.59351,2 0 -10.59351,2 0 -10.59351,2 0 -10.59351,2 0 -10.59351,2 0 -10.59351,2 0 -10.59351,9.210,
-3.541275 -8.270809 1.59884,-4.36997 -7.031661 1.259546,-4.799489 -6.210159 1.261802,-5.088922 -5.594224 1.394559,-5.340796 -5.058689 1.541521,-4.573472 -5.225967 1.267862,-4.77462 -4.241455 1.459245,-5.124371 -4.273539 1.606254,-5.375484 -4.549678 1.67392,-4.369421 -5.275474 1.651569,-4.606907 -4.075893 1.908157,-5.007719 -4.246055 2.122401,-5.265825 -4.713775 2.223019,-4.18148 -5.49212 2.033925,-4.363226 -4.313266 2.267675,-4.753333 -4.374435 2.464144,-5.014446 -4.774902 2.535165,-3.986614 -5.88932 2.374234,-4.104893 -4.950098 2.573802,-4.435638 -4.738983 2.713727,-4.69965 -4.829746 2.847487,2 0 -10.59351,2 0 -10.59351,2 0 -10.59351,2 0 -10.59351,2 0 -10.59351,2 0 -10.59351,2 0 -10.59351,2 0 -10.59351,2 0 -10.59351,2 0 -10.59351,2 0 -10.59351,2 0 -10.59351,2 0 -10.59351,2 0 -10.59351,2 0 -10.59351,2 0 -10.59351,2 0 -10.59351,2 0 -10.59351,2 0 -10.59351,2 0 -10.59351,2 0 -10.59351,9.310,
-3.713955 -7.715454 0.2730399,-4.44849 -6.674153 -0.05789727,-4.853319 -5.941823 -0.09282726,-5.084205 -5.347163 0.03967825,-5.299444 -4.732239 0.1899288,-4.71538 -5.127957 -0.2234686,-4.916269 -4.335129 0.06246558,-5.191374 -4.3062 0.3282499,-5.413282 -4.525814 0.4997448,-4.509757 -5.107579 0.1532422,-4.730696 -4.118585 0.5567768,-5.050131 -4.272744 0.9364502,-5.269234 -4.714609 1.163737,-4.2812 -5.190382 0.5500261,-4.448957 -4.225952 0.9198081,-4.762082 -4.368535 1.171653,-4.974003 -4.81721 1.265268,-4.02183 -5.376112 0.8973324,-4.158591 -4.603378 1.180749,-4.423222 -4.528896 1.348693,-4.647305 -4.745212 1.477815,2 0 -10.59351,2 0 -10.59351,2 0 -10.59351,2 0 -10.59351,2 0 -10.59351,2 0 -10.59351,2 0 -10.59351,2 0 -10.59351,2 0 -10.59351,2 0 -10.59351,2 0 -10.59351,2 0 -10.59351,2 0 -10.59351,2 0 -10.59351,2 0 -10.59351,2 0 -10.59351,2 0 -10.59351,2 0 -10.59351,2 0 -10.59351,2 0 -10.59351,2 0 -10.59351,9.410,
-3.823707 -7.407276 0.02084909,-4.495676 -6.477211 -0.2381893,-4.872828 -5.815534 -0.2877659,-5.100998 -5.252841 -0.1925361,-5.353813 -4.689723 -0.1108035,-4.750797 -4.953689 -0.610459,-4.973417 -4.348108 -0.362386,-5.209087 -4.315616 -0.0624821,-5.406474 -4.494234 0.1555052,-4.557924 -4.871704 -0.282862,-4.825011 -4.08391 0.05681207,-5.089685 -4.241514 0.4085723,-5.276999 -4.628253 0.6183893,-4.335672 -4.883985 0.08508971,-4.560691 -4.116043 0.4158364,-4.835718 -4.250898 0.6775339,-5.028648 -4.657457 0.7936236,-4.070283 -4.991821 0.4228723,-4.234693 -4.36227 0.6887645,-4.482033 -4.353103 0.8635232,-4.692955 -4.621395 0.9843533,2 0 -10.59351,2 0 -10.59351,2 0 -10.59351,2 0 -10.59351,2 0 -10.59351,2 0 -10.59351,2 0 -10.59351,2 0 -10.59351,2 0 -10.59351,2 0 -10.59351,2 0 -10.59351,2 0 -10.59351,2 0 -10.59351,2 0 -10.59351,2 0 -10.59351,2 0 -10.59351,2 0 -10.59351,2 0 -10.59351,2 0 -10.59351,2 0 -10.59351,2 0 -10.59351,9.510,
-3.984303 -6.918447 -1.404727,-4.513052 -6.32069 -1.485987,-4.869374 -5.726345 -1.455397,-5.069713 -5.191267 -1.310704,-5.369474 -4.713624 -1.174976,-4.773511 -4.850082 -1.791083,-4.976351 -4.255996 -1.494928,-5.198593 -4.203073 -1.169002,-5.419481 -4.346445 -0.9322804,-4.569077 -4.750402 -1.544344,-4.81736 -4.080122 -1.147046,-5.075369 -4.181015 -0.768522,-5.297844 -4.467922 -0.5285527,-4.343857 -4.747978 -1.23549,-4.578999 -4.075923 -0.8852217,-4.835289 -4.232393 -0.6113026,-5.042698 -4.592857 -0.4591293,-4.08159 -4.834793 -0.9373333,-4.288429 -4.302433 -0.6469778,-4.520661 -4.337511 -0.4535896,-4.728708 -4.558612 -0.2944922,2 0 -10.59351,2 0 -10.59351,2 0 -10.59351,2 0 -10.59351,2 0 -10.59351,2 0 -10.59351,2 0 -10.59351,2 0 -10.59351,2 0 -10.59351,2 0 -10.59351,2 0 -10.59351,2 0 -10.59351,2 0 -10.59351,2 0 -10.59351,2 0 -10.59351,2 0 -10.59351,2 0 -10.59351,2 0 -10.59351,2 0 -10.59351,2 0 -10.59351,2 0 -10.59351,9.610,
-4.035517 -6.784519 -1.859241,-4.494955 -6.351473 -1.927775,-4.846435 -5.705362 -1.929734,-5.056694 -5.143405 -1.816446,-5.354923 -4.687522 -1.710556,-4.755909 -4.879053 -2.302466,-4.962729 -4.329019 -2.029152,-5.18804 -4.258695 -1.7117,-5.420804 -4.357493 -1.480889,-4.556167 -4.742027 -2.086248,-4.793779 -4.053236 -1.726844,-5.079651 -4.11467 -1.345148,-5.338032 -4.374435 -1.105785,-4.340498 -4.709542 -1.807276,-4.583437 -4.013492 -1.503901,-4.846835 -4.17114 -1.234289,-5.06101 -4.525234 -1.085057,-4.091152 -4.767385 -1.536019,-4.323071 -4.258865 -1.276698,-4.552544 -4.340669 -1.105835,-4.752195 -4.602043 -0.9738405,2 0 -10.59351,2 0 -10.59351,2 0 -10.59351,2 0 -10.59351,2 0 -10.59351,2 0 -10.59351,2 0 -10.59351,2 0 -10.59351,2 0 -10.59351,2 0 -10.59351,2 0 -10.59351,2 0 -10.59351,2 0 -10.59351,2 0 -10.59351,2 0 -10.59351,2 0 -10.59351,2 0 -10.59351,2 0 -10.59351,2 0 -10.59351,2 0 -10.59351,2 0 -10.59351,9.710,
-3.681391 -7.986331 1.653781,-4.394621 -6.72863 1.392557,-4.802423 -5.910757 1.338213,-5.07163 -5.26015 1.389249,-5.332002 -4.699531 1.401435,-4.590744 -4.998359 1.154612,-4.747162 -4.117837 1.392471,-5.03759 -4.146629 1.667673,-5.240444 -4.393817 1.853192,-4.404689 -4.952791 1.47261,-4.557661 -3.807067 1.827664,-4.924702 -4.057775 2.150031,-5.164811 -4.524798 2.322235,-4.217695 -5.099098 1.821049,-4.307096 -3.97078 2.10022,-4.656941 -4.145653 2.322613,-4.915909 -4.540147 2.401816,-4.017323 -5.437941 2.150561,-4.078047 -4.638587 2.35744,-4.364533 -4.517551 2.53117,-4.611244 -4.615856 2.687978,2 0 -10.59351,2 0 -10.59351,2 0 -10.59351,2 0 -10.59351,2 0 -10.59351,2 0 -10.59351,2 0 -10.59351,2 0 -10.59351,2 0 -10.59351,2 0 -10.59351,2 0 -10.59351,2 0 -10.59351,2 0 -10.59351,2 0 -10.59351,2 0 -10.59351,2 0 -10.59351,2 0 -10.59351,2 0 -10.59351,2 0 -10.59351,2 0 -10.59351,2 0 -10.59351,9.810,
-3.711786 -7.693319 0.8643026,-4.431654 -6.574413 0.5678407,-4.829886 -5.830725 0.5410597,-5.072831 -5.229129 0.6597806,-5.336926 -4.677358 0.7535708,-4.665371 -4.928241 0.3239944,-4.806162 -4.07208 0.6223422,-5.062166 -4.097667 0.9213539,-5.233077 -4.3682 1.118609,-4.458731 -4.898708 0.6855219,-4.607344 -3.776352 1.117449,-4.92423 -4.037286 1.505786,-5.118708 -4.534519 1.719473,-4.232512 -5.024715 1.077811,-4.316849 -3.933351 1.473999,-4.633648 -4.155418 1.730486,-4.856108 -4.633401 1.811126,-3.978728 -5.285398 1.43451,-4.059407 -4.466528 1.718464,-4.335554 -4.424541 1.90087,-4.570602 -4.652086 2.028106,2 0 -10.59351,2 0 -10.59351,2 0 -10.59351,2 0 -10.59351,2 0 -10.59351,2 0 -10.59351,2 0 -10.59351,2 0 -10.59351,2 0 -10.59351,2 0 -10.59351,2 0 -10.59351,2 0 -10.59351,2 0 -10.59351,2 0 -10.59351,2 0 -10.59351,2 0 -10.59351,2 0 -10.59351,2 0 -10.59351,2 0 -10.59351,2 0 -10.59351,2 0 -10.59351,9.910,Right Hand Closed 
-3.848131 -7.05039 -0.4616242,-4.436191 -6.275491 -0.5849016,-4.78445 -5.69406 -0.5311489,-5.000546 -5.138567 -0.3565796,-5.271894 -4.558872 -0.190515,-4.728742 -4.719902 -0.9219391,-4.92991 -4.001262 -0.647848,-5.128982 -4.045202 -0.2876784,-5.256248 -4.317933 -0.02928075,-4.525333 -4.631906 -0.6604449,-4.719166 -3.721715 -0.2573935,-4.954879 -3.975839 0.1321415,-5.085105 -4.398378 0.3412631,-4.292521 -4.67349 -0.3463674,-4.443624 -3.803469 -0.00762409,-4.675061 -4.054423 0.2796166,-4.806058 -4.488986 0.4096261,-4.030204 -4.833318 -0.04404682,-4.187233 -4.222019 0.2160472,-4.413496 -4.310979 0.4158024,-4.568208 -4.605105 0.5524483,2 0 -10.59351,2 0 -10.59351,2 0 -10.59351,2 0 -10.59351,2 0 -10.59351,2 0 -10.59351,2 0 -10.59351,2 0 -10.59351,2 0 -10.59351,2 0 -10.59351,2 0 -10.59351,2 0 -10.59351,2 0 -10.59351,2 0 -10.59351,2 0 -10.59351,2 0 -10.59351,2 0 -10.59351,2 0 -10.59351,2 0 -10.59351,2 0 -10.59351,2 0 -10.59351,10.010,Right Hand Closed 
-3.925225 -6.896692 -1.336908,-4.363021 -6.377847 -1.378556,-4.691748 -5.694473 -1.309238,-4.910891 -5.129351 -1.127171,-5.187028 -4.625505 -0.9530855,-4.598114 -4.793741 -1.654058,-4.817779 -4.114261 -1.323874,-5.058755 -4.112033 -0.9519767,-5.237945 -4.318418 -0.693783,-4.404276 -4.67989 -1.414115,-4.634453 -3.820484 -0.9910471,-4.924306 -3.945642 -0.6089172,-5.108946 -4.285923 -0.4086711,-4.190658 -4.697653 -1.115391,-4.40444 -3.79247 -0.7501336,-4.675697 -3.97401 -0.4727029,-4.84572 -4.374159 -0.3487476,-3.943199 -4.825756 -0.8225831,-4.170258 -4.179178 -0.5336797,-4.411018 -4.263549 -0.3606552,-4.581642 -4.552618 -0.2467266,2 0 -10.59351,2 0 -10.59351,2 0 -10.59351,2 0 -10.59351,2 0 -10.59351,2 0 -10.59351,2 0 -10.59351,2 0 -10.59351,2 0 -10.59351,2 0 -10.59351,2 0 -10.59351,2 0 -10.59351,2 0 -10.59351,2 0 -10.59351,2 0 -10.59351,2 0 -10.59351,2 0 -10.59351,2 0 -10.59351,2 0 -10.59351,2 0 -10.59351,2 0 -10.59351,10.110,Right Hand Closed 
-3.855637 -6.916572 -1.591755,-4.259953 -6.483242 -1.594358,-4.595474 -5.823709 -1.429736,-4.848859 -5.320632 -1.179685,-5.13958 -4.884988 -0.9146697,-4.426498 -4.815624 -1.579441,-4.647987 -4.077611 -1.234434,-4.918879 -4.09579 -0.8879547,-5.107057 -4.338798 -0.6455312,-4.207803 -4.764433 -1.329382,-4.441544 -3.853109 -0.9025229,-4.76342 -4.051628 -0.5693398,-4.935919 -4.47439 -0.4089088,-3.976195 -4.884381 -1.047285,-4.207754 -3.97932 -0.6553704,-4.522472 -4.243693 -0.4395086,-4.696649 -4.685516 -0.3543332,-3.742426 -5.152927 -0.754644,-4.005777 -4.584194 -0.4500123,-4.266823 -4.835954 -0.3071988,-4.408493 -5.222007 -0.2208176,2 0 -10.59351,2 0 -10.59351,2 0 -10.59351,2 0 -10.59351,2 0 -10.59351,2 0 -10.59351,2 0 -10.59351,2 0 -10.59351,2 0 -10.59351,2 0 -10.59351,2 0 -10.59351,2 0 -10.59351,2 0 -10.59351,2 0 -10.59351,2 0 -10.59351,2 0 -10.59351,2 0 -10.59351,2 0 -10.59351,2 0 -10.59351,2 0 -10.59351,2 0 -10.59351,10.210,Right Hand Closed 
-3.925823 -7.44145 -0.6179186,-4.509195 -6.800413 -0.5936376,-4.788864 -6.159326 -0.3242328,-4.936035 -5.747766 0.008729339,-5.03689 -5.566776 0.3372231,-4.489109 -5.008159 -0.06277579,-4.850164 -4.748159 0.5125525,-5.147209 -4.944643 0.9250668,-5.371386 -5.158782 1.187265,-4.216857 -5.131525 0.2208158,-4.648863 -4.905471 0.8966893,-5.051965 -5.463806 1.212365,-5.318084 -6.046392 1.38907,-3.997313 -5.530689 0.5145453,-4.423923 -5.410434 1.165101,-4.840382 -5.92738 1.371084,-5.103788 -6.43758 1.447855,-3.833234 -6.059475 0.7867498,-4.167957 -6.062448 1.268702,-4.464645 -6.408035 1.352481,-4.694932 -6.744863 1.356975,2 0 -10.59351,2 0 -10.59351,2 0 -10.59351,2 0 -10.59351,2 0 -10.59351,2 0 -10.59351,2 0 -10.59351,2 0 -10.59351,2 0 -10.59351,2 0 -10.59351,2 0 -10.59351,2 0 -10.59351,2 0 -10.59351,2 0 -10.59351,2 0 -10.59351,2 0 -10.59351,2 0 -10.59351,2 0 -10.59351,2 0 -10.59351,2 0 -10.59351,2 0 -10.59351,10.310,
-3.37451 -8.787701 2.030748,-4.377059 -7.724935 1.655923,-4.914206 -7.029237 1.803411,-5.406577 -6.565963 2.127981,-5.787648 -6.394598 2.480952,-4.812929 -5.814199 2.637275,-5.275923 -4.956092 3.234217,-5.549215 -5.38268 3.555845,-5.691137 -5.785509 3.790839,-4.519016 -5.96812 3.117655,-5.115863 -5.175546 3.729716,-5.497585 -5.934471 3.931611,-5.687054 -6.691803 4.030715,-4.254795 -6.297109 3.570488,-4.774727 -5.581525 4.191185,-5.230639 -6.301522 4.295048,-5.522504 -7.022453 4.299743,-4.032469 -6.833457 3.937076,-4.409122 -6.335811 4.510109,-4.850477 -6.694162 4.613073,-5.216793 -7.073522 4.605808,2 0 -10.59351,2 0 -10.59351,2 0 -10.59351,2 0 -10.59351,2 0 -10.59351,2 0 -10.59351,2 0 -10.59351,2 0 -10.59351,2 0 -10.59351,2 0 -10.59351,2 0 -10.59351,2 0 -10.59351,2 0 -10.59351,2 0 -10.59351,2 0 -10.59351,2 0 -10.59351,2 0 -10.59351,2 0 -10.59351,2 0 -10.59351,2 0 -10.59351,2 0 -10.59351,10.410,Right Hand Closed 
-3.49585 -9.174337 1.131015,-4.336882 -8.329523 0.3812655,-4.771395 -7.578575 0.369066,-5.091864 -7.138134 0.5827951,-5.361067 -6.762876 0.8667859,-4.766253 -6.376874 1.393441,-5.123093 -5.278047 1.86252,-5.586786 -5.438417 2.117781,-5.899137 -5.970799 2.244925,-4.551018 -6.561015 2.081084,-4.968146 -5.263839 2.575974,-5.48052 -5.559551 2.751106,-5.817004 -6.174456 2.838945,-4.341238 -6.92383 2.702331,-4.739321 -5.664724 3.136574,-5.208828 -5.879383 3.287689,-5.505949 -6.414893 3.306607,-4.14001 -7.465318 3.232789,-4.510057 -6.616903 3.615653,-4.867845 -6.473184 3.741789,-5.15054 -6.546453 3.830091,2 0 -10.59351,2 0 -10.59351,2 0 -10.59351,2 0 -10.59351,2 0 -10.59351,2 0 -10.59351,2 0 -10.59351,2 0 -10.59351,2 0 -10.59351,2 0 -10.59351,2 0 -10.59351,2 0 -10.59351,2 0 -10.59351,2 0 -10.59351,2 0 -10.59351,2 0 -10.59351,2 0 -10.59351,2 0 -10.59351,2 0 -10.59351,2 0 -10.59351,2 0 -10.59351,10.510,
-3.5112 -9.028795 0.7536069,-4.371017 -8.232414 0.06105852,-4.83752 -7.551639 0.1068619,-5.152596 -7.171049 0.3826428,-5.453266 -6.780836 0.7571279,-4.766375 -6.355466 1.069507,-5.067061 -5.166041 1.5384,-5.528589 -5.195076 1.790172,-5.849365 -5.654569 1.883079,-4.515068 -6.540884 1.762782,-4.929319 -5.144712 2.271081,-5.488008 -5.315856 2.439974,-5.832966 -5.911972 2.508914,-4.304752 -6.87386 2.374011,-4.696757 -5.488637 2.843953,-5.242621 -5.503349 2.963742,-5.582714 -5.904413 2.94808,-4.118109 -7.313867 2.901234,-4.482595 -6.308181 3.254815,-4.863243 -6.037141 3.362371,-5.173136 -6.003961 3.438121,2 0 -10.59351,2 0 -10.59351,2 0 -10.59351,2 0 -10.59351,2 0 -10.59351,2 0 -10.59351,2 0 -10.59351,2 0 -10.59351,2 0 -10.59351,2 0 -10.59351,2 0 -10.59351,2 0 -10.59351,2 0 -10.59351,2 0 -10.59351,2 0 -10.59351,2 0 -10.59351,2 0 -10.59351,2 0 -10.59351,2 0 -10.59351,2 0 -10.59351,2 0 -10.59351,10.610,
-3.579901 -8.519896 0.5016826,-4.343683 -7.611789 -0.2232924,-4.789873 -6.893735 -0.2992313,-5.108137 -6.424776 -0.1606172,-5.349337 -5.91859 -0.0197441,-4.754299 -5.890144 0.5144438,-5.047756 -4.853561 0.8638311,-5.496758 -4.838482 1.051457,-5.824493 -5.194582 1.119282,-4.587584 -5.997331 1.157727,-4.93345 -4.646955 1.467259,-5.481155 -4.757558 1.659186,-5.832857 -5.312482 1.785181,-4.409861 -6.238048 1.737715,-4.696578 -4.861661 2.047683,-5.227114 -4.915028 2.141675,-5.544193 -5.367445 2.146922,-4.232323 -6.597704 2.241519,-4.516144 -5.600387 2.522627,-4.872471 -5.419319 2.586034,-5.133197 -5.57614 2.607054,2 0 -10.59351,2 0 -10.59351,2 0 -10.59351,2 0 -10.59351,2 0 -10.59351,2 0 -10.59351,2 0 -10.59351,2 0 -10.59351,2 0 -10.59351,2 0 -10.59351,2 0 -10.59351,2 0 -10.59351,2 0 -10.59351,2 0 -10.59351,2 0 -10.59351,2 0 -10.59351,2 0 -10.59351,2 0 -10.59351,2 0 -10.59351,2 0 -10.59351,2 0 -10.59351,10.710,
-3.651745 -7.903448 0.1429415,-4.499035 -6.862241 -0.6249493,-4.92643 -6.14789 -0.7412087,-5.232958 -5.70507 -0.6216818,-5.522613 -5.240615 -0.4737566,-4.767601 -5.277719 -0.09689762,-5.07019 -4.430028 0.1894416,-5.480392 -4.476839 0.3394994,-5.789697 -4.850002 0.3965651,-4.570957 -5.406408 0.5501643,-4.970241 -4.349517 0.8495728,-5.481367 -4.528621 1.069165,-5.822183 -5.094915 1.208169,-4.376194 -5.663442 1.144955,-4.743672 -4.605114 1.430931,-5.235286 -4.751905 1.540416,-5.533836 -5.243547 1.565567,-4.20104 -6.045103 1.660657,-4.534498 -5.269197 1.962936,-4.895153 -5.138834 2.07336,-5.165611 -5.294474 2.166791,2 0 -10.59351,2 0 -10.59351,2 0 -10.59351,2 0 -10.59351,2 0 -10.59351,2 0 -10.59351,2 0 -10.59351,2 0 -10.59351,2 0 -10.59351,2 0 -10.59351,2 0 -10.59351,2 0 -10.59351,2 0 -10.59351,2 0 -10.59351,2 0 -10.59351,2 0 -10.59351,2 0 -10.59351,2 0 -10.59351,2 0 -10.59351,2 0 -10.59351,2 0 -10.59351,10.810,
-3.7596 -7.576267 0.2775856,-4.559893 -6.721584 -0.293353,-4.985981 -6.067017 -0.4720019,-5.250937 -5.592023 -0.4610013,-5.474617 -5.181043 -0.4426225,-4.893892 -5.11202 -0.3531666,-5.223044 -4.449749 -0.180791,-5.552696 -4.475008 -0.006699741,-5.804757 -4.748073 0.08996908,-4.703 -5.018024 0.1315198,-5.117908 -4.195837 0.3538038,-5.504317 -4.417536 0.6050347,-5.750294 -4.940492 0.7680162,-4.498047 -5.068206 0.6039596,-4.88904 -4.226492 0.8688889,-5.279072 -4.514229 1.048369,-5.497854 -5.090267 1.126799,-4.271902 -5.257957 1.033272,-4.591959 -4.637821 1.261808,-4.903121 -4.719707 1.350524,-5.110382 -5.090494 1.427534,2 0 -10.59351,2 0 -10.59351,2 0 -10.59351,2 0 -10.59351,2 0 -10.59351,2 0 -10.59351,2 0 -10.59351,2 0 -10.59351,2 0 -10.59351,2 0 -10.59351,2 0 -10.59351,2 0 -10.59351,2 0 -10.59351,2 0 -10.59351,2 0 -10.59351,2 0 -10.59351,2 0 -10.59351,2 0 -10.59351,2 0 -10.59351,2 0 -10.59351,2 0 -10.59351,10.910,
-3.928825 -7.039701 -0.8031126,-4.640497 -6.372742 -1.164479,-5.040855 -5.814489 -1.292881,-5.288599 -5.336589 -1.256085,-5.56891 -4.866556 -1.246516,-4.97308 -4.938964 -1.457174,-5.264833 -4.356431 -1.226966,-5.522053 -4.413517 -0.9859301,-5.741032 -4.658341 -0.808589,-4.782108 -4.790376 -1.080805,-5.158343 -4.143911 -0.7885378,-5.444592 -4.386875 -0.494568,-5.645937 -4.799411 -0.3088843,-4.573604 -4.755907 -0.6571962,-4.964491 -4.137832 -0.3817413,-5.250912 -4.460737 -0.204068,-5.421665 -4.96698 -0.1193541,-4.33942 -4.830629 -0.2559209,-4.686523 -4.391569 -0.03579646,-4.973711 -4.557939 0.07235193,-5.187265 -4.918945 0.1574525,2 0 -10.59351,2 0 -10.59351,2 0 -10.59351,2 0 -10.59351,2 0 -10.59351,2 0 -10.59351,2 0 -10.59351,2 0 -10.59351,2 0 -10.59351,2 0 -10.59351,2 0 -10.59351,2 0 -10.59351,2 0 -10.59351,2 0 -10.59351,2 0 -10.59351,2 0 -10.59351,2 0 -10.59351,2 0 -10.59351,2 0 -10.59351,2 0 -10.59351,2 0 -10.59351,11.010,Right Hand Closed 
-4.000635 -6.879037 -1.556424,-4.611919 -6.333517 -1.801522,-4.999653 -5.793036 -1.852484,-5.225224 -5.311676 -1.763023,-5.488096 -4.833791 -1.695907,-4.942125 -4.964513 -1.991149,-5.220815 -4.366634 -1.692257,-5.475676 -4.399201 -1.401541,-5.68876 -4.629592 -1.19796,-4.758184 -4.809537 -1.665496,-5.106705 -4.109323 -1.315938,-5.395419 -4.31839 -0.9977242,-5.605242 -4.700668 -0.7979241,-4.551641 -4.769662 -1.286878,-4.90675 -4.087142 -0.9634191,-5.175777 -4.397717 -0.7701528,-5.340755 -4.873943 -0.6713831,-4.311177 -4.828372 -0.9276664,-4.642023 -4.361061 -0.6756523,-4.900463 -4.532856 -0.5421164,-5.089266 -4.869977 -0.4256572,2 0 -10.59351,2 0 -10.59351,2 0 -10.59351,2 0 -10.59351,2 0 -10.59351,2 0 -10.59351,2 0 -10.59351,2 0 -10.59351,2 0 -10.59351,2 0 -10.59351,2 0 -10.59351,2 0 -10.59351,2 0 -10.59351,2 0 -10.59351,2 0 -10.59351,2 0 -10.59351,2 0 -10.59351,2 0 -10.59351,2 0 -10.59351,2 0 -10.59351,2 0 -10.59351,11.110,Right Hand Closed 
-4.095308 -6.757177 -2.177842,-4.60253 -6.375982 -2.330992,-4.981035 -5.736084 -2.380481,-5.198759 -5.191381 -2.309136,-5.49119 -4.772372 -2.255253,-4.916405 -5.00756 -2.54708,-5.172382 -4.435414 -2.250584,-5.433878 -4.396587 -1.978665,-5.688635 -4.548571 -1.789469,-4.733072 -4.834026 -2.283522,-5.045051 -4.131176 -1.923927,-5.350491 -4.235597 -1.586986,-5.603046 -4.551389 -1.370899,-4.531471 -4.760428 -1.963697,-4.856338 -4.062112 -1.656816,-5.147891 -4.281452 -1.44061,-5.355357 -4.705009 -1.317576,-4.299871 -4.787282 -1.657896,-4.610251 -4.288396 -1.405474,-4.865418 -4.405447 -1.274324,-5.069992 -4.721708 -1.163347,2 0 -10.59351,2 0 -10.59351,2 0 -10.59351,2 0 -10.59351,2 0 -10.59351,2 0 -10.59351,2 0 -10.59351,2 0 -10.59351,2 0 -10.59351,2 0 -10.59351,2 0 -10.59351,2 0 -10.59351,2 0 -10.59351,2 0 -10.59351,2 0 -10.59351,2 0 -10.59351,2 0 -10.59351,2 0 -10.59351,2 0 -10.59351,2 0 -10.59351,2 0 -10.59351,11.210,
-4.147655 -6.601614 -2.545429,-4.605488 -6.325971 -2.617589,-4.983784 -5.746284 -2.605823,-5.188282 -5.217357 -2.481993,-5.454524 -4.791025 -2.358639,-4.939749 -4.946905 -2.884464,-5.188335 -4.406175 -2.575201,-5.434721 -4.384943 -2.236932,-5.668473 -4.556728 -1.990517,-4.757809 -4.780345 -2.654999,-5.050188 -4.135614 -2.282721,-5.331412 -4.226314 -1.890945,-5.550606 -4.554726 -1.62782,-4.555777 -4.700719 -2.36473,-4.855422 -4.017101 -2.05459,-5.124899 -4.196407 -1.787125,-5.309656 -4.611617 -1.62162,-4.311768 -4.696806 -2.085265,-4.592152 -4.196822 -1.827512,-4.828316 -4.30079 -1.656308,-5.016972 -4.609124 -1.500915,2 0 -10.59351,2 0 -10.59351,2 0 -10.59351,2 0 -10.59351,2 0 -10.59351,2 0 -10.59351,2 0 -10.59351,2 0 -10.59351,2 0 -10.59351,2 0 -10.59351,2 0 -10.59351,2 0 -10.59351,2 0 -10.59351,2 0 -10.59351,2 0 -10.59351,2 0 -10.59351,2 0 -10.59351,2 0 -10.59351,2 0 -10.59351,2 0 -10.59351,2 0 -10.59351,11.310,
-3.575018 -8.326433 1.838811,-4.386559 -7.094175 1.231905,-4.86347 -6.276967 1.123827,-5.233139 -5.686205 1.192296,-5.510452 -5.149307 1.293088,-4.628867 -5.305627 1.447215,-4.929176 -4.192583 1.678801,-5.243456 -4.131595 1.923694,-5.455284 -4.366539 2.084599,-4.448391 -5.277416 2.010409,-4.787134 -3.978185 2.288632,-5.189821 -4.176073 2.491076,-5.444465 -4.627359 2.578641,-4.274202 -5.476995 2.54171,-4.521753 -4.194198 2.82242,-4.938471 -4.24975 2.974009,-5.240416 -4.585359 3.04224,-4.10391 -5.877319 3.017517,-4.309399 -4.824886 3.250818,-4.659779 -4.59465 3.33636,-4.988674 -4.62642 3.417474,2 0 -10.59351,2 0 -10.59351,2 0 -10.59351,2 0 -10.59351,2 0 -10.59351,2 0 -10.59351,2 0 -10.59351,2 0 -10.59351,2 0 -10.59351,2 0 -10.59351,2 0 -10.59351,2 0 -10.59351,2 0 -10.59351,2 0 -10.59351,2 0 -10.59351,2 0 -10.59351,2 0 -10.59351,2 0 -10.59351,2 0 -10.59351,2 0 -10.59351,2 0 -10.59351,11.410,
-3.631941 -7.814094 0.6638853,-4.441751 -6.771167 0.250897,-4.886908 -5.996534 0.201573,-5.162357 -5.392772 0.3309595,-5.480579 -4.821647 0.4687733,-4.727554 -5.131938 0.1265457,-4.9795 -4.292543 0.373333,-5.27326 -4.244956 0.6024261,-5.473891 -4.469854 0.7625231,-4.522957 -5.118408 0.5640515,-4.794811 -4.009094 0.9223014,-5.132697 -4.184155 1.266208,-5.321787 -4.664382 1.468992,-4.302437 -5.245647 1.019391,-4.5147 -4.130928 1.359832,-4.83701 -4.263252 1.608072,-5.036783 -4.702546 1.70888,-4.047839 -5.491857 1.423216,-4.242723 -4.651321 1.692181,-4.516694 -4.512153 1.849761,-4.739497 -4.665459 1.978161,2 0 -10.59351,2 0 -10.59351,2 0 -10.59351,2 0 -10.59351,2 0 -10.59351,2 0 -10.59351,2 0 -10.59351,2 0 -10.59351,2 0 -10.59351,2 0 -10.59351,2 0 -10.59351,2 0 -10.59351,2 0 -10.59351,2 0 -10.59351,2 0 -10.59351,2 0 -10.59351,2 0 -10.59351,2 0 -10.59351,2 0 -10.59351,2 0 -10.59351,2 0 -10.59351,11.510,
-3.750314 -7.547103 0.5071748,-4.491533 -6.581448 0.2239948,-4.912438 -5.874027 0.1826392,-5.175898 -5.275077 0.2987154,-5.489143 -4.731763 0.4186572,-4.769381 -4.959766 -0.1113728,-5.020679 -4.256912 0.118307,-5.272765 -4.253012 0.3868605,-5.435743 -4.473938 0.5763907,-4.569637 -4.88851 0.2266939,-4.850901 -3.961419 0.5694429,-5.123761 -4.229751 0.910285,-5.264331 -4.698539 1.089407,-4.355227 -4.943407 0.6035827,-4.587989 -4.045565 0.9219835,-4.85747 -4.270423 1.153154,-4.995163 -4.724454 1.222213,-4.109674 -5.107465 0.9491869,-4.305693 -4.401376 1.206901,-4.569868 -4.412632 1.357141,-4.747822 -4.69174 1.442052,2 0 -10.59351,2 0 -10.59351,2 0 -10.59351,2 0 -10.59351,2 0 -10.59351,2 0 -10.59351,2 0 -10.59351,2 0 -10.59351,2 0 -10.59351,2 0 -10.59351,2 0 -10.59351,2 0 -10.59351,2 0 -10.59351,2 0 -10.59351,2 0 -10.59351,2 0 -10.59351,2 0 -10.59351,2 0 -10.59351,2 0 -10.59351,2 0 -10.59351,2 0 -10.59351,11.610,
-3.890379 -7.000232 -1.135542,-4.478524 -6.333316 -1.28883,-4.857632 -5.775268 -1.302771,-5.108799 -5.262905 -1.203515,-5.42996 -4.783817 -1.11992,-4.809448 -4.929051 -1.664063,-5.072044 -4.303937 -1.428706,-5.280249 -4.29169 -1.098451,-5.430502 -4.491203 -0.8440564,-4.63078 -4.811065 -1.406336,-4.897563 -4.022844 -1.057739,-5.127645 -4.225469 -0.6870354,-5.269075 -4.603111 -0.4676764,-4.418423 -4.805327 -1.085808,-4.6355 -4.041614 -0.7952582,-4.842118 -4.25107 -0.5302943,-4.966083 -4.652627 -0.3943209,-4.163069 -4.887138 -0.7861094,-4.348721 -4.285991 -0.5236236,-4.563364 -4.322827 -0.3385611,-4.721937 -4.579242 -0.2027569,2 0 -10.59351,2 0 -10.59351,2 0 -10.59351,2 0 -10.59351,2 0 -10.59351,2 0 -10.59351,2 0 -10.59351,2 0 -10.59351,2 0 -10.59351,2 0 -10.59351,2 0 -10.59351,2 0 -10.59351,2 0 -10.59351,2 0 -10.59351,2 0 -10.59351,2 0 -10.59351,2 0 -10.59351,2 0 -10.59351,2 0 -10.59351,2 0 -10.59351,2 0 -10.59351,11.710,
-3.907753 -6.903877 -1.659723,-4.424208 -6.382015 -1.756033,-4.806822 -5.76305 -1.758473,-5.048777 -5.215942 -1.653257,-5.382076 -4.748853 -1.573258,-4.759754 -4.972144 -2.091842,-5.012543 -4.382334 -1.833698,-5.231403 -4.35438 -1.50704,-5.399015 -4.527565 -1.265431,-4.583237 -4.844985 -1.869689,-4.842212 -4.102756 -1.512043,-5.087637 -4.28841 -1.15541,-5.239733 -4.63038 -0.9515409,-4.374593 -4.818756 -1.579819,-4.606586 -4.075318 -1.289848,-4.826268 -4.318124 -1.044143,-4.951284 -4.715877 -0.9226116,-4.118732 -4.866966 -1.306263,-4.341207 -4.29759 -1.057454,-4.564255 -4.394864 -0.8862233,-4.717169 -4.676586 -0.7618855,2 0 -10.59351,2 0 -10.59351,2 0 -10.59351,2 0 -10.59351,2 0 -10.59351,2 0 -10.59351,2 0 -10.59351,2 0 -10.59351,2 0 -10.59351,2 0 -10.59351,2 0 -10.59351,2 0 -10.59351,2 0 -10.59351,2 0 -10.59351,2 0 -10.59351,2 0 -10.59351,2 0 -10.59351,2 0 -10.59351,2 0 -10.59351,2 0 -10.59351,2 0 -10.59351,11.810,
-3.924089 -6.847754 -2.240441,-4.391989 -6.376863 -2.311921,-4.749376 -5.722473 -2.311934,-4.982506 -5.189382 -2.203856,-5.293103 -4.741578 -2.116752,-4.646914 -5.034852 -2.611331,-4.879589 -4.48716 -2.333761,-5.124034 -4.4599 -2.011662,-5.34072 -4.61924 -1.76974,-4.472069 -4.91956 -2.403006,-4.730737 -4.239828 -2.03907,-5.007128 -4.361266 -1.660266,-5.202359 -4.674919 -1.431464,-4.272694 -4.885217 -2.138862,-4.524435 -4.207443 -1.849358,-4.766603 -4.407101 -1.610458,-4.913048 -4.78429 -1.48653,-4.03074 -4.913365 -1.876599,-4.2712 -4.396172 -1.623625,-4.501366 -4.482091 -1.464523,-4.66358 -4.748847 -1.340397,2 0 -10.59351,2 0 -10.59351,2 0 -10.59351,2 0 -10.59351,2 0 -10.59351,2 0 -10.59351,2 0 -10.59351,2 0 -10.59351,2 0 -10.59351,2 0 -10.59351,2 0 -10.59351,2 0 -10.59351,2 0 -10.59351,2 0 -10.59351,2 0 -10.59351,2 0 -10.59351,2 0 -10.59351,2 0 -10.59351,2 0 -10.59351,2 0 -10.59351,2 0 -10.59351,11.910,
-3.929132 -6.809421 -2.345126,-4.382792 -6.345489 -2.434319,-4.731972 -5.659371 -2.477465,-4.965748 -5.11996 -2.40358,-5.267921 -4.713142 -2.329512,-4.611326 -5.048133 -2.83187,-4.838167 -4.539026 -2.589442,-5.092918 -4.473657 -2.250599,-5.327743 -4.599387 -1.980234,-4.443261 -4.917688 -2.631933,-4.703436 -4.27168 -2.320598,-4.99708 -4.338749 -1.912013,-5.212919 -4.623703 -1.642456,-4.252915 -4.869172 -2.379553,-4.51671 -4.187646 -2.12343,-4.770681 -4.380291 -1.876238,-4.925696 -4.771871 -1.741449,-4.017102 -4.881943 -2.127546,-4.275529 -4.371191 -1.874338,-4.510206 -4.481121 -1.725721,-4.671729 -4.797117 -1.615215,2 0 -10.59351,2 0 -10.59351,2 0 -10.59351,2 0 -10.59351,2 0 -10.59351,2 0 -10.59351,2 0 -10.59351,2 0 -10.59351,2 0 -10.59351,2 0 -10.59351,2 0 -10.59351,2 0 -10.59351,2 0 -10.59351,2 0 -10.59351,2 0 -10.59351,2 0 -10.59351,2 0 -10.59351,2 0 -10.59351,2 0 -10.59351,2 0 -10.59351,2 0 -10.59351,12.010,
-3.535383 -8.117264 1.381489,-4.279806 -6.890641 0.9549186,-4.736183 -6.100853 0.9095217,-5.06995 -5.459039 1.027675,-5.390084 -4.810894 1.169366,-4.507017 -5.205034 0.8349216,-4.833101 -4.212239 1.039169,-5.118776 -4.19029 1.277028,-5.277746 -4.435033 1.440037,-4.324017 -5.176839 1.28361,-4.619514 -3.962674 1.601445,-4.963276 -4.242338 1.847162,-5.163176 -4.735742 1.964478,-4.125807 -5.316118 1.736748,-4.327089 -4.133949 2.029013,-4.707165 -4.307424 2.181204,-4.962698 -4.751781 2.23211,-3.910459 -5.60556 2.153912,-4.071085 -4.671822 2.387825,-4.387053 -4.614164 2.494478,-4.651318 -4.847094 2.566232,2 0 -10.59351,2 0 -10.59351,2 0 -10.59351,2 0 -10.59351,2 0 -10.59351,2 0 -10.59351,2 0 -10.59351,2 0 -10.59351,2 0 -10.59351,2 0 -10.59351,2 0 -10.59351,2 0 -10.59351,2 0 -10.59351,2 0 -10.59351,2 0 -10.59351,2 0 -10.59351,2 0 -10.59351,2 0 -10.59351,2 0 -10.59351,2 0 -10.59351,2 0 -10.59351,12.110,
-3.435741 -8.005962 0.6369663,-4.244463 -6.882938 0.16512,-4.70245 -6.087141 0.1300116,-5.019646 -5.48398 0.2899345,-5.376612 -4.894546 0.4601021,-4.478983 -5.285367 0.1923947,-4.770054 -4.363312 0.5099201,-5.080639 -4.273536 0.7364394,-5.288628 -4.429716 0.8596365,-4.287583 -5.304336 0.6882824,-4.606736 -4.105419 1.073349,-4.978887 -4.280902 1.336856,-5.190296 -4.720455 1.437917,-4.090118 -5.477746 1.196818,-4.329374 -4.256874 1.535265,-4.705429 -4.39046 1.676935,-4.938126 -4.835655 1.681498,-3.860475 -5.777092 1.644496,-4.065348 -4.805013 1.918649,-4.378515 -4.652784 1.990275,-4.636278 -4.827411 2.021521,2 0 -10.59351,2 0 -10.59351,2 0 -10.59351,2 0 -10.59351,2 0 -10.59351,2 0 -10.59351,2 0 -10.59351,2 0 -10.59351,2 0 -10.59351,2 0 -10.59351,2 0 -10.59351,2 0 -10.59351,2 0 -10.59351,2 0 -10.59351,2 0 -10.59351,2 0 -10.59351,2 0 -10.59351,2 0 -10.59351,2 0 -10.59351,2 0 -10.59351,2 0 -10.59351,12.210,
-3.587853 -7.54238 0.2647657,-4.339613 -6.569502 -0.08845079,-4.769663 -5.884944 -0.1093737,-5.061029 -5.343523 0.06467825,-5.382856 -4.812679 0.2387622,-4.562168 -4.972677 -0.2690462,-4.824356 -4.245067 0.01625758,-5.12361 -4.248731 0.2694602,-5.317698 -4.488275 0.4264037,-4.376125 -4.93518 0.1355636,-4.680707 -3.979119 0.5045433,-5.018979 -4.219444 0.8164563,-5.184294 -4.686002 0.9824028,-4.179312 -5.033177 0.5637292,-4.438113 -4.06377 0.8972743,-4.763186 -4.31075 1.081588,-4.923726 -4.805392 1.122819,-3.962299 -5.258564 0.9513293,-4.191401 -4.49088 1.211216,-4.482017 -4.523187 1.311481,-4.673628 -4.841116 1.365248,2 0 -10.59351,2 0 -10.59351,2 0 -10.59351,2 0 -10.59351,2 0 -10.59351,2 0 -10.59351,2 0 -10.59351,2 0 -10.59351,2 0 -10.59351,2 0 -10.59351,2 0 -10.59351,2 0 -10.59351,2 0 -10.59351,2 0 -10.59351,2 0 -10.59351,2 0 -10.59351,2 0 -10.59351,2 0 -10.59351,2 0 -10.59351,2 0 -10.59351,2 0 -10.59351,12.310,Right Hand Closed 
-3.691105 -7.263864 -0.0336263,-4.355347 -6.411476 -0.3583734,-4.740177 -5.800535 -0.4024855,-5.020897 -5.286058 -0.2771843,-5.339002 -4.777483 -0.171267,-4.593394 -4.859519 -0.7404385,-4.868626 -4.230026 -0.5014505,-5.14395 -4.248971 -0.1996685,-5.335974 -4.46335 0.008988023,-4.428994 -4.749218 -0.3651907,-4.7525 -3.948512 -0.03969267,-5.070049 -4.221066 0.2801021,-5.244241 -4.658765 0.4588814,-4.238007 -4.773239 0.04974688,-4.542491 -3.976551 0.3352879,-4.841722 -4.244667 0.5431422,-5.004335 -4.699768 0.6213306,-4.024073 -4.932908 0.4432998,-4.31336 -4.331693 0.6656626,-4.594656 -4.441263 0.7638393,-4.784235 -4.774349 0.8276449,2 0 -10.59351,2 0 -10.59351,2 0 -10.59351,2 0 -10.59351,2 0 -10.59351,2 0 -10.59351,2 0 -10.59351,2 0 -10.59351,2 0 -10.59351,2 0 -10.59351,2 0 -10.59351,2 0 -10.59351,2 0 -10.59351,2 0 -10.59351,2 0 -10.59351,2 0 -10.59351,2 0 -10.59351,2 0 -10.59351,2 0 -10.59351,2 0 -10.59351,2 0 -10.59351,12.410,Right Hand Closed 
-3.828596 -6.960529 -1.393891,-4.345428 -6.339434 -1.608599,-4.701385 -5.714638 -1.599367,-4.972879 -5.235246 -1.455693,-5.283124 -4.803266 -1.325757,-4.560379 -4.849224 -1.74241,-4.790329 -4.120727 -1.433277,-5.064762 -4.171277 -1.154992,-5.246162 -4.421039 -0.9699767,-4.374678 -4.774902 -1.421176,-4.649995 -3.89568 -1.048868,-4.9732 -4.128281 -0.7675843,-5.160745 -4.523057 -0.6531622,-4.182574 -4.827775 -1.057951,-4.460537 -3.940578 -0.7372968,-4.761541 -4.214117 -0.560406,-4.925003 -4.649793 -0.5064585,-3.979722 -4.992992 -0.7125962,-4.269479 -4.383716 -0.4831643,-4.536273 -4.540792 -0.3792967,-4.696548 -4.854499 -0.3229755,2 0 -10.59351,2 0 -10.59351,2 0 -10.59351,2 0 -10.59351,2 0 -10.59351,2 0 -10.59351,2 0 -10.59351,2 0 -10.59351,2 0 -10.59351,2 0 -10.59351,2 0 -10.59351,2 0 -10.59351,2 0 -10.59351,2 0 -10.59351,2 0 -10.59351,2 0 -10.59351,2 0 -10.59351,2 0 -10.59351,2 0 -10.59351,2 0 -10.59351,2 0 -10.59351,12.510,Right Hand Closed 
-3.747168 -7.04082 -1.628249,-4.217342 -6.55195 -1.788912,-4.561859 -5.909485 -1.75594,-4.81678 -5.420412 -1.63772,-5.112941 -5.006124 -1.495787,-4.410416 -4.973139 -1.89285,-4.623139 -4.251527 -1.707449,-4.883005 -4.276203 -1.453226,-5.058569 -4.51194 -1.244679,-4.224557 -4.907545 -1.638815,-4.435459 -4.068107 -1.419806,-4.715834 -4.280344 -1.215028,-4.87092 -4.650463 -1.096364,-4.030255 -4.985864 -1.349451,-4.254892 -4.200758 -1.152308,-4.503004 -4.52159 -1.056592,-4.614281 -4.948563 -1.033421,-3.834606 -5.187387 -1.066708,-4.066893 -4.574564 -0.879444,-4.315698 -4.772193 -0.8070939,-4.446022 -5.103796 -0.7641984,2 0 -10.59351,2 0 -10.59351,2 0 -10.59351,2 0 -10.59351,2 0 -10.59351,2 0 -10.59351,2 0 -10.59351,2 0 -10.59351,2 0 -10.59351,2 0 -10.59351,2 0 -10.59351,2 0 -10.59351,2 0 -10.59351,2 0 -10.59351,2 0 -10.59351,2 0 -10.59351,2 0 -10.59351,2 0 -10.59351,2 0 -10.59351,2 0 -10.59351,2 0 -10.59351,12.610,Right Hand Closed 
-3.747168 -7.04082 -1.628249,-4.217342 -6.55195 -1.788912,-4.561859 -5.909485 -1.75594,-4.81678 -5.420412 -1.63772,-5.112941 -5.006124 -1.495787,-4.410416 -4.973139 -1.89285,-4.623139 -4.251527 -1.707449,-4.883005 -4.276203 -1.453226,-5.058569 -4.51194 -1.244679,-4.224557 -4.907545 -1.638815,-4.435459 -4.068107 -1.419806,-4.715834 -4.280344 -1.215028,-4.87092 -4.650463 -1.096364,-4.030255 -4.985864 -1.349451,-4.254892 -4.200758 -1.152308,-4.503004 -4.52159 -1.056592,-4.614281 -4.948563 -1.033421,-3.834606 -5.187387 -1.066708,-4.066893 -4.574564 -0.879444,-4.315698 -4.772193 -0.8070939,-4.446022 -5.103796 -0.7641984,2 0 -10.59351,2 0 -10.59351,2 0 -10.59351,2 0 -10.59351,2 0 -10.59351,2 0 -10.59351,2 0 -10.59351,2 0 -10.59351,2 0 -10.59351,2 0 -10.59351,2 0 -10.59351,2 0 -10.59351,2 0 -10.59351,2 0 -10.59351,2 0 -10.59351,2 0 -10.59351,2 0 -10.59351,2 0 -10.59351,2 0 -10.59351,2 0 -10.59351,2 0 -10.59351,12.710,Right Hand Closed 
-3.747168 -7.04082 -1.628249,-4.217342 -6.55195 -1.788912,-4.561859 -5.909485 -1.75594,-4.81678 -5.420412 -1.63772,-5.112941 -5.006124 -1.495787,-4.410416 -4.973139 -1.89285,-4.623139 -4.251527 -1.707449,-4.883005 -4.276203 -1.453226,-5.058569 -4.51194 -1.244679,-4.224557 -4.907545 -1.638815,-4.435459 -4.068107 -1.419806,-4.715834 -4.280344 -1.215028,-4.87092 -4.650463 -1.096364,-4.030255 -4.985864 -1.349451,-4.254892 -4.200758 -1.152308,-4.503004 -4.52159 -1.056592,-4.614281 -4.948563 -1.033421,-3.834606 -5.187387 -1.066708,-4.066893 -4.574564 -0.879444,-4.315698 -4.772193 -0.8070939,-4.446022 -5.103796 -0.7641984,2 0 -10.59351,2 0 -10.59351,2 0 -10.59351,2 0 -10.59351,2 0 -10.59351,2 0 -10.59351,2 0 -10.59351,2 0 -10.59351,2 0 -10.59351,2 0 -10.59351,2 0 -10.59351,2 0 -10.59351,2 0 -10.59351,2 0 -10.59351,2 0 -10.59351,2 0 -10.59351,2 0 -10.59351,2 0 -10.59351,2 0 -10.59351,2 0 -10.59351,2 0 -10.59351,12.810,Right Hand Closed 
-3.747168 -7.04082 -1.628249,-4.217342 -6.55195 -1.788912,-4.561859 -5.909485 -1.75594,-4.81678 -5.420412 -1.63772,-5.112941 -5.006124 -1.495787,-4.410416 -4.973139 -1.89285,-4.623139 -4.251527 -1.707449,-4.883005 -4.276203 -1.453226,-5.058569 -4.51194 -1.244679,-4.224557 -4.907545 -1.638815,-4.435459 -4.068107 -1.419806,-4.715834 -4.280344 -1.215028,-4.87092 -4.650463 -1.096364,-4.030255 -4.985864 -1.349451,-4.254892 -4.200758 -1.152308,-4.503004 -4.52159 -1.056592,-4.614281 -4.948563 -1.033421,-3.834606 -5.187387 -1.066708,-4.066893 -4.574564 -0.879444,-4.315698 -4.772193 -0.8070939,-4.446022 -5.103796 -0.7641984,2 0 -10.59351,2 0 -10.59351,2 0 -10.59351,2 0 -10.59351,2 0 -10.59351,2 0 -10.59351,2 0 -10.59351,2 0 -10.59351,2 0 -10.59351,2 0 -10.59351,2 0 -10.59351,2 0 -10.59351,2 0 -10.59351,2 0 -10.59351,2 0 -10.59351,2 0 -10.59351,2 0 -10.59351,2 0 -10.59351,2 0 -10.59351,2 0 -10.59351,2 0 -10.59351,12.910,Right Hand Closed 
-3.747168 -7.04082 -1.628249,-4.217342 -6.55195 -1.788912,-4.561859 -5.909485 -1.75594,-4.81678 -5.420412 -1.63772,-5.112941 -5.006124 -1.495787,-4.410416 -4.973139 -1.89285,-4.623139 -4.251527 -1.707449,-4.883005 -4.276203 -1.453226,-5.058569 -4.51194 -1.244679,-4.224557 -4.907545 -1.638815,-4.435459 -4.068107 -1.419806,-4.715834 -4.280344 -1.215028,-4.87092 -4.650463 -1.096364,-4.030255 -4.985864 -1.349451,-4.254892 -4.200758 -1.152308,-4.503004 -4.52159 -1.056592,-4.614281 -4.948563 -1.033421,-3.834606 -5.187387 -1.066708,-4.066893 -4.574564 -0.879444,-4.315698 -4.772193 -0.8070939,-4.446022 -5.103796 -0.7641984,2 0 -10.59351,2 0 -10.59351,2 0 -10.59351,2 0 -10.59351,2 0 -10.59351,2 0 -10.59351,2 0 -10.59351,2 0 -10.59351,2 0 -10.59351,2 0 -10.59351,2 0 -10.59351,2 0 -10.59351,2 0 -10.59351,2 0 -10.59351,2 0 -10.59351,2 0 -10.59351,2 0 -10.59351,2 0 -10.59351,2 0 -10.59351,2 0 -10.59351,2 0 -10.59351,13.010,Right Hand Closed 
-3.747168 -7.04082 -1.628249,-4.217342 -6.55195 -1.788912,-4.561859 -5.909485 -1.75594,-4.81678 -5.420412 -1.63772,-5.112941 -5.006124 -1.495787,-4.410416 -4.973139 -1.89285,-4.623139 -4.251527 -1.707449,-4.883005 -4.276203 -1.453226,-5.058569 -4.51194 -1.244679,-4.224557 -4.907545 -1.638815,-4.435459 -4.068107 -1.419806,-4.715834 -4.280344 -1.215028,-4.87092 -4.650463 -1.096364,-4.030255 -4.985864 -1.349451,-4.254892 -4.200758 -1.152308,-4.503004 -4.52159 -1.056592,-4.614281 -4.948563 -1.033421,-3.834606 -5.187387 -1.066708,-4.066893 -4.574564 -0.879444,-4.315698 -4.772193 -0.8070939,-4.446022 -5.103796 -0.7641984,2 0 -10.59351,2 0 -10.59351,2 0 -10.59351,2 0 -10.59351,2 0 -10.59351,2 0 -10.59351,2 0 -10.59351,2 0 -10.59351,2 0 -10.59351,2 0 -10.59351,2 0 -10.59351,2 0 -10.59351,2 0 -10.59351,2 0 -10.59351,2 0 -10.59351,2 0 -10.59351,2 0 -10.59351,2 0 -10.59351,2 0 -10.59351,2 0 -10.59351,2 0 -10.59351,13.110,Right Hand Closed 
