TiagoOliveira98/HandTracking/DataLogging/JointData/Logs(1642645856)_George_Calculator.csv
WRIST,THUMB_CMC,THUMB_MCP,THUMB_IP,THUMB_TIP,INDEX_FINGER_MCP,INDEX_FINGER_PIP,INDEX_FINGER_DIP,INDEX_FINGER_TIP,MIDDLE_FINGER_MCP,MIDDLE_FINGER_PIP,MIDDLE_FINGER_DIP,MIDDLE_FINGER_TIP,RING_FINGER_MCP,RING_FINGER_PIP,RING_FINGER_DIP,RING_FINGER_TIP,PINKY_MCP,PINKY_PIP,PINKY_DIP,PINKY_TIP,WRIST2,THUMB_CMC2,THUMB_MCP2,THUMB_IP2,THUMB_TIP2,INDEX_FINGER_MCP2,INDEX_FINGER_PIP2,INDEX_FINGER_DIP2,INDEX_FINGER_TIP2,MIDDLE_FINGER_MCP2,MIDDLE_FINGER_PIP2,MIDDLE_FINGER_DIP2,MIDDLE_FINGER_TIP2,RING_FINGER_MCP2,RING_FINGER_PIP2,RING_FINGER_DIP2,RING_FINGER_TIP2,PINKY_MCP2,PINKY_PIP2,PINKY_DIP2,PINKY_TIP2,Timestamp,Event
10 0 0,10 7.47 0,10 7.47 0,10 7.47 0,10 7.47 0,10 7.47 0,10 7.47 0,10 7.47 0,10 7.47 0,10 7.47 0,10 7.47 0,10 7.47 0,10 7.47 0,10 7.47 0,10 7.47 0,10 7.47 0,10 7.47 0,10 7.47 0,10 7.47 0,10 7.47 0,10 7.47 0,10 0 0,10 7.47 0,10 7.47 0,10 7.47 0,10 7.47 0,10 7.47 0,10 7.47 0,10 7.47 0,10 7.47 0,10 7.47 0,10 7.47 0,10 7.47 0,10 7.47 0,10 7.47 0,10 7.47 0,10 7.47 0,10 7.47 0,10 7.47 0,10 7.47 0,10 7.47 0,10 7.47 0,0.010,
2 0 -12.91779,2 0 -12.91779,2 0 -12.91779,2 0 -12.91779,2 0 -12.91779,2 0 -12.91779,2 0 -12.91779,2 0 -12.91779,2 0 -12.91779,2 0 -12.91779,2 0 -12.91779,2 0 -12.91779,2 0 -12.91779,2 0 -12.91779,2 0 -12.91779,2 0 -12.91779,2 0 -12.91779,2 0 -12.91779,2 0 -12.91779,2 0 -12.91779,2 0 -12.91779,2 0 -11.55708,2 0 -11.55708,2 0 -11.55708,2 0 -11.55708,2 0 -11.55708,2 0 -11.55708,2 0 -11.55708,2 0 -11.55708,2 0 -11.55708,2 0 -11.55708,2 0 -11.55708,2 0 -11.55708,2 0 -11.55708,2 0 -11.55708,2 0 -11.55708,2 0 -11.55708,2 0 -11.55708,2 0 -11.55708,2 0 -11.55708,2 0 -11.55708,2 0 -11.55708,0.110,
2 0 -12.91779,2 0 -12.91779,2 0 -12.91779,2 0 -12.91779,2 0 -12.91779,2 0 -12.91779,2 0 -12.91779,2 0 -12.91779,2 0 -12.91779,2 0 -12.91779,2 0 -12.91779,2 0 -12.91779,2 0 -12.91779,2 0 -12.91779,2 0 -12.91779,2 0 -12.91779,2 0 -12.91779,2 0 -12.91779,2 0 -12.91779,2 0 -12.91779,2 0 -12.91779,2 0 -11.55708,2 0 -11.55708,2 0 -11.55708,2 0 -11.55708,2 0 -11.55708,2 0 -11.55708,2 0 -11.55708,2 0 -11.55708,2 0 -11.55708,2 0 -11.55708,2 0 -11.55708,2 0 -11.55708,2 0 -11.55708,2 0 -11.55708,2 0 -11.55708,2 0 -11.55708,2 0 -11.55708,2 0 -11.55708,2 0 -11.55708,2 0 -11.55708,2 0 -11.55708,0.210,
2 0 -12.91779,2 0 -12.91779,2 0 -12.91779,2 0 -12.91779,2 0 -12.91779,2 0 -12.91779,2 0 -12.91779,2 0 -12.91779,2 0 -12.91779,2 0 -12.91779,2 0 -12.91779,2 0 -12.91779,2 0 -12.91779,2 0 -12.91779,2 0 -12.91779,2 0 -12.91779,2 0 -12.91779,2 0 -12.91779,2 0 -12.91779,2 0 -12.91779,2 0 -12.91779,2 0 -11.55708,2 0 -11.55708,2 0 -11.55708,2 0 -11.55708,2 0 -11.55708,2 0 -11.55708,2 0 -11.55708,2 0 -11.55708,2 0 -11.55708,2 0 -11.55708,2 0 -11.55708,2 0 -11.55708,2 0 -11.55708,2 0 -11.55708,2 0 -11.55708,2 0 -11.55708,2 0 -11.55708,2 0 -11.55708,2 0 -11.55708,2 0 -11.55708,2 0 -11.55708,0.310,
2 0 -12.91779,2 0 -12.91779,2 0 -12.91779,2 0 -12.91779,2 0 -12.91779,2 0 -12.91779,2 0 -12.91779,2 0 -12.91779,2 0 -12.91779,2 0 -12.91779,2 0 -12.91779,2 0 -12.91779,2 0 -12.91779,2 0 -12.91779,2 0 -12.91779,2 0 -12.91779,2 0 -12.91779,2 0 -12.91779,2 0 -12.91779,2 0 -12.91779,2 0 -12.91779,2 0 -11.55708,2 0 -11.55708,2 0 -11.55708,2 0 -11.55708,2 0 -11.55708,2 0 -11.55708,2 0 -11.55708,2 0 -11.55708,2 0 -11.55708,2 0 -11.55708,2 0 -11.55708,2 0 -11.55708,2 0 -11.55708,2 0 -11.55708,2 0 -11.55708,2 0 -11.55708,2 0 -11.55708,2 0 -11.55708,2 0 -11.55708,2 0 -11.55708,2 0 -11.55708,0.410,
2 0 -12.91779,2 0 -12.91779,2 0 -12.91779,2 0 -12.91779,2 0 -12.91779,2 0 -12.91779,2 0 -12.91779,2 0 -12.91779,2 0 -12.91779,2 0 -12.91779,2 0 -12.91779,2 0 -12.91779,2 0 -12.91779,2 0 -12.91779,2 0 -12.91779,2 0 -12.91779,2 0 -12.91779,2 0 -12.91779,2 0 -12.91779,2 0 -12.91779,2 0 -12.91779,2 0 -11.55708,2 0 -11.55708,2 0 -11.55708,2 0 -11.55708,2 0 -11.55708,2 0 -11.55708,2 0 -11.55708,2 0 -11.55708,2 0 -11.55708,2 0 -11.55708,2 0 -11.55708,2 0 -11.55708,2 0 -11.55708,2 0 -11.55708,2 0 -11.55708,2 0 -11.55708,2 0 -11.55708,2 0 -11.55708,2 0 -11.55708,2 0 -11.55708,2 0 -11.55708,0.510,
2 0 -12.91779,2 0 -12.91779,2 0 -12.91779,2 0 -12.91779,2 0 -12.91779,2 0 -12.91779,2 0 -12.91779,2 0 -12.91779,2 0 -12.91779,2 0 -12.91779,2 0 -12.91779,2 0 -12.91779,2 0 -12.91779,2 0 -12.91779,2 0 -12.91779,2 0 -12.91779,2 0 -12.91779,2 0 -12.91779,2 0 -12.91779,2 0 -12.91779,2 0 -12.91779,2 0 -11.55708,2 0 -11.55708,2 0 -11.55708,2 0 -11.55708,2 0 -11.55708,2 0 -11.55708,2 0 -11.55708,2 0 -11.55708,2 0 -11.55708,2 0 -11.55708,2 0 -11.55708,2 0 -11.55708,2 0 -11.55708,2 0 -11.55708,2 0 -11.55708,2 0 -11.55708,2 0 -11.55708,2 0 -11.55708,2 0 -11.55708,2 0 -11.55708,2 0 -11.55708,0.610,
2 0 -12.91779,2 0 -12.91779,2 0 -12.91779,2 0 -12.91779,2 0 -12.91779,2 0 -12.91779,2 0 -12.91779,2 0 -12.91779,2 0 -12.91779,2 0 -12.91779,2 0 -12.91779,2 0 -12.91779,2 0 -12.91779,2 0 -12.91779,2 0 -12.91779,2 0 -12.91779,2 0 -12.91779,2 0 -12.91779,2 0 -12.91779,2 0 -12.91779,2 0 -12.91779,2 0 -11.55708,2 0 -11.55708,2 0 -11.55708,2 0 -11.55708,2 0 -11.55708,2 0 -11.55708,2 0 -11.55708,2 0 -11.55708,2 0 -11.55708,2 0 -11.55708,2 0 -11.55708,2 0 -11.55708,2 0 -11.55708,2 0 -11.55708,2 0 -11.55708,2 0 -11.55708,2 0 -11.55708,2 0 -11.55708,2 0 -11.55708,2 0 -11.55708,2 0 -11.55708,0.710,
2 0 -12.91779,2 0 -12.91779,2 0 -12.91779,2 0 -12.91779,2 0 -12.91779,2 0 -12.91779,2 0 -12.91779,2 0 -12.91779,2 0 -12.91779,2 0 -12.91779,2 0 -12.91779,2 0 -12.91779,2 0 -12.91779,2 0 -12.91779,2 0 -12.91779,2 0 -12.91779,2 0 -12.91779,2 0 -12.91779,2 0 -12.91779,2 0 -12.91779,2 0 -12.91779,2 0 -11.55708,2 0 -11.55708,2 0 -11.55708,2 0 -11.55708,2 0 -11.55708,2 0 -11.55708,2 0 -11.55708,2 0 -11.55708,2 0 -11.55708,2 0 -11.55708,2 0 -11.55708,2 0 -11.55708,2 0 -11.55708,2 0 -11.55708,2 0 -11.55708,2 0 -11.55708,2 0 -11.55708,2 0 -11.55708,2 0 -11.55708,2 0 -11.55708,2 0 -11.55708,0.810,
2 0 -12.91779,2 0 -12.91779,2 0 -12.91779,2 0 -12.91779,2 0 -12.91779,2 0 -12.91779,2 0 -12.91779,2 0 -12.91779,2 0 -12.91779,2 0 -12.91779,2 0 -12.91779,2 0 -12.91779,2 0 -12.91779,2 0 -12.91779,2 0 -12.91779,2 0 -12.91779,2 0 -12.91779,2 0 -12.91779,2 0 -12.91779,2 0 -12.91779,2 0 -12.91779,2 0 -11.55708,2 0 -11.55708,2 0 -11.55708,2 0 -11.55708,2 0 -11.55708,2 0 -11.55708,2 0 -11.55708,2 0 -11.55708,2 0 -11.55708,2 0 -11.55708,2 0 -11.55708,2 0 -11.55708,2 0 -11.55708,2 0 -11.55708,2 0 -11.55708,2 0 -11.55708,2 0 -11.55708,2 0 -11.55708,2 0 -11.55708,2 0 -11.55708,2 0 -11.55708,0.910,
2 0 -12.91779,2 0 -12.91779,2 0 -12.91779,2 0 -12.91779,2 0 -12.91779,2 0 -12.91779,2 0 -12.91779,2 0 -12.91779,2 0 -12.91779,2 0 -12.91779,2 0 -12.91779,2 0 -12.91779,2 0 -12.91779,2 0 -12.91779,2 0 -12.91779,2 0 -12.91779,2 0 -12.91779,2 0 -12.91779,2 0 -12.91779,2 0 -12.91779,2 0 -12.91779,2 0 -11.55708,2 0 -11.55708,2 0 -11.55708,2 0 -11.55708,2 0 -11.55708,2 0 -11.55708,2 0 -11.55708,2 0 -11.55708,2 0 -11.55708,2 0 -11.55708,2 0 -11.55708,2 0 -11.55708,2 0 -11.55708,2 0 -11.55708,2 0 -11.55708,2 0 -11.55708,2 0 -11.55708,2 0 -11.55708,2 0 -11.55708,2 0 -11.55708,2 0 -11.55708,1.010,
2 0 -12.91779,2 0 -12.91779,2 0 -12.91779,2 0 -12.91779,2 0 -12.91779,2 0 -12.91779,2 0 -12.91779,2 0 -12.91779,2 0 -12.91779,2 0 -12.91779,2 0 -12.91779,2 0 -12.91779,2 0 -12.91779,2 0 -12.91779,2 0 -12.91779,2 0 -12.91779,2 0 -12.91779,2 0 -12.91779,2 0 -12.91779,2 0 -12.91779,2 0 -12.91779,2 0 -11.55708,2 0 -11.55708,2 0 -11.55708,2 0 -11.55708,2 0 -11.55708,2 0 -11.55708,2 0 -11.55708,2 0 -11.55708,2 0 -11.55708,2 0 -11.55708,2 0 -11.55708,2 0 -11.55708,2 0 -11.55708,2 0 -11.55708,2 0 -11.55708,2 0 -11.55708,2 0 -11.55708,2 0 -11.55708,2 0 -11.55708,2 0 -11.55708,2 0 -11.55708,1.110,
2 0 -12.91779,2 0 -12.91779,2 0 -12.91779,2 0 -12.91779,2 0 -12.91779,2 0 -12.91779,2 0 -12.91779,2 0 -12.91779,2 0 -12.91779,2 0 -12.91779,2 0 -12.91779,2 0 -12.91779,2 0 -12.91779,2 0 -12.91779,2 0 -12.91779,2 0 -12.91779,2 0 -12.91779,2 0 -12.91779,2 0 -12.91779,2 0 -12.91779,2 0 -12.91779,2 0 -11.55708,2 0 -11.55708,2 0 -11.55708,2 0 -11.55708,2 0 -11.55708,2 0 -11.55708,2 0 -11.55708,2 0 -11.55708,2 0 -11.55708,2 0 -11.55708,2 0 -11.55708,2 0 -11.55708,2 0 -11.55708,2 0 -11.55708,2 0 -11.55708,2 0 -11.55708,2 0 -11.55708,2 0 -11.55708,2 0 -11.55708,2 0 -11.55708,2 0 -11.55708,1.210,
2 0 -12.91779,2 0 -12.91779,2 0 -12.91779,2 0 -12.91779,2 0 -12.91779,2 0 -12.91779,2 0 -12.91779,2 0 -12.91779,2 0 -12.91779,2 0 -12.91779,2 0 -12.91779,2 0 -12.91779,2 0 -12.91779,2 0 -12.91779,2 0 -12.91779,2 0 -12.91779,2 0 -12.91779,2 0 -12.91779,2 0 -12.91779,2 0 -12.91779,2 0 -12.91779,2 0 -11.55708,2 0 -11.55708,2 0 -11.55708,2 0 -11.55708,2 0 -11.55708,2 0 -11.55708,2 0 -11.55708,2 0 -11.55708,2 0 -11.55708,2 0 -11.55708,2 0 -11.55708,2 0 -11.55708,2 0 -11.55708,2 0 -11.55708,2 0 -11.55708,2 0 -11.55708,2 0 -11.55708,2 0 -11.55708,2 0 -11.55708,2 0 -11.55708,2 0 -11.55708,1.310,
2 0 -12.91779,2 0 -12.91779,2 0 -12.91779,2 0 -12.91779,2 0 -12.91779,2 0 -12.91779,2 0 -12.91779,2 0 -12.91779,2 0 -12.91779,2 0 -12.91779,2 0 -12.91779,2 0 -12.91779,2 0 -12.91779,2 0 -12.91779,2 0 -12.91779,2 0 -12.91779,2 0 -12.91779,2 0 -12.91779,2 0 -12.91779,2 0 -12.91779,2 0 -12.91779,2 0 -11.55708,2 0 -11.55708,2 0 -11.55708,2 0 -11.55708,2 0 -11.55708,2 0 -11.55708,2 0 -11.55708,2 0 -11.55708,2 0 -11.55708,2 0 -11.55708,2 0 -11.55708,2 0 -11.55708,2 0 -11.55708,2 0 -11.55708,2 0 -11.55708,2 0 -11.55708,2 0 -11.55708,2 0 -11.55708,2 0 -11.55708,2 0 -11.55708,2 0 -11.55708,1.410,
2 0 -12.91779,2 0 -12.91779,2 0 -12.91779,2 0 -12.91779,2 0 -12.91779,2 0 -12.91779,2 0 -12.91779,2 0 -12.91779,2 0 -12.91779,2 0 -12.91779,2 0 -12.91779,2 0 -12.91779,2 0 -12.91779,2 0 -12.91779,2 0 -12.91779,2 0 -12.91779,2 0 -12.91779,2 0 -12.91779,2 0 -12.91779,2 0 -12.91779,2 0 -12.91779,2 0 -11.55708,2 0 -11.55708,2 0 -11.55708,2 0 -11.55708,2 0 -11.55708,2 0 -11.55708,2 0 -11.55708,2 0 -11.55708,2 0 -11.55708,2 0 -11.55708,2 0 -11.55708,2 0 -11.55708,2 0 -11.55708,2 0 -11.55708,2 0 -11.55708,2 0 -11.55708,2 0 -11.55708,2 0 -11.55708,2 0 -11.55708,2 0 -11.55708,2 0 -11.55708,1.510,
2 0 -12.91779,2 0 -12.91779,2 0 -12.91779,2 0 -12.91779,2 0 -12.91779,2 0 -12.91779,2 0 -12.91779,2 0 -12.91779,2 0 -12.91779,2 0 -12.91779,2 0 -12.91779,2 0 -12.91779,2 0 -12.91779,2 0 -12.91779,2 0 -12.91779,2 0 -12.91779,2 0 -12.91779,2 0 -12.91779,2 0 -12.91779,2 0 -12.91779,2 0 -12.91779,2 0 -11.55708,2 0 -11.55708,2 0 -11.55708,2 0 -11.55708,2 0 -11.55708,2 0 -11.55708,2 0 -11.55708,2 0 -11.55708,2 0 -11.55708,2 0 -11.55708,2 0 -11.55708,2 0 -11.55708,2 0 -11.55708,2 0 -11.55708,2 0 -11.55708,2 0 -11.55708,2 0 -11.55708,2 0 -11.55708,2 0 -11.55708,2 0 -11.55708,2 0 -11.55708,1.610,
2 0 -12.91779,2 0 -12.91779,2 0 -12.91779,2 0 -12.91779,2 0 -12.91779,2 0 -12.91779,2 0 -12.91779,2 0 -12.91779,2 0 -12.91779,2 0 -12.91779,2 0 -12.91779,2 0 -12.91779,2 0 -12.91779,2 0 -12.91779,2 0 -12.91779,2 0 -12.91779,2 0 -12.91779,2 0 -12.91779,2 0 -12.91779,2 0 -12.91779,2 0 -12.91779,2 0 -11.55708,2 0 -11.55708,2 0 -11.55708,2 0 -11.55708,2 0 -11.55708,2 0 -11.55708,2 0 -11.55708,2 0 -11.55708,2 0 -11.55708,2 0 -11.55708,2 0 -11.55708,2 0 -11.55708,2 0 -11.55708,2 0 -11.55708,2 0 -11.55708,2 0 -11.55708,2 0 -11.55708,2 0 -11.55708,2 0 -11.55708,2 0 -11.55708,2 0 -11.55708,1.710,
2 0 -12.91779,2 0 -12.91779,2 0 -12.91779,2 0 -12.91779,2 0 -12.91779,2 0 -12.91779,2 0 -12.91779,2 0 -12.91779,2 0 -12.91779,2 0 -12.91779,2 0 -12.91779,2 0 -12.91779,2 0 -12.91779,2 0 -12.91779,2 0 -12.91779,2 0 -12.91779,2 0 -12.91779,2 0 -12.91779,2 0 -12.91779,2 0 -12.91779,2 0 -12.91779,2 0 -11.55708,2 0 -11.55708,2 0 -11.55708,2 0 -11.55708,2 0 -11.55708,2 0 -11.55708,2 0 -11.55708,2 0 -11.55708,2 0 -11.55708,2 0 -11.55708,2 0 -11.55708,2 0 -11.55708,2 0 -11.55708,2 0 -11.55708,2 0 -11.55708,2 0 -11.55708,2 0 -11.55708,2 0 -11.55708,2 0 -11.55708,2 0 -11.55708,2 0 -11.55708,1.810,
2 0 -12.91779,2 0 -12.91779,2 0 -12.91779,2 0 -12.91779,2 0 -12.91779,2 0 -12.91779,2 0 -12.91779,2 0 -12.91779,2 0 -12.91779,2 0 -12.91779,2 0 -12.91779,2 0 -12.91779,2 0 -12.91779,2 0 -12.91779,2 0 -12.91779,2 0 -12.91779,2 0 -12.91779,2 0 -12.91779,2 0 -12.91779,2 0 -12.91779,2 0 -12.91779,2 0 -11.55708,2 0 -11.55708,2 0 -11.55708,2 0 -11.55708,2 0 -11.55708,2 0 -11.55708,2 0 -11.55708,2 0 -11.55708,2 0 -11.55708,2 0 -11.55708,2 0 -11.55708,2 0 -11.55708,2 0 -11.55708,2 0 -11.55708,2 0 -11.55708,2 0 -11.55708,2 0 -11.55708,2 0 -11.55708,2 0 -11.55708,2 0 -11.55708,2 0 -11.55708,1.910,
2 0 -12.91779,2 0 -12.91779,2 0 -12.91779,2 0 -12.91779,2 0 -12.91779,2 0 -12.91779,2 0 -12.91779,2 0 -12.91779,2 0 -12.91779,2 0 -12.91779,2 0 -12.91779,2 0 -12.91779,2 0 -12.91779,2 0 -12.91779,2 0 -12.91779,2 0 -12.91779,2 0 -12.91779,2 0 -12.91779,2 0 -12.91779,2 0 -12.91779,2 0 -12.91779,2 0 -11.55708,2 0 -11.55708,2 0 -11.55708,2 0 -11.55708,2 0 -11.55708,2 0 -11.55708,2 0 -11.55708,2 0 -11.55708,2 0 -11.55708,2 0 -11.55708,2 0 -11.55708,2 0 -11.55708,2 0 -11.55708,2 0 -11.55708,2 0 -11.55708,2 0 -11.55708,2 0 -11.55708,2 0 -11.55708,2 0 -11.55708,2 0 -11.55708,2 0 -11.55708,2.010,
2 0 -12.91779,2 0 -12.91779,2 0 -12.91779,2 0 -12.91779,2 0 -12.91779,2 0 -12.91779,2 0 -12.91779,2 0 -12.91779,2 0 -12.91779,2 0 -12.91779,2 0 -12.91779,2 0 -12.91779,2 0 -12.91779,2 0 -12.91779,2 0 -12.91779,2 0 -12.91779,2 0 -12.91779,2 0 -12.91779,2 0 -12.91779,2 0 -12.91779,2 0 -12.91779,2 0 -11.55708,2 0 -11.55708,2 0 -11.55708,2 0 -11.55708,2 0 -11.55708,2 0 -11.55708,2 0 -11.55708,2 0 -11.55708,2 0 -11.55708,2 0 -11.55708,2 0 -11.55708,2 0 -11.55708,2 0 -11.55708,2 0 -11.55708,2 0 -11.55708,2 0 -11.55708,2 0 -11.55708,2 0 -11.55708,2 0 -11.55708,2 0 -11.55708,2 0 -11.55708,2.110,
2 0 -12.91779,2 0 -12.91779,2 0 -12.91779,2 0 -12.91779,2 0 -12.91779,2 0 -12.91779,2 0 -12.91779,2 0 -12.91779,2 0 -12.91779,2 0 -12.91779,2 0 -12.91779,2 0 -12.91779,2 0 -12.91779,2 0 -12.91779,2 0 -12.91779,2 0 -12.91779,2 0 -12.91779,2 0 -12.91779,2 0 -12.91779,2 0 -12.91779,2 0 -12.91779,2 0 -11.55708,2 0 -11.55708,2 0 -11.55708,2 0 -11.55708,2 0 -11.55708,2 0 -11.55708,2 0 -11.55708,2 0 -11.55708,2 0 -11.55708,2 0 -11.55708,2 0 -11.55708,2 0 -11.55708,2 0 -11.55708,2 0 -11.55708,2 0 -11.55708,2 0 -11.55708,2 0 -11.55708,2 0 -11.55708,2 0 -11.55708,2 0 -11.55708,2 0 -11.55708,2.210,
2 0 -12.91779,2 0 -12.91779,2 0 -12.91779,2 0 -12.91779,2 0 -12.91779,2 0 -12.91779,2 0 -12.91779,2 0 -12.91779,2 0 -12.91779,2 0 -12.91779,2 0 -12.91779,2 0 -12.91779,2 0 -12.91779,2 0 -12.91779,2 0 -12.91779,2 0 -12.91779,2 0 -12.91779,2 0 -12.91779,2 0 -12.91779,2 0 -12.91779,2 0 -12.91779,2 0 -11.55708,2 0 -11.55708,2 0 -11.55708,2 0 -11.55708,2 0 -11.55708,2 0 -11.55708,2 0 -11.55708,2 0 -11.55708,2 0 -11.55708,2 0 -11.55708,2 0 -11.55708,2 0 -11.55708,2 0 -11.55708,2 0 -11.55708,2 0 -11.55708,2 0 -11.55708,2 0 -11.55708,2 0 -11.55708,2 0 -11.55708,2 0 -11.55708,2 0 -11.55708,2.310,
2 0 -12.91779,2 0 -12.91779,2 0 -12.91779,2 0 -12.91779,2 0 -12.91779,2 0 -12.91779,2 0 -12.91779,2 0 -12.91779,2 0 -12.91779,2 0 -12.91779,2 0 -12.91779,2 0 -12.91779,2 0 -12.91779,2 0 -12.91779,2 0 -12.91779,2 0 -12.91779,2 0 -12.91779,2 0 -12.91779,2 0 -12.91779,2 0 -12.91779,2 0 -12.91779,2 0 -11.55708,2 0 -11.55708,2 0 -11.55708,2 0 -11.55708,2 0 -11.55708,2 0 -11.55708,2 0 -11.55708,2 0 -11.55708,2 0 -11.55708,2 0 -11.55708,2 0 -11.55708,2 0 -11.55708,2 0 -11.55708,2 0 -11.55708,2 0 -11.55708,2 0 -11.55708,2 0 -11.55708,2 0 -11.55708,2 0 -11.55708,2 0 -11.55708,2 0 -11.55708,2.410,
2 0 -12.91779,2 0 -12.91779,2 0 -12.91779,2 0 -12.91779,2 0 -12.91779,2 0 -12.91779,2 0 -12.91779,2 0 -12.91779,2 0 -12.91779,2 0 -12.91779,2 0 -12.91779,2 0 -12.91779,2 0 -12.91779,2 0 -12.91779,2 0 -12.91779,2 0 -12.91779,2 0 -12.91779,2 0 -12.91779,2 0 -12.91779,2 0 -12.91779,2 0 -12.91779,2 0 -11.55708,2 0 -11.55708,2 0 -11.55708,2 0 -11.55708,2 0 -11.55708,2 0 -11.55708,2 0 -11.55708,2 0 -11.55708,2 0 -11.55708,2 0 -11.55708,2 0 -11.55708,2 0 -11.55708,2 0 -11.55708,2 0 -11.55708,2 0 -11.55708,2 0 -11.55708,2 0 -11.55708,2 0 -11.55708,2 0 -11.55708,2 0 -11.55708,2 0 -11.55708,2.510,
2 0 -12.91779,2 0 -12.91779,2 0 -12.91779,2 0 -12.91779,2 0 -12.91779,2 0 -12.91779,2 0 -12.91779,2 0 -12.91779,2 0 -12.91779,2 0 -12.91779,2 0 -12.91779,2 0 -12.91779,2 0 -12.91779,2 0 -12.91779,2 0 -12.91779,2 0 -12.91779,2 0 -12.91779,2 0 -12.91779,2 0 -12.91779,2 0 -12.91779,2 0 -12.91779,2 0 -11.55708,2 0 -11.55708,2 0 -11.55708,2 0 -11.55708,2 0 -11.55708,2 0 -11.55708,2 0 -11.55708,2 0 -11.55708,2 0 -11.55708,2 0 -11.55708,2 0 -11.55708,2 0 -11.55708,2 0 -11.55708,2 0 -11.55708,2 0 -11.55708,2 0 -11.55708,2 0 -11.55708,2 0 -11.55708,2 0 -11.55708,2 0 -11.55708,2 0 -11.55708,2.610,
2 0 -12.91779,2 0 -12.91779,2 0 -12.91779,2 0 -12.91779,2 0 -12.91779,2 0 -12.91779,2 0 -12.91779,2 0 -12.91779,2 0 -12.91779,2 0 -12.91779,2 0 -12.91779,2 0 -12.91779,2 0 -12.91779,2 0 -12.91779,2 0 -12.91779,2 0 -12.91779,2 0 -12.91779,2 0 -12.91779,2 0 -12.91779,2 0 -12.91779,2 0 -12.91779,2 0 -11.55708,2 0 -11.55708,2 0 -11.55708,2 0 -11.55708,2 0 -11.55708,2 0 -11.55708,2 0 -11.55708,2 0 -11.55708,2 0 -11.55708,2 0 -11.55708,2 0 -11.55708,2 0 -11.55708,2 0 -11.55708,2 0 -11.55708,2 0 -11.55708,2 0 -11.55708,2 0 -11.55708,2 0 -11.55708,2 0 -11.55708,2 0 -11.55708,2 0 -11.55708,2.710,
2 0 -12.91779,2 0 -12.91779,2 0 -12.91779,2 0 -12.91779,2 0 -12.91779,2 0 -12.91779,2 0 -12.91779,2 0 -12.91779,2 0 -12.91779,2 0 -12.91779,2 0 -12.91779,2 0 -12.91779,2 0 -12.91779,2 0 -12.91779,2 0 -12.91779,2 0 -12.91779,2 0 -12.91779,2 0 -12.91779,2 0 -12.91779,2 0 -12.91779,2 0 -12.91779,2 0 -11.55708,2 0 -11.55708,2 0 -11.55708,2 0 -11.55708,2 0 -11.55708,2 0 -11.55708,2 0 -11.55708,2 0 -11.55708,2 0 -11.55708,2 0 -11.55708,2 0 -11.55708,2 0 -11.55708,2 0 -11.55708,2 0 -11.55708,2 0 -11.55708,2 0 -11.55708,2 0 -11.55708,2 0 -11.55708,2 0 -11.55708,2 0 -11.55708,2 0 -11.55708,2.810,
2 0 -12.91779,2 0 -12.91779,2 0 -12.91779,2 0 -12.91779,2 0 -12.91779,2 0 -12.91779,2 0 -12.91779,2 0 -12.91779,2 0 -12.91779,2 0 -12.91779,2 0 -12.91779,2 0 -12.91779,2 0 -12.91779,2 0 -12.91779,2 0 -12.91779,2 0 -12.91779,2 0 -12.91779,2 0 -12.91779,2 0 -12.91779,2 0 -12.91779,2 0 -12.91779,2 0 -11.55708,2 0 -11.55708,2 0 -11.55708,2 0 -11.55708,2 0 -11.55708,2 0 -11.55708,2 0 -11.55708,2 0 -11.55708,2 0 -11.55708,2 0 -11.55708,2 0 -11.55708,2 0 -11.55708,2 0 -11.55708,2 0 -11.55708,2 0 -11.55708,2 0 -11.55708,2 0 -11.55708,2 0 -11.55708,2 0 -11.55708,2 0 -11.55708,2 0 -11.55708,2.910,
2 0 -12.91779,2 0 -12.91779,2 0 -12.91779,2 0 -12.91779,2 0 -12.91779,2 0 -12.91779,2 0 -12.91779,2 0 -12.91779,2 0 -12.91779,2 0 -12.91779,2 0 -12.91779,2 0 -12.91779,2 0 -12.91779,2 0 -12.91779,2 0 -12.91779,2 0 -12.91779,2 0 -12.91779,2 0 -12.91779,2 0 -12.91779,2 0 -12.91779,2 0 -12.91779,2 0 -11.55708,2 0 -11.55708,2 0 -11.55708,2 0 -11.55708,2 0 -11.55708,2 0 -11.55708,2 0 -11.55708,2 0 -11.55708,2 0 -11.55708,2 0 -11.55708,2 0 -11.55708,2 0 -11.55708,2 0 -11.55708,2 0 -11.55708,2 0 -11.55708,2 0 -11.55708,2 0 -11.55708,2 0 -11.55708,2 0 -11.55708,2 0 -11.55708,2 0 -11.55708,3.010,
2 0 -12.91779,2 0 -12.91779,2 0 -12.91779,2 0 -12.91779,2 0 -12.91779,2 0 -12.91779,2 0 -12.91779,2 0 -12.91779,2 0 -12.91779,2 0 -12.91779,2 0 -12.91779,2 0 -12.91779,2 0 -12.91779,2 0 -12.91779,2 0 -12.91779,2 0 -12.91779,2 0 -12.91779,2 0 -12.91779,2 0 -12.91779,2 0 -12.91779,2 0 -12.91779,2 0 -11.55708,2 0 -11.55708,2 0 -11.55708,2 0 -11.55708,2 0 -11.55708,2 0 -11.55708,2 0 -11.55708,2 0 -11.55708,2 0 -11.55708,2 0 -11.55708,2 0 -11.55708,2 0 -11.55708,2 0 -11.55708,2 0 -11.55708,2 0 -11.55708,2 0 -11.55708,2 0 -11.55708,2 0 -11.55708,2 0 -11.55708,2 0 -11.55708,2 0 -11.55708,3.110,
2 0 -12.91779,2 0 -12.91779,2 0 -12.91779,2 0 -12.91779,2 0 -12.91779,2 0 -12.91779,2 0 -12.91779,2 0 -12.91779,2 0 -12.91779,2 0 -12.91779,2 0 -12.91779,2 0 -12.91779,2 0 -12.91779,2 0 -12.91779,2 0 -12.91779,2 0 -12.91779,2 0 -12.91779,2 0 -12.91779,2 0 -12.91779,2 0 -12.91779,2 0 -12.91779,2 0 -11.55708,2 0 -11.55708,2 0 -11.55708,2 0 -11.55708,2 0 -11.55708,2 0 -11.55708,2 0 -11.55708,2 0 -11.55708,2 0 -11.55708,2 0 -11.55708,2 0 -11.55708,2 0 -11.55708,2 0 -11.55708,2 0 -11.55708,2 0 -11.55708,2 0 -11.55708,2 0 -11.55708,2 0 -11.55708,2 0 -11.55708,2 0 -11.55708,2 0 -11.55708,3.210,
2 0 -12.91779,2 0 -12.91779,2 0 -12.91779,2 0 -12.91779,2 0 -12.91779,2 0 -12.91779,2 0 -12.91779,2 0 -12.91779,2 0 -12.91779,2 0 -12.91779,2 0 -12.91779,2 0 -12.91779,2 0 -12.91779,2 0 -12.91779,2 0 -12.91779,2 0 -12.91779,2 0 -12.91779,2 0 -12.91779,2 0 -12.91779,2 0 -12.91779,2 0 -12.91779,2 0 -11.55708,2 0 -11.55708,2 0 -11.55708,2 0 -11.55708,2 0 -11.55708,2 0 -11.55708,2 0 -11.55708,2 0 -11.55708,2 0 -11.55708,2 0 -11.55708,2 0 -11.55708,2 0 -11.55708,2 0 -11.55708,2 0 -11.55708,2 0 -11.55708,2 0 -11.55708,2 0 -11.55708,2 0 -11.55708,2 0 -11.55708,2 0 -11.55708,2 0 -11.55708,3.310,
2 0 -12.91779,2 0 -12.91779,2 0 -12.91779,2 0 -12.91779,2 0 -12.91779,2 0 -12.91779,2 0 -12.91779,2 0 -12.91779,2 0 -12.91779,2 0 -12.91779,2 0 -12.91779,2 0 -12.91779,2 0 -12.91779,2 0 -12.91779,2 0 -12.91779,2 0 -12.91779,2 0 -12.91779,2 0 -12.91779,2 0 -12.91779,2 0 -12.91779,2 0 -12.91779,2 0 -11.55708,2 0 -11.55708,2 0 -11.55708,2 0 -11.55708,2 0 -11.55708,2 0 -11.55708,2 0 -11.55708,2 0 -11.55708,2 0 -11.55708,2 0 -11.55708,2 0 -11.55708,2 0 -11.55708,2 0 -11.55708,2 0 -11.55708,2 0 -11.55708,2 0 -11.55708,2 0 -11.55708,2 0 -11.55708,2 0 -11.55708,2 0 -11.55708,2 0 -11.55708,3.410,
2 0 -12.91779,2 0 -12.91779,2 0 -12.91779,2 0 -12.91779,2 0 -12.91779,2 0 -12.91779,2 0 -12.91779,2 0 -12.91779,2 0 -12.91779,2 0 -12.91779,2 0 -12.91779,2 0 -12.91779,2 0 -12.91779,2 0 -12.91779,2 0 -12.91779,2 0 -12.91779,2 0 -12.91779,2 0 -12.91779,2 0 -12.91779,2 0 -12.91779,2 0 -12.91779,2 0 -11.55708,2 0 -11.55708,2 0 -11.55708,2 0 -11.55708,2 0 -11.55708,2 0 -11.55708,2 0 -11.55708,2 0 -11.55708,2 0 -11.55708,2 0 -11.55708,2 0 -11.55708,2 0 -11.55708,2 0 -11.55708,2 0 -11.55708,2 0 -11.55708,2 0 -11.55708,2 0 -11.55708,2 0 -11.55708,2 0 -11.55708,2 0 -11.55708,2 0 -11.55708,3.510,
2 0 -12.91779,2 0 -12.91779,2 0 -12.91779,2 0 -12.91779,2 0 -12.91779,2 0 -12.91779,2 0 -12.91779,2 0 -12.91779,2 0 -12.91779,2 0 -12.91779,2 0 -12.91779,2 0 -12.91779,2 0 -12.91779,2 0 -12.91779,2 0 -12.91779,2 0 -12.91779,2 0 -12.91779,2 0 -12.91779,2 0 -12.91779,2 0 -12.91779,2 0 -12.91779,2 0 -11.55708,2 0 -11.55708,2 0 -11.55708,2 0 -11.55708,2 0 -11.55708,2 0 -11.55708,2 0 -11.55708,2 0 -11.55708,2 0 -11.55708,2 0 -11.55708,2 0 -11.55708,2 0 -11.55708,2 0 -11.55708,2 0 -11.55708,2 0 -11.55708,2 0 -11.55708,2 0 -11.55708,2 0 -11.55708,2 0 -11.55708,2 0 -11.55708,2 0 -11.55708,3.610,
2 0 -12.91779,2 0 -12.91779,2 0 -12.91779,2 0 -12.91779,2 0 -12.91779,2 0 -12.91779,2 0 -12.91779,2 0 -12.91779,2 0 -12.91779,2 0 -12.91779,2 0 -12.91779,2 0 -12.91779,2 0 -12.91779,2 0 -12.91779,2 0 -12.91779,2 0 -12.91779,2 0 -12.91779,2 0 -12.91779,2 0 -12.91779,2 0 -12.91779,2 0 -12.91779,2 0 -11.55708,2 0 -11.55708,2 0 -11.55708,2 0 -11.55708,2 0 -11.55708,2 0 -11.55708,2 0 -11.55708,2 0 -11.55708,2 0 -11.55708,2 0 -11.55708,2 0 -11.55708,2 0 -11.55708,2 0 -11.55708,2 0 -11.55708,2 0 -11.55708,2 0 -11.55708,2 0 -11.55708,2 0 -11.55708,2 0 -11.55708,2 0 -11.55708,2 0 -11.55708,3.710,
2 0 -12.91779,2 0 -12.91779,2 0 -12.91779,2 0 -12.91779,2 0 -12.91779,2 0 -12.91779,2 0 -12.91779,2 0 -12.91779,2 0 -12.91779,2 0 -12.91779,2 0 -12.91779,2 0 -12.91779,2 0 -12.91779,2 0 -12.91779,2 0 -12.91779,2 0 -12.91779,2 0 -12.91779,2 0 -12.91779,2 0 -12.91779,2 0 -12.91779,2 0 -12.91779,2 0 -11.55708,2 0 -11.55708,2 0 -11.55708,2 0 -11.55708,2 0 -11.55708,2 0 -11.55708,2 0 -11.55708,2 0 -11.55708,2 0 -11.55708,2 0 -11.55708,2 0 -11.55708,2 0 -11.55708,2 0 -11.55708,2 0 -11.55708,2 0 -11.55708,2 0 -11.55708,2 0 -11.55708,2 0 -11.55708,2 0 -11.55708,2 0 -11.55708,2 0 -11.55708,3.810,
2 0 -12.91779,2 0 -12.91779,2 0 -12.91779,2 0 -12.91779,2 0 -12.91779,2 0 -12.91779,2 0 -12.91779,2 0 -12.91779,2 0 -12.91779,2 0 -12.91779,2 0 -12.91779,2 0 -12.91779,2 0 -12.91779,2 0 -12.91779,2 0 -12.91779,2 0 -12.91779,2 0 -12.91779,2 0 -12.91779,2 0 -12.91779,2 0 -12.91779,2 0 -12.91779,2 0 -11.55708,2 0 -11.55708,2 0 -11.55708,2 0 -11.55708,2 0 -11.55708,2 0 -11.55708,2 0 -11.55708,2 0 -11.55708,2 0 -11.55708,2 0 -11.55708,2 0 -11.55708,2 0 -11.55708,2 0 -11.55708,2 0 -11.55708,2 0 -11.55708,2 0 -11.55708,2 0 -11.55708,2 0 -11.55708,2 0 -11.55708,2 0 -11.55708,2 0 -11.55708,3.910,
2 0 -12.91779,2 0 -12.91779,2 0 -12.91779,2 0 -12.91779,2 0 -12.91779,2 0 -12.91779,2 0 -12.91779,2 0 -12.91779,2 0 -12.91779,2 0 -12.91779,2 0 -12.91779,2 0 -12.91779,2 0 -12.91779,2 0 -12.91779,2 0 -12.91779,2 0 -12.91779,2 0 -12.91779,2 0 -12.91779,2 0 -12.91779,2 0 -12.91779,2 0 -12.91779,2 0 -11.55708,2 0 -11.55708,2 0 -11.55708,2 0 -11.55708,2 0 -11.55708,2 0 -11.55708,2 0 -11.55708,2 0 -11.55708,2 0 -11.55708,2 0 -11.55708,2 0 -11.55708,2 0 -11.55708,2 0 -11.55708,2 0 -11.55708,2 0 -11.55708,2 0 -11.55708,2 0 -11.55708,2 0 -11.55708,2 0 -11.55708,2 0 -11.55708,2 0 -11.55708,4.010,
2 0 -12.91779,2 0 -12.91779,2 0 -12.91779,2 0 -12.91779,2 0 -12.91779,2 0 -12.91779,2 0 -12.91779,2 0 -12.91779,2 0 -12.91779,2 0 -12.91779,2 0 -12.91779,2 0 -12.91779,2 0 -12.91779,2 0 -12.91779,2 0 -12.91779,2 0 -12.91779,2 0 -12.91779,2 0 -12.91779,2 0 -12.91779,2 0 -12.91779,2 0 -12.91779,2 0 -11.55708,2 0 -11.55708,2 0 -11.55708,2 0 -11.55708,2 0 -11.55708,2 0 -11.55708,2 0 -11.55708,2 0 -11.55708,2 0 -11.55708,2 0 -11.55708,2 0 -11.55708,2 0 -11.55708,2 0 -11.55708,2 0 -11.55708,2 0 -11.55708,2 0 -11.55708,2 0 -11.55708,2 0 -11.55708,2 0 -11.55708,2 0 -11.55708,2 0 -11.55708,4.110,
2 0 -12.91779,2 0 -12.91779,2 0 -12.91779,2 0 -12.91779,2 0 -12.91779,2 0 -12.91779,2 0 -12.91779,2 0 -12.91779,2 0 -12.91779,2 0 -12.91779,2 0 -12.91779,2 0 -12.91779,2 0 -12.91779,2 0 -12.91779,2 0 -12.91779,2 0 -12.91779,2 0 -12.91779,2 0 -12.91779,2 0 -12.91779,2 0 -12.91779,2 0 -12.91779,2 0 -11.55708,2 0 -11.55708,2 0 -11.55708,2 0 -11.55708,2 0 -11.55708,2 0 -11.55708,2 0 -11.55708,2 0 -11.55708,2 0 -11.55708,2 0 -11.55708,2 0 -11.55708,2 0 -11.55708,2 0 -11.55708,2 0 -11.55708,2 0 -11.55708,2 0 -11.55708,2 0 -11.55708,2 0 -11.55708,2 0 -11.55708,2 0 -11.55708,2 0 -11.55708,4.210,
2 0 -12.91779,2 0 -12.91779,2 0 -12.91779,2 0 -12.91779,2 0 -12.91779,2 0 -12.91779,2 0 -12.91779,2 0 -12.91779,2 0 -12.91779,2 0 -12.91779,2 0 -12.91779,2 0 -12.91779,2 0 -12.91779,2 0 -12.91779,2 0 -12.91779,2 0 -12.91779,2 0 -12.91779,2 0 -12.91779,2 0 -12.91779,2 0 -12.91779,2 0 -12.91779,2 0 -11.55708,2 0 -11.55708,2 0 -11.55708,2 0 -11.55708,2 0 -11.55708,2 0 -11.55708,2 0 -11.55708,2 0 -11.55708,2 0 -11.55708,2 0 -11.55708,2 0 -11.55708,2 0 -11.55708,2 0 -11.55708,2 0 -11.55708,2 0 -11.55708,2 0 -11.55708,2 0 -11.55708,2 0 -11.55708,2 0 -11.55708,2 0 -11.55708,2 0 -11.55708,4.310,
2 0 -12.91779,2 0 -12.91779,2 0 -12.91779,2 0 -12.91779,2 0 -12.91779,2 0 -12.91779,2 0 -12.91779,2 0 -12.91779,2 0 -12.91779,2 0 -12.91779,2 0 -12.91779,2 0 -12.91779,2 0 -12.91779,2 0 -12.91779,2 0 -12.91779,2 0 -12.91779,2 0 -12.91779,2 0 -12.91779,2 0 -12.91779,2 0 -12.91779,2 0 -12.91779,2 0 -11.55708,2 0 -11.55708,2 0 -11.55708,2 0 -11.55708,2 0 -11.55708,2 0 -11.55708,2 0 -11.55708,2 0 -11.55708,2 0 -11.55708,2 0 -11.55708,2 0 -11.55708,2 0 -11.55708,2 0 -11.55708,2 0 -11.55708,2 0 -11.55708,2 0 -11.55708,2 0 -11.55708,2 0 -11.55708,2 0 -11.55708,2 0 -11.55708,2 0 -11.55708,4.410,
2 0 -12.91779,2 0 -12.91779,2 0 -12.91779,2 0 -12.91779,2 0 -12.91779,2 0 -12.91779,2 0 -12.91779,2 0 -12.91779,2 0 -12.91779,2 0 -12.91779,2 0 -12.91779,2 0 -12.91779,2 0 -12.91779,2 0 -12.91779,2 0 -12.91779,2 0 -12.91779,2 0 -12.91779,2 0 -12.91779,2 0 -12.91779,2 0 -12.91779,2 0 -12.91779,2 0 -11.55708,2 0 -11.55708,2 0 -11.55708,2 0 -11.55708,2 0 -11.55708,2 0 -11.55708,2 0 -11.55708,2 0 -11.55708,2 0 -11.55708,2 0 -11.55708,2 0 -11.55708,2 0 -11.55708,2 0 -11.55708,2 0 -11.55708,2 0 -11.55708,2 0 -11.55708,2 0 -11.55708,2 0 -11.55708,2 0 -11.55708,2 0 -11.55708,2 0 -11.55708,4.510,
2 0 -12.91779,2 0 -12.91779,2 0 -12.91779,2 0 -12.91779,2 0 -12.91779,2 0 -12.91779,2 0 -12.91779,2 0 -12.91779,2 0 -12.91779,2 0 -12.91779,2 0 -12.91779,2 0 -12.91779,2 0 -12.91779,2 0 -12.91779,2 0 -12.91779,2 0 -12.91779,2 0 -12.91779,2 0 -12.91779,2 0 -12.91779,2 0 -12.91779,2 0 -12.91779,2 0 -11.55708,2 0 -11.55708,2 0 -11.55708,2 0 -11.55708,2 0 -11.55708,2 0 -11.55708,2 0 -11.55708,2 0 -11.55708,2 0 -11.55708,2 0 -11.55708,2 0 -11.55708,2 0 -11.55708,2 0 -11.55708,2 0 -11.55708,2 0 -11.55708,2 0 -11.55708,2 0 -11.55708,2 0 -11.55708,2 0 -11.55708,2 0 -11.55708,2 0 -11.55708,4.610,
2 0 -12.91779,2 0 -12.91779,2 0 -12.91779,2 0 -12.91779,2 0 -12.91779,2 0 -12.91779,2 0 -12.91779,2 0 -12.91779,2 0 -12.91779,2 0 -12.91779,2 0 -12.91779,2 0 -12.91779,2 0 -12.91779,2 0 -12.91779,2 0 -12.91779,2 0 -12.91779,2 0 -12.91779,2 0 -12.91779,2 0 -12.91779,2 0 -12.91779,2 0 -12.91779,2 0 -11.55708,2 0 -11.55708,2 0 -11.55708,2 0 -11.55708,2 0 -11.55708,2 0 -11.55708,2 0 -11.55708,2 0 -11.55708,2 0 -11.55708,2 0 -11.55708,2 0 -11.55708,2 0 -11.55708,2 0 -11.55708,2 0 -11.55708,2 0 -11.55708,2 0 -11.55708,2 0 -11.55708,2 0 -11.55708,2 0 -11.55708,2 0 -11.55708,2 0 -11.55708,4.710,
2 0 -12.91779,2 0 -12.91779,2 0 -12.91779,2 0 -12.91779,2 0 -12.91779,2 0 -12.91779,2 0 -12.91779,2 0 -12.91779,2 0 -12.91779,2 0 -12.91779,2 0 -12.91779,2 0 -12.91779,2 0 -12.91779,2 0 -12.91779,2 0 -12.91779,2 0 -12.91779,2 0 -12.91779,2 0 -12.91779,2 0 -12.91779,2 0 -12.91779,2 0 -12.91779,2 0 -11.55708,2 0 -11.55708,2 0 -11.55708,2 0 -11.55708,2 0 -11.55708,2 0 -11.55708,2 0 -11.55708,2 0 -11.55708,2 0 -11.55708,2 0 -11.55708,2 0 -11.55708,2 0 -11.55708,2 0 -11.55708,2 0 -11.55708,2 0 -11.55708,2 0 -11.55708,2 0 -11.55708,2 0 -11.55708,2 0 -11.55708,2 0 -11.55708,2 0 -11.55708,4.810,
2 0 -12.91779,2 0 -12.91779,2 0 -12.91779,2 0 -12.91779,2 0 -12.91779,2 0 -12.91779,2 0 -12.91779,2 0 -12.91779,2 0 -12.91779,2 0 -12.91779,2 0 -12.91779,2 0 -12.91779,2 0 -12.91779,2 0 -12.91779,2 0 -12.91779,2 0 -12.91779,2 0 -12.91779,2 0 -12.91779,2 0 -12.91779,2 0 -12.91779,2 0 -12.91779,2 0 -11.55708,2 0 -11.55708,2 0 -11.55708,2 0 -11.55708,2 0 -11.55708,2 0 -11.55708,2 0 -11.55708,2 0 -11.55708,2 0 -11.55708,2 0 -11.55708,2 0 -11.55708,2 0 -11.55708,2 0 -11.55708,2 0 -11.55708,2 0 -11.55708,2 0 -11.55708,2 0 -11.55708,2 0 -11.55708,2 0 -11.55708,2 0 -11.55708,2 0 -11.55708,4.910,
2 0 -12.91779,2 0 -12.91779,2 0 -12.91779,2 0 -12.91779,2 0 -12.91779,2 0 -12.91779,2 0 -12.91779,2 0 -12.91779,2 0 -12.91779,2 0 -12.91779,2 0 -12.91779,2 0 -12.91779,2 0 -12.91779,2 0 -12.91779,2 0 -12.91779,2 0 -12.91779,2 0 -12.91779,2 0 -12.91779,2 0 -12.91779,2 0 -12.91779,2 0 -12.91779,2 0 -11.55708,2 0 -11.55708,2 0 -11.55708,2 0 -11.55708,2 0 -11.55708,2 0 -11.55708,2 0 -11.55708,2 0 -11.55708,2 0 -11.55708,2 0 -11.55708,2 0 -11.55708,2 0 -11.55708,2 0 -11.55708,2 0 -11.55708,2 0 -11.55708,2 0 -11.55708,2 0 -11.55708,2 0 -11.55708,2 0 -11.55708,2 0 -11.55708,2 0 -11.55708,5.010,
2 0 -12.91779,2 0 -12.91779,2 0 -12.91779,2 0 -12.91779,2 0 -12.91779,2 0 -12.91779,2 0 -12.91779,2 0 -12.91779,2 0 -12.91779,2 0 -12.91779,2 0 -12.91779,2 0 -12.91779,2 0 -12.91779,2 0 -12.91779,2 0 -12.91779,2 0 -12.91779,2 0 -12.91779,2 0 -12.91779,2 0 -12.91779,2 0 -12.91779,2 0 -12.91779,2 0 -11.55708,2 0 -11.55708,2 0 -11.55708,2 0 -11.55708,2 0 -11.55708,2 0 -11.55708,2 0 -11.55708,2 0 -11.55708,2 0 -11.55708,2 0 -11.55708,2 0 -11.55708,2 0 -11.55708,2 0 -11.55708,2 0 -11.55708,2 0 -11.55708,2 0 -11.55708,2 0 -11.55708,2 0 -11.55708,2 0 -11.55708,2 0 -11.55708,2 0 -11.55708,5.110,
2 0 -12.91779,2 0 -12.91779,2 0 -12.91779,2 0 -12.91779,2 0 -12.91779,2 0 -12.91779,2 0 -12.91779,2 0 -12.91779,2 0 -12.91779,2 0 -12.91779,2 0 -12.91779,2 0 -12.91779,2 0 -12.91779,2 0 -12.91779,2 0 -12.91779,2 0 -12.91779,2 0 -12.91779,2 0 -12.91779,2 0 -12.91779,2 0 -12.91779,2 0 -12.91779,2 0 -11.55708,2 0 -11.55708,2 0 -11.55708,2 0 -11.55708,2 0 -11.55708,2 0 -11.55708,2 0 -11.55708,2 0 -11.55708,2 0 -11.55708,2 0 -11.55708,2 0 -11.55708,2 0 -11.55708,2 0 -11.55708,2 0 -11.55708,2 0 -11.55708,2 0 -11.55708,2 0 -11.55708,2 0 -11.55708,2 0 -11.55708,2 0 -11.55708,2 0 -11.55708,5.210,
2 0 -12.91779,2 0 -12.91779,2 0 -12.91779,2 0 -12.91779,2 0 -12.91779,2 0 -12.91779,2 0 -12.91779,2 0 -12.91779,2 0 -12.91779,2 0 -12.91779,2 0 -12.91779,2 0 -12.91779,2 0 -12.91779,2 0 -12.91779,2 0 -12.91779,2 0 -12.91779,2 0 -12.91779,2 0 -12.91779,2 0 -12.91779,2 0 -12.91779,2 0 -12.91779,2 0 -11.55708,2 0 -11.55708,2 0 -11.55708,2 0 -11.55708,2 0 -11.55708,2 0 -11.55708,2 0 -11.55708,2 0 -11.55708,2 0 -11.55708,2 0 -11.55708,2 0 -11.55708,2 0 -11.55708,2 0 -11.55708,2 0 -11.55708,2 0 -11.55708,2 0 -11.55708,2 0 -11.55708,2 0 -11.55708,2 0 -11.55708,2 0 -11.55708,2 0 -11.55708,5.310,
2 0 -12.91779,2 0 -12.91779,2 0 -12.91779,2 0 -12.91779,2 0 -12.91779,2 0 -12.91779,2 0 -12.91779,2 0 -12.91779,2 0 -12.91779,2 0 -12.91779,2 0 -12.91779,2 0 -12.91779,2 0 -12.91779,2 0 -12.91779,2 0 -12.91779,2 0 -12.91779,2 0 -12.91779,2 0 -12.91779,2 0 -12.91779,2 0 -12.91779,2 0 -12.91779,2 0 -11.55708,2 0 -11.55708,2 0 -11.55708,2 0 -11.55708,2 0 -11.55708,2 0 -11.55708,2 0 -11.55708,2 0 -11.55708,2 0 -11.55708,2 0 -11.55708,2 0 -11.55708,2 0 -11.55708,2 0 -11.55708,2 0 -11.55708,2 0 -11.55708,2 0 -11.55708,2 0 -11.55708,2 0 -11.55708,2 0 -11.55708,2 0 -11.55708,2 0 -11.55708,5.410,
2 0 -12.91779,2 0 -12.91779,2 0 -12.91779,2 0 -12.91779,2 0 -12.91779,2 0 -12.91779,2 0 -12.91779,2 0 -12.91779,2 0 -12.91779,2 0 -12.91779,2 0 -12.91779,2 0 -12.91779,2 0 -12.91779,2 0 -12.91779,2 0 -12.91779,2 0 -12.91779,2 0 -12.91779,2 0 -12.91779,2 0 -12.91779,2 0 -12.91779,2 0 -12.91779,2 0 -11.55708,2 0 -11.55708,2 0 -11.55708,2 0 -11.55708,2 0 -11.55708,2 0 -11.55708,2 0 -11.55708,2 0 -11.55708,2 0 -11.55708,2 0 -11.55708,2 0 -11.55708,2 0 -11.55708,2 0 -11.55708,2 0 -11.55708,2 0 -11.55708,2 0 -11.55708,2 0 -11.55708,2 0 -11.55708,2 0 -11.55708,2 0 -11.55708,2 0 -11.55708,5.510,
2 0 -12.91779,2 0 -12.91779,2 0 -12.91779,2 0 -12.91779,2 0 -12.91779,2 0 -12.91779,2 0 -12.91779,2 0 -12.91779,2 0 -12.91779,2 0 -12.91779,2 0 -12.91779,2 0 -12.91779,2 0 -12.91779,2 0 -12.91779,2 0 -12.91779,2 0 -12.91779,2 0 -12.91779,2 0 -12.91779,2 0 -12.91779,2 0 -12.91779,2 0 -12.91779,2 0 -11.55708,2 0 -11.55708,2 0 -11.55708,2 0 -11.55708,2 0 -11.55708,2 0 -11.55708,2 0 -11.55708,2 0 -11.55708,2 0 -11.55708,2 0 -11.55708,2 0 -11.55708,2 0 -11.55708,2 0 -11.55708,2 0 -11.55708,2 0 -11.55708,2 0 -11.55708,2 0 -11.55708,2 0 -11.55708,2 0 -11.55708,2 0 -11.55708,2 0 -11.55708,5.610,
2 0 -12.91779,2 0 -12.91779,2 0 -12.91779,2 0 -12.91779,2 0 -12.91779,2 0 -12.91779,2 0 -12.91779,2 0 -12.91779,2 0 -12.91779,2 0 -12.91779,2 0 -12.91779,2 0 -12.91779,2 0 -12.91779,2 0 -12.91779,2 0 -12.91779,2 0 -12.91779,2 0 -12.91779,2 0 -12.91779,2 0 -12.91779,2 0 -12.91779,2 0 -12.91779,2 0 -11.55708,2 0 -11.55708,2 0 -11.55708,2 0 -11.55708,2 0 -11.55708,2 0 -11.55708,2 0 -11.55708,2 0 -11.55708,2 0 -11.55708,2 0 -11.55708,2 0 -11.55708,2 0 -11.55708,2 0 -11.55708,2 0 -11.55708,2 0 -11.55708,2 0 -11.55708,2 0 -11.55708,2 0 -11.55708,2 0 -11.55708,2 0 -11.55708,2 0 -11.55708,5.710,
2 0 -12.91779,2 0 -12.91779,2 0 -12.91779,2 0 -12.91779,2 0 -12.91779,2 0 -12.91779,2 0 -12.91779,2 0 -12.91779,2 0 -12.91779,2 0 -12.91779,2 0 -12.91779,2 0 -12.91779,2 0 -12.91779,2 0 -12.91779,2 0 -12.91779,2 0 -12.91779,2 0 -12.91779,2 0 -12.91779,2 0 -12.91779,2 0 -12.91779,2 0 -12.91779,2 0 -11.55708,2 0 -11.55708,2 0 -11.55708,2 0 -11.55708,2 0 -11.55708,2 0 -11.55708,2 0 -11.55708,2 0 -11.55708,2 0 -11.55708,2 0 -11.55708,2 0 -11.55708,2 0 -11.55708,2 0 -11.55708,2 0 -11.55708,2 0 -11.55708,2 0 -11.55708,2 0 -11.55708,2 0 -11.55708,2 0 -11.55708,2 0 -11.55708,2 0 -11.55708,5.810,
2 0 -12.91779,2 0 -12.91779,2 0 -12.91779,2 0 -12.91779,2 0 -12.91779,2 0 -12.91779,2 0 -12.91779,2 0 -12.91779,2 0 -12.91779,2 0 -12.91779,2 0 -12.91779,2 0 -12.91779,2 0 -12.91779,2 0 -12.91779,2 0 -12.91779,2 0 -12.91779,2 0 -12.91779,2 0 -12.91779,2 0 -12.91779,2 0 -12.91779,2 0 -12.91779,2 0 -11.55708,2 0 -11.55708,2 0 -11.55708,2 0 -11.55708,2 0 -11.55708,2 0 -11.55708,2 0 -11.55708,2 0 -11.55708,2 0 -11.55708,2 0 -11.55708,2 0 -11.55708,2 0 -11.55708,2 0 -11.55708,2 0 -11.55708,2 0 -11.55708,2 0 -11.55708,2 0 -11.55708,2 0 -11.55708,2 0 -11.55708,2 0 -11.55708,2 0 -11.55708,5.910,
2 0 -12.91779,2 0 -12.91779,2 0 -12.91779,2 0 -12.91779,2 0 -12.91779,2 0 -12.91779,2 0 -12.91779,2 0 -12.91779,2 0 -12.91779,2 0 -12.91779,2 0 -12.91779,2 0 -12.91779,2 0 -12.91779,2 0 -12.91779,2 0 -12.91779,2 0 -12.91779,2 0 -12.91779,2 0 -12.91779,2 0 -12.91779,2 0 -12.91779,2 0 -12.91779,2 0 -11.55708,2 0 -11.55708,2 0 -11.55708,2 0 -11.55708,2 0 -11.55708,2 0 -11.55708,2 0 -11.55708,2 0 -11.55708,2 0 -11.55708,2 0 -11.55708,2 0 -11.55708,2 0 -11.55708,2 0 -11.55708,2 0 -11.55708,2 0 -11.55708,2 0 -11.55708,2 0 -11.55708,2 0 -11.55708,2 0 -11.55708,2 0 -11.55708,2 0 -11.55708,6.010,
2 0 -12.91779,2 0 -12.91779,2 0 -12.91779,2 0 -12.91779,2 0 -12.91779,2 0 -12.91779,2 0 -12.91779,2 0 -12.91779,2 0 -12.91779,2 0 -12.91779,2 0 -12.91779,2 0 -12.91779,2 0 -12.91779,2 0 -12.91779,2 0 -12.91779,2 0 -12.91779,2 0 -12.91779,2 0 -12.91779,2 0 -12.91779,2 0 -12.91779,2 0 -12.91779,2 0 -11.55708,2 0 -11.55708,2 0 -11.55708,2 0 -11.55708,2 0 -11.55708,2 0 -11.55708,2 0 -11.55708,2 0 -11.55708,2 0 -11.55708,2 0 -11.55708,2 0 -11.55708,2 0 -11.55708,2 0 -11.55708,2 0 -11.55708,2 0 -11.55708,2 0 -11.55708,2 0 -11.55708,2 0 -11.55708,2 0 -11.55708,2 0 -11.55708,2 0 -11.55708,6.110,
2 0 -12.91779,2 0 -12.91779,2 0 -12.91779,2 0 -12.91779,2 0 -12.91779,2 0 -12.91779,2 0 -12.91779,2 0 -12.91779,2 0 -12.91779,2 0 -12.91779,2 0 -12.91779,2 0 -12.91779,2 0 -12.91779,2 0 -12.91779,2 0 -12.91779,2 0 -12.91779,2 0 -12.91779,2 0 -12.91779,2 0 -12.91779,2 0 -12.91779,2 0 -12.91779,2 0 -11.55708,2 0 -11.55708,2 0 -11.55708,2 0 -11.55708,2 0 -11.55708,2 0 -11.55708,2 0 -11.55708,2 0 -11.55708,2 0 -11.55708,2 0 -11.55708,2 0 -11.55708,2 0 -11.55708,2 0 -11.55708,2 0 -11.55708,2 0 -11.55708,2 0 -11.55708,2 0 -11.55708,2 0 -11.55708,2 0 -11.55708,2 0 -11.55708,2 0 -11.55708,6.210,
2 0 -12.91779,2 0 -12.91779,2 0 -12.91779,2 0 -12.91779,2 0 -12.91779,2 0 -12.91779,2 0 -12.91779,2 0 -12.91779,2 0 -12.91779,2 0 -12.91779,2 0 -12.91779,2 0 -12.91779,2 0 -12.91779,2 0 -12.91779,2 0 -12.91779,2 0 -12.91779,2 0 -12.91779,2 0 -12.91779,2 0 -12.91779,2 0 -12.91779,2 0 -12.91779,2 0 -11.55708,2 0 -11.55708,2 0 -11.55708,2 0 -11.55708,2 0 -11.55708,2 0 -11.55708,2 0 -11.55708,2 0 -11.55708,2 0 -11.55708,2 0 -11.55708,2 0 -11.55708,2 0 -11.55708,2 0 -11.55708,2 0 -11.55708,2 0 -11.55708,2 0 -11.55708,2 0 -11.55708,2 0 -11.55708,2 0 -11.55708,2 0 -11.55708,2 0 -11.55708,6.310,
-2.633197 -16.56329 -6.73925,-2.478141 -15.75561 -6.56171,-2.523545 -14.89298 -6.51148,-2.736624 -14.35043 -6.479086,-2.986244 -14.07974 -6.444385,-2.388018 -14.64449 -6.843112,-2.70216 -14.0586 -6.831732,-2.965055 -13.72869 -6.793163,-3.187679 -13.49682 -6.754013,-2.533835 -14.81037 -6.922131,-2.8448 -14.1773 -6.95482,-3.075829 -13.77371 -6.919445,-3.280766 -13.45339 -6.887056,-2.702077 -14.99216 -6.962291,-2.994847 -14.39145 -6.951643,-3.208952 -14.02984 -6.851848,-3.388144 -13.76845 -6.785289,-2.876017 -15.16611 -6.989562,-3.089316 -14.6608 -6.951279,-3.253021 -14.36212 -6.860733,-3.388322 -14.09492 -6.822944,2 0 -11.55708,2 0 -11.55708,2 0 -11.55708,2 0 -11.55708,2 0 -11.55708,2 0 -11.55708,2 0 -11.55708,2 0 -11.55708,2 0 -11.55708,2 0 -11.55708,2 0 -11.55708,2 0 -11.55708,2 0 -11.55708,2 0 -11.55708,2 0 -11.55708,2 0 -11.55708,2 0 -11.55708,2 0 -11.55708,2 0 -11.55708,2 0 -11.55708,2 0 -11.55708,6.410,
-2.633197 -16.56329 -6.73925,-2.478141 -15.75561 -6.56171,-2.523545 -14.89298 -6.51148,-2.736624 -14.35043 -6.479086,-2.986244 -14.07974 -6.444385,-2.388018 -14.64449 -6.843112,-2.70216 -14.0586 -6.831732,-2.965055 -13.72869 -6.793163,-3.187679 -13.49682 -6.754013,-2.533835 -14.81037 -6.922131,-2.8448 -14.1773 -6.95482,-3.075829 -13.77371 -6.919445,-3.280766 -13.45339 -6.887056,-2.702077 -14.99216 -6.962291,-2.994847 -14.39145 -6.951643,-3.208952 -14.02984 -6.851848,-3.388144 -13.76845 -6.785289,-2.876017 -15.16611 -6.989562,-3.089316 -14.6608 -6.951279,-3.253021 -14.36212 -6.860733,-3.388322 -14.09492 -6.822944,2 0 -11.55708,2 0 -11.55708,2 0 -11.55708,2 0 -11.55708,2 0 -11.55708,2 0 -11.55708,2 0 -11.55708,2 0 -11.55708,2 0 -11.55708,2 0 -11.55708,2 0 -11.55708,2 0 -11.55708,2 0 -11.55708,2 0 -11.55708,2 0 -11.55708,2 0 -11.55708,2 0 -11.55708,2 0 -11.55708,2 0 -11.55708,2 0 -11.55708,2 0 -11.55708,6.510,
-2.633197 -16.56329 -6.73925,-2.478141 -15.75561 -6.56171,-2.523545 -14.89298 -6.51148,-2.736624 -14.35043 -6.479086,-2.986244 -14.07974 -6.444385,-2.388018 -14.64449 -6.843112,-2.70216 -14.0586 -6.831732,-2.965055 -13.72869 -6.793163,-3.187679 -13.49682 -6.754013,-2.533835 -14.81037 -6.922131,-2.8448 -14.1773 -6.95482,-3.075829 -13.77371 -6.919445,-3.280766 -13.45339 -6.887056,-2.702077 -14.99216 -6.962291,-2.994847 -14.39145 -6.951643,-3.208952 -14.02984 -6.851848,-3.388144 -13.76845 -6.785289,-2.876017 -15.16611 -6.989562,-3.089316 -14.6608 -6.951279,-3.253021 -14.36212 -6.860733,-3.388322 -14.09492 -6.822944,2 0 -11.55708,2 0 -11.55708,2 0 -11.55708,2 0 -11.55708,2 0 -11.55708,2 0 -11.55708,2 0 -11.55708,2 0 -11.55708,2 0 -11.55708,2 0 -11.55708,2 0 -11.55708,2 0 -11.55708,2 0 -11.55708,2 0 -11.55708,2 0 -11.55708,2 0 -11.55708,2 0 -11.55708,2 0 -11.55708,2 0 -11.55708,2 0 -11.55708,2 0 -11.55708,6.610,
-2.633197 -16.56329 -6.73925,-2.478141 -15.75561 -6.56171,-2.523545 -14.89298 -6.51148,-2.736624 -14.35043 -6.479086,-2.986244 -14.07974 -6.444385,-2.388018 -14.64449 -6.843112,-2.70216 -14.0586 -6.831732,-2.965055 -13.72869 -6.793163,-3.187679 -13.49682 -6.754013,-2.533835 -14.81037 -6.922131,-2.8448 -14.1773 -6.95482,-3.075829 -13.77371 -6.919445,-3.280766 -13.45339 -6.887056,-2.702077 -14.99216 -6.962291,-2.994847 -14.39145 -6.951643,-3.208952 -14.02984 -6.851848,-3.388144 -13.76845 -6.785289,-2.876017 -15.16611 -6.989562,-3.089316 -14.6608 -6.951279,-3.253021 -14.36212 -6.860733,-3.388322 -14.09492 -6.822944,2 0 -11.55708,2 0 -11.55708,2 0 -11.55708,2 0 -11.55708,2 0 -11.55708,2 0 -11.55708,2 0 -11.55708,2 0 -11.55708,2 0 -11.55708,2 0 -11.55708,2 0 -11.55708,2 0 -11.55708,2 0 -11.55708,2 0 -11.55708,2 0 -11.55708,2 0 -11.55708,2 0 -11.55708,2 0 -11.55708,2 0 -11.55708,2 0 -11.55708,2 0 -11.55708,6.710,
-2.633197 -16.56329 -6.73925,-2.478141 -15.75561 -6.56171,-2.523545 -14.89298 -6.51148,-2.736624 -14.35043 -6.479086,-2.986244 -14.07974 -6.444385,-2.388018 -14.64449 -6.843112,-2.70216 -14.0586 -6.831732,-2.965055 -13.72869 -6.793163,-3.187679 -13.49682 -6.754013,-2.533835 -14.81037 -6.922131,-2.8448 -14.1773 -6.95482,-3.075829 -13.77371 -6.919445,-3.280766 -13.45339 -6.887056,-2.702077 -14.99216 -6.962291,-2.994847 -14.39145 -6.951643,-3.208952 -14.02984 -6.851848,-3.388144 -13.76845 -6.785289,-2.876017 -15.16611 -6.989562,-3.089316 -14.6608 -6.951279,-3.253021 -14.36212 -6.860733,-3.388322 -14.09492 -6.822944,2 0 -11.55708,2 0 -11.55708,2 0 -11.55708,2 0 -11.55708,2 0 -11.55708,2 0 -11.55708,2 0 -11.55708,2 0 -11.55708,2 0 -11.55708,2 0 -11.55708,2 0 -11.55708,2 0 -11.55708,2 0 -11.55708,2 0 -11.55708,2 0 -11.55708,2 0 -11.55708,2 0 -11.55708,2 0 -11.55708,2 0 -11.55708,2 0 -11.55708,2 0 -11.55708,6.810,
-2.633197 -16.56329 -6.73925,-2.478141 -15.75561 -6.56171,-2.523545 -14.89298 -6.51148,-2.736624 -14.35043 -6.479086,-2.986244 -14.07974 -6.444385,-2.388018 -14.64449 -6.843112,-2.70216 -14.0586 -6.831732,-2.965055 -13.72869 -6.793163,-3.187679 -13.49682 -6.754013,-2.533835 -14.81037 -6.922131,-2.8448 -14.1773 -6.95482,-3.075829 -13.77371 -6.919445,-3.280766 -13.45339 -6.887056,-2.702077 -14.99216 -6.962291,-2.994847 -14.39145 -6.951643,-3.208952 -14.02984 -6.851848,-3.388144 -13.76845 -6.785289,-2.876017 -15.16611 -6.989562,-3.089316 -14.6608 -6.951279,-3.253021 -14.36212 -6.860733,-3.388322 -14.09492 -6.822944,2 0 -11.55708,2 0 -11.55708,2 0 -11.55708,2 0 -11.55708,2 0 -11.55708,2 0 -11.55708,2 0 -11.55708,2 0 -11.55708,2 0 -11.55708,2 0 -11.55708,2 0 -11.55708,2 0 -11.55708,2 0 -11.55708,2 0 -11.55708,2 0 -11.55708,2 0 -11.55708,2 0 -11.55708,2 0 -11.55708,2 0 -11.55708,2 0 -11.55708,2 0 -11.55708,6.910,
-2.633197 -16.56329 -6.73925,-2.478141 -15.75561 -6.56171,-2.523545 -14.89298 -6.51148,-2.736624 -14.35043 -6.479086,-2.986244 -14.07974 -6.444385,-2.388018 -14.64449 -6.843112,-2.70216 -14.0586 -6.831732,-2.965055 -13.72869 -6.793163,-3.187679 -13.49682 -6.754013,-2.533835 -14.81037 -6.922131,-2.8448 -14.1773 -6.95482,-3.075829 -13.77371 -6.919445,-3.280766 -13.45339 -6.887056,-2.702077 -14.99216 -6.962291,-2.994847 -14.39145 -6.951643,-3.208952 -14.02984 -6.851848,-3.388144 -13.76845 -6.785289,-2.876017 -15.16611 -6.989562,-3.089316 -14.6608 -6.951279,-3.253021 -14.36212 -6.860733,-3.388322 -14.09492 -6.822944,2 0 -11.55708,2 0 -11.55708,2 0 -11.55708,2 0 -11.55708,2 0 -11.55708,2 0 -11.55708,2 0 -11.55708,2 0 -11.55708,2 0 -11.55708,2 0 -11.55708,2 0 -11.55708,2 0 -11.55708,2 0 -11.55708,2 0 -11.55708,2 0 -11.55708,2 0 -11.55708,2 0 -11.55708,2 0 -11.55708,2 0 -11.55708,2 0 -11.55708,2 0 -11.55708,7.010,
-2.633197 -16.56329 -6.73925,-2.478141 -15.75561 -6.56171,-2.523545 -14.89298 -6.51148,-2.736624 -14.35043 -6.479086,-2.986244 -14.07974 -6.444385,-2.388018 -14.64449 -6.843112,-2.70216 -14.0586 -6.831732,-2.965055 -13.72869 -6.793163,-3.187679 -13.49682 -6.754013,-2.533835 -14.81037 -6.922131,-2.8448 -14.1773 -6.95482,-3.075829 -13.77371 -6.919445,-3.280766 -13.45339 -6.887056,-2.702077 -14.99216 -6.962291,-2.994847 -14.39145 -6.951643,-3.208952 -14.02984 -6.851848,-3.388144 -13.76845 -6.785289,-2.876017 -15.16611 -6.989562,-3.089316 -14.6608 -6.951279,-3.253021 -14.36212 -6.860733,-3.388322 -14.09492 -6.822944,2 0 -11.55708,2 0 -11.55708,2 0 -11.55708,2 0 -11.55708,2 0 -11.55708,2 0 -11.55708,2 0 -11.55708,2 0 -11.55708,2 0 -11.55708,2 0 -11.55708,2 0 -11.55708,2 0 -11.55708,2 0 -11.55708,2 0 -11.55708,2 0 -11.55708,2 0 -11.55708,2 0 -11.55708,2 0 -11.55708,2 0 -11.55708,2 0 -11.55708,2 0 -11.55708,7.110,
-2.633197 -16.56329 -6.73925,-2.478141 -15.75561 -6.56171,-2.523545 -14.89298 -6.51148,-2.736624 -14.35043 -6.479086,-2.986244 -14.07974 -6.444385,-2.388018 -14.64449 -6.843112,-2.70216 -14.0586 -6.831732,-2.965055 -13.72869 -6.793163,-3.187679 -13.49682 -6.754013,-2.533835 -14.81037 -6.922131,-2.8448 -14.1773 -6.95482,-3.075829 -13.77371 -6.919445,-3.280766 -13.45339 -6.887056,-2.702077 -14.99216 -6.962291,-2.994847 -14.39145 -6.951643,-3.208952 -14.02984 -6.851848,-3.388144 -13.76845 -6.785289,-2.876017 -15.16611 -6.989562,-3.089316 -14.6608 -6.951279,-3.253021 -14.36212 -6.860733,-3.388322 -14.09492 -6.822944,2 0 -11.55708,2 0 -11.55708,2 0 -11.55708,2 0 -11.55708,2 0 -11.55708,2 0 -11.55708,2 0 -11.55708,2 0 -11.55708,2 0 -11.55708,2 0 -11.55708,2 0 -11.55708,2 0 -11.55708,2 0 -11.55708,2 0 -11.55708,2 0 -11.55708,2 0 -11.55708,2 0 -11.55708,2 0 -11.55708,2 0 -11.55708,2 0 -11.55708,2 0 -11.55708,7.210,
-2.633197 -16.56329 -6.73925,-2.478141 -15.75561 -6.56171,-2.523545 -14.89298 -6.51148,-2.736624 -14.35043 -6.479086,-2.986244 -14.07974 -6.444385,-2.388018 -14.64449 -6.843112,-2.70216 -14.0586 -6.831732,-2.965055 -13.72869 -6.793163,-3.187679 -13.49682 -6.754013,-2.533835 -14.81037 -6.922131,-2.8448 -14.1773 -6.95482,-3.075829 -13.77371 -6.919445,-3.280766 -13.45339 -6.887056,-2.702077 -14.99216 -6.962291,-2.994847 -14.39145 -6.951643,-3.208952 -14.02984 -6.851848,-3.388144 -13.76845 -6.785289,-2.876017 -15.16611 -6.989562,-3.089316 -14.6608 -6.951279,-3.253021 -14.36212 -6.860733,-3.388322 -14.09492 -6.822944,2 0 -11.55708,2 0 -11.55708,2 0 -11.55708,2 0 -11.55708,2 0 -11.55708,2 0 -11.55708,2 0 -11.55708,2 0 -11.55708,2 0 -11.55708,2 0 -11.55708,2 0 -11.55708,2 0 -11.55708,2 0 -11.55708,2 0 -11.55708,2 0 -11.55708,2 0 -11.55708,2 0 -11.55708,2 0 -11.55708,2 0 -11.55708,2 0 -11.55708,2 0 -11.55708,7.310,
-2.633197 -16.56329 -6.73925,-2.478141 -15.75561 -6.56171,-2.523545 -14.89298 -6.51148,-2.736624 -14.35043 -6.479086,-2.986244 -14.07974 -6.444385,-2.388018 -14.64449 -6.843112,-2.70216 -14.0586 -6.831732,-2.965055 -13.72869 -6.793163,-3.187679 -13.49682 -6.754013,-2.533835 -14.81037 -6.922131,-2.8448 -14.1773 -6.95482,-3.075829 -13.77371 -6.919445,-3.280766 -13.45339 -6.887056,-2.702077 -14.99216 -6.962291,-2.994847 -14.39145 -6.951643,-3.208952 -14.02984 -6.851848,-3.388144 -13.76845 -6.785289,-2.876017 -15.16611 -6.989562,-3.089316 -14.6608 -6.951279,-3.253021 -14.36212 -6.860733,-3.388322 -14.09492 -6.822944,2 0 -11.55708,2 0 -11.55708,2 0 -11.55708,2 0 -11.55708,2 0 -11.55708,2 0 -11.55708,2 0 -11.55708,2 0 -11.55708,2 0 -11.55708,2 0 -11.55708,2 0 -11.55708,2 0 -11.55708,2 0 -11.55708,2 0 -11.55708,2 0 -11.55708,2 0 -11.55708,2 0 -11.55708,2 0 -11.55708,2 0 -11.55708,2 0 -11.55708,2 0 -11.55708,7.410,
-2.633197 -16.56329 -6.73925,-2.478141 -15.75561 -6.56171,-2.523545 -14.89298 -6.51148,-2.736624 -14.35043 -6.479086,-2.986244 -14.07974 -6.444385,-2.388018 -14.64449 -6.843112,-2.70216 -14.0586 -6.831732,-2.965055 -13.72869 -6.793163,-3.187679 -13.49682 -6.754013,-2.533835 -14.81037 -6.922131,-2.8448 -14.1773 -6.95482,-3.075829 -13.77371 -6.919445,-3.280766 -13.45339 -6.887056,-2.702077 -14.99216 -6.962291,-2.994847 -14.39145 -6.951643,-3.208952 -14.02984 -6.851848,-3.388144 -13.76845 -6.785289,-2.876017 -15.16611 -6.989562,-3.089316 -14.6608 -6.951279,-3.253021 -14.36212 -6.860733,-3.388322 -14.09492 -6.822944,2 0 -11.55708,2 0 -11.55708,2 0 -11.55708,2 0 -11.55708,2 0 -11.55708,2 0 -11.55708,2 0 -11.55708,2 0 -11.55708,2 0 -11.55708,2 0 -11.55708,2 0 -11.55708,2 0 -11.55708,2 0 -11.55708,2 0 -11.55708,2 0 -11.55708,2 0 -11.55708,2 0 -11.55708,2 0 -11.55708,2 0 -11.55708,2 0 -11.55708,2 0 -11.55708,7.510,
-2.633197 -16.56329 -6.73925,-2.478141 -15.75561 -6.56171,-2.523545 -14.89298 -6.51148,-2.736624 -14.35043 -6.479086,-2.986244 -14.07974 -6.444385,-2.388018 -14.64449 -6.843112,-2.70216 -14.0586 -6.831732,-2.965055 -13.72869 -6.793163,-3.187679 -13.49682 -6.754013,-2.533835 -14.81037 -6.922131,-2.8448 -14.1773 -6.95482,-3.075829 -13.77371 -6.919445,-3.280766 -13.45339 -6.887056,-2.702077 -14.99216 -6.962291,-2.994847 -14.39145 -6.951643,-3.208952 -14.02984 -6.851848,-3.388144 -13.76845 -6.785289,-2.876017 -15.16611 -6.989562,-3.089316 -14.6608 -6.951279,-3.253021 -14.36212 -6.860733,-3.388322 -14.09492 -6.822944,2 0 -11.55708,2 0 -11.55708,2 0 -11.55708,2 0 -11.55708,2 0 -11.55708,2 0 -11.55708,2 0 -11.55708,2 0 -11.55708,2 0 -11.55708,2 0 -11.55708,2 0 -11.55708,2 0 -11.55708,2 0 -11.55708,2 0 -11.55708,2 0 -11.55708,2 0 -11.55708,2 0 -11.55708,2 0 -11.55708,2 0 -11.55708,2 0 -11.55708,2 0 -11.55708,7.610,
-2.633197 -16.56329 -6.73925,-2.478141 -15.75561 -6.56171,-2.523545 -14.89298 -6.51148,-2.736624 -14.35043 -6.479086,-2.986244 -14.07974 -6.444385,-2.388018 -14.64449 -6.843112,-2.70216 -14.0586 -6.831732,-2.965055 -13.72869 -6.793163,-3.187679 -13.49682 -6.754013,-2.533835 -14.81037 -6.922131,-2.8448 -14.1773 -6.95482,-3.075829 -13.77371 -6.919445,-3.280766 -13.45339 -6.887056,-2.702077 -14.99216 -6.962291,-2.994847 -14.39145 -6.951643,-3.208952 -14.02984 -6.851848,-3.388144 -13.76845 -6.785289,-2.876017 -15.16611 -6.989562,-3.089316 -14.6608 -6.951279,-3.253021 -14.36212 -6.860733,-3.388322 -14.09492 -6.822944,2 0 -11.55708,2 0 -11.55708,2 0 -11.55708,2 0 -11.55708,2 0 -11.55708,2 0 -11.55708,2 0 -11.55708,2 0 -11.55708,2 0 -11.55708,2 0 -11.55708,2 0 -11.55708,2 0 -11.55708,2 0 -11.55708,2 0 -11.55708,2 0 -11.55708,2 0 -11.55708,2 0 -11.55708,2 0 -11.55708,2 0 -11.55708,2 0 -11.55708,2 0 -11.55708,7.710,
-2.633197 -16.56329 -6.73925,-2.478141 -15.75561 -6.56171,-2.523545 -14.89298 -6.51148,-2.736624 -14.35043 -6.479086,-2.986244 -14.07974 -6.444385,-2.388018 -14.64449 -6.843112,-2.70216 -14.0586 -6.831732,-2.965055 -13.72869 -6.793163,-3.187679 -13.49682 -6.754013,-2.533835 -14.81037 -6.922131,-2.8448 -14.1773 -6.95482,-3.075829 -13.77371 -6.919445,-3.280766 -13.45339 -6.887056,-2.702077 -14.99216 -6.962291,-2.994847 -14.39145 -6.951643,-3.208952 -14.02984 -6.851848,-3.388144 -13.76845 -6.785289,-2.876017 -15.16611 -6.989562,-3.089316 -14.6608 -6.951279,-3.253021 -14.36212 -6.860733,-3.388322 -14.09492 -6.822944,2 0 -11.55708,2 0 -11.55708,2 0 -11.55708,2 0 -11.55708,2 0 -11.55708,2 0 -11.55708,2 0 -11.55708,2 0 -11.55708,2 0 -11.55708,2 0 -11.55708,2 0 -11.55708,2 0 -11.55708,2 0 -11.55708,2 0 -11.55708,2 0 -11.55708,2 0 -11.55708,2 0 -11.55708,2 0 -11.55708,2 0 -11.55708,2 0 -11.55708,2 0 -11.55708,7.810,
-2.633197 -16.56329 -6.73925,-2.478141 -15.75561 -6.56171,-2.523545 -14.89298 -6.51148,-2.736624 -14.35043 -6.479086,-2.986244 -14.07974 -6.444385,-2.388018 -14.64449 -6.843112,-2.70216 -14.0586 -6.831732,-2.965055 -13.72869 -6.793163,-3.187679 -13.49682 -6.754013,-2.533835 -14.81037 -6.922131,-2.8448 -14.1773 -6.95482,-3.075829 -13.77371 -6.919445,-3.280766 -13.45339 -6.887056,-2.702077 -14.99216 -6.962291,-2.994847 -14.39145 -6.951643,-3.208952 -14.02984 -6.851848,-3.388144 -13.76845 -6.785289,-2.876017 -15.16611 -6.989562,-3.089316 -14.6608 -6.951279,-3.253021 -14.36212 -6.860733,-3.388322 -14.09492 -6.822944,2 0 -11.55708,2 0 -11.55708,2 0 -11.55708,2 0 -11.55708,2 0 -11.55708,2 0 -11.55708,2 0 -11.55708,2 0 -11.55708,2 0 -11.55708,2 0 -11.55708,2 0 -11.55708,2 0 -11.55708,2 0 -11.55708,2 0 -11.55708,2 0 -11.55708,2 0 -11.55708,2 0 -11.55708,2 0 -11.55708,2 0 -11.55708,2 0 -11.55708,2 0 -11.55708,7.910,
-2.633197 -16.56329 -6.73925,-2.478141 -15.75561 -6.56171,-2.523545 -14.89298 -6.51148,-2.736624 -14.35043 -6.479086,-2.986244 -14.07974 -6.444385,-2.388018 -14.64449 -6.843112,-2.70216 -14.0586 -6.831732,-2.965055 -13.72869 -6.793163,-3.187679 -13.49682 -6.754013,-2.533835 -14.81037 -6.922131,-2.8448 -14.1773 -6.95482,-3.075829 -13.77371 -6.919445,-3.280766 -13.45339 -6.887056,-2.702077 -14.99216 -6.962291,-2.994847 -14.39145 -6.951643,-3.208952 -14.02984 -6.851848,-3.388144 -13.76845 -6.785289,-2.876017 -15.16611 -6.989562,-3.089316 -14.6608 -6.951279,-3.253021 -14.36212 -6.860733,-3.388322 -14.09492 -6.822944,2 0 -11.55708,2 0 -11.55708,2 0 -11.55708,2 0 -11.55708,2 0 -11.55708,2 0 -11.55708,2 0 -11.55708,2 0 -11.55708,2 0 -11.55708,2 0 -11.55708,2 0 -11.55708,2 0 -11.55708,2 0 -11.55708,2 0 -11.55708,2 0 -11.55708,2 0 -11.55708,2 0 -11.55708,2 0 -11.55708,2 0 -11.55708,2 0 -11.55708,2 0 -11.55708,8.010,
-2.633197 -16.56329 -6.73925,-2.478141 -15.75561 -6.56171,-2.523545 -14.89298 -6.51148,-2.736624 -14.35043 -6.479086,-2.986244 -14.07974 -6.444385,-2.388018 -14.64449 -6.843112,-2.70216 -14.0586 -6.831732,-2.965055 -13.72869 -6.793163,-3.187679 -13.49682 -6.754013,-2.533835 -14.81037 -6.922131,-2.8448 -14.1773 -6.95482,-3.075829 -13.77371 -6.919445,-3.280766 -13.45339 -6.887056,-2.702077 -14.99216 -6.962291,-2.994847 -14.39145 -6.951643,-3.208952 -14.02984 -6.851848,-3.388144 -13.76845 -6.785289,-2.876017 -15.16611 -6.989562,-3.089316 -14.6608 -6.951279,-3.253021 -14.36212 -6.860733,-3.388322 -14.09492 -6.822944,2 0 -11.55708,2 0 -11.55708,2 0 -11.55708,2 0 -11.55708,2 0 -11.55708,2 0 -11.55708,2 0 -11.55708,2 0 -11.55708,2 0 -11.55708,2 0 -11.55708,2 0 -11.55708,2 0 -11.55708,2 0 -11.55708,2 0 -11.55708,2 0 -11.55708,2 0 -11.55708,2 0 -11.55708,2 0 -11.55708,2 0 -11.55708,2 0 -11.55708,2 0 -11.55708,8.110,
-2.633197 -16.56329 -6.73925,-2.478141 -15.75561 -6.56171,-2.523545 -14.89298 -6.51148,-2.736624 -14.35043 -6.479086,-2.986244 -14.07974 -6.444385,-2.388018 -14.64449 -6.843112,-2.70216 -14.0586 -6.831732,-2.965055 -13.72869 -6.793163,-3.187679 -13.49682 -6.754013,-2.533835 -14.81037 -6.922131,-2.8448 -14.1773 -6.95482,-3.075829 -13.77371 -6.919445,-3.280766 -13.45339 -6.887056,-2.702077 -14.99216 -6.962291,-2.994847 -14.39145 -6.951643,-3.208952 -14.02984 -6.851848,-3.388144 -13.76845 -6.785289,-2.876017 -15.16611 -6.989562,-3.089316 -14.6608 -6.951279,-3.253021 -14.36212 -6.860733,-3.388322 -14.09492 -6.822944,2 0 -11.55708,2 0 -11.55708,2 0 -11.55708,2 0 -11.55708,2 0 -11.55708,2 0 -11.55708,2 0 -11.55708,2 0 -11.55708,2 0 -11.55708,2 0 -11.55708,2 0 -11.55708,2 0 -11.55708,2 0 -11.55708,2 0 -11.55708,2 0 -11.55708,2 0 -11.55708,2 0 -11.55708,2 0 -11.55708,2 0 -11.55708,2 0 -11.55708,2 0 -11.55708,8.210,
-2.633197 -16.56329 -6.73925,-2.478141 -15.75561 -6.56171,-2.523545 -14.89298 -6.51148,-2.736624 -14.35043 -6.479086,-2.986244 -14.07974 -6.444385,-2.388018 -14.64449 -6.843112,-2.70216 -14.0586 -6.831732,-2.965055 -13.72869 -6.793163,-3.187679 -13.49682 -6.754013,-2.533835 -14.81037 -6.922131,-2.8448 -14.1773 -6.95482,-3.075829 -13.77371 -6.919445,-3.280766 -13.45339 -6.887056,-2.702077 -14.99216 -6.962291,-2.994847 -14.39145 -6.951643,-3.208952 -14.02984 -6.851848,-3.388144 -13.76845 -6.785289,-2.876017 -15.16611 -6.989562,-3.089316 -14.6608 -6.951279,-3.253021 -14.36212 -6.860733,-3.388322 -14.09492 -6.822944,2 0 -11.55708,2 0 -11.55708,2 0 -11.55708,2 0 -11.55708,2 0 -11.55708,2 0 -11.55708,2 0 -11.55708,2 0 -11.55708,2 0 -11.55708,2 0 -11.55708,2 0 -11.55708,2 0 -11.55708,2 0 -11.55708,2 0 -11.55708,2 0 -11.55708,2 0 -11.55708,2 0 -11.55708,2 0 -11.55708,2 0 -11.55708,2 0 -11.55708,2 0 -11.55708,8.310,
-2.633197 -16.56329 -6.73925,-2.478141 -15.75561 -6.56171,-2.523545 -14.89298 -6.51148,-2.736624 -14.35043 -6.479086,-2.986244 -14.07974 -6.444385,-2.388018 -14.64449 -6.843112,-2.70216 -14.0586 -6.831732,-2.965055 -13.72869 -6.793163,-3.187679 -13.49682 -6.754013,-2.533835 -14.81037 -6.922131,-2.8448 -14.1773 -6.95482,-3.075829 -13.77371 -6.919445,-3.280766 -13.45339 -6.887056,-2.702077 -14.99216 -6.962291,-2.994847 -14.39145 -6.951643,-3.208952 -14.02984 -6.851848,-3.388144 -13.76845 -6.785289,-2.876017 -15.16611 -6.989562,-3.089316 -14.6608 -6.951279,-3.253021 -14.36212 -6.860733,-3.388322 -14.09492 -6.822944,2 0 -11.55708,2 0 -11.55708,2 0 -11.55708,2 0 -11.55708,2 0 -11.55708,2 0 -11.55708,2 0 -11.55708,2 0 -11.55708,2 0 -11.55708,2 0 -11.55708,2 0 -11.55708,2 0 -11.55708,2 0 -11.55708,2 0 -11.55708,2 0 -11.55708,2 0 -11.55708,2 0 -11.55708,2 0 -11.55708,2 0 -11.55708,2 0 -11.55708,2 0 -11.55708,8.410,
-2.633197 -16.56329 -6.73925,-2.478141 -15.75561 -6.56171,-2.523545 -14.89298 -6.51148,-2.736624 -14.35043 -6.479086,-2.986244 -14.07974 -6.444385,-2.388018 -14.64449 -6.843112,-2.70216 -14.0586 -6.831732,-2.965055 -13.72869 -6.793163,-3.187679 -13.49682 -6.754013,-2.533835 -14.81037 -6.922131,-2.8448 -14.1773 -6.95482,-3.075829 -13.77371 -6.919445,-3.280766 -13.45339 -6.887056,-2.702077 -14.99216 -6.962291,-2.994847 -14.39145 -6.951643,-3.208952 -14.02984 -6.851848,-3.388144 -13.76845 -6.785289,-2.876017 -15.16611 -6.989562,-3.089316 -14.6608 -6.951279,-3.253021 -14.36212 -6.860733,-3.388322 -14.09492 -6.822944,2 0 -11.55708,2 0 -11.55708,2 0 -11.55708,2 0 -11.55708,2 0 -11.55708,2 0 -11.55708,2 0 -11.55708,2 0 -11.55708,2 0 -11.55708,2 0 -11.55708,2 0 -11.55708,2 0 -11.55708,2 0 -11.55708,2 0 -11.55708,2 0 -11.55708,2 0 -11.55708,2 0 -11.55708,2 0 -11.55708,2 0 -11.55708,2 0 -11.55708,2 0 -11.55708,8.510,
-2.633197 -16.56329 -6.73925,-2.478141 -15.75561 -6.56171,-2.523545 -14.89298 -6.51148,-2.736624 -14.35043 -6.479086,-2.986244 -14.07974 -6.444385,-2.388018 -14.64449 -6.843112,-2.70216 -14.0586 -6.831732,-2.965055 -13.72869 -6.793163,-3.187679 -13.49682 -6.754013,-2.533835 -14.81037 -6.922131,-2.8448 -14.1773 -6.95482,-3.075829 -13.77371 -6.919445,-3.280766 -13.45339 -6.887056,-2.702077 -14.99216 -6.962291,-2.994847 -14.39145 -6.951643,-3.208952 -14.02984 -6.851848,-3.388144 -13.76845 -6.785289,-2.876017 -15.16611 -6.989562,-3.089316 -14.6608 -6.951279,-3.253021 -14.36212 -6.860733,-3.388322 -14.09492 -6.822944,2 0 -11.55708,2 0 -11.55708,2 0 -11.55708,2 0 -11.55708,2 0 -11.55708,2 0 -11.55708,2 0 -11.55708,2 0 -11.55708,2 0 -11.55708,2 0 -11.55708,2 0 -11.55708,2 0 -11.55708,2 0 -11.55708,2 0 -11.55708,2 0 -11.55708,2 0 -11.55708,2 0 -11.55708,2 0 -11.55708,2 0 -11.55708,2 0 -11.55708,2 0 -11.55708,8.610,
-2.633197 -16.56329 -6.73925,-2.478141 -15.75561 -6.56171,-2.523545 -14.89298 -6.51148,-2.736624 -14.35043 -6.479086,-2.986244 -14.07974 -6.444385,-2.388018 -14.64449 -6.843112,-2.70216 -14.0586 -6.831732,-2.965055 -13.72869 -6.793163,-3.187679 -13.49682 -6.754013,-2.533835 -14.81037 -6.922131,-2.8448 -14.1773 -6.95482,-3.075829 -13.77371 -6.919445,-3.280766 -13.45339 -6.887056,-2.702077 -14.99216 -6.962291,-2.994847 -14.39145 -6.951643,-3.208952 -14.02984 -6.851848,-3.388144 -13.76845 -6.785289,-2.876017 -15.16611 -6.989562,-3.089316 -14.6608 -6.951279,-3.253021 -14.36212 -6.860733,-3.388322 -14.09492 -6.822944,2 0 -11.55708,2 0 -11.55708,2 0 -11.55708,2 0 -11.55708,2 0 -11.55708,2 0 -11.55708,2 0 -11.55708,2 0 -11.55708,2 0 -11.55708,2 0 -11.55708,2 0 -11.55708,2 0 -11.55708,2 0 -11.55708,2 0 -11.55708,2 0 -11.55708,2 0 -11.55708,2 0 -11.55708,2 0 -11.55708,2 0 -11.55708,2 0 -11.55708,2 0 -11.55708,8.710,
-2.633197 -16.56329 -6.73925,-2.478141 -15.75561 -6.56171,-2.523545 -14.89298 -6.51148,-2.736624 -14.35043 -6.479086,-2.986244 -14.07974 -6.444385,-2.388018 -14.64449 -6.843112,-2.70216 -14.0586 -6.831732,-2.965055 -13.72869 -6.793163,-3.187679 -13.49682 -6.754013,-2.533835 -14.81037 -6.922131,-2.8448 -14.1773 -6.95482,-3.075829 -13.77371 -6.919445,-3.280766 -13.45339 -6.887056,-2.702077 -14.99216 -6.962291,-2.994847 -14.39145 -6.951643,-3.208952 -14.02984 -6.851848,-3.388144 -13.76845 -6.785289,-2.876017 -15.16611 -6.989562,-3.089316 -14.6608 -6.951279,-3.253021 -14.36212 -6.860733,-3.388322 -14.09492 -6.822944,2 0 -11.55708,2 0 -11.55708,2 0 -11.55708,2 0 -11.55708,2 0 -11.55708,2 0 -11.55708,2 0 -11.55708,2 0 -11.55708,2 0 -11.55708,2 0 -11.55708,2 0 -11.55708,2 0 -11.55708,2 0 -11.55708,2 0 -11.55708,2 0 -11.55708,2 0 -11.55708,2 0 -11.55708,2 0 -11.55708,2 0 -11.55708,2 0 -11.55708,2 0 -11.55708,8.810,
-2.633197 -16.56329 -6.73925,-2.478141 -15.75561 -6.56171,-2.523545 -14.89298 -6.51148,-2.736624 -14.35043 -6.479086,-2.986244 -14.07974 -6.444385,-2.388018 -14.64449 -6.843112,-2.70216 -14.0586 -6.831732,-2.965055 -13.72869 -6.793163,-3.187679 -13.49682 -6.754013,-2.533835 -14.81037 -6.922131,-2.8448 -14.1773 -6.95482,-3.075829 -13.77371 -6.919445,-3.280766 -13.45339 -6.887056,-2.702077 -14.99216 -6.962291,-2.994847 -14.39145 -6.951643,-3.208952 -14.02984 -6.851848,-3.388144 -13.76845 -6.785289,-2.876017 -15.16611 -6.989562,-3.089316 -14.6608 -6.951279,-3.253021 -14.36212 -6.860733,-3.388322 -14.09492 -6.822944,2 0 -11.55708,2 0 -11.55708,2 0 -11.55708,2 0 -11.55708,2 0 -11.55708,2 0 -11.55708,2 0 -11.55708,2 0 -11.55708,2 0 -11.55708,2 0 -11.55708,2 0 -11.55708,2 0 -11.55708,2 0 -11.55708,2 0 -11.55708,2 0 -11.55708,2 0 -11.55708,2 0 -11.55708,2 0 -11.55708,2 0 -11.55708,2 0 -11.55708,2 0 -11.55708,8.910,
-2.633197 -16.56329 -6.73925,-2.478141 -15.75561 -6.56171,-2.523545 -14.89298 -6.51148,-2.736624 -14.35043 -6.479086,-2.986244 -14.07974 -6.444385,-2.388018 -14.64449 -6.843112,-2.70216 -14.0586 -6.831732,-2.965055 -13.72869 -6.793163,-3.187679 -13.49682 -6.754013,-2.533835 -14.81037 -6.922131,-2.8448 -14.1773 -6.95482,-3.075829 -13.77371 -6.919445,-3.280766 -13.45339 -6.887056,-2.702077 -14.99216 -6.962291,-2.994847 -14.39145 -6.951643,-3.208952 -14.02984 -6.851848,-3.388144 -13.76845 -6.785289,-2.876017 -15.16611 -6.989562,-3.089316 -14.6608 -6.951279,-3.253021 -14.36212 -6.860733,-3.388322 -14.09492 -6.822944,2 0 -11.55708,2 0 -11.55708,2 0 -11.55708,2 0 -11.55708,2 0 -11.55708,2 0 -11.55708,2 0 -11.55708,2 0 -11.55708,2 0 -11.55708,2 0 -11.55708,2 0 -11.55708,2 0 -11.55708,2 0 -11.55708,2 0 -11.55708,2 0 -11.55708,2 0 -11.55708,2 0 -11.55708,2 0 -11.55708,2 0 -11.55708,2 0 -11.55708,2 0 -11.55708,9.010,
-2.633197 -16.56329 -6.73925,-2.478141 -15.75561 -6.56171,-2.523545 -14.89298 -6.51148,-2.736624 -14.35043 -6.479086,-2.986244 -14.07974 -6.444385,-2.388018 -14.64449 -6.843112,-2.70216 -14.0586 -6.831732,-2.965055 -13.72869 -6.793163,-3.187679 -13.49682 -6.754013,-2.533835 -14.81037 -6.922131,-2.8448 -14.1773 -6.95482,-3.075829 -13.77371 -6.919445,-3.280766 -13.45339 -6.887056,-2.702077 -14.99216 -6.962291,-2.994847 -14.39145 -6.951643,-3.208952 -14.02984 -6.851848,-3.388144 -13.76845 -6.785289,-2.876017 -15.16611 -6.989562,-3.089316 -14.6608 -6.951279,-3.253021 -14.36212 -6.860733,-3.388322 -14.09492 -6.822944,2 0 -11.55708,2 0 -11.55708,2 0 -11.55708,2 0 -11.55708,2 0 -11.55708,2 0 -11.55708,2 0 -11.55708,2 0 -11.55708,2 0 -11.55708,2 0 -11.55708,2 0 -11.55708,2 0 -11.55708,2 0 -11.55708,2 0 -11.55708,2 0 -11.55708,2 0 -11.55708,2 0 -11.55708,2 0 -11.55708,2 0 -11.55708,2 0 -11.55708,2 0 -11.55708,9.110,
-2.633197 -16.56329 -6.73925,-2.478141 -15.75561 -6.56171,-2.523545 -14.89298 -6.51148,-2.736624 -14.35043 -6.479086,-2.986244 -14.07974 -6.444385,-2.388018 -14.64449 -6.843112,-2.70216 -14.0586 -6.831732,-2.965055 -13.72869 -6.793163,-3.187679 -13.49682 -6.754013,-2.533835 -14.81037 -6.922131,-2.8448 -14.1773 -6.95482,-3.075829 -13.77371 -6.919445,-3.280766 -13.45339 -6.887056,-2.702077 -14.99216 -6.962291,-2.994847 -14.39145 -6.951643,-3.208952 -14.02984 -6.851848,-3.388144 -13.76845 -6.785289,-2.876017 -15.16611 -6.989562,-3.089316 -14.6608 -6.951279,-3.253021 -14.36212 -6.860733,-3.388322 -14.09492 -6.822944,2 0 -11.55708,2 0 -11.55708,2 0 -11.55708,2 0 -11.55708,2 0 -11.55708,2 0 -11.55708,2 0 -11.55708,2 0 -11.55708,2 0 -11.55708,2 0 -11.55708,2 0 -11.55708,2 0 -11.55708,2 0 -11.55708,2 0 -11.55708,2 0 -11.55708,2 0 -11.55708,2 0 -11.55708,2 0 -11.55708,2 0 -11.55708,2 0 -11.55708,2 0 -11.55708,9.210,
-2.633197 -16.56329 -6.73925,-2.478141 -15.75561 -6.56171,-2.523545 -14.89298 -6.51148,-2.736624 -14.35043 -6.479086,-2.986244 -14.07974 -6.444385,-2.388018 -14.64449 -6.843112,-2.70216 -14.0586 -6.831732,-2.965055 -13.72869 -6.793163,-3.187679 -13.49682 -6.754013,-2.533835 -14.81037 -6.922131,-2.8448 -14.1773 -6.95482,-3.075829 -13.77371 -6.919445,-3.280766 -13.45339 -6.887056,-2.702077 -14.99216 -6.962291,-2.994847 -14.39145 -6.951643,-3.208952 -14.02984 -6.851848,-3.388144 -13.76845 -6.785289,-2.876017 -15.16611 -6.989562,-3.089316 -14.6608 -6.951279,-3.253021 -14.36212 -6.860733,-3.388322 -14.09492 -6.822944,2 0 -11.55708,2 0 -11.55708,2 0 -11.55708,2 0 -11.55708,2 0 -11.55708,2 0 -11.55708,2 0 -11.55708,2 0 -11.55708,2 0 -11.55708,2 0 -11.55708,2 0 -11.55708,2 0 -11.55708,2 0 -11.55708,2 0 -11.55708,2 0 -11.55708,2 0 -11.55708,2 0 -11.55708,2 0 -11.55708,2 0 -11.55708,2 0 -11.55708,2 0 -11.55708,9.310,
-2.633197 -16.56329 -6.73925,-2.478141 -15.75561 -6.56171,-2.523545 -14.89298 -6.51148,-2.736624 -14.35043 -6.479086,-2.986244 -14.07974 -6.444385,-2.388018 -14.64449 -6.843112,-2.70216 -14.0586 -6.831732,-2.965055 -13.72869 -6.793163,-3.187679 -13.49682 -6.754013,-2.533835 -14.81037 -6.922131,-2.8448 -14.1773 -6.95482,-3.075829 -13.77371 -6.919445,-3.280766 -13.45339 -6.887056,-2.702077 -14.99216 -6.962291,-2.994847 -14.39145 -6.951643,-3.208952 -14.02984 -6.851848,-3.388144 -13.76845 -6.785289,-2.876017 -15.16611 -6.989562,-3.089316 -14.6608 -6.951279,-3.253021 -14.36212 -6.860733,-3.388322 -14.09492 -6.822944,2 0 -11.55708,2 0 -11.55708,2 0 -11.55708,2 0 -11.55708,2 0 -11.55708,2 0 -11.55708,2 0 -11.55708,2 0 -11.55708,2 0 -11.55708,2 0 -11.55708,2 0 -11.55708,2 0 -11.55708,2 0 -11.55708,2 0 -11.55708,2 0 -11.55708,2 0 -11.55708,2 0 -11.55708,2 0 -11.55708,2 0 -11.55708,2 0 -11.55708,2 0 -11.55708,9.410,
-2.633197 -16.56329 -6.73925,-2.478141 -15.75561 -6.56171,-2.523545 -14.89298 -6.51148,-2.736624 -14.35043 -6.479086,-2.986244 -14.07974 -6.444385,-2.388018 -14.64449 -6.843112,-2.70216 -14.0586 -6.831732,-2.965055 -13.72869 -6.793163,-3.187679 -13.49682 -6.754013,-2.533835 -14.81037 -6.922131,-2.8448 -14.1773 -6.95482,-3.075829 -13.77371 -6.919445,-3.280766 -13.45339 -6.887056,-2.702077 -14.99216 -6.962291,-2.994847 -14.39145 -6.951643,-3.208952 -14.02984 -6.851848,-3.388144 -13.76845 -6.785289,-2.876017 -15.16611 -6.989562,-3.089316 -14.6608 -6.951279,-3.253021 -14.36212 -6.860733,-3.388322 -14.09492 -6.822944,2 0 -11.55708,2 0 -11.55708,2 0 -11.55708,2 0 -11.55708,2 0 -11.55708,2 0 -11.55708,2 0 -11.55708,2 0 -11.55708,2 0 -11.55708,2 0 -11.55708,2 0 -11.55708,2 0 -11.55708,2 0 -11.55708,2 0 -11.55708,2 0 -11.55708,2 0 -11.55708,2 0 -11.55708,2 0 -11.55708,2 0 -11.55708,2 0 -11.55708,2 0 -11.55708,9.510,
-2.633197 -16.56329 -6.73925,-2.478141 -15.75561 -6.56171,-2.523545 -14.89298 -6.51148,-2.736624 -14.35043 -6.479086,-2.986244 -14.07974 -6.444385,-2.388018 -14.64449 -6.843112,-2.70216 -14.0586 -6.831732,-2.965055 -13.72869 -6.793163,-3.187679 -13.49682 -6.754013,-2.533835 -14.81037 -6.922131,-2.8448 -14.1773 -6.95482,-3.075829 -13.77371 -6.919445,-3.280766 -13.45339 -6.887056,-2.702077 -14.99216 -6.962291,-2.994847 -14.39145 -6.951643,-3.208952 -14.02984 -6.851848,-3.388144 -13.76845 -6.785289,-2.876017 -15.16611 -6.989562,-3.089316 -14.6608 -6.951279,-3.253021 -14.36212 -6.860733,-3.388322 -14.09492 -6.822944,2 0 -11.55708,2 0 -11.55708,2 0 -11.55708,2 0 -11.55708,2 0 -11.55708,2 0 -11.55708,2 0 -11.55708,2 0 -11.55708,2 0 -11.55708,2 0 -11.55708,2 0 -11.55708,2 0 -11.55708,2 0 -11.55708,2 0 -11.55708,2 0 -11.55708,2 0 -11.55708,2 0 -11.55708,2 0 -11.55708,2 0 -11.55708,2 0 -11.55708,2 0 -11.55708,9.610,
-2.633197 -16.56329 -6.73925,-2.478141 -15.75561 -6.56171,-2.523545 -14.89298 -6.51148,-2.736624 -14.35043 -6.479086,-2.986244 -14.07974 -6.444385,-2.388018 -14.64449 -6.843112,-2.70216 -14.0586 -6.831732,-2.965055 -13.72869 -6.793163,-3.187679 -13.49682 -6.754013,-2.533835 -14.81037 -6.922131,-2.8448 -14.1773 -6.95482,-3.075829 -13.77371 -6.919445,-3.280766 -13.45339 -6.887056,-2.702077 -14.99216 -6.962291,-2.994847 -14.39145 -6.951643,-3.208952 -14.02984 -6.851848,-3.388144 -13.76845 -6.785289,-2.876017 -15.16611 -6.989562,-3.089316 -14.6608 -6.951279,-3.253021 -14.36212 -6.860733,-3.388322 -14.09492 -6.822944,2 0 -11.55708,2 0 -11.55708,2 0 -11.55708,2 0 -11.55708,2 0 -11.55708,2 0 -11.55708,2 0 -11.55708,2 0 -11.55708,2 0 -11.55708,2 0 -11.55708,2 0 -11.55708,2 0 -11.55708,2 0 -11.55708,2 0 -11.55708,2 0 -11.55708,2 0 -11.55708,2 0 -11.55708,2 0 -11.55708,2 0 -11.55708,2 0 -11.55708,2 0 -11.55708,9.710,
-2.633197 -16.56329 -6.73925,-2.478141 -15.75561 -6.56171,-2.523545 -14.89298 -6.51148,-2.736624 -14.35043 -6.479086,-2.986244 -14.07974 -6.444385,-2.388018 -14.64449 -6.843112,-2.70216 -14.0586 -6.831732,-2.965055 -13.72869 -6.793163,-3.187679 -13.49682 -6.754013,-2.533835 -14.81037 -6.922131,-2.8448 -14.1773 -6.95482,-3.075829 -13.77371 -6.919445,-3.280766 -13.45339 -6.887056,-2.702077 -14.99216 -6.962291,-2.994847 -14.39145 -6.951643,-3.208952 -14.02984 -6.851848,-3.388144 -13.76845 -6.785289,-2.876017 -15.16611 -6.989562,-3.089316 -14.6608 -6.951279,-3.253021 -14.36212 -6.860733,-3.388322 -14.09492 -6.822944,2 0 -11.55708,2 0 -11.55708,2 0 -11.55708,2 0 -11.55708,2 0 -11.55708,2 0 -11.55708,2 0 -11.55708,2 0 -11.55708,2 0 -11.55708,2 0 -11.55708,2 0 -11.55708,2 0 -11.55708,2 0 -11.55708,2 0 -11.55708,2 0 -11.55708,2 0 -11.55708,2 0 -11.55708,2 0 -11.55708,2 0 -11.55708,2 0 -11.55708,2 0 -11.55708,9.810,
-2.633197 -16.56329 -6.73925,-2.478141 -15.75561 -6.56171,-2.523545 -14.89298 -6.51148,-2.736624 -14.35043 -6.479086,-2.986244 -14.07974 -6.444385,-2.388018 -14.64449 -6.843112,-2.70216 -14.0586 -6.831732,-2.965055 -13.72869 -6.793163,-3.187679 -13.49682 -6.754013,-2.533835 -14.81037 -6.922131,-2.8448 -14.1773 -6.95482,-3.075829 -13.77371 -6.919445,-3.280766 -13.45339 -6.887056,-2.702077 -14.99216 -6.962291,-2.994847 -14.39145 -6.951643,-3.208952 -14.02984 -6.851848,-3.388144 -13.76845 -6.785289,-2.876017 -15.16611 -6.989562,-3.089316 -14.6608 -6.951279,-3.253021 -14.36212 -6.860733,-3.388322 -14.09492 -6.822944,2 0 -11.55708,2 0 -11.55708,2 0 -11.55708,2 0 -11.55708,2 0 -11.55708,2 0 -11.55708,2 0 -11.55708,2 0 -11.55708,2 0 -11.55708,2 0 -11.55708,2 0 -11.55708,2 0 -11.55708,2 0 -11.55708,2 0 -11.55708,2 0 -11.55708,2 0 -11.55708,2 0 -11.55708,2 0 -11.55708,2 0 -11.55708,2 0 -11.55708,2 0 -11.55708,9.910,
-2.633197 -16.56329 -6.73925,-2.478141 -15.75561 -6.56171,-2.523545 -14.89298 -6.51148,-2.736624 -14.35043 -6.479086,-2.986244 -14.07974 -6.444385,-2.388018 -14.64449 -6.843112,-2.70216 -14.0586 -6.831732,-2.965055 -13.72869 -6.793163,-3.187679 -13.49682 -6.754013,-2.533835 -14.81037 -6.922131,-2.8448 -14.1773 -6.95482,-3.075829 -13.77371 -6.919445,-3.280766 -13.45339 -6.887056,-2.702077 -14.99216 -6.962291,-2.994847 -14.39145 -6.951643,-3.208952 -14.02984 -6.851848,-3.388144 -13.76845 -6.785289,-2.876017 -15.16611 -6.989562,-3.089316 -14.6608 -6.951279,-3.253021 -14.36212 -6.860733,-3.388322 -14.09492 -6.822944,2 0 -11.55708,2 0 -11.55708,2 0 -11.55708,2 0 -11.55708,2 0 -11.55708,2 0 -11.55708,2 0 -11.55708,2 0 -11.55708,2 0 -11.55708,2 0 -11.55708,2 0 -11.55708,2 0 -11.55708,2 0 -11.55708,2 0 -11.55708,2 0 -11.55708,2 0 -11.55708,2 0 -11.55708,2 0 -11.55708,2 0 -11.55708,2 0 -11.55708,2 0 -11.55708,10.010,
-2.633197 -16.56329 -6.73925,-2.478141 -15.75561 -6.56171,-2.523545 -14.89298 -6.51148,-2.736624 -14.35043 -6.479086,-2.986244 -14.07974 -6.444385,-2.388018 -14.64449 -6.843112,-2.70216 -14.0586 -6.831732,-2.965055 -13.72869 -6.793163,-3.187679 -13.49682 -6.754013,-2.533835 -14.81037 -6.922131,-2.8448 -14.1773 -6.95482,-3.075829 -13.77371 -6.919445,-3.280766 -13.45339 -6.887056,-2.702077 -14.99216 -6.962291,-2.994847 -14.39145 -6.951643,-3.208952 -14.02984 -6.851848,-3.388144 -13.76845 -6.785289,-2.876017 -15.16611 -6.989562,-3.089316 -14.6608 -6.951279,-3.253021 -14.36212 -6.860733,-3.388322 -14.09492 -6.822944,2 0 -11.55708,2 0 -11.55708,2 0 -11.55708,2 0 -11.55708,2 0 -11.55708,2 0 -11.55708,2 0 -11.55708,2 0 -11.55708,2 0 -11.55708,2 0 -11.55708,2 0 -11.55708,2 0 -11.55708,2 0 -11.55708,2 0 -11.55708,2 0 -11.55708,2 0 -11.55708,2 0 -11.55708,2 0 -11.55708,2 0 -11.55708,2 0 -11.55708,2 0 -11.55708,10.110,
-2.633197 -16.56329 -6.73925,-2.478141 -15.75561 -6.56171,-2.523545 -14.89298 -6.51148,-2.736624 -14.35043 -6.479086,-2.986244 -14.07974 -6.444385,-2.388018 -14.64449 -6.843112,-2.70216 -14.0586 -6.831732,-2.965055 -13.72869 -6.793163,-3.187679 -13.49682 -6.754013,-2.533835 -14.81037 -6.922131,-2.8448 -14.1773 -6.95482,-3.075829 -13.77371 -6.919445,-3.280766 -13.45339 -6.887056,-2.702077 -14.99216 -6.962291,-2.994847 -14.39145 -6.951643,-3.208952 -14.02984 -6.851848,-3.388144 -13.76845 -6.785289,-2.876017 -15.16611 -6.989562,-3.089316 -14.6608 -6.951279,-3.253021 -14.36212 -6.860733,-3.388322 -14.09492 -6.822944,2 0 -11.55708,2 0 -11.55708,2 0 -11.55708,2 0 -11.55708,2 0 -11.55708,2 0 -11.55708,2 0 -11.55708,2 0 -11.55708,2 0 -11.55708,2 0 -11.55708,2 0 -11.55708,2 0 -11.55708,2 0 -11.55708,2 0 -11.55708,2 0 -11.55708,2 0 -11.55708,2 0 -11.55708,2 0 -11.55708,2 0 -11.55708,2 0 -11.55708,2 0 -11.55708,10.210,
-2.633197 -16.56329 -6.73925,-2.478141 -15.75561 -6.56171,-2.523545 -14.89298 -6.51148,-2.736624 -14.35043 -6.479086,-2.986244 -14.07974 -6.444385,-2.388018 -14.64449 -6.843112,-2.70216 -14.0586 -6.831732,-2.965055 -13.72869 -6.793163,-3.187679 -13.49682 -6.754013,-2.533835 -14.81037 -6.922131,-2.8448 -14.1773 -6.95482,-3.075829 -13.77371 -6.919445,-3.280766 -13.45339 -6.887056,-2.702077 -14.99216 -6.962291,-2.994847 -14.39145 -6.951643,-3.208952 -14.02984 -6.851848,-3.388144 -13.76845 -6.785289,-2.876017 -15.16611 -6.989562,-3.089316 -14.6608 -6.951279,-3.253021 -14.36212 -6.860733,-3.388322 -14.09492 -6.822944,2 0 -11.55708,2 0 -11.55708,2 0 -11.55708,2 0 -11.55708,2 0 -11.55708,2 0 -11.55708,2 0 -11.55708,2 0 -11.55708,2 0 -11.55708,2 0 -11.55708,2 0 -11.55708,2 0 -11.55708,2 0 -11.55708,2 0 -11.55708,2 0 -11.55708,2 0 -11.55708,2 0 -11.55708,2 0 -11.55708,2 0 -11.55708,2 0 -11.55708,2 0 -11.55708,10.310,
-2.633197 -16.56329 -6.73925,-2.478141 -15.75561 -6.56171,-2.523545 -14.89298 -6.51148,-2.736624 -14.35043 -6.479086,-2.986244 -14.07974 -6.444385,-2.388018 -14.64449 -6.843112,-2.70216 -14.0586 -6.831732,-2.965055 -13.72869 -6.793163,-3.187679 -13.49682 -6.754013,-2.533835 -14.81037 -6.922131,-2.8448 -14.1773 -6.95482,-3.075829 -13.77371 -6.919445,-3.280766 -13.45339 -6.887056,-2.702077 -14.99216 -6.962291,-2.994847 -14.39145 -6.951643,-3.208952 -14.02984 -6.851848,-3.388144 -13.76845 -6.785289,-2.876017 -15.16611 -6.989562,-3.089316 -14.6608 -6.951279,-3.253021 -14.36212 -6.860733,-3.388322 -14.09492 -6.822944,2 0 -11.55708,2 0 -11.55708,2 0 -11.55708,2 0 -11.55708,2 0 -11.55708,2 0 -11.55708,2 0 -11.55708,2 0 -11.55708,2 0 -11.55708,2 0 -11.55708,2 0 -11.55708,2 0 -11.55708,2 0 -11.55708,2 0 -11.55708,2 0 -11.55708,2 0 -11.55708,2 0 -11.55708,2 0 -11.55708,2 0 -11.55708,2 0 -11.55708,2 0 -11.55708,10.410,
-2.633197 -16.56329 -6.73925,-2.478141 -15.75561 -6.56171,-2.523545 -14.89298 -6.51148,-2.736624 -14.35043 -6.479086,-2.986244 -14.07974 -6.444385,-2.388018 -14.64449 -6.843112,-2.70216 -14.0586 -6.831732,-2.965055 -13.72869 -6.793163,-3.187679 -13.49682 -6.754013,-2.533835 -14.81037 -6.922131,-2.8448 -14.1773 -6.95482,-3.075829 -13.77371 -6.919445,-3.280766 -13.45339 -6.887056,-2.702077 -14.99216 -6.962291,-2.994847 -14.39145 -6.951643,-3.208952 -14.02984 -6.851848,-3.388144 -13.76845 -6.785289,-2.876017 -15.16611 -6.989562,-3.089316 -14.6608 -6.951279,-3.253021 -14.36212 -6.860733,-3.388322 -14.09492 -6.822944,2 0 -11.55708,2 0 -11.55708,2 0 -11.55708,2 0 -11.55708,2 0 -11.55708,2 0 -11.55708,2 0 -11.55708,2 0 -11.55708,2 0 -11.55708,2 0 -11.55708,2 0 -11.55708,2 0 -11.55708,2 0 -11.55708,2 0 -11.55708,2 0 -11.55708,2 0 -11.55708,2 0 -11.55708,2 0 -11.55708,2 0 -11.55708,2 0 -11.55708,2 0 -11.55708,10.510,
-2.633197 -16.56329 -6.73925,-2.478141 -15.75561 -6.56171,-2.523545 -14.89298 -6.51148,-2.736624 -14.35043 -6.479086,-2.986244 -14.07974 -6.444385,-2.388018 -14.64449 -6.843112,-2.70216 -14.0586 -6.831732,-2.965055 -13.72869 -6.793163,-3.187679 -13.49682 -6.754013,-2.533835 -14.81037 -6.922131,-2.8448 -14.1773 -6.95482,-3.075829 -13.77371 -6.919445,-3.280766 -13.45339 -6.887056,-2.702077 -14.99216 -6.962291,-2.994847 -14.39145 -6.951643,-3.208952 -14.02984 -6.851848,-3.388144 -13.76845 -6.785289,-2.876017 -15.16611 -6.989562,-3.089316 -14.6608 -6.951279,-3.253021 -14.36212 -6.860733,-3.388322 -14.09492 -6.822944,2 0 -11.55708,2 0 -11.55708,2 0 -11.55708,2 0 -11.55708,2 0 -11.55708,2 0 -11.55708,2 0 -11.55708,2 0 -11.55708,2 0 -11.55708,2 0 -11.55708,2 0 -11.55708,2 0 -11.55708,2 0 -11.55708,2 0 -11.55708,2 0 -11.55708,2 0 -11.55708,2 0 -11.55708,2 0 -11.55708,2 0 -11.55708,2 0 -11.55708,2 0 -11.55708,10.610,
-2.633197 -16.56329 -6.73925,-2.478141 -15.75561 -6.56171,-2.523545 -14.89298 -6.51148,-2.736624 -14.35043 -6.479086,-2.986244 -14.07974 -6.444385,-2.388018 -14.64449 -6.843112,-2.70216 -14.0586 -6.831732,-2.965055 -13.72869 -6.793163,-3.187679 -13.49682 -6.754013,-2.533835 -14.81037 -6.922131,-2.8448 -14.1773 -6.95482,-3.075829 -13.77371 -6.919445,-3.280766 -13.45339 -6.887056,-2.702077 -14.99216 -6.962291,-2.994847 -14.39145 -6.951643,-3.208952 -14.02984 -6.851848,-3.388144 -13.76845 -6.785289,-2.876017 -15.16611 -6.989562,-3.089316 -14.6608 -6.951279,-3.253021 -14.36212 -6.860733,-3.388322 -14.09492 -6.822944,2 0 -11.55708,2 0 -11.55708,2 0 -11.55708,2 0 -11.55708,2 0 -11.55708,2 0 -11.55708,2 0 -11.55708,2 0 -11.55708,2 0 -11.55708,2 0 -11.55708,2 0 -11.55708,2 0 -11.55708,2 0 -11.55708,2 0 -11.55708,2 0 -11.55708,2 0 -11.55708,2 0 -11.55708,2 0 -11.55708,2 0 -11.55708,2 0 -11.55708,2 0 -11.55708,10.710,
-2.633197 -16.56329 -6.73925,-2.478141 -15.75561 -6.56171,-2.523545 -14.89298 -6.51148,-2.736624 -14.35043 -6.479086,-2.986244 -14.07974 -6.444385,-2.388018 -14.64449 -6.843112,-2.70216 -14.0586 -6.831732,-2.965055 -13.72869 -6.793163,-3.187679 -13.49682 -6.754013,-2.533835 -14.81037 -6.922131,-2.8448 -14.1773 -6.95482,-3.075829 -13.77371 -6.919445,-3.280766 -13.45339 -6.887056,-2.702077 -14.99216 -6.962291,-2.994847 -14.39145 -6.951643,-3.208952 -14.02984 -6.851848,-3.388144 -13.76845 -6.785289,-2.876017 -15.16611 -6.989562,-3.089316 -14.6608 -6.951279,-3.253021 -14.36212 -6.860733,-3.388322 -14.09492 -6.822944,2 0 -11.55708,2 0 -11.55708,2 0 -11.55708,2 0 -11.55708,2 0 -11.55708,2 0 -11.55708,2 0 -11.55708,2 0 -11.55708,2 0 -11.55708,2 0 -11.55708,2 0 -11.55708,2 0 -11.55708,2 0 -11.55708,2 0 -11.55708,2 0 -11.55708,2 0 -11.55708,2 0 -11.55708,2 0 -11.55708,2 0 -11.55708,2 0 -11.55708,2 0 -11.55708,10.810,
-2.633197 -16.56329 -6.73925,-2.478141 -15.75561 -6.56171,-2.523545 -14.89298 -6.51148,-2.736624 -14.35043 -6.479086,-2.986244 -14.07974 -6.444385,-2.388018 -14.64449 -6.843112,-2.70216 -14.0586 -6.831732,-2.965055 -13.72869 -6.793163,-3.187679 -13.49682 -6.754013,-2.533835 -14.81037 -6.922131,-2.8448 -14.1773 -6.95482,-3.075829 -13.77371 -6.919445,-3.280766 -13.45339 -6.887056,-2.702077 -14.99216 -6.962291,-2.994847 -14.39145 -6.951643,-3.208952 -14.02984 -6.851848,-3.388144 -13.76845 -6.785289,-2.876017 -15.16611 -6.989562,-3.089316 -14.6608 -6.951279,-3.253021 -14.36212 -6.860733,-3.388322 -14.09492 -6.822944,2 0 -11.55708,2 0 -11.55708,2 0 -11.55708,2 0 -11.55708,2 0 -11.55708,2 0 -11.55708,2 0 -11.55708,2 0 -11.55708,2 0 -11.55708,2 0 -11.55708,2 0 -11.55708,2 0 -11.55708,2 0 -11.55708,2 0 -11.55708,2 0 -11.55708,2 0 -11.55708,2 0 -11.55708,2 0 -11.55708,2 0 -11.55708,2 0 -11.55708,2 0 -11.55708,10.910,
-2.633197 -16.56329 -6.73925,-2.478141 -15.75561 -6.56171,-2.523545 -14.89298 -6.51148,-2.736624 -14.35043 -6.479086,-2.986244 -14.07974 -6.444385,-2.388018 -14.64449 -6.843112,-2.70216 -14.0586 -6.831732,-2.965055 -13.72869 -6.793163,-3.187679 -13.49682 -6.754013,-2.533835 -14.81037 -6.922131,-2.8448 -14.1773 -6.95482,-3.075829 -13.77371 -6.919445,-3.280766 -13.45339 -6.887056,-2.702077 -14.99216 -6.962291,-2.994847 -14.39145 -6.951643,-3.208952 -14.02984 -6.851848,-3.388144 -13.76845 -6.785289,-2.876017 -15.16611 -6.989562,-3.089316 -14.6608 -6.951279,-3.253021 -14.36212 -6.860733,-3.388322 -14.09492 -6.822944,2 0 -11.55708,2 0 -11.55708,2 0 -11.55708,2 0 -11.55708,2 0 -11.55708,2 0 -11.55708,2 0 -11.55708,2 0 -11.55708,2 0 -11.55708,2 0 -11.55708,2 0 -11.55708,2 0 -11.55708,2 0 -11.55708,2 0 -11.55708,2 0 -11.55708,2 0 -11.55708,2 0 -11.55708,2 0 -11.55708,2 0 -11.55708,2 0 -11.55708,2 0 -11.55708,11.010,
-2.633197 -16.56329 -6.73925,-2.478141 -15.75561 -6.56171,-2.523545 -14.89298 -6.51148,-2.736624 -14.35043 -6.479086,-2.986244 -14.07974 -6.444385,-2.388018 -14.64449 -6.843112,-2.70216 -14.0586 -6.831732,-2.965055 -13.72869 -6.793163,-3.187679 -13.49682 -6.754013,-2.533835 -14.81037 -6.922131,-2.8448 -14.1773 -6.95482,-3.075829 -13.77371 -6.919445,-3.280766 -13.45339 -6.887056,-2.702077 -14.99216 -6.962291,-2.994847 -14.39145 -6.951643,-3.208952 -14.02984 -6.851848,-3.388144 -13.76845 -6.785289,-2.876017 -15.16611 -6.989562,-3.089316 -14.6608 -6.951279,-3.253021 -14.36212 -6.860733,-3.388322 -14.09492 -6.822944,2 0 -11.55708,2 0 -11.55708,2 0 -11.55708,2 0 -11.55708,2 0 -11.55708,2 0 -11.55708,2 0 -11.55708,2 0 -11.55708,2 0 -11.55708,2 0 -11.55708,2 0 -11.55708,2 0 -11.55708,2 0 -11.55708,2 0 -11.55708,2 0 -11.55708,2 0 -11.55708,2 0 -11.55708,2 0 -11.55708,2 0 -11.55708,2 0 -11.55708,2 0 -11.55708,11.110,
-2.633197 -16.56329 -6.73925,-2.478141 -15.75561 -6.56171,-2.523545 -14.89298 -6.51148,-2.736624 -14.35043 -6.479086,-2.986244 -14.07974 -6.444385,-2.388018 -14.64449 -6.843112,-2.70216 -14.0586 -6.831732,-2.965055 -13.72869 -6.793163,-3.187679 -13.49682 -6.754013,-2.533835 -14.81037 -6.922131,-2.8448 -14.1773 -6.95482,-3.075829 -13.77371 -6.919445,-3.280766 -13.45339 -6.887056,-2.702077 -14.99216 -6.962291,-2.994847 -14.39145 -6.951643,-3.208952 -14.02984 -6.851848,-3.388144 -13.76845 -6.785289,-2.876017 -15.16611 -6.989562,-3.089316 -14.6608 -6.951279,-3.253021 -14.36212 -6.860733,-3.388322 -14.09492 -6.822944,2 0 -11.55708,2 0 -11.55708,2 0 -11.55708,2 0 -11.55708,2 0 -11.55708,2 0 -11.55708,2 0 -11.55708,2 0 -11.55708,2 0 -11.55708,2 0 -11.55708,2 0 -11.55708,2 0 -11.55708,2 0 -11.55708,2 0 -11.55708,2 0 -11.55708,2 0 -11.55708,2 0 -11.55708,2 0 -11.55708,2 0 -11.55708,2 0 -11.55708,2 0 -11.55708,11.210,
-2.633197 -16.56329 -6.73925,-2.478141 -15.75561 -6.56171,-2.523545 -14.89298 -6.51148,-2.736624 -14.35043 -6.479086,-2.986244 -14.07974 -6.444385,-2.388018 -14.64449 -6.843112,-2.70216 -14.0586 -6.831732,-2.965055 -13.72869 -6.793163,-3.187679 -13.49682 -6.754013,-2.533835 -14.81037 -6.922131,-2.8448 -14.1773 -6.95482,-3.075829 -13.77371 -6.919445,-3.280766 -13.45339 -6.887056,-2.702077 -14.99216 -6.962291,-2.994847 -14.39145 -6.951643,-3.208952 -14.02984 -6.851848,-3.388144 -13.76845 -6.785289,-2.876017 -15.16611 -6.989562,-3.089316 -14.6608 -6.951279,-3.253021 -14.36212 -6.860733,-3.388322 -14.09492 -6.822944,2 0 -11.55708,2 0 -11.55708,2 0 -11.55708,2 0 -11.55708,2 0 -11.55708,2 0 -11.55708,2 0 -11.55708,2 0 -11.55708,2 0 -11.55708,2 0 -11.55708,2 0 -11.55708,2 0 -11.55708,2 0 -11.55708,2 0 -11.55708,2 0 -11.55708,2 0 -11.55708,2 0 -11.55708,2 0 -11.55708,2 0 -11.55708,2 0 -11.55708,2 0 -11.55708,11.310,
-2.633197 -16.56329 -6.73925,-2.478141 -15.75561 -6.56171,-2.523545 -14.89298 -6.51148,-2.736624 -14.35043 -6.479086,-2.986244 -14.07974 -6.444385,-2.388018 -14.64449 -6.843112,-2.70216 -14.0586 -6.831732,-2.965055 -13.72869 -6.793163,-3.187679 -13.49682 -6.754013,-2.533835 -14.81037 -6.922131,-2.8448 -14.1773 -6.95482,-3.075829 -13.77371 -6.919445,-3.280766 -13.45339 -6.887056,-2.702077 -14.99216 -6.962291,-2.994847 -14.39145 -6.951643,-3.208952 -14.02984 -6.851848,-3.388144 -13.76845 -6.785289,-2.876017 -15.16611 -6.989562,-3.089316 -14.6608 -6.951279,-3.253021 -14.36212 -6.860733,-3.388322 -14.09492 -6.822944,2 0 -11.55708,2 0 -11.55708,2 0 -11.55708,2 0 -11.55708,2 0 -11.55708,2 0 -11.55708,2 0 -11.55708,2 0 -11.55708,2 0 -11.55708,2 0 -11.55708,2 0 -11.55708,2 0 -11.55708,2 0 -11.55708,2 0 -11.55708,2 0 -11.55708,2 0 -11.55708,2 0 -11.55708,2 0 -11.55708,2 0 -11.55708,2 0 -11.55708,2 0 -11.55708,11.410,
-2.633197 -16.56329 -6.73925,-2.478141 -15.75561 -6.56171,-2.523545 -14.89298 -6.51148,-2.736624 -14.35043 -6.479086,-2.986244 -14.07974 -6.444385,-2.388018 -14.64449 -6.843112,-2.70216 -14.0586 -6.831732,-2.965055 -13.72869 -6.793163,-3.187679 -13.49682 -6.754013,-2.533835 -14.81037 -6.922131,-2.8448 -14.1773 -6.95482,-3.075829 -13.77371 -6.919445,-3.280766 -13.45339 -6.887056,-2.702077 -14.99216 -6.962291,-2.994847 -14.39145 -6.951643,-3.208952 -14.02984 -6.851848,-3.388144 -13.76845 -6.785289,-2.876017 -15.16611 -6.989562,-3.089316 -14.6608 -6.951279,-3.253021 -14.36212 -6.860733,-3.388322 -14.09492 -6.822944,2 0 -11.55708,2 0 -11.55708,2 0 -11.55708,2 0 -11.55708,2 0 -11.55708,2 0 -11.55708,2 0 -11.55708,2 0 -11.55708,2 0 -11.55708,2 0 -11.55708,2 0 -11.55708,2 0 -11.55708,2 0 -11.55708,2 0 -11.55708,2 0 -11.55708,2 0 -11.55708,2 0 -11.55708,2 0 -11.55708,2 0 -11.55708,2 0 -11.55708,2 0 -11.55708,11.510,
-2.633197 -16.56329 -6.73925,-2.478141 -15.75561 -6.56171,-2.523545 -14.89298 -6.51148,-2.736624 -14.35043 -6.479086,-2.986244 -14.07974 -6.444385,-2.388018 -14.64449 -6.843112,-2.70216 -14.0586 -6.831732,-2.965055 -13.72869 -6.793163,-3.187679 -13.49682 -6.754013,-2.533835 -14.81037 -6.922131,-2.8448 -14.1773 -6.95482,-3.075829 -13.77371 -6.919445,-3.280766 -13.45339 -6.887056,-2.702077 -14.99216 -6.962291,-2.994847 -14.39145 -6.951643,-3.208952 -14.02984 -6.851848,-3.388144 -13.76845 -6.785289,-2.876017 -15.16611 -6.989562,-3.089316 -14.6608 -6.951279,-3.253021 -14.36212 -6.860733,-3.388322 -14.09492 -6.822944,2 0 -11.55708,2 0 -11.55708,2 0 -11.55708,2 0 -11.55708,2 0 -11.55708,2 0 -11.55708,2 0 -11.55708,2 0 -11.55708,2 0 -11.55708,2 0 -11.55708,2 0 -11.55708,2 0 -11.55708,2 0 -11.55708,2 0 -11.55708,2 0 -11.55708,2 0 -11.55708,2 0 -11.55708,2 0 -11.55708,2 0 -11.55708,2 0 -11.55708,2 0 -11.55708,11.610,
-2.633197 -16.56329 -6.73925,-2.478141 -15.75561 -6.56171,-2.523545 -14.89298 -6.51148,-2.736624 -14.35043 -6.479086,-2.986244 -14.07974 -6.444385,-2.388018 -14.64449 -6.843112,-2.70216 -14.0586 -6.831732,-2.965055 -13.72869 -6.793163,-3.187679 -13.49682 -6.754013,-2.533835 -14.81037 -6.922131,-2.8448 -14.1773 -6.95482,-3.075829 -13.77371 -6.919445,-3.280766 -13.45339 -6.887056,-2.702077 -14.99216 -6.962291,-2.994847 -14.39145 -6.951643,-3.208952 -14.02984 -6.851848,-3.388144 -13.76845 -6.785289,-2.876017 -15.16611 -6.989562,-3.089316 -14.6608 -6.951279,-3.253021 -14.36212 -6.860733,-3.388322 -14.09492 -6.822944,2 0 -11.55708,2 0 -11.55708,2 0 -11.55708,2 0 -11.55708,2 0 -11.55708,2 0 -11.55708,2 0 -11.55708,2 0 -11.55708,2 0 -11.55708,2 0 -11.55708,2 0 -11.55708,2 0 -11.55708,2 0 -11.55708,2 0 -11.55708,2 0 -11.55708,2 0 -11.55708,2 0 -11.55708,2 0 -11.55708,2 0 -11.55708,2 0 -11.55708,2 0 -11.55708,11.710,
-2.633197 -16.56329 -6.73925,-2.478141 -15.75561 -6.56171,-2.523545 -14.89298 -6.51148,-2.736624 -14.35043 -6.479086,-2.986244 -14.07974 -6.444385,-2.388018 -14.64449 -6.843112,-2.70216 -14.0586 -6.831732,-2.965055 -13.72869 -6.793163,-3.187679 -13.49682 -6.754013,-2.533835 -14.81037 -6.922131,-2.8448 -14.1773 -6.95482,-3.075829 -13.77371 -6.919445,-3.280766 -13.45339 -6.887056,-2.702077 -14.99216 -6.962291,-2.994847 -14.39145 -6.951643,-3.208952 -14.02984 -6.851848,-3.388144 -13.76845 -6.785289,-2.876017 -15.16611 -6.989562,-3.089316 -14.6608 -6.951279,-3.253021 -14.36212 -6.860733,-3.388322 -14.09492 -6.822944,2 0 -11.55708,2 0 -11.55708,2 0 -11.55708,2 0 -11.55708,2 0 -11.55708,2 0 -11.55708,2 0 -11.55708,2 0 -11.55708,2 0 -11.55708,2 0 -11.55708,2 0 -11.55708,2 0 -11.55708,2 0 -11.55708,2 0 -11.55708,2 0 -11.55708,2 0 -11.55708,2 0 -11.55708,2 0 -11.55708,2 0 -11.55708,2 0 -11.55708,2 0 -11.55708,11.810,
-2.633197 -16.56329 -6.73925,-2.478141 -15.75561 -6.56171,-2.523545 -14.89298 -6.51148,-2.736624 -14.35043 -6.479086,-2.986244 -14.07974 -6.444385,-2.388018 -14.64449 -6.843112,-2.70216 -14.0586 -6.831732,-2.965055 -13.72869 -6.793163,-3.187679 -13.49682 -6.754013,-2.533835 -14.81037 -6.922131,-2.8448 -14.1773 -6.95482,-3.075829 -13.77371 -6.919445,-3.280766 -13.45339 -6.887056,-2.702077 -14.99216 -6.962291,-2.994847 -14.39145 -6.951643,-3.208952 -14.02984 -6.851848,-3.388144 -13.76845 -6.785289,-2.876017 -15.16611 -6.989562,-3.089316 -14.6608 -6.951279,-3.253021 -14.36212 -6.860733,-3.388322 -14.09492 -6.822944,2 0 -11.55708,2 0 -11.55708,2 0 -11.55708,2 0 -11.55708,2 0 -11.55708,2 0 -11.55708,2 0 -11.55708,2 0 -11.55708,2 0 -11.55708,2 0 -11.55708,2 0 -11.55708,2 0 -11.55708,2 0 -11.55708,2 0 -11.55708,2 0 -11.55708,2 0 -11.55708,2 0 -11.55708,2 0 -11.55708,2 0 -11.55708,2 0 -11.55708,2 0 -11.55708,11.910,
-2.633197 -16.56329 -6.73925,-2.478141 -15.75561 -6.56171,-2.523545 -14.89298 -6.51148,-2.736624 -14.35043 -6.479086,-2.986244 -14.07974 -6.444385,-2.388018 -14.64449 -6.843112,-2.70216 -14.0586 -6.831732,-2.965055 -13.72869 -6.793163,-3.187679 -13.49682 -6.754013,-2.533835 -14.81037 -6.922131,-2.8448 -14.1773 -6.95482,-3.075829 -13.77371 -6.919445,-3.280766 -13.45339 -6.887056,-2.702077 -14.99216 -6.962291,-2.994847 -14.39145 -6.951643,-3.208952 -14.02984 -6.851848,-3.388144 -13.76845 -6.785289,-2.876017 -15.16611 -6.989562,-3.089316 -14.6608 -6.951279,-3.253021 -14.36212 -6.860733,-3.388322 -14.09492 -6.822944,2 0 -11.55708,2 0 -11.55708,2 0 -11.55708,2 0 -11.55708,2 0 -11.55708,2 0 -11.55708,2 0 -11.55708,2 0 -11.55708,2 0 -11.55708,2 0 -11.55708,2 0 -11.55708,2 0 -11.55708,2 0 -11.55708,2 0 -11.55708,2 0 -11.55708,2 0 -11.55708,2 0 -11.55708,2 0 -11.55708,2 0 -11.55708,2 0 -11.55708,2 0 -11.55708,12.010,
-2.633197 -16.56329 -6.73925,-2.478141 -15.75561 -6.56171,-2.523545 -14.89298 -6.51148,-2.736624 -14.35043 -6.479086,-2.986244 -14.07974 -6.444385,-2.388018 -14.64449 -6.843112,-2.70216 -14.0586 -6.831732,-2.965055 -13.72869 -6.793163,-3.187679 -13.49682 -6.754013,-2.533835 -14.81037 -6.922131,-2.8448 -14.1773 -6.95482,-3.075829 -13.77371 -6.919445,-3.280766 -13.45339 -6.887056,-2.702077 -14.99216 -6.962291,-2.994847 -14.39145 -6.951643,-3.208952 -14.02984 -6.851848,-3.388144 -13.76845 -6.785289,-2.876017 -15.16611 -6.989562,-3.089316 -14.6608 -6.951279,-3.253021 -14.36212 -6.860733,-3.388322 -14.09492 -6.822944,2 0 -11.55708,2 0 -11.55708,2 0 -11.55708,2 0 -11.55708,2 0 -11.55708,2 0 -11.55708,2 0 -11.55708,2 0 -11.55708,2 0 -11.55708,2 0 -11.55708,2 0 -11.55708,2 0 -11.55708,2 0 -11.55708,2 0 -11.55708,2 0 -11.55708,2 0 -11.55708,2 0 -11.55708,2 0 -11.55708,2 0 -11.55708,2 0 -11.55708,2 0 -11.55708,12.110,
-2.633197 -16.56329 -6.73925,-2.478141 -15.75561 -6.56171,-2.523545 -14.89298 -6.51148,-2.736624 -14.35043 -6.479086,-2.986244 -14.07974 -6.444385,-2.388018 -14.64449 -6.843112,-2.70216 -14.0586 -6.831732,-2.965055 -13.72869 -6.793163,-3.187679 -13.49682 -6.754013,-2.533835 -14.81037 -6.922131,-2.8448 -14.1773 -6.95482,-3.075829 -13.77371 -6.919445,-3.280766 -13.45339 -6.887056,-2.702077 -14.99216 -6.962291,-2.994847 -14.39145 -6.951643,-3.208952 -14.02984 -6.851848,-3.388144 -13.76845 -6.785289,-2.876017 -15.16611 -6.989562,-3.089316 -14.6608 -6.951279,-3.253021 -14.36212 -6.860733,-3.388322 -14.09492 -6.822944,2 0 -11.55708,2 0 -11.55708,2 0 -11.55708,2 0 -11.55708,2 0 -11.55708,2 0 -11.55708,2 0 -11.55708,2 0 -11.55708,2 0 -11.55708,2 0 -11.55708,2 0 -11.55708,2 0 -11.55708,2 0 -11.55708,2 0 -11.55708,2 0 -11.55708,2 0 -11.55708,2 0 -11.55708,2 0 -11.55708,2 0 -11.55708,2 0 -11.55708,2 0 -11.55708,12.210,
-2.633197 -16.56329 -6.73925,-2.478141 -15.75561 -6.56171,-2.523545 -14.89298 -6.51148,-2.736624 -14.35043 -6.479086,-2.986244 -14.07974 -6.444385,-2.388018 -14.64449 -6.843112,-2.70216 -14.0586 -6.831732,-2.965055 -13.72869 -6.793163,-3.187679 -13.49682 -6.754013,-2.533835 -14.81037 -6.922131,-2.8448 -14.1773 -6.95482,-3.075829 -13.77371 -6.919445,-3.280766 -13.45339 -6.887056,-2.702077 -14.99216 -6.962291,-2.994847 -14.39145 -6.951643,-3.208952 -14.02984 -6.851848,-3.388144 -13.76845 -6.785289,-2.876017 -15.16611 -6.989562,-3.089316 -14.6608 -6.951279,-3.253021 -14.36212 -6.860733,-3.388322 -14.09492 -6.822944,2 0 -11.55708,2 0 -11.55708,2 0 -11.55708,2 0 -11.55708,2 0 -11.55708,2 0 -11.55708,2 0 -11.55708,2 0 -11.55708,2 0 -11.55708,2 0 -11.55708,2 0 -11.55708,2 0 -11.55708,2 0 -11.55708,2 0 -11.55708,2 0 -11.55708,2 0 -11.55708,2 0 -11.55708,2 0 -11.55708,2 0 -11.55708,2 0 -11.55708,2 0 -11.55708,12.310,
-2.633197 -16.56329 -6.73925,-2.478141 -15.75561 -6.56171,-2.523545 -14.89298 -6.51148,-2.736624 -14.35043 -6.479086,-2.986244 -14.07974 -6.444385,-2.388018 -14.64449 -6.843112,-2.70216 -14.0586 -6.831732,-2.965055 -13.72869 -6.793163,-3.187679 -13.49682 -6.754013,-2.533835 -14.81037 -6.922131,-2.8448 -14.1773 -6.95482,-3.075829 -13.77371 -6.919445,-3.280766 -13.45339 -6.887056,-2.702077 -14.99216 -6.962291,-2.994847 -14.39145 -6.951643,-3.208952 -14.02984 -6.851848,-3.388144 -13.76845 -6.785289,-2.876017 -15.16611 -6.989562,-3.089316 -14.6608 -6.951279,-3.253021 -14.36212 -6.860733,-3.388322 -14.09492 -6.822944,2 0 -11.55708,2 0 -11.55708,2 0 -11.55708,2 0 -11.55708,2 0 -11.55708,2 0 -11.55708,2 0 -11.55708,2 0 -11.55708,2 0 -11.55708,2 0 -11.55708,2 0 -11.55708,2 0 -11.55708,2 0 -11.55708,2 0 -11.55708,2 0 -11.55708,2 0 -11.55708,2 0 -11.55708,2 0 -11.55708,2 0 -11.55708,2 0 -11.55708,2 0 -11.55708,12.410,
-2.633197 -16.56329 -6.73925,-2.478141 -15.75561 -6.56171,-2.523545 -14.89298 -6.51148,-2.736624 -14.35043 -6.479086,-2.986244 -14.07974 -6.444385,-2.388018 -14.64449 -6.843112,-2.70216 -14.0586 -6.831732,-2.965055 -13.72869 -6.793163,-3.187679 -13.49682 -6.754013,-2.533835 -14.81037 -6.922131,-2.8448 -14.1773 -6.95482,-3.075829 -13.77371 -6.919445,-3.280766 -13.45339 -6.887056,-2.702077 -14.99216 -6.962291,-2.994847 -14.39145 -6.951643,-3.208952 -14.02984 -6.851848,-3.388144 -13.76845 -6.785289,-2.876017 -15.16611 -6.989562,-3.089316 -14.6608 -6.951279,-3.253021 -14.36212 -6.860733,-3.388322 -14.09492 -6.822944,2 0 -11.55708,2 0 -11.55708,2 0 -11.55708,2 0 -11.55708,2 0 -11.55708,2 0 -11.55708,2 0 -11.55708,2 0 -11.55708,2 0 -11.55708,2 0 -11.55708,2 0 -11.55708,2 0 -11.55708,2 0 -11.55708,2 0 -11.55708,2 0 -11.55708,2 0 -11.55708,2 0 -11.55708,2 0 -11.55708,2 0 -11.55708,2 0 -11.55708,2 0 -11.55708,12.510,
-2.633197 -16.56329 -6.73925,-2.478141 -15.75561 -6.56171,-2.523545 -14.89298 -6.51148,-2.736624 -14.35043 -6.479086,-2.986244 -14.07974 -6.444385,-2.388018 -14.64449 -6.843112,-2.70216 -14.0586 -6.831732,-2.965055 -13.72869 -6.793163,-3.187679 -13.49682 -6.754013,-2.533835 -14.81037 -6.922131,-2.8448 -14.1773 -6.95482,-3.075829 -13.77371 -6.919445,-3.280766 -13.45339 -6.887056,-2.702077 -14.99216 -6.962291,-2.994847 -14.39145 -6.951643,-3.208952 -14.02984 -6.851848,-3.388144 -13.76845 -6.785289,-2.876017 -15.16611 -6.989562,-3.089316 -14.6608 -6.951279,-3.253021 -14.36212 -6.860733,-3.388322 -14.09492 -6.822944,2 0 -11.55708,2 0 -11.55708,2 0 -11.55708,2 0 -11.55708,2 0 -11.55708,2 0 -11.55708,2 0 -11.55708,2 0 -11.55708,2 0 -11.55708,2 0 -11.55708,2 0 -11.55708,2 0 -11.55708,2 0 -11.55708,2 0 -11.55708,2 0 -11.55708,2 0 -11.55708,2 0 -11.55708,2 0 -11.55708,2 0 -11.55708,2 0 -11.55708,2 0 -11.55708,12.610,
-2.633197 -16.56329 -6.73925,-2.478141 -15.75561 -6.56171,-2.523545 -14.89298 -6.51148,-2.736624 -14.35043 -6.479086,-2.986244 -14.07974 -6.444385,-2.388018 -14.64449 -6.843112,-2.70216 -14.0586 -6.831732,-2.965055 -13.72869 -6.793163,-3.187679 -13.49682 -6.754013,-2.533835 -14.81037 -6.922131,-2.8448 -14.1773 -6.95482,-3.075829 -13.77371 -6.919445,-3.280766 -13.45339 -6.887056,-2.702077 -14.99216 -6.962291,-2.994847 -14.39145 -6.951643,-3.208952 -14.02984 -6.851848,-3.388144 -13.76845 -6.785289,-2.876017 -15.16611 -6.989562,-3.089316 -14.6608 -6.951279,-3.253021 -14.36212 -6.860733,-3.388322 -14.09492 -6.822944,2 0 -11.55708,2 0 -11.55708,2 0 -11.55708,2 0 -11.55708,2 0 -11.55708,2 0 -11.55708,2 0 -11.55708,2 0 -11.55708,2 0 -11.55708,2 0 -11.55708,2 0 -11.55708,2 0 -11.55708,2 0 -11.55708,2 0 -11.55708,2 0 -11.55708,2 0 -11.55708,2 0 -11.55708,2 0 -11.55708,2 0 -11.55708,2 0 -11.55708,2 0 -11.55708,12.710,
-2.633197 -16.56329 -6.73925,-2.478141 -15.75561 -6.56171,-2.523545 -14.89298 -6.51148,-2.736624 -14.35043 -6.479086,-2.986244 -14.07974 -6.444385,-2.388018 -14.64449 -6.843112,-2.70216 -14.0586 -6.831732,-2.965055 -13.72869 -6.793163,-3.187679 -13.49682 -6.754013,-2.533835 -14.81037 -6.922131,-2.8448 -14.1773 -6.95482,-3.075829 -13.77371 -6.919445,-3.280766 -13.45339 -6.887056,-2.702077 -14.99216 -6.962291,-2.994847 -14.39145 -6.951643,-3.208952 -14.02984 -6.851848,-3.388144 -13.76845 -6.785289,-2.876017 -15.16611 -6.989562,-3.089316 -14.6608 -6.951279,-3.253021 -14.36212 -6.860733,-3.388322 -14.09492 -6.822944,2 0 -11.55708,2 0 -11.55708,2 0 -11.55708,2 0 -11.55708,2 0 -11.55708,2 0 -11.55708,2 0 -11.55708,2 0 -11.55708,2 0 -11.55708,2 0 -11.55708,2 0 -11.55708,2 0 -11.55708,2 0 -11.55708,2 0 -11.55708,2 0 -11.55708,2 0 -11.55708,2 0 -11.55708,2 0 -11.55708,2 0 -11.55708,2 0 -11.55708,2 0 -11.55708,12.810,
-2.633197 -16.56329 -6.73925,-2.478141 -15.75561 -6.56171,-2.523545 -14.89298 -6.51148,-2.736624 -14.35043 -6.479086,-2.986244 -14.07974 -6.444385,-2.388018 -14.64449 -6.843112,-2.70216 -14.0586 -6.831732,-2.965055 -13.72869 -6.793163,-3.187679 -13.49682 -6.754013,-2.533835 -14.81037 -6.922131,-2.8448 -14.1773 -6.95482,-3.075829 -13.77371 -6.919445,-3.280766 -13.45339 -6.887056,-2.702077 -14.99216 -6.962291,-2.994847 -14.39145 -6.951643,-3.208952 -14.02984 -6.851848,-3.388144 -13.76845 -6.785289,-2.876017 -15.16611 -6.989562,-3.089316 -14.6608 -6.951279,-3.253021 -14.36212 -6.860733,-3.388322 -14.09492 -6.822944,2 0 -11.55708,2 0 -11.55708,2 0 -11.55708,2 0 -11.55708,2 0 -11.55708,2 0 -11.55708,2 0 -11.55708,2 0 -11.55708,2 0 -11.55708,2 0 -11.55708,2 0 -11.55708,2 0 -11.55708,2 0 -11.55708,2 0 -11.55708,2 0 -11.55708,2 0 -11.55708,2 0 -11.55708,2 0 -11.55708,2 0 -11.55708,2 0 -11.55708,2 0 -11.55708,12.910,
