TiagoOliveira98/HandTracking/DataLogging/JointData/Logs(1642624843)_Tiago_Calculator.csv
WRIST,THUMB_CMC,THUMB_MCP,THUMB_IP,THUMB_TIP,INDEX_FINGER_MCP,INDEX_FINGER_PIP,INDEX_FINGER_DIP,INDEX_FINGER_TIP,MIDDLE_FINGER_MCP,MIDDLE_FINGER_PIP,MIDDLE_FINGER_DIP,MIDDLE_FINGER_TIP,RING_FINGER_MCP,RING_FINGER_PIP,RING_FINGER_DIP,RING_FINGER_TIP,PINKY_MCP,PINKY_PIP,PINKY_DIP,PINKY_TIP,WRIST2,THUMB_CMC2,THUMB_MCP2,THUMB_IP2,THUMB_TIP2,INDEX_FINGER_MCP2,INDEX_FINGER_PIP2,INDEX_FINGER_DIP2,INDEX_FINGER_TIP2,MIDDLE_FINGER_MCP2,MIDDLE_FINGER_PIP2,MIDDLE_FINGER_DIP2,MIDDLE_FINGER_TIP2,RING_FINGER_MCP2,RING_FINGER_PIP2,RING_FINGER_DIP2,RING_FINGER_TIP2,PINKY_MCP2,PINKY_PIP2,PINKY_DIP2,PINKY_TIP2,Timestamp,Event
10 0 0,10 7.47 0,10 7.47 0,10 7.47 0,10 7.47 0,10 7.47 0,10 7.47 0,10 7.47 0,10 7.47 0,10 7.47 0,10 7.47 0,10 7.47 0,10 7.47 0,10 7.47 0,10 7.47 0,10 7.47 0,10 7.47 0,10 7.47 0,10 7.47 0,10 7.47 0,10 7.47 0,10 0 0,10 7.47 0,10 7.47 0,10 7.47 0,10 7.47 0,10 7.47 0,10 7.47 0,10 7.47 0,10 7.47 0,10 7.47 0,10 7.47 0,10 7.47 0,10 7.47 0,10 7.47 0,10 7.47 0,10 7.47 0,10 7.47 0,10 7.47 0,10 7.47 0,10 7.47 0,10 7.47 0,0.010,
2 0 -9.27408,2 0 -9.27408,2 0 -9.27408,2 0 -9.27408,2 0 -9.27408,2 0 -9.27408,2 0 -9.27408,2 0 -9.27408,2 0 -9.27408,2 0 -9.27408,2 0 -9.27408,2 0 -9.27408,2 0 -9.27408,2 0 -9.27408,2 0 -9.27408,2 0 -9.27408,2 0 -9.27408,2 0 -9.27408,2 0 -9.27408,2 0 -9.27408,2 0 -9.27408,2 0 -10.83146,2 0 -10.83146,2 0 -10.83146,2 0 -10.83146,2 0 -10.83146,2 0 -10.83146,2 0 -10.83146,2 0 -10.83146,2 0 -10.83146,2 0 -10.83146,2 0 -10.83146,2 0 -10.83146,2 0 -10.83146,2 0 -10.83146,2 0 -10.83146,2 0 -10.83146,2 0 -10.83146,2 0 -10.83146,2 0 -10.83146,2 0 -10.83146,2 0 -10.83146,0.110,
2 0 -9.27408,2 0 -9.27408,2 0 -9.27408,2 0 -9.27408,2 0 -9.27408,2 0 -9.27408,2 0 -9.27408,2 0 -9.27408,2 0 -9.27408,2 0 -9.27408,2 0 -9.27408,2 0 -9.27408,2 0 -9.27408,2 0 -9.27408,2 0 -9.27408,2 0 -9.27408,2 0 -9.27408,2 0 -9.27408,2 0 -9.27408,2 0 -9.27408,2 0 -9.27408,2 0 -10.83146,2 0 -10.83146,2 0 -10.83146,2 0 -10.83146,2 0 -10.83146,2 0 -10.83146,2 0 -10.83146,2 0 -10.83146,2 0 -10.83146,2 0 -10.83146,2 0 -10.83146,2 0 -10.83146,2 0 -10.83146,2 0 -10.83146,2 0 -10.83146,2 0 -10.83146,2 0 -10.83146,2 0 -10.83146,2 0 -10.83146,2 0 -10.83146,2 0 -10.83146,0.210,
2 0 -9.27408,2 0 -9.27408,2 0 -9.27408,2 0 -9.27408,2 0 -9.27408,2 0 -9.27408,2 0 -9.27408,2 0 -9.27408,2 0 -9.27408,2 0 -9.27408,2 0 -9.27408,2 0 -9.27408,2 0 -9.27408,2 0 -9.27408,2 0 -9.27408,2 0 -9.27408,2 0 -9.27408,2 0 -9.27408,2 0 -9.27408,2 0 -9.27408,2 0 -9.27408,2 0 -10.83146,2 0 -10.83146,2 0 -10.83146,2 0 -10.83146,2 0 -10.83146,2 0 -10.83146,2 0 -10.83146,2 0 -10.83146,2 0 -10.83146,2 0 -10.83146,2 0 -10.83146,2 0 -10.83146,2 0 -10.83146,2 0 -10.83146,2 0 -10.83146,2 0 -10.83146,2 0 -10.83146,2 0 -10.83146,2 0 -10.83146,2 0 -10.83146,2 0 -10.83146,0.310,
2 0 -9.27408,2 0 -9.27408,2 0 -9.27408,2 0 -9.27408,2 0 -9.27408,2 0 -9.27408,2 0 -9.27408,2 0 -9.27408,2 0 -9.27408,2 0 -9.27408,2 0 -9.27408,2 0 -9.27408,2 0 -9.27408,2 0 -9.27408,2 0 -9.27408,2 0 -9.27408,2 0 -9.27408,2 0 -9.27408,2 0 -9.27408,2 0 -9.27408,2 0 -9.27408,2 0 -10.83146,2 0 -10.83146,2 0 -10.83146,2 0 -10.83146,2 0 -10.83146,2 0 -10.83146,2 0 -10.83146,2 0 -10.83146,2 0 -10.83146,2 0 -10.83146,2 0 -10.83146,2 0 -10.83146,2 0 -10.83146,2 0 -10.83146,2 0 -10.83146,2 0 -10.83146,2 0 -10.83146,2 0 -10.83146,2 0 -10.83146,2 0 -10.83146,2 0 -10.83146,0.410,
2 0 -9.27408,2 0 -9.27408,2 0 -9.27408,2 0 -9.27408,2 0 -9.27408,2 0 -9.27408,2 0 -9.27408,2 0 -9.27408,2 0 -9.27408,2 0 -9.27408,2 0 -9.27408,2 0 -9.27408,2 0 -9.27408,2 0 -9.27408,2 0 -9.27408,2 0 -9.27408,2 0 -9.27408,2 0 -9.27408,2 0 -9.27408,2 0 -9.27408,2 0 -9.27408,2 0 -10.83146,2 0 -10.83146,2 0 -10.83146,2 0 -10.83146,2 0 -10.83146,2 0 -10.83146,2 0 -10.83146,2 0 -10.83146,2 0 -10.83146,2 0 -10.83146,2 0 -10.83146,2 0 -10.83146,2 0 -10.83146,2 0 -10.83146,2 0 -10.83146,2 0 -10.83146,2 0 -10.83146,2 0 -10.83146,2 0 -10.83146,2 0 -10.83146,2 0 -10.83146,0.510,
2 0 -9.27408,2 0 -9.27408,2 0 -9.27408,2 0 -9.27408,2 0 -9.27408,2 0 -9.27408,2 0 -9.27408,2 0 -9.27408,2 0 -9.27408,2 0 -9.27408,2 0 -9.27408,2 0 -9.27408,2 0 -9.27408,2 0 -9.27408,2 0 -9.27408,2 0 -9.27408,2 0 -9.27408,2 0 -9.27408,2 0 -9.27408,2 0 -9.27408,2 0 -9.27408,2 0 -10.83146,2 0 -10.83146,2 0 -10.83146,2 0 -10.83146,2 0 -10.83146,2 0 -10.83146,2 0 -10.83146,2 0 -10.83146,2 0 -10.83146,2 0 -10.83146,2 0 -10.83146,2 0 -10.83146,2 0 -10.83146,2 0 -10.83146,2 0 -10.83146,2 0 -10.83146,2 0 -10.83146,2 0 -10.83146,2 0 -10.83146,2 0 -10.83146,2 0 -10.83146,0.610,
2 0 -9.27408,2 0 -9.27408,2 0 -9.27408,2 0 -9.27408,2 0 -9.27408,2 0 -9.27408,2 0 -9.27408,2 0 -9.27408,2 0 -9.27408,2 0 -9.27408,2 0 -9.27408,2 0 -9.27408,2 0 -9.27408,2 0 -9.27408,2 0 -9.27408,2 0 -9.27408,2 0 -9.27408,2 0 -9.27408,2 0 -9.27408,2 0 -9.27408,2 0 -9.27408,2 0 -10.83146,2 0 -10.83146,2 0 -10.83146,2 0 -10.83146,2 0 -10.83146,2 0 -10.83146,2 0 -10.83146,2 0 -10.83146,2 0 -10.83146,2 0 -10.83146,2 0 -10.83146,2 0 -10.83146,2 0 -10.83146,2 0 -10.83146,2 0 -10.83146,2 0 -10.83146,2 0 -10.83146,2 0 -10.83146,2 0 -10.83146,2 0 -10.83146,2 0 -10.83146,0.710,
2 0 -9.27408,2 0 -9.27408,2 0 -9.27408,2 0 -9.27408,2 0 -9.27408,2 0 -9.27408,2 0 -9.27408,2 0 -9.27408,2 0 -9.27408,2 0 -9.27408,2 0 -9.27408,2 0 -9.27408,2 0 -9.27408,2 0 -9.27408,2 0 -9.27408,2 0 -9.27408,2 0 -9.27408,2 0 -9.27408,2 0 -9.27408,2 0 -9.27408,2 0 -9.27408,2 0 -10.83146,2 0 -10.83146,2 0 -10.83146,2 0 -10.83146,2 0 -10.83146,2 0 -10.83146,2 0 -10.83146,2 0 -10.83146,2 0 -10.83146,2 0 -10.83146,2 0 -10.83146,2 0 -10.83146,2 0 -10.83146,2 0 -10.83146,2 0 -10.83146,2 0 -10.83146,2 0 -10.83146,2 0 -10.83146,2 0 -10.83146,2 0 -10.83146,2 0 -10.83146,0.810,
2 0 -9.27408,2 0 -9.27408,2 0 -9.27408,2 0 -9.27408,2 0 -9.27408,2 0 -9.27408,2 0 -9.27408,2 0 -9.27408,2 0 -9.27408,2 0 -9.27408,2 0 -9.27408,2 0 -9.27408,2 0 -9.27408,2 0 -9.27408,2 0 -9.27408,2 0 -9.27408,2 0 -9.27408,2 0 -9.27408,2 0 -9.27408,2 0 -9.27408,2 0 -9.27408,2 0 -10.83146,2 0 -10.83146,2 0 -10.83146,2 0 -10.83146,2 0 -10.83146,2 0 -10.83146,2 0 -10.83146,2 0 -10.83146,2 0 -10.83146,2 0 -10.83146,2 0 -10.83146,2 0 -10.83146,2 0 -10.83146,2 0 -10.83146,2 0 -10.83146,2 0 -10.83146,2 0 -10.83146,2 0 -10.83146,2 0 -10.83146,2 0 -10.83146,2 0 -10.83146,0.910,
2 0 -9.27408,2 0 -9.27408,2 0 -9.27408,2 0 -9.27408,2 0 -9.27408,2 0 -9.27408,2 0 -9.27408,2 0 -9.27408,2 0 -9.27408,2 0 -9.27408,2 0 -9.27408,2 0 -9.27408,2 0 -9.27408,2 0 -9.27408,2 0 -9.27408,2 0 -9.27408,2 0 -9.27408,2 0 -9.27408,2 0 -9.27408,2 0 -9.27408,2 0 -9.27408,2 0 -10.83146,2 0 -10.83146,2 0 -10.83146,2 0 -10.83146,2 0 -10.83146,2 0 -10.83146,2 0 -10.83146,2 0 -10.83146,2 0 -10.83146,2 0 -10.83146,2 0 -10.83146,2 0 -10.83146,2 0 -10.83146,2 0 -10.83146,2 0 -10.83146,2 0 -10.83146,2 0 -10.83146,2 0 -10.83146,2 0 -10.83146,2 0 -10.83146,2 0 -10.83146,1.010,
2 0 -9.27408,2 0 -9.27408,2 0 -9.27408,2 0 -9.27408,2 0 -9.27408,2 0 -9.27408,2 0 -9.27408,2 0 -9.27408,2 0 -9.27408,2 0 -9.27408,2 0 -9.27408,2 0 -9.27408,2 0 -9.27408,2 0 -9.27408,2 0 -9.27408,2 0 -9.27408,2 0 -9.27408,2 0 -9.27408,2 0 -9.27408,2 0 -9.27408,2 0 -9.27408,2 0 -10.83146,2 0 -10.83146,2 0 -10.83146,2 0 -10.83146,2 0 -10.83146,2 0 -10.83146,2 0 -10.83146,2 0 -10.83146,2 0 -10.83146,2 0 -10.83146,2 0 -10.83146,2 0 -10.83146,2 0 -10.83146,2 0 -10.83146,2 0 -10.83146,2 0 -10.83146,2 0 -10.83146,2 0 -10.83146,2 0 -10.83146,2 0 -10.83146,2 0 -10.83146,1.110,
2 0 -9.27408,2 0 -9.27408,2 0 -9.27408,2 0 -9.27408,2 0 -9.27408,2 0 -9.27408,2 0 -9.27408,2 0 -9.27408,2 0 -9.27408,2 0 -9.27408,2 0 -9.27408,2 0 -9.27408,2 0 -9.27408,2 0 -9.27408,2 0 -9.27408,2 0 -9.27408,2 0 -9.27408,2 0 -9.27408,2 0 -9.27408,2 0 -9.27408,2 0 -9.27408,2 0 -10.83146,2 0 -10.83146,2 0 -10.83146,2 0 -10.83146,2 0 -10.83146,2 0 -10.83146,2 0 -10.83146,2 0 -10.83146,2 0 -10.83146,2 0 -10.83146,2 0 -10.83146,2 0 -10.83146,2 0 -10.83146,2 0 -10.83146,2 0 -10.83146,2 0 -10.83146,2 0 -10.83146,2 0 -10.83146,2 0 -10.83146,2 0 -10.83146,2 0 -10.83146,1.210,
2 0 -9.27408,2 0 -9.27408,2 0 -9.27408,2 0 -9.27408,2 0 -9.27408,2 0 -9.27408,2 0 -9.27408,2 0 -9.27408,2 0 -9.27408,2 0 -9.27408,2 0 -9.27408,2 0 -9.27408,2 0 -9.27408,2 0 -9.27408,2 0 -9.27408,2 0 -9.27408,2 0 -9.27408,2 0 -9.27408,2 0 -9.27408,2 0 -9.27408,2 0 -9.27408,2 0 -10.83146,2 0 -10.83146,2 0 -10.83146,2 0 -10.83146,2 0 -10.83146,2 0 -10.83146,2 0 -10.83146,2 0 -10.83146,2 0 -10.83146,2 0 -10.83146,2 0 -10.83146,2 0 -10.83146,2 0 -10.83146,2 0 -10.83146,2 0 -10.83146,2 0 -10.83146,2 0 -10.83146,2 0 -10.83146,2 0 -10.83146,2 0 -10.83146,2 0 -10.83146,1.310,
2 0 -9.27408,2 0 -9.27408,2 0 -9.27408,2 0 -9.27408,2 0 -9.27408,2 0 -9.27408,2 0 -9.27408,2 0 -9.27408,2 0 -9.27408,2 0 -9.27408,2 0 -9.27408,2 0 -9.27408,2 0 -9.27408,2 0 -9.27408,2 0 -9.27408,2 0 -9.27408,2 0 -9.27408,2 0 -9.27408,2 0 -9.27408,2 0 -9.27408,2 0 -9.27408,2 0 -10.83146,2 0 -10.83146,2 0 -10.83146,2 0 -10.83146,2 0 -10.83146,2 0 -10.83146,2 0 -10.83146,2 0 -10.83146,2 0 -10.83146,2 0 -10.83146,2 0 -10.83146,2 0 -10.83146,2 0 -10.83146,2 0 -10.83146,2 0 -10.83146,2 0 -10.83146,2 0 -10.83146,2 0 -10.83146,2 0 -10.83146,2 0 -10.83146,2 0 -10.83146,1.410,
2 0 -9.27408,2 0 -9.27408,2 0 -9.27408,2 0 -9.27408,2 0 -9.27408,2 0 -9.27408,2 0 -9.27408,2 0 -9.27408,2 0 -9.27408,2 0 -9.27408,2 0 -9.27408,2 0 -9.27408,2 0 -9.27408,2 0 -9.27408,2 0 -9.27408,2 0 -9.27408,2 0 -9.27408,2 0 -9.27408,2 0 -9.27408,2 0 -9.27408,2 0 -9.27408,2 0 -10.83146,2 0 -10.83146,2 0 -10.83146,2 0 -10.83146,2 0 -10.83146,2 0 -10.83146,2 0 -10.83146,2 0 -10.83146,2 0 -10.83146,2 0 -10.83146,2 0 -10.83146,2 0 -10.83146,2 0 -10.83146,2 0 -10.83146,2 0 -10.83146,2 0 -10.83146,2 0 -10.83146,2 0 -10.83146,2 0 -10.83146,2 0 -10.83146,2 0 -10.83146,1.510,
2 0 -9.27408,2 0 -9.27408,2 0 -9.27408,2 0 -9.27408,2 0 -9.27408,2 0 -9.27408,2 0 -9.27408,2 0 -9.27408,2 0 -9.27408,2 0 -9.27408,2 0 -9.27408,2 0 -9.27408,2 0 -9.27408,2 0 -9.27408,2 0 -9.27408,2 0 -9.27408,2 0 -9.27408,2 0 -9.27408,2 0 -9.27408,2 0 -9.27408,2 0 -9.27408,2 0 -10.83146,2 0 -10.83146,2 0 -10.83146,2 0 -10.83146,2 0 -10.83146,2 0 -10.83146,2 0 -10.83146,2 0 -10.83146,2 0 -10.83146,2 0 -10.83146,2 0 -10.83146,2 0 -10.83146,2 0 -10.83146,2 0 -10.83146,2 0 -10.83146,2 0 -10.83146,2 0 -10.83146,2 0 -10.83146,2 0 -10.83146,2 0 -10.83146,2 0 -10.83146,1.610,
2 0 -9.27408,2 0 -9.27408,2 0 -9.27408,2 0 -9.27408,2 0 -9.27408,2 0 -9.27408,2 0 -9.27408,2 0 -9.27408,2 0 -9.27408,2 0 -9.27408,2 0 -9.27408,2 0 -9.27408,2 0 -9.27408,2 0 -9.27408,2 0 -9.27408,2 0 -9.27408,2 0 -9.27408,2 0 -9.27408,2 0 -9.27408,2 0 -9.27408,2 0 -9.27408,2 0 -10.83146,2 0 -10.83146,2 0 -10.83146,2 0 -10.83146,2 0 -10.83146,2 0 -10.83146,2 0 -10.83146,2 0 -10.83146,2 0 -10.83146,2 0 -10.83146,2 0 -10.83146,2 0 -10.83146,2 0 -10.83146,2 0 -10.83146,2 0 -10.83146,2 0 -10.83146,2 0 -10.83146,2 0 -10.83146,2 0 -10.83146,2 0 -10.83146,2 0 -10.83146,1.710,
2 0 -9.27408,2 0 -9.27408,2 0 -9.27408,2 0 -9.27408,2 0 -9.27408,2 0 -9.27408,2 0 -9.27408,2 0 -9.27408,2 0 -9.27408,2 0 -9.27408,2 0 -9.27408,2 0 -9.27408,2 0 -9.27408,2 0 -9.27408,2 0 -9.27408,2 0 -9.27408,2 0 -9.27408,2 0 -9.27408,2 0 -9.27408,2 0 -9.27408,2 0 -9.27408,2 0 -10.83146,2 0 -10.83146,2 0 -10.83146,2 0 -10.83146,2 0 -10.83146,2 0 -10.83146,2 0 -10.83146,2 0 -10.83146,2 0 -10.83146,2 0 -10.83146,2 0 -10.83146,2 0 -10.83146,2 0 -10.83146,2 0 -10.83146,2 0 -10.83146,2 0 -10.83146,2 0 -10.83146,2 0 -10.83146,2 0 -10.83146,2 0 -10.83146,2 0 -10.83146,1.810,
2 0 -9.27408,2 0 -9.27408,2 0 -9.27408,2 0 -9.27408,2 0 -9.27408,2 0 -9.27408,2 0 -9.27408,2 0 -9.27408,2 0 -9.27408,2 0 -9.27408,2 0 -9.27408,2 0 -9.27408,2 0 -9.27408,2 0 -9.27408,2 0 -9.27408,2 0 -9.27408,2 0 -9.27408,2 0 -9.27408,2 0 -9.27408,2 0 -9.27408,2 0 -9.27408,2 0 -10.83146,2 0 -10.83146,2 0 -10.83146,2 0 -10.83146,2 0 -10.83146,2 0 -10.83146,2 0 -10.83146,2 0 -10.83146,2 0 -10.83146,2 0 -10.83146,2 0 -10.83146,2 0 -10.83146,2 0 -10.83146,2 0 -10.83146,2 0 -10.83146,2 0 -10.83146,2 0 -10.83146,2 0 -10.83146,2 0 -10.83146,2 0 -10.83146,2 0 -10.83146,1.910,
2 0 -9.27408,2 0 -9.27408,2 0 -9.27408,2 0 -9.27408,2 0 -9.27408,2 0 -9.27408,2 0 -9.27408,2 0 -9.27408,2 0 -9.27408,2 0 -9.27408,2 0 -9.27408,2 0 -9.27408,2 0 -9.27408,2 0 -9.27408,2 0 -9.27408,2 0 -9.27408,2 0 -9.27408,2 0 -9.27408,2 0 -9.27408,2 0 -9.27408,2 0 -9.27408,2 0 -10.83146,2 0 -10.83146,2 0 -10.83146,2 0 -10.83146,2 0 -10.83146,2 0 -10.83146,2 0 -10.83146,2 0 -10.83146,2 0 -10.83146,2 0 -10.83146,2 0 -10.83146,2 0 -10.83146,2 0 -10.83146,2 0 -10.83146,2 0 -10.83146,2 0 -10.83146,2 0 -10.83146,2 0 -10.83146,2 0 -10.83146,2 0 -10.83146,2 0 -10.83146,2.010,
2 0 -9.27408,2 0 -9.27408,2 0 -9.27408,2 0 -9.27408,2 0 -9.27408,2 0 -9.27408,2 0 -9.27408,2 0 -9.27408,2 0 -9.27408,2 0 -9.27408,2 0 -9.27408,2 0 -9.27408,2 0 -9.27408,2 0 -9.27408,2 0 -9.27408,2 0 -9.27408,2 0 -9.27408,2 0 -9.27408,2 0 -9.27408,2 0 -9.27408,2 0 -9.27408,2 0 -10.83146,2 0 -10.83146,2 0 -10.83146,2 0 -10.83146,2 0 -10.83146,2 0 -10.83146,2 0 -10.83146,2 0 -10.83146,2 0 -10.83146,2 0 -10.83146,2 0 -10.83146,2 0 -10.83146,2 0 -10.83146,2 0 -10.83146,2 0 -10.83146,2 0 -10.83146,2 0 -10.83146,2 0 -10.83146,2 0 -10.83146,2 0 -10.83146,2 0 -10.83146,2.110,
2 0 -9.27408,2 0 -9.27408,2 0 -9.27408,2 0 -9.27408,2 0 -9.27408,2 0 -9.27408,2 0 -9.27408,2 0 -9.27408,2 0 -9.27408,2 0 -9.27408,2 0 -9.27408,2 0 -9.27408,2 0 -9.27408,2 0 -9.27408,2 0 -9.27408,2 0 -9.27408,2 0 -9.27408,2 0 -9.27408,2 0 -9.27408,2 0 -9.27408,2 0 -9.27408,2 0 -10.83146,2 0 -10.83146,2 0 -10.83146,2 0 -10.83146,2 0 -10.83146,2 0 -10.83146,2 0 -10.83146,2 0 -10.83146,2 0 -10.83146,2 0 -10.83146,2 0 -10.83146,2 0 -10.83146,2 0 -10.83146,2 0 -10.83146,2 0 -10.83146,2 0 -10.83146,2 0 -10.83146,2 0 -10.83146,2 0 -10.83146,2 0 -10.83146,2 0 -10.83146,2.210,
2 0 -9.27408,2 0 -9.27408,2 0 -9.27408,2 0 -9.27408,2 0 -9.27408,2 0 -9.27408,2 0 -9.27408,2 0 -9.27408,2 0 -9.27408,2 0 -9.27408,2 0 -9.27408,2 0 -9.27408,2 0 -9.27408,2 0 -9.27408,2 0 -9.27408,2 0 -9.27408,2 0 -9.27408,2 0 -9.27408,2 0 -9.27408,2 0 -9.27408,2 0 -9.27408,2 0 -10.83146,2 0 -10.83146,2 0 -10.83146,2 0 -10.83146,2 0 -10.83146,2 0 -10.83146,2 0 -10.83146,2 0 -10.83146,2 0 -10.83146,2 0 -10.83146,2 0 -10.83146,2 0 -10.83146,2 0 -10.83146,2 0 -10.83146,2 0 -10.83146,2 0 -10.83146,2 0 -10.83146,2 0 -10.83146,2 0 -10.83146,2 0 -10.83146,2 0 -10.83146,2.310,
2 0 -9.27408,2 0 -9.27408,2 0 -9.27408,2 0 -9.27408,2 0 -9.27408,2 0 -9.27408,2 0 -9.27408,2 0 -9.27408,2 0 -9.27408,2 0 -9.27408,2 0 -9.27408,2 0 -9.27408,2 0 -9.27408,2 0 -9.27408,2 0 -9.27408,2 0 -9.27408,2 0 -9.27408,2 0 -9.27408,2 0 -9.27408,2 0 -9.27408,2 0 -9.27408,2 0 -10.83146,2 0 -10.83146,2 0 -10.83146,2 0 -10.83146,2 0 -10.83146,2 0 -10.83146,2 0 -10.83146,2 0 -10.83146,2 0 -10.83146,2 0 -10.83146,2 0 -10.83146,2 0 -10.83146,2 0 -10.83146,2 0 -10.83146,2 0 -10.83146,2 0 -10.83146,2 0 -10.83146,2 0 -10.83146,2 0 -10.83146,2 0 -10.83146,2 0 -10.83146,2.410,
2 0 -9.27408,2 0 -9.27408,2 0 -9.27408,2 0 -9.27408,2 0 -9.27408,2 0 -9.27408,2 0 -9.27408,2 0 -9.27408,2 0 -9.27408,2 0 -9.27408,2 0 -9.27408,2 0 -9.27408,2 0 -9.27408,2 0 -9.27408,2 0 -9.27408,2 0 -9.27408,2 0 -9.27408,2 0 -9.27408,2 0 -9.27408,2 0 -9.27408,2 0 -9.27408,2 0 -10.83146,2 0 -10.83146,2 0 -10.83146,2 0 -10.83146,2 0 -10.83146,2 0 -10.83146,2 0 -10.83146,2 0 -10.83146,2 0 -10.83146,2 0 -10.83146,2 0 -10.83146,2 0 -10.83146,2 0 -10.83146,2 0 -10.83146,2 0 -10.83146,2 0 -10.83146,2 0 -10.83146,2 0 -10.83146,2 0 -10.83146,2 0 -10.83146,2 0 -10.83146,2.510,
2 0 -9.27408,2 0 -9.27408,2 0 -9.27408,2 0 -9.27408,2 0 -9.27408,2 0 -9.27408,2 0 -9.27408,2 0 -9.27408,2 0 -9.27408,2 0 -9.27408,2 0 -9.27408,2 0 -9.27408,2 0 -9.27408,2 0 -9.27408,2 0 -9.27408,2 0 -9.27408,2 0 -9.27408,2 0 -9.27408,2 0 -9.27408,2 0 -9.27408,2 0 -9.27408,2 0 -10.83146,2 0 -10.83146,2 0 -10.83146,2 0 -10.83146,2 0 -10.83146,2 0 -10.83146,2 0 -10.83146,2 0 -10.83146,2 0 -10.83146,2 0 -10.83146,2 0 -10.83146,2 0 -10.83146,2 0 -10.83146,2 0 -10.83146,2 0 -10.83146,2 0 -10.83146,2 0 -10.83146,2 0 -10.83146,2 0 -10.83146,2 0 -10.83146,2 0 -10.83146,2.610,
2 0 -9.27408,2 0 -9.27408,2 0 -9.27408,2 0 -9.27408,2 0 -9.27408,2 0 -9.27408,2 0 -9.27408,2 0 -9.27408,2 0 -9.27408,2 0 -9.27408,2 0 -9.27408,2 0 -9.27408,2 0 -9.27408,2 0 -9.27408,2 0 -9.27408,2 0 -9.27408,2 0 -9.27408,2 0 -9.27408,2 0 -9.27408,2 0 -9.27408,2 0 -9.27408,2 0 -10.83146,2 0 -10.83146,2 0 -10.83146,2 0 -10.83146,2 0 -10.83146,2 0 -10.83146,2 0 -10.83146,2 0 -10.83146,2 0 -10.83146,2 0 -10.83146,2 0 -10.83146,2 0 -10.83146,2 0 -10.83146,2 0 -10.83146,2 0 -10.83146,2 0 -10.83146,2 0 -10.83146,2 0 -10.83146,2 0 -10.83146,2 0 -10.83146,2 0 -10.83146,2.710,
2 0 -9.27408,2 0 -9.27408,2 0 -9.27408,2 0 -9.27408,2 0 -9.27408,2 0 -9.27408,2 0 -9.27408,2 0 -9.27408,2 0 -9.27408,2 0 -9.27408,2 0 -9.27408,2 0 -9.27408,2 0 -9.27408,2 0 -9.27408,2 0 -9.27408,2 0 -9.27408,2 0 -9.27408,2 0 -9.27408,2 0 -9.27408,2 0 -9.27408,2 0 -9.27408,2 0 -10.83146,2 0 -10.83146,2 0 -10.83146,2 0 -10.83146,2 0 -10.83146,2 0 -10.83146,2 0 -10.83146,2 0 -10.83146,2 0 -10.83146,2 0 -10.83146,2 0 -10.83146,2 0 -10.83146,2 0 -10.83146,2 0 -10.83146,2 0 -10.83146,2 0 -10.83146,2 0 -10.83146,2 0 -10.83146,2 0 -10.83146,2 0 -10.83146,2 0 -10.83146,2.810,
2 0 -9.27408,2 0 -9.27408,2 0 -9.27408,2 0 -9.27408,2 0 -9.27408,2 0 -9.27408,2 0 -9.27408,2 0 -9.27408,2 0 -9.27408,2 0 -9.27408,2 0 -9.27408,2 0 -9.27408,2 0 -9.27408,2 0 -9.27408,2 0 -9.27408,2 0 -9.27408,2 0 -9.27408,2 0 -9.27408,2 0 -9.27408,2 0 -9.27408,2 0 -9.27408,2 0 -10.83146,2 0 -10.83146,2 0 -10.83146,2 0 -10.83146,2 0 -10.83146,2 0 -10.83146,2 0 -10.83146,2 0 -10.83146,2 0 -10.83146,2 0 -10.83146,2 0 -10.83146,2 0 -10.83146,2 0 -10.83146,2 0 -10.83146,2 0 -10.83146,2 0 -10.83146,2 0 -10.83146,2 0 -10.83146,2 0 -10.83146,2 0 -10.83146,2 0 -10.83146,2.910,
2 0 -9.27408,2 0 -9.27408,2 0 -9.27408,2 0 -9.27408,2 0 -9.27408,2 0 -9.27408,2 0 -9.27408,2 0 -9.27408,2 0 -9.27408,2 0 -9.27408,2 0 -9.27408,2 0 -9.27408,2 0 -9.27408,2 0 -9.27408,2 0 -9.27408,2 0 -9.27408,2 0 -9.27408,2 0 -9.27408,2 0 -9.27408,2 0 -9.27408,2 0 -9.27408,2 0 -10.83146,2 0 -10.83146,2 0 -10.83146,2 0 -10.83146,2 0 -10.83146,2 0 -10.83146,2 0 -10.83146,2 0 -10.83146,2 0 -10.83146,2 0 -10.83146,2 0 -10.83146,2 0 -10.83146,2 0 -10.83146,2 0 -10.83146,2 0 -10.83146,2 0 -10.83146,2 0 -10.83146,2 0 -10.83146,2 0 -10.83146,2 0 -10.83146,2 0 -10.83146,3.010,
2 0 -9.27408,2 0 -9.27408,2 0 -9.27408,2 0 -9.27408,2 0 -9.27408,2 0 -9.27408,2 0 -9.27408,2 0 -9.27408,2 0 -9.27408,2 0 -9.27408,2 0 -9.27408,2 0 -9.27408,2 0 -9.27408,2 0 -9.27408,2 0 -9.27408,2 0 -9.27408,2 0 -9.27408,2 0 -9.27408,2 0 -9.27408,2 0 -9.27408,2 0 -9.27408,2 0 -10.83146,2 0 -10.83146,2 0 -10.83146,2 0 -10.83146,2 0 -10.83146,2 0 -10.83146,2 0 -10.83146,2 0 -10.83146,2 0 -10.83146,2 0 -10.83146,2 0 -10.83146,2 0 -10.83146,2 0 -10.83146,2 0 -10.83146,2 0 -10.83146,2 0 -10.83146,2 0 -10.83146,2 0 -10.83146,2 0 -10.83146,2 0 -10.83146,2 0 -10.83146,3.110,
2 0 -9.27408,2 0 -9.27408,2 0 -9.27408,2 0 -9.27408,2 0 -9.27408,2 0 -9.27408,2 0 -9.27408,2 0 -9.27408,2 0 -9.27408,2 0 -9.27408,2 0 -9.27408,2 0 -9.27408,2 0 -9.27408,2 0 -9.27408,2 0 -9.27408,2 0 -9.27408,2 0 -9.27408,2 0 -9.27408,2 0 -9.27408,2 0 -9.27408,2 0 -9.27408,2 0 -10.83146,2 0 -10.83146,2 0 -10.83146,2 0 -10.83146,2 0 -10.83146,2 0 -10.83146,2 0 -10.83146,2 0 -10.83146,2 0 -10.83146,2 0 -10.83146,2 0 -10.83146,2 0 -10.83146,2 0 -10.83146,2 0 -10.83146,2 0 -10.83146,2 0 -10.83146,2 0 -10.83146,2 0 -10.83146,2 0 -10.83146,2 0 -10.83146,2 0 -10.83146,3.210,
2 0 -9.27408,2 0 -9.27408,2 0 -9.27408,2 0 -9.27408,2 0 -9.27408,2 0 -9.27408,2 0 -9.27408,2 0 -9.27408,2 0 -9.27408,2 0 -9.27408,2 0 -9.27408,2 0 -9.27408,2 0 -9.27408,2 0 -9.27408,2 0 -9.27408,2 0 -9.27408,2 0 -9.27408,2 0 -9.27408,2 0 -9.27408,2 0 -9.27408,2 0 -9.27408,2 0 -10.83146,2 0 -10.83146,2 0 -10.83146,2 0 -10.83146,2 0 -10.83146,2 0 -10.83146,2 0 -10.83146,2 0 -10.83146,2 0 -10.83146,2 0 -10.83146,2 0 -10.83146,2 0 -10.83146,2 0 -10.83146,2 0 -10.83146,2 0 -10.83146,2 0 -10.83146,2 0 -10.83146,2 0 -10.83146,2 0 -10.83146,2 0 -10.83146,2 0 -10.83146,3.310,
2 0 -9.27408,2 0 -9.27408,2 0 -9.27408,2 0 -9.27408,2 0 -9.27408,2 0 -9.27408,2 0 -9.27408,2 0 -9.27408,2 0 -9.27408,2 0 -9.27408,2 0 -9.27408,2 0 -9.27408,2 0 -9.27408,2 0 -9.27408,2 0 -9.27408,2 0 -9.27408,2 0 -9.27408,2 0 -9.27408,2 0 -9.27408,2 0 -9.27408,2 0 -9.27408,2 0 -10.83146,2 0 -10.83146,2 0 -10.83146,2 0 -10.83146,2 0 -10.83146,2 0 -10.83146,2 0 -10.83146,2 0 -10.83146,2 0 -10.83146,2 0 -10.83146,2 0 -10.83146,2 0 -10.83146,2 0 -10.83146,2 0 -10.83146,2 0 -10.83146,2 0 -10.83146,2 0 -10.83146,2 0 -10.83146,2 0 -10.83146,2 0 -10.83146,2 0 -10.83146,3.410,
2 0 -9.27408,2 0 -9.27408,2 0 -9.27408,2 0 -9.27408,2 0 -9.27408,2 0 -9.27408,2 0 -9.27408,2 0 -9.27408,2 0 -9.27408,2 0 -9.27408,2 0 -9.27408,2 0 -9.27408,2 0 -9.27408,2 0 -9.27408,2 0 -9.27408,2 0 -9.27408,2 0 -9.27408,2 0 -9.27408,2 0 -9.27408,2 0 -9.27408,2 0 -9.27408,2 0 -10.83146,2 0 -10.83146,2 0 -10.83146,2 0 -10.83146,2 0 -10.83146,2 0 -10.83146,2 0 -10.83146,2 0 -10.83146,2 0 -10.83146,2 0 -10.83146,2 0 -10.83146,2 0 -10.83146,2 0 -10.83146,2 0 -10.83146,2 0 -10.83146,2 0 -10.83146,2 0 -10.83146,2 0 -10.83146,2 0 -10.83146,2 0 -10.83146,2 0 -10.83146,3.510,
2 0 -9.27408,2 0 -9.27408,2 0 -9.27408,2 0 -9.27408,2 0 -9.27408,2 0 -9.27408,2 0 -9.27408,2 0 -9.27408,2 0 -9.27408,2 0 -9.27408,2 0 -9.27408,2 0 -9.27408,2 0 -9.27408,2 0 -9.27408,2 0 -9.27408,2 0 -9.27408,2 0 -9.27408,2 0 -9.27408,2 0 -9.27408,2 0 -9.27408,2 0 -9.27408,2 0 -10.83146,2 0 -10.83146,2 0 -10.83146,2 0 -10.83146,2 0 -10.83146,2 0 -10.83146,2 0 -10.83146,2 0 -10.83146,2 0 -10.83146,2 0 -10.83146,2 0 -10.83146,2 0 -10.83146,2 0 -10.83146,2 0 -10.83146,2 0 -10.83146,2 0 -10.83146,2 0 -10.83146,2 0 -10.83146,2 0 -10.83146,2 0 -10.83146,2 0 -10.83146,3.610,
2 0 -9.27408,2 0 -9.27408,2 0 -9.27408,2 0 -9.27408,2 0 -9.27408,2 0 -9.27408,2 0 -9.27408,2 0 -9.27408,2 0 -9.27408,2 0 -9.27408,2 0 -9.27408,2 0 -9.27408,2 0 -9.27408,2 0 -9.27408,2 0 -9.27408,2 0 -9.27408,2 0 -9.27408,2 0 -9.27408,2 0 -9.27408,2 0 -9.27408,2 0 -9.27408,2 0 -10.83146,2 0 -10.83146,2 0 -10.83146,2 0 -10.83146,2 0 -10.83146,2 0 -10.83146,2 0 -10.83146,2 0 -10.83146,2 0 -10.83146,2 0 -10.83146,2 0 -10.83146,2 0 -10.83146,2 0 -10.83146,2 0 -10.83146,2 0 -10.83146,2 0 -10.83146,2 0 -10.83146,2 0 -10.83146,2 0 -10.83146,2 0 -10.83146,2 0 -10.83146,3.710,
2 0 -9.27408,2 0 -9.27408,2 0 -9.27408,2 0 -9.27408,2 0 -9.27408,2 0 -9.27408,2 0 -9.27408,2 0 -9.27408,2 0 -9.27408,2 0 -9.27408,2 0 -9.27408,2 0 -9.27408,2 0 -9.27408,2 0 -9.27408,2 0 -9.27408,2 0 -9.27408,2 0 -9.27408,2 0 -9.27408,2 0 -9.27408,2 0 -9.27408,2 0 -9.27408,2 0 -10.83146,2 0 -10.83146,2 0 -10.83146,2 0 -10.83146,2 0 -10.83146,2 0 -10.83146,2 0 -10.83146,2 0 -10.83146,2 0 -10.83146,2 0 -10.83146,2 0 -10.83146,2 0 -10.83146,2 0 -10.83146,2 0 -10.83146,2 0 -10.83146,2 0 -10.83146,2 0 -10.83146,2 0 -10.83146,2 0 -10.83146,2 0 -10.83146,2 0 -10.83146,3.810,
1.930446 0 -9.17408,2.202844 0 -9.253292,1.728919 0 -9.236159,1.640358 0 -9.249545,2.382263 0 -9.260046,2.565146 0 -9.261352,2.847615 0 -9.265981,1.358784 0 -9.255265,1.458785 0 -9.254786,2.102844 0 -9.256138,1.827191 0 -9.219778,2.752559 0 -9.261385,1.540359 0 -9.250934,2.652559 0 -9.261869,1.272227 0 -9.25669,2.013951 0 -9.265969,1.172227 0 -9.256889,2.282264 0 -9.264735,3.056172 0 -9.27408,2.465146 0 -9.261411,1.077238 0 -9.257306,2 0 -10.83146,2.638061 0 -10.83146,2.547945 0 -10.83146,2.1 0 -10.83146,3.830406 0 -10.83146,2.368067 0 -10.83146,2.189152 0 -10.83146,3.171253 0 -10.83146,3.089136 0 -10.83146,2.908236 0 -10.83146,2.447945 0 -10.83146,2.718207 0 -10.83146,3.35435 0 -10.83146,3.730406 0 -10.83146,3.639562 0 -10.83146,2.268066 0 -10.83146,3.45435 0 -10.83146,2.818207 0 -10.83146,2.989136 0 -10.83146,3.539562 0 -10.83146,3.271253 0 -10.83146,3.910,
2 0 -9.27408,2 0 -9.27408,2 0 -9.27408,2 0 -9.27408,2 0 -9.27408,2 0 -9.27408,2 0 -9.27408,2 0 -9.27408,2 0 -9.27408,2 0 -9.27408,2 0 -9.27408,2 0 -9.27408,2 0 -9.27408,2 0 -9.27408,2 0 -9.27408,2 0 -9.27408,2 0 -9.27408,2 0 -9.27408,2 0 -9.27408,2 0 -9.27408,2 0 -9.27408,2 0 -10.83146,2 0 -10.83146,2 0 -10.83146,2 0 -10.83146,2 0 -10.83146,2 0 -10.83146,2 0 -10.83146,2 0 -10.83146,2 0 -10.83146,2 0 -10.83146,2 0 -10.83146,2 0 -10.83146,2 0 -10.83146,2 0 -10.83146,2 0 -10.83146,2 0 -10.83146,2 0 -10.83146,2 0 -10.83146,2 0 -10.83146,2 0 -10.83146,2 0 -10.83146,4.010,
2 0 -9.27408,2 0 -9.27408,2 0 -9.27408,2 0 -9.27408,2 0 -9.27408,2 0 -9.27408,2 0 -9.27408,2 0 -9.27408,2 0 -9.27408,2 0 -9.27408,2 0 -9.27408,2 0 -9.27408,2 0 -9.27408,2 0 -9.27408,2 0 -9.27408,2 0 -9.27408,2 0 -9.27408,2 0 -9.27408,2 0 -9.27408,2 0 -9.27408,2 0 -9.27408,2 0 -10.83146,2 0 -10.83146,2 0 -10.83146,2 0 -10.83146,2 0 -10.83146,2 0 -10.83146,2 0 -10.83146,2 0 -10.83146,2 0 -10.83146,2 0 -10.83146,2 0 -10.83146,2 0 -10.83146,2 0 -10.83146,2 0 -10.83146,2 0 -10.83146,2 0 -10.83146,2 0 -10.83146,2 0 -10.83146,2 0 -10.83146,2 0 -10.83146,2 0 -10.83146,4.110,
2 0 -9.27408,2 0 -9.27408,2 0 -9.27408,2 0 -9.27408,2 0 -9.27408,2 0 -9.27408,2 0 -9.27408,2 0 -9.27408,2 0 -9.27408,2 0 -9.27408,2 0 -9.27408,2 0 -9.27408,2 0 -9.27408,2 0 -9.27408,2 0 -9.27408,2 0 -9.27408,2 0 -9.27408,2 0 -9.27408,2 0 -9.27408,2 0 -9.27408,2 0 -9.27408,2 0 -10.83146,2 0 -10.83146,2 0 -10.83146,2 0 -10.83146,2 0 -10.83146,2 0 -10.83146,2 0 -10.83146,2 0 -10.83146,2 0 -10.83146,2 0 -10.83146,2 0 -10.83146,2 0 -10.83146,2 0 -10.83146,2 0 -10.83146,2 0 -10.83146,2 0 -10.83146,2 0 -10.83146,2 0 -10.83146,2 0 -10.83146,2 0 -10.83146,2 0 -10.83146,4.210,
2 0 -9.27408,2 0 -9.27408,2 0 -9.27408,2 0 -9.27408,2 0 -9.27408,2 0 -9.27408,2 0 -9.27408,2 0 -9.27408,2 0 -9.27408,2 0 -9.27408,2 0 -9.27408,2 0 -9.27408,2 0 -9.27408,2 0 -9.27408,2 0 -9.27408,2 0 -9.27408,2 0 -9.27408,2 0 -9.27408,2 0 -9.27408,2 0 -9.27408,2 0 -9.27408,2 0 -10.83146,2 0 -10.83146,2 0 -10.83146,2 0 -10.83146,2 0 -10.83146,2 0 -10.83146,2 0 -10.83146,2 0 -10.83146,2 0 -10.83146,2 0 -10.83146,2 0 -10.83146,2 0 -10.83146,2 0 -10.83146,2 0 -10.83146,2 0 -10.83146,2 0 -10.83146,2 0 -10.83146,2 0 -10.83146,2 0 -10.83146,2 0 -10.83146,2 0 -10.83146,4.310,
2 0 -9.27408,2 0 -9.27408,2 0 -9.27408,2 0 -9.27408,2 0 -9.27408,2 0 -9.27408,2 0 -9.27408,2 0 -9.27408,2 0 -9.27408,2 0 -9.27408,2 0 -9.27408,2 0 -9.27408,2 0 -9.27408,2 0 -9.27408,2 0 -9.27408,2 0 -9.27408,2 0 -9.27408,2 0 -9.27408,2 0 -9.27408,2 0 -9.27408,2 0 -9.27408,2 0 -10.83146,2 0 -10.83146,2 0 -10.83146,2 0 -10.83146,2 0 -10.83146,2 0 -10.83146,2 0 -10.83146,2 0 -10.83146,2 0 -10.83146,2 0 -10.83146,2 0 -10.83146,2 0 -10.83146,2 0 -10.83146,2 0 -10.83146,2 0 -10.83146,2 0 -10.83146,2 0 -10.83146,2 0 -10.83146,2 0 -10.83146,2 0 -10.83146,2 0 -10.83146,4.410,
2 0 -9.27408,2 0 -9.27408,2 0 -9.27408,2 0 -9.27408,2 0 -9.27408,2 0 -9.27408,2 0 -9.27408,2 0 -9.27408,2 0 -9.27408,2 0 -9.27408,2 0 -9.27408,2 0 -9.27408,2 0 -9.27408,2 0 -9.27408,2 0 -9.27408,2 0 -9.27408,2 0 -9.27408,2 0 -9.27408,2 0 -9.27408,2 0 -9.27408,2 0 -9.27408,2 0 -10.83146,2 0 -10.83146,2 0 -10.83146,2 0 -10.83146,2 0 -10.83146,2 0 -10.83146,2 0 -10.83146,2 0 -10.83146,2 0 -10.83146,2 0 -10.83146,2 0 -10.83146,2 0 -10.83146,2 0 -10.83146,2 0 -10.83146,2 0 -10.83146,2 0 -10.83146,2 0 -10.83146,2 0 -10.83146,2 0 -10.83146,2 0 -10.83146,2 0 -10.83146,4.510,
2 0 -9.27408,2 0 -9.27408,2 0 -9.27408,2 0 -9.27408,2 0 -9.27408,2 0 -9.27408,2 0 -9.27408,2 0 -9.27408,2 0 -9.27408,2 0 -9.27408,2 0 -9.27408,2 0 -9.27408,2 0 -9.27408,2 0 -9.27408,2 0 -9.27408,2 0 -9.27408,2 0 -9.27408,2 0 -9.27408,2 0 -9.27408,2 0 -9.27408,2 0 -9.27408,2 0 -10.83146,2 0 -10.83146,2 0 -10.83146,2 0 -10.83146,2 0 -10.83146,2 0 -10.83146,2 0 -10.83146,2 0 -10.83146,2 0 -10.83146,2 0 -10.83146,2 0 -10.83146,2 0 -10.83146,2 0 -10.83146,2 0 -10.83146,2 0 -10.83146,2 0 -10.83146,2 0 -10.83146,2 0 -10.83146,2 0 -10.83146,2 0 -10.83146,2 0 -10.83146,4.610,
2 0 -9.27408,2 0 -9.27408,2 0 -9.27408,2 0 -9.27408,2 0 -9.27408,2 0 -9.27408,2 0 -9.27408,2 0 -9.27408,2 0 -9.27408,2 0 -9.27408,2 0 -9.27408,2 0 -9.27408,2 0 -9.27408,2 0 -9.27408,2 0 -9.27408,2 0 -9.27408,2 0 -9.27408,2 0 -9.27408,2 0 -9.27408,2 0 -9.27408,2 0 -9.27408,2 0 -10.83146,2 0 -10.83146,2 0 -10.83146,2 0 -10.83146,2 0 -10.83146,2 0 -10.83146,2 0 -10.83146,2 0 -10.83146,2 0 -10.83146,2 0 -10.83146,2 0 -10.83146,2 0 -10.83146,2 0 -10.83146,2 0 -10.83146,2 0 -10.83146,2 0 -10.83146,2 0 -10.83146,2 0 -10.83146,2 0 -10.83146,2 0 -10.83146,2 0 -10.83146,4.710,
2 0 -9.27408,2 0 -9.27408,2 0 -9.27408,2 0 -9.27408,2 0 -9.27408,2 0 -9.27408,2 0 -9.27408,2 0 -9.27408,2 0 -9.27408,2 0 -9.27408,2 0 -9.27408,2 0 -9.27408,2 0 -9.27408,2 0 -9.27408,2 0 -9.27408,2 0 -9.27408,2 0 -9.27408,2 0 -9.27408,2 0 -9.27408,2 0 -9.27408,2 0 -9.27408,2 0 -10.83146,2 0 -10.83146,2 0 -10.83146,2 0 -10.83146,2 0 -10.83146,2 0 -10.83146,2 0 -10.83146,2 0 -10.83146,2 0 -10.83146,2 0 -10.83146,2 0 -10.83146,2 0 -10.83146,2 0 -10.83146,2 0 -10.83146,2 0 -10.83146,2 0 -10.83146,2 0 -10.83146,2 0 -10.83146,2 0 -10.83146,2 0 -10.83146,2 0 -10.83146,4.810,
2 0 -9.27408,2 0 -9.27408,2 0 -9.27408,2 0 -9.27408,2 0 -9.27408,2 0 -9.27408,2 0 -9.27408,2 0 -9.27408,2 0 -9.27408,2 0 -9.27408,2 0 -9.27408,2 0 -9.27408,2 0 -9.27408,2 0 -9.27408,2 0 -9.27408,2 0 -9.27408,2 0 -9.27408,2 0 -9.27408,2 0 -9.27408,2 0 -9.27408,2 0 -9.27408,2 0 -10.83146,2 0 -10.83146,2 0 -10.83146,2 0 -10.83146,2 0 -10.83146,2 0 -10.83146,2 0 -10.83146,2 0 -10.83146,2 0 -10.83146,2 0 -10.83146,2 0 -10.83146,2 0 -10.83146,2 0 -10.83146,2 0 -10.83146,2 0 -10.83146,2 0 -10.83146,2 0 -10.83146,2 0 -10.83146,2 0 -10.83146,2 0 -10.83146,2 0 -10.83146,4.910,
2 0 -9.27408,2 0 -9.27408,2 0 -9.27408,2 0 -9.27408,2 0 -9.27408,2 0 -9.27408,2 0 -9.27408,2 0 -9.27408,2 0 -9.27408,2 0 -9.27408,2 0 -9.27408,2 0 -9.27408,2 0 -9.27408,2 0 -9.27408,2 0 -9.27408,2 0 -9.27408,2 0 -9.27408,2 0 -9.27408,2 0 -9.27408,2 0 -9.27408,2 0 -9.27408,2 0 -10.83146,2 0 -10.83146,2 0 -10.83146,2 0 -10.83146,2 0 -10.83146,2 0 -10.83146,2 0 -10.83146,2 0 -10.83146,2 0 -10.83146,2 0 -10.83146,2 0 -10.83146,2 0 -10.83146,2 0 -10.83146,2 0 -10.83146,2 0 -10.83146,2 0 -10.83146,2 0 -10.83146,2 0 -10.83146,2 0 -10.83146,2 0 -10.83146,2 0 -10.83146,5.010,
2 0 -9.27408,2 0 -9.27408,2 0 -9.27408,2 0 -9.27408,2 0 -9.27408,2 0 -9.27408,2 0 -9.27408,2 0 -9.27408,2 0 -9.27408,2 0 -9.27408,2 0 -9.27408,2 0 -9.27408,2 0 -9.27408,2 0 -9.27408,2 0 -9.27408,2 0 -9.27408,2 0 -9.27408,2 0 -9.27408,2 0 -9.27408,2 0 -9.27408,2 0 -9.27408,2 0 -10.83146,2 0 -10.83146,2 0 -10.83146,2 0 -10.83146,2 0 -10.83146,2 0 -10.83146,2 0 -10.83146,2 0 -10.83146,2 0 -10.83146,2 0 -10.83146,2 0 -10.83146,2 0 -10.83146,2 0 -10.83146,2 0 -10.83146,2 0 -10.83146,2 0 -10.83146,2 0 -10.83146,2 0 -10.83146,2 0 -10.83146,2 0 -10.83146,2 0 -10.83146,5.110,
2 0 -9.27408,2 0 -9.27408,2 0 -9.27408,2 0 -9.27408,2 0 -9.27408,2 0 -9.27408,2 0 -9.27408,2 0 -9.27408,2 0 -9.27408,2 0 -9.27408,2 0 -9.27408,2 0 -9.27408,2 0 -9.27408,2 0 -9.27408,2 0 -9.27408,2 0 -9.27408,2 0 -9.27408,2 0 -9.27408,2 0 -9.27408,2 0 -9.27408,2 0 -9.27408,2 0 -10.83146,2 0 -10.83146,2 0 -10.83146,2 0 -10.83146,2 0 -10.83146,2 0 -10.83146,2 0 -10.83146,2 0 -10.83146,2 0 -10.83146,2 0 -10.83146,2 0 -10.83146,2 0 -10.83146,2 0 -10.83146,2 0 -10.83146,2 0 -10.83146,2 0 -10.83146,2 0 -10.83146,2 0 -10.83146,2 0 -10.83146,2 0 -10.83146,2 0 -10.83146,5.210,
2 0 -9.27408,2 0 -9.27408,2 0 -9.27408,2 0 -9.27408,2 0 -9.27408,2 0 -9.27408,2 0 -9.27408,2 0 -9.27408,2 0 -9.27408,2 0 -9.27408,2 0 -9.27408,2 0 -9.27408,2 0 -9.27408,2 0 -9.27408,2 0 -9.27408,2 0 -9.27408,2 0 -9.27408,2 0 -9.27408,2 0 -9.27408,2 0 -9.27408,2 0 -9.27408,2 0 -10.83146,2 0 -10.83146,2 0 -10.83146,2 0 -10.83146,2 0 -10.83146,2 0 -10.83146,2 0 -10.83146,2 0 -10.83146,2 0 -10.83146,2 0 -10.83146,2 0 -10.83146,2 0 -10.83146,2 0 -10.83146,2 0 -10.83146,2 0 -10.83146,2 0 -10.83146,2 0 -10.83146,2 0 -10.83146,2 0 -10.83146,2 0 -10.83146,2 0 -10.83146,5.310,
2 0 -9.27408,2 0 -9.27408,2 0 -9.27408,2 0 -9.27408,2 0 -9.27408,2 0 -9.27408,2 0 -9.27408,2 0 -9.27408,2 0 -9.27408,2 0 -9.27408,2 0 -9.27408,2 0 -9.27408,2 0 -9.27408,2 0 -9.27408,2 0 -9.27408,2 0 -9.27408,2 0 -9.27408,2 0 -9.27408,2 0 -9.27408,2 0 -9.27408,2 0 -9.27408,2 0 -10.83146,2 0 -10.83146,2 0 -10.83146,2 0 -10.83146,2 0 -10.83146,2 0 -10.83146,2 0 -10.83146,2 0 -10.83146,2 0 -10.83146,2 0 -10.83146,2 0 -10.83146,2 0 -10.83146,2 0 -10.83146,2 0 -10.83146,2 0 -10.83146,2 0 -10.83146,2 0 -10.83146,2 0 -10.83146,2 0 -10.83146,2 0 -10.83146,2 0 -10.83146,5.410,
2 0 -9.27408,2 0 -9.27408,2 0 -9.27408,2 0 -9.27408,2 0 -9.27408,2 0 -9.27408,2 0 -9.27408,2 0 -9.27408,2 0 -9.27408,2 0 -9.27408,2 0 -9.27408,2 0 -9.27408,2 0 -9.27408,2 0 -9.27408,2 0 -9.27408,2 0 -9.27408,2 0 -9.27408,2 0 -9.27408,2 0 -9.27408,2 0 -9.27408,2 0 -9.27408,2 0 -10.83146,2 0 -10.83146,2 0 -10.83146,2 0 -10.83146,2 0 -10.83146,2 0 -10.83146,2 0 -10.83146,2 0 -10.83146,2 0 -10.83146,2 0 -10.83146,2 0 -10.83146,2 0 -10.83146,2 0 -10.83146,2 0 -10.83146,2 0 -10.83146,2 0 -10.83146,2 0 -10.83146,2 0 -10.83146,2 0 -10.83146,2 0 -10.83146,2 0 -10.83146,5.510,
2 0 -9.27408,2 0 -9.27408,2 0 -9.27408,2 0 -9.27408,2 0 -9.27408,2 0 -9.27408,2 0 -9.27408,2 0 -9.27408,2 0 -9.27408,2 0 -9.27408,2 0 -9.27408,2 0 -9.27408,2 0 -9.27408,2 0 -9.27408,2 0 -9.27408,2 0 -9.27408,2 0 -9.27408,2 0 -9.27408,2 0 -9.27408,2 0 -9.27408,2 0 -9.27408,2 0 -10.83146,2 0 -10.83146,2 0 -10.83146,2 0 -10.83146,2 0 -10.83146,2 0 -10.83146,2 0 -10.83146,2 0 -10.83146,2 0 -10.83146,2 0 -10.83146,2 0 -10.83146,2 0 -10.83146,2 0 -10.83146,2 0 -10.83146,2 0 -10.83146,2 0 -10.83146,2 0 -10.83146,2 0 -10.83146,2 0 -10.83146,2 0 -10.83146,2 0 -10.83146,5.610,
2 0 -9.27408,2 0 -9.27408,2 0 -9.27408,2 0 -9.27408,2 0 -9.27408,2 0 -9.27408,2 0 -9.27408,2 0 -9.27408,2 0 -9.27408,2 0 -9.27408,2 0 -9.27408,2 0 -9.27408,2 0 -9.27408,2 0 -9.27408,2 0 -9.27408,2 0 -9.27408,2 0 -9.27408,2 0 -9.27408,2 0 -9.27408,2 0 -9.27408,2 0 -9.27408,2 0 -10.83146,2 0 -10.83146,2 0 -10.83146,2 0 -10.83146,2 0 -10.83146,2 0 -10.83146,2 0 -10.83146,2 0 -10.83146,2 0 -10.83146,2 0 -10.83146,2 0 -10.83146,2 0 -10.83146,2 0 -10.83146,2 0 -10.83146,2 0 -10.83146,2 0 -10.83146,2 0 -10.83146,2 0 -10.83146,2 0 -10.83146,2 0 -10.83146,2 0 -10.83146,5.710,
2 0 -9.27408,2 0 -9.27408,2 0 -9.27408,2 0 -9.27408,2 0 -9.27408,2 0 -9.27408,2 0 -9.27408,2 0 -9.27408,2 0 -9.27408,2 0 -9.27408,2 0 -9.27408,2 0 -9.27408,2 0 -9.27408,2 0 -9.27408,2 0 -9.27408,2 0 -9.27408,2 0 -9.27408,2 0 -9.27408,2 0 -9.27408,2 0 -9.27408,2 0 -9.27408,2 0 -10.83146,2 0 -10.83146,2 0 -10.83146,2 0 -10.83146,2 0 -10.83146,2 0 -10.83146,2 0 -10.83146,2 0 -10.83146,2 0 -10.83146,2 0 -10.83146,2 0 -10.83146,2 0 -10.83146,2 0 -10.83146,2 0 -10.83146,2 0 -10.83146,2 0 -10.83146,2 0 -10.83146,2 0 -10.83146,2 0 -10.83146,2 0 -10.83146,2 0 -10.83146,5.810,
2 0 -9.27408,2 0 -9.27408,2 0 -9.27408,2 0 -9.27408,2 0 -9.27408,2 0 -9.27408,2 0 -9.27408,2 0 -9.27408,2 0 -9.27408,2 0 -9.27408,2 0 -9.27408,2 0 -9.27408,2 0 -9.27408,2 0 -9.27408,2 0 -9.27408,2 0 -9.27408,2 0 -9.27408,2 0 -9.27408,2 0 -9.27408,2 0 -9.27408,2 0 -9.27408,2 0 -10.83146,2 0 -10.83146,2 0 -10.83146,2 0 -10.83146,2 0 -10.83146,2 0 -10.83146,2 0 -10.83146,2 0 -10.83146,2 0 -10.83146,2 0 -10.83146,2 0 -10.83146,2 0 -10.83146,2 0 -10.83146,2 0 -10.83146,2 0 -10.83146,2 0 -10.83146,2 0 -10.83146,2 0 -10.83146,2 0 -10.83146,2 0 -10.83146,2 0 -10.83146,5.910,
2 0 -9.27408,2 0 -9.27408,2 0 -9.27408,2 0 -9.27408,2 0 -9.27408,2 0 -9.27408,2 0 -9.27408,2 0 -9.27408,2 0 -9.27408,2 0 -9.27408,2 0 -9.27408,2 0 -9.27408,2 0 -9.27408,2 0 -9.27408,2 0 -9.27408,2 0 -9.27408,2 0 -9.27408,2 0 -9.27408,2 0 -9.27408,2 0 -9.27408,2 0 -9.27408,2 0 -10.83146,2 0 -10.83146,2 0 -10.83146,2 0 -10.83146,2 0 -10.83146,2 0 -10.83146,2 0 -10.83146,2 0 -10.83146,2 0 -10.83146,2 0 -10.83146,2 0 -10.83146,2 0 -10.83146,2 0 -10.83146,2 0 -10.83146,2 0 -10.83146,2 0 -10.83146,2 0 -10.83146,2 0 -10.83146,2 0 -10.83146,2 0 -10.83146,2 0 -10.83146,6.010,
2 0 -9.27408,2 0 -9.27408,2 0 -9.27408,2 0 -9.27408,2 0 -9.27408,2 0 -9.27408,2 0 -9.27408,2 0 -9.27408,2 0 -9.27408,2 0 -9.27408,2 0 -9.27408,2 0 -9.27408,2 0 -9.27408,2 0 -9.27408,2 0 -9.27408,2 0 -9.27408,2 0 -9.27408,2 0 -9.27408,2 0 -9.27408,2 0 -9.27408,2 0 -9.27408,2 0 -10.83146,2 0 -10.83146,2 0 -10.83146,2 0 -10.83146,2 0 -10.83146,2 0 -10.83146,2 0 -10.83146,2 0 -10.83146,2 0 -10.83146,2 0 -10.83146,2 0 -10.83146,2 0 -10.83146,2 0 -10.83146,2 0 -10.83146,2 0 -10.83146,2 0 -10.83146,2 0 -10.83146,2 0 -10.83146,2 0 -10.83146,2 0 -10.83146,2 0 -10.83146,6.110,
2 0 -9.27408,2 0 -9.27408,2 0 -9.27408,2 0 -9.27408,2 0 -9.27408,2 0 -9.27408,2 0 -9.27408,2 0 -9.27408,2 0 -9.27408,2 0 -9.27408,2 0 -9.27408,2 0 -9.27408,2 0 -9.27408,2 0 -9.27408,2 0 -9.27408,2 0 -9.27408,2 0 -9.27408,2 0 -9.27408,2 0 -9.27408,2 0 -9.27408,2 0 -9.27408,2 0 -10.83146,2 0 -10.83146,2 0 -10.83146,2 0 -10.83146,2 0 -10.83146,2 0 -10.83146,2 0 -10.83146,2 0 -10.83146,2 0 -10.83146,2 0 -10.83146,2 0 -10.83146,2 0 -10.83146,2 0 -10.83146,2 0 -10.83146,2 0 -10.83146,2 0 -10.83146,2 0 -10.83146,2 0 -10.83146,2 0 -10.83146,2 0 -10.83146,2 0 -10.83146,6.210,
2 0 -9.27408,2 0 -9.27408,2 0 -9.27408,2 0 -9.27408,2 0 -9.27408,2 0 -9.27408,2 0 -9.27408,2 0 -9.27408,2 0 -9.27408,2 0 -9.27408,2 0 -9.27408,2 0 -9.27408,2 0 -9.27408,2 0 -9.27408,2 0 -9.27408,2 0 -9.27408,2 0 -9.27408,2 0 -9.27408,2 0 -9.27408,2 0 -9.27408,2 0 -9.27408,2 0 -10.83146,2 0 -10.83146,2 0 -10.83146,2 0 -10.83146,2 0 -10.83146,2 0 -10.83146,2 0 -10.83146,2 0 -10.83146,2 0 -10.83146,2 0 -10.83146,2 0 -10.83146,2 0 -10.83146,2 0 -10.83146,2 0 -10.83146,2 0 -10.83146,2 0 -10.83146,2 0 -10.83146,2 0 -10.83146,2 0 -10.83146,2 0 -10.83146,2 0 -10.83146,6.310,
2 0 -9.27408,2 0 -9.27408,2 0 -9.27408,2 0 -9.27408,2 0 -9.27408,2 0 -9.27408,2 0 -9.27408,2 0 -9.27408,2 0 -9.27408,2 0 -9.27408,2 0 -9.27408,2 0 -9.27408,2 0 -9.27408,2 0 -9.27408,2 0 -9.27408,2 0 -9.27408,2 0 -9.27408,2 0 -9.27408,2 0 -9.27408,2 0 -9.27408,2 0 -9.27408,2 0 -10.83146,2 0 -10.83146,2 0 -10.83146,2 0 -10.83146,2 0 -10.83146,2 0 -10.83146,2 0 -10.83146,2 0 -10.83146,2 0 -10.83146,2 0 -10.83146,2 0 -10.83146,2 0 -10.83146,2 0 -10.83146,2 0 -10.83146,2 0 -10.83146,2 0 -10.83146,2 0 -10.83146,2 0 -10.83146,2 0 -10.83146,2 0 -10.83146,2 0 -10.83146,6.410,
2 0 -9.27408,2 0 -9.27408,2 0 -9.27408,2 0 -9.27408,2 0 -9.27408,2 0 -9.27408,2 0 -9.27408,2 0 -9.27408,2 0 -9.27408,2 0 -9.27408,2 0 -9.27408,2 0 -9.27408,2 0 -9.27408,2 0 -9.27408,2 0 -9.27408,2 0 -9.27408,2 0 -9.27408,2 0 -9.27408,2 0 -9.27408,2 0 -9.27408,2 0 -9.27408,2 0 -10.83146,2 0 -10.83146,2 0 -10.83146,2 0 -10.83146,2 0 -10.83146,2 0 -10.83146,2 0 -10.83146,2 0 -10.83146,2 0 -10.83146,2 0 -10.83146,2 0 -10.83146,2 0 -10.83146,2 0 -10.83146,2 0 -10.83146,2 0 -10.83146,2 0 -10.83146,2 0 -10.83146,2 0 -10.83146,2 0 -10.83146,2 0 -10.83146,2 0 -10.83146,6.510,
2 0 -9.27408,2 0 -9.27408,2 0 -9.27408,2 0 -9.27408,2 0 -9.27408,2 0 -9.27408,2 0 -9.27408,2 0 -9.27408,2 0 -9.27408,2 0 -9.27408,2 0 -9.27408,2 0 -9.27408,2 0 -9.27408,2 0 -9.27408,2 0 -9.27408,2 0 -9.27408,2 0 -9.27408,2 0 -9.27408,2 0 -9.27408,2 0 -9.27408,2 0 -9.27408,2 0 -10.83146,2 0 -10.83146,2 0 -10.83146,2 0 -10.83146,2 0 -10.83146,2 0 -10.83146,2 0 -10.83146,2 0 -10.83146,2 0 -10.83146,2 0 -10.83146,2 0 -10.83146,2 0 -10.83146,2 0 -10.83146,2 0 -10.83146,2 0 -10.83146,2 0 -10.83146,2 0 -10.83146,2 0 -10.83146,2 0 -10.83146,2 0 -10.83146,2 0 -10.83146,6.610,
2 0 -9.27408,2 0 -9.27408,2 0 -9.27408,2 0 -9.27408,2 0 -9.27408,2 0 -9.27408,2 0 -9.27408,2 0 -9.27408,2 0 -9.27408,2 0 -9.27408,2 0 -9.27408,2 0 -9.27408,2 0 -9.27408,2 0 -9.27408,2 0 -9.27408,2 0 -9.27408,2 0 -9.27408,2 0 -9.27408,2 0 -9.27408,2 0 -9.27408,2 0 -9.27408,2 0 -10.83146,2 0 -10.83146,2 0 -10.83146,2 0 -10.83146,2 0 -10.83146,2 0 -10.83146,2 0 -10.83146,2 0 -10.83146,2 0 -10.83146,2 0 -10.83146,2 0 -10.83146,2 0 -10.83146,2 0 -10.83146,2 0 -10.83146,2 0 -10.83146,2 0 -10.83146,2 0 -10.83146,2 0 -10.83146,2 0 -10.83146,2 0 -10.83146,2 0 -10.83146,6.710,
2 0 -9.27408,2 0 -9.27408,2 0 -9.27408,2 0 -9.27408,2 0 -9.27408,2 0 -9.27408,2 0 -9.27408,2 0 -9.27408,2 0 -9.27408,2 0 -9.27408,2 0 -9.27408,2 0 -9.27408,2 0 -9.27408,2 0 -9.27408,2 0 -9.27408,2 0 -9.27408,2 0 -9.27408,2 0 -9.27408,2 0 -9.27408,2 0 -9.27408,2 0 -9.27408,2 0 -10.83146,2 0 -10.83146,2 0 -10.83146,2 0 -10.83146,2 0 -10.83146,2 0 -10.83146,2 0 -10.83146,2 0 -10.83146,2 0 -10.83146,2 0 -10.83146,2 0 -10.83146,2 0 -10.83146,2 0 -10.83146,2 0 -10.83146,2 0 -10.83146,2 0 -10.83146,2 0 -10.83146,2 0 -10.83146,2 0 -10.83146,2 0 -10.83146,2 0 -10.83146,6.810,
2 0 -9.27408,2 0 -9.27408,2 0 -9.27408,2 0 -9.27408,2 0 -9.27408,2 0 -9.27408,2 0 -9.27408,2 0 -9.27408,2 0 -9.27408,2 0 -9.27408,2 0 -9.27408,2 0 -9.27408,2 0 -9.27408,2 0 -9.27408,2 0 -9.27408,2 0 -9.27408,2 0 -9.27408,2 0 -9.27408,2 0 -9.27408,2 0 -9.27408,2 0 -9.27408,2 0 -10.83146,2 0 -10.83146,2 0 -10.83146,2 0 -10.83146,2 0 -10.83146,2 0 -10.83146,2 0 -10.83146,2 0 -10.83146,2 0 -10.83146,2 0 -10.83146,2 0 -10.83146,2 0 -10.83146,2 0 -10.83146,2 0 -10.83146,2 0 -10.83146,2 0 -10.83146,2 0 -10.83146,2 0 -10.83146,2 0 -10.83146,2 0 -10.83146,2 0 -10.83146,6.910,
2 0 -9.27408,2 0 -9.27408,2 0 -9.27408,2 0 -9.27408,2 0 -9.27408,2 0 -9.27408,2 0 -9.27408,2 0 -9.27408,2 0 -9.27408,2 0 -9.27408,2 0 -9.27408,2 0 -9.27408,2 0 -9.27408,2 0 -9.27408,2 0 -9.27408,2 0 -9.27408,2 0 -9.27408,2 0 -9.27408,2 0 -9.27408,2 0 -9.27408,2 0 -9.27408,2 0 -10.83146,2 0 -10.83146,2 0 -10.83146,2 0 -10.83146,2 0 -10.83146,2 0 -10.83146,2 0 -10.83146,2 0 -10.83146,2 0 -10.83146,2 0 -10.83146,2 0 -10.83146,2 0 -10.83146,2 0 -10.83146,2 0 -10.83146,2 0 -10.83146,2 0 -10.83146,2 0 -10.83146,2 0 -10.83146,2 0 -10.83146,2 0 -10.83146,2 0 -10.83146,7.010,
2 0 -9.27408,2 0 -9.27408,2 0 -9.27408,2 0 -9.27408,2 0 -9.27408,2 0 -9.27408,2 0 -9.27408,2 0 -9.27408,2 0 -9.27408,2 0 -9.27408,2 0 -9.27408,2 0 -9.27408,2 0 -9.27408,2 0 -9.27408,2 0 -9.27408,2 0 -9.27408,2 0 -9.27408,2 0 -9.27408,2 0 -9.27408,2 0 -9.27408,2 0 -9.27408,2 0 -10.83146,2 0 -10.83146,2 0 -10.83146,2 0 -10.83146,2 0 -10.83146,2 0 -10.83146,2 0 -10.83146,2 0 -10.83146,2 0 -10.83146,2 0 -10.83146,2 0 -10.83146,2 0 -10.83146,2 0 -10.83146,2 0 -10.83146,2 0 -10.83146,2 0 -10.83146,2 0 -10.83146,2 0 -10.83146,2 0 -10.83146,2 0 -10.83146,2 0 -10.83146,7.110,
2 0 -9.27408,2 0 -9.27408,2 0 -9.27408,2 0 -9.27408,2 0 -9.27408,2 0 -9.27408,2 0 -9.27408,2 0 -9.27408,2 0 -9.27408,2 0 -9.27408,2 0 -9.27408,2 0 -9.27408,2 0 -9.27408,2 0 -9.27408,2 0 -9.27408,2 0 -9.27408,2 0 -9.27408,2 0 -9.27408,2 0 -9.27408,2 0 -9.27408,2 0 -9.27408,2 0 -10.83146,2 0 -10.83146,2 0 -10.83146,2 0 -10.83146,2 0 -10.83146,2 0 -10.83146,2 0 -10.83146,2 0 -10.83146,2 0 -10.83146,2 0 -10.83146,2 0 -10.83146,2 0 -10.83146,2 0 -10.83146,2 0 -10.83146,2 0 -10.83146,2 0 -10.83146,2 0 -10.83146,2 0 -10.83146,2 0 -10.83146,2 0 -10.83146,2 0 -10.83146,7.210,
2 0 -9.27408,2 0 -9.27408,2 0 -9.27408,2 0 -9.27408,2 0 -9.27408,2 0 -9.27408,2 0 -9.27408,2 0 -9.27408,2 0 -9.27408,2 0 -9.27408,2 0 -9.27408,2 0 -9.27408,2 0 -9.27408,2 0 -9.27408,2 0 -9.27408,2 0 -9.27408,2 0 -9.27408,2 0 -9.27408,2 0 -9.27408,2 0 -9.27408,2 0 -9.27408,-7.760468 -14.38858 -5.097907,-8.048772 -13.5356 -4.767774,-8.042464 -12.77077 -4.543377,-7.854217 -12.11341 -4.424248,-7.693462 -11.44305 -4.2913,-7.344584 -12.65206 -4.360359,-7.072422 -11.71338 -4.330055,-6.992195 -11.19209 -4.407375,-6.987432 -10.81379 -4.456466,-7.032286 -13.02286 -4.560959,-6.673123 -12.1505 -4.509404,-6.539243 -11.66662 -4.607787,-6.48273 -11.33235 -4.709155,-6.845331 -13.39457 -4.792948,-6.480773 -12.66058 -4.748945,-6.338402 -12.21107 -4.788466,-6.27281 -11.86979 -4.833505,-6.765822 -13.747 -5.03835,-6.434845 -13.24474 -4.9361,-6.308293 -12.9411 -4.932587,-6.246735 -12.657 -4.970661,7.310,
2 0 -9.27408,2 0 -9.27408,2 0 -9.27408,2 0 -9.27408,2 0 -9.27408,2 0 -9.27408,2 0 -9.27408,2 0 -9.27408,2 0 -9.27408,2 0 -9.27408,2 0 -9.27408,2 0 -9.27408,2 0 -9.27408,2 0 -9.27408,2 0 -9.27408,2 0 -9.27408,2 0 -9.27408,2 0 -9.27408,2 0 -9.27408,2 0 -9.27408,2 0 -9.27408,-7.610956 -14.42557 -5.261915,-7.840747 -13.68532 -4.946674,-7.847727 -12.97976 -4.688358,-7.766697 -12.3205 -4.526483,-7.717643 -11.63764 -4.325582,-7.071307 -12.75196 -4.560823,-6.936446 -11.77694 -4.92491,-6.896401 -11.2251 -4.980588,-6.91691 -10.82731 -5.023195,-6.891581 -13.01742 -5.083872,-6.575097 -12.17274 -5.097486,-6.438257 -11.63184 -5.203786,-6.364532 -11.22722 -5.287361,-6.757271 -13.39245 -5.277878,-6.420809 -12.71909 -5.350921,-6.273928 -12.2506 -5.460509,-6.188027 -11.88374 -5.529552,-6.725281 -13.76538 -5.458635,-6.421548 -13.26382 -5.537734,-6.300714 -12.90859 -5.613211,-6.233971 -12.61688 -5.671277,7.410,
2 0 -9.27408,2 0 -9.27408,2 0 -9.27408,2 0 -9.27408,2 0 -9.27408,2 0 -9.27408,2 0 -9.27408,2 0 -9.27408,2 0 -9.27408,2 0 -9.27408,2 0 -9.27408,2 0 -9.27408,2 0 -9.27408,2 0 -9.27408,2 0 -9.27408,2 0 -9.27408,2 0 -9.27408,2 0 -9.27408,2 0 -9.27408,2 0 -9.27408,2 0 -9.27408,-7.523362 -14.44652 -4.91063,-7.772502 -13.72943 -4.562428,-7.770247 -13.01087 -4.283058,-7.710505 -12.32149 -4.128364,-7.717896 -11.63201 -3.935679,-6.996463 -12.7487 -4.066613,-6.72841 -11.6689 -4.099573,-6.746073 -11.09826 -4.266329,-6.845594 -10.7836 -4.429414,-6.701667 -13.08684 -4.329641,-6.331742 -11.9836 -4.381715,-6.302181 -11.42251 -4.625906,-6.385114 -11.12889 -4.821212,-6.558501 -13.4269 -4.638249,-6.206323 -12.48162 -4.76438,-6.202173 -11.97779 -4.973351,-6.288039 -11.69773 -5.12241,-6.538155 -13.70363 -4.948316,-6.232947 -12.97152 -5.083783,-6.22433 -12.54657 -5.251826,-6.314713 -12.2785 -5.381029,7.510,
2 0 -9.27408,2 0 -9.27408,2 0 -9.27408,2 0 -9.27408,2 0 -9.27408,2 0 -9.27408,2 0 -9.27408,2 0 -9.27408,2 0 -9.27408,2 0 -9.27408,2 0 -9.27408,2 0 -9.27408,2 0 -9.27408,2 0 -9.27408,2 0 -9.27408,2 0 -9.27408,2 0 -9.27408,2 0 -9.27408,2 0 -9.27408,2 0 -9.27408,2 0 -9.27408,-7.459906 -14.54451 -4.640995,-7.74107 -13.83882 -4.293066,-7.736582 -13.0262 -4.062581,-7.678098 -12.30529 -3.974271,-7.67138 -11.63582 -3.927439,-6.957355 -12.79678 -3.731929,-6.617404 -11.62911 -3.789113,-6.669253 -11.09079 -4.030138,-6.826331 -10.8635 -4.25348,-6.63922 -13.11144 -4.008197,-6.204467 -11.87553 -4.034139,-6.231106 -11.30943 -4.320813,-6.391114 -11.07052 -4.549714,-6.491397 -13.41979 -4.338238,-6.110846 -12.32703 -4.437455,-6.199542 -11.79949 -4.694237,-6.385409 -11.55233 -4.897188,-6.472363 -13.67295 -4.673176,-6.171153 -12.79786 -4.803684,-6.22644 -12.3247 -5.002247,-6.388778 -12.0852 -5.181392,7.610,
2 0 -9.27408,2 0 -9.27408,2 0 -9.27408,2 0 -9.27408,2 0 -9.27408,2 0 -9.27408,2 0 -9.27408,2 0 -9.27408,2 0 -9.27408,2 0 -9.27408,2 0 -9.27408,2 0 -9.27408,2 0 -9.27408,2 0 -9.27408,2 0 -9.27408,2 0 -9.27408,2 0 -9.27408,2 0 -9.27408,2 0 -9.27408,2 0 -9.27408,2 0 -9.27408,-7.485567 -14.58064 -4.605233,-7.745045 -13.86189 -4.192513,-7.723271 -13.02548 -3.937946,-7.646196 -12.27996 -3.845602,-7.635567 -11.58913 -3.823746,-6.927964 -12.87985 -3.645947,-6.582022 -11.6722 -3.728199,-6.688725 -11.15204 -3.97946,-6.89162 -11.00206 -4.183866,-6.61479 -13.17964 -3.939775,-6.168791 -11.88513 -3.964115,-6.236376 -11.26181 -4.21122,-6.42453 -11.00473 -4.392663,-6.479057 -13.46396 -4.284904,-6.091238 -12.32832 -4.370022,-6.218239 -11.7915 -4.579346,-6.433857 -11.57445 -4.737874,-6.471889 -13.68407 -4.630367,-6.175777 -12.78443 -4.758829,-6.267484 -12.32252 -4.936659,-6.456263 -12.11905 -5.106005,7.710,
2 0 -9.27408,2 0 -9.27408,2 0 -9.27408,2 0 -9.27408,2 0 -9.27408,2 0 -9.27408,2 0 -9.27408,2 0 -9.27408,2 0 -9.27408,2 0 -9.27408,2 0 -9.27408,2 0 -9.27408,2 0 -9.27408,2 0 -9.27408,2 0 -9.27408,2 0 -9.27408,2 0 -9.27408,2 0 -9.27408,2 0 -9.27408,2 0 -9.27408,2 0 -9.27408,-7.50841 -14.70001 -4.250532,-7.78249 -13.92499 -3.887412,-7.772779 -13.05624 -3.68631,-7.694784 -12.29557 -3.647553,-7.688777 -11.59007 -3.662196,-6.937321 -12.85866 -3.356115,-6.585958 -11.68452 -3.396097,-6.621461 -11.099 -3.592205,-6.765468 -10.80403 -3.766205,-6.617208 -13.15217 -3.663657,-6.167563 -11.88909 -3.688403,-6.222663 -11.27638 -3.965776,-6.395124 -11.00597 -4.168615,-6.481352 -13.43812 -4.018007,-6.070118 -12.32876 -4.095148,-6.168192 -11.75181 -4.332134,-6.362778 -11.48666 -4.521127,-6.477332 -13.68304 -4.375102,-6.170683 -12.79189 -4.486484,-6.244061 -12.29001 -4.660167,-6.428363 -12.03996 -4.822431,7.810,
2 0 -9.27408,2 0 -9.27408,2 0 -9.27408,2 0 -9.27408,2 0 -9.27408,2 0 -9.27408,2 0 -9.27408,2 0 -9.27408,2 0 -9.27408,2 0 -9.27408,2 0 -9.27408,2 0 -9.27408,2 0 -9.27408,2 0 -9.27408,2 0 -9.27408,2 0 -9.27408,2 0 -9.27408,2 0 -9.27408,2 0 -9.27408,2 0 -9.27408,2 0 -9.27408,-7.34868 -14.44175 -4.823786,-7.61343 -13.8055 -4.330728,-7.65914 -13.07106 -3.995852,-7.672818 -12.43952 -3.796943,-7.667938 -11.78835 -3.662475,-6.882398 -12.92754 -3.73393,-6.602664 -11.81069 -3.694726,-6.74016 -11.25527 -3.877785,-6.933648 -11.10566 -4.061091,-6.578791 -13.11349 -4.056336,-6.194493 -12.00778 -4.001939,-6.269269 -11.42265 -4.217123,-6.393596 -10.88659 -3.443001,-6.471059 -12.9656 -4.019097,-6.076949 -11.92089 -3.820819,-6.188166 -11.37213 -3.840302,-6.322227 -11.16432 -3.879827,-6.423226 -13.09929 -4.391152,-6.127687 -12.26846 -4.329754,-6.170436 -11.85518 -4.321479,-6.274446 -11.6615 -4.333115,7.910,
-3.608456 -13.73482 -3.713186,-3.712938 -13.17135 -3.799475,-3.715814 -12.54997 -3.651759,-3.631985 -12.05122 -3.483765,-3.545754 -11.72957 -3.291271,-3.614554 -12.13722 -3.171019,-3.286755 -11.60819 -2.857922,-3.025679 -11.34199 -2.708782,-2.805213 -11.21046 -2.655929,-3.542252 -12.31819 -2.997045,-3.149156 -11.81063 -2.660059,-2.87222 -11.63212 -2.56722,-2.643355 -11.56783 -2.559324,-3.454787 -12.59718 -2.845709,-3.088218 -12.15664 -2.54177,-2.826804 -11.97519 -2.479677,-2.630809 -11.9102 -2.477829,-3.35127 -12.92599 -2.724028,-3.0466 -12.60925 -2.521409,-2.823578 -12.47151 -2.466767,-2.642565 -12.38551 -2.444502,-7.354191 -14.78693 -4.887255,-7.625728 -14.1233 -4.472265,-7.659127 -13.31615 -4.206444,-7.642956 -12.61197 -4.077623,-7.620625 -11.94987 -3.998161,-6.859317 -13.16157 -3.995292,-6.555468 -12.03589 -4.071692,-6.628649 -11.48469 -4.299691,-6.787862 -11.27495 -4.481396,-6.536279 -13.41382 -4.313225,-6.158093 -12.29552 -4.35031,-6.185751 -11.6969 -4.574588,-6.309309 -11.41745 -4.743984,-6.382214 -13.65655 -4.670021,-6.037557 -12.70761 -4.772153,-6.093813 -12.14998 -4.946504,-6.249866 -11.87238 -5.080858,-6.348636 -13.85888 -5.014628,-6.066875 -13.10177 -5.121315,-6.114254 -12.66263 -5.227086,-6.255245 -12.41836 -5.339731,8.010,
-3.608456 -13.73482 -3.713186,-3.712938 -13.17135 -3.799475,-3.715814 -12.54997 -3.651759,-3.631985 -12.05122 -3.483765,-3.545754 -11.72957 -3.291271,-3.614554 -12.13722 -3.171019,-3.286755 -11.60819 -2.857922,-3.025679 -11.34199 -2.708782,-2.805213 -11.21046 -2.655929,-3.542252 -12.31819 -2.997045,-3.149156 -11.81063 -2.660059,-2.87222 -11.63212 -2.56722,-2.643355 -11.56783 -2.559324,-3.454787 -12.59718 -2.845709,-3.088218 -12.15664 -2.54177,-2.826804 -11.97519 -2.479677,-2.630809 -11.9102 -2.477829,-3.35127 -12.92599 -2.724028,-3.0466 -12.60925 -2.521409,-2.823578 -12.47151 -2.466767,-2.642565 -12.38551 -2.444502,-7.354191 -14.78693 -4.887255,-7.625728 -14.1233 -4.472265,-7.659127 -13.31615 -4.206444,-7.642956 -12.61197 -4.077623,-7.620625 -11.94987 -3.998161,-6.859317 -13.16157 -3.995292,-6.555468 -12.03589 -4.071692,-6.628649 -11.48469 -4.299691,-6.787862 -11.27495 -4.481396,-6.536279 -13.41382 -4.313225,-6.158093 -12.29552 -4.35031,-6.185751 -11.6969 -4.574588,-6.309309 -11.41745 -4.743984,-6.382214 -13.65655 -4.670021,-6.037557 -12.70761 -4.772153,-6.093813 -12.14998 -4.946504,-6.249866 -11.87238 -5.080858,-6.348636 -13.85888 -5.014628,-6.066875 -13.10177 -5.121315,-6.114254 -12.66263 -5.227086,-6.255245 -12.41836 -5.339731,8.110,
-3.608456 -13.73482 -3.713186,-3.712938 -13.17135 -3.799475,-3.715814 -12.54997 -3.651759,-3.631985 -12.05122 -3.483765,-3.545754 -11.72957 -3.291271,-3.614554 -12.13722 -3.171019,-3.286755 -11.60819 -2.857922,-3.025679 -11.34199 -2.708782,-2.805213 -11.21046 -2.655929,-3.542252 -12.31819 -2.997045,-3.149156 -11.81063 -2.660059,-2.87222 -11.63212 -2.56722,-2.643355 -11.56783 -2.559324,-3.454787 -12.59718 -2.845709,-3.088218 -12.15664 -2.54177,-2.826804 -11.97519 -2.479677,-2.630809 -11.9102 -2.477829,-3.35127 -12.92599 -2.724028,-3.0466 -12.60925 -2.521409,-2.823578 -12.47151 -2.466767,-2.642565 -12.38551 -2.444502,-7.354191 -14.78693 -4.887255,-7.625728 -14.1233 -4.472265,-7.659127 -13.31615 -4.206444,-7.642956 -12.61197 -4.077623,-7.620625 -11.94987 -3.998161,-6.859317 -13.16157 -3.995292,-6.555468 -12.03589 -4.071692,-6.628649 -11.48469 -4.299691,-6.787862 -11.27495 -4.481396,-6.536279 -13.41382 -4.313225,-6.158093 -12.29552 -4.35031,-6.185751 -11.6969 -4.574588,-6.309309 -11.41745 -4.743984,-6.382214 -13.65655 -4.670021,-6.037557 -12.70761 -4.772153,-6.093813 -12.14998 -4.946504,-6.249866 -11.87238 -5.080858,-6.348636 -13.85888 -5.014628,-6.066875 -13.10177 -5.121315,-6.114254 -12.66263 -5.227086,-6.255245 -12.41836 -5.339731,8.210,
-3.608456 -13.73482 -3.713186,-3.712938 -13.17135 -3.799475,-3.715814 -12.54997 -3.651759,-3.631985 -12.05122 -3.483765,-3.545754 -11.72957 -3.291271,-3.614554 -12.13722 -3.171019,-3.286755 -11.60819 -2.857922,-3.025679 -11.34199 -2.708782,-2.805213 -11.21046 -2.655929,-3.542252 -12.31819 -2.997045,-3.149156 -11.81063 -2.660059,-2.87222 -11.63212 -2.56722,-2.643355 -11.56783 -2.559324,-3.454787 -12.59718 -2.845709,-3.088218 -12.15664 -2.54177,-2.826804 -11.97519 -2.479677,-2.630809 -11.9102 -2.477829,-3.35127 -12.92599 -2.724028,-3.0466 -12.60925 -2.521409,-2.823578 -12.47151 -2.466767,-2.642565 -12.38551 -2.444502,-7.354191 -14.78693 -4.887255,-7.625728 -14.1233 -4.472265,-7.659127 -13.31615 -4.206444,-7.642956 -12.61197 -4.077623,-7.620625 -11.94987 -3.998161,-6.859317 -13.16157 -3.995292,-6.555468 -12.03589 -4.071692,-6.628649 -11.48469 -4.299691,-6.787862 -11.27495 -4.481396,-6.536279 -13.41382 -4.313225,-6.158093 -12.29552 -4.35031,-6.185751 -11.6969 -4.574588,-6.309309 -11.41745 -4.743984,-6.382214 -13.65655 -4.670021,-6.037557 -12.70761 -4.772153,-6.093813 -12.14998 -4.946504,-6.249866 -11.87238 -5.080858,-6.348636 -13.85888 -5.014628,-6.066875 -13.10177 -5.121315,-6.114254 -12.66263 -5.227086,-6.255245 -12.41836 -5.339731,8.310,
-3.608456 -13.73482 -3.713186,-3.712938 -13.17135 -3.799475,-3.715814 -12.54997 -3.651759,-3.631985 -12.05122 -3.483765,-3.545754 -11.72957 -3.291271,-3.614554 -12.13722 -3.171019,-3.286755 -11.60819 -2.857922,-3.025679 -11.34199 -2.708782,-2.805213 -11.21046 -2.655929,-3.542252 -12.31819 -2.997045,-3.149156 -11.81063 -2.660059,-2.87222 -11.63212 -2.56722,-2.643355 -11.56783 -2.559324,-3.454787 -12.59718 -2.845709,-3.088218 -12.15664 -2.54177,-2.826804 -11.97519 -2.479677,-2.630809 -11.9102 -2.477829,-3.35127 -12.92599 -2.724028,-3.0466 -12.60925 -2.521409,-2.823578 -12.47151 -2.466767,-2.642565 -12.38551 -2.444502,-7.354191 -14.78693 -4.887255,-7.625728 -14.1233 -4.472265,-7.659127 -13.31615 -4.206444,-7.642956 -12.61197 -4.077623,-7.620625 -11.94987 -3.998161,-6.859317 -13.16157 -3.995292,-6.555468 -12.03589 -4.071692,-6.628649 -11.48469 -4.299691,-6.787862 -11.27495 -4.481396,-6.536279 -13.41382 -4.313225,-6.158093 -12.29552 -4.35031,-6.185751 -11.6969 -4.574588,-6.309309 -11.41745 -4.743984,-6.382214 -13.65655 -4.670021,-6.037557 -12.70761 -4.772153,-6.093813 -12.14998 -4.946504,-6.249866 -11.87238 -5.080858,-6.348636 -13.85888 -5.014628,-6.066875 -13.10177 -5.121315,-6.114254 -12.66263 -5.227086,-6.255245 -12.41836 -5.339731,8.410,
-3.608456 -13.73482 -3.713186,-3.712938 -13.17135 -3.799475,-3.715814 -12.54997 -3.651759,-3.631985 -12.05122 -3.483765,-3.545754 -11.72957 -3.291271,-3.614554 -12.13722 -3.171019,-3.286755 -11.60819 -2.857922,-3.025679 -11.34199 -2.708782,-2.805213 -11.21046 -2.655929,-3.542252 -12.31819 -2.997045,-3.149156 -11.81063 -2.660059,-2.87222 -11.63212 -2.56722,-2.643355 -11.56783 -2.559324,-3.454787 -12.59718 -2.845709,-3.088218 -12.15664 -2.54177,-2.826804 -11.97519 -2.479677,-2.630809 -11.9102 -2.477829,-3.35127 -12.92599 -2.724028,-3.0466 -12.60925 -2.521409,-2.823578 -12.47151 -2.466767,-2.642565 -12.38551 -2.444502,-7.354191 -14.78693 -4.887255,-7.625728 -14.1233 -4.472265,-7.659127 -13.31615 -4.206444,-7.642956 -12.61197 -4.077623,-7.620625 -11.94987 -3.998161,-6.859317 -13.16157 -3.995292,-6.555468 -12.03589 -4.071692,-6.628649 -11.48469 -4.299691,-6.787862 -11.27495 -4.481396,-6.536279 -13.41382 -4.313225,-6.158093 -12.29552 -4.35031,-6.185751 -11.6969 -4.574588,-6.309309 -11.41745 -4.743984,-6.382214 -13.65655 -4.670021,-6.037557 -12.70761 -4.772153,-6.093813 -12.14998 -4.946504,-6.249866 -11.87238 -5.080858,-6.348636 -13.85888 -5.014628,-6.066875 -13.10177 -5.121315,-6.114254 -12.66263 -5.227086,-6.255245 -12.41836 -5.339731,8.510,
-3.608456 -13.73482 -3.713186,-3.712938 -13.17135 -3.799475,-3.715814 -12.54997 -3.651759,-3.631985 -12.05122 -3.483765,-3.545754 -11.72957 -3.291271,-3.614554 -12.13722 -3.171019,-3.286755 -11.60819 -2.857922,-3.025679 -11.34199 -2.708782,-2.805213 -11.21046 -2.655929,-3.542252 -12.31819 -2.997045,-3.149156 -11.81063 -2.660059,-2.87222 -11.63212 -2.56722,-2.643355 -11.56783 -2.559324,-3.454787 -12.59718 -2.845709,-3.088218 -12.15664 -2.54177,-2.826804 -11.97519 -2.479677,-2.630809 -11.9102 -2.477829,-3.35127 -12.92599 -2.724028,-3.0466 -12.60925 -2.521409,-2.823578 -12.47151 -2.466767,-2.642565 -12.38551 -2.444502,-7.354191 -14.78693 -4.887255,-7.625728 -14.1233 -4.472265,-7.659127 -13.31615 -4.206444,-7.642956 -12.61197 -4.077623,-7.620625 -11.94987 -3.998161,-6.859317 -13.16157 -3.995292,-6.555468 -12.03589 -4.071692,-6.628649 -11.48469 -4.299691,-6.787862 -11.27495 -4.481396,-6.536279 -13.41382 -4.313225,-6.158093 -12.29552 -4.35031,-6.185751 -11.6969 -4.574588,-6.309309 -11.41745 -4.743984,-6.382214 -13.65655 -4.670021,-6.037557 -12.70761 -4.772153,-6.093813 -12.14998 -4.946504,-6.249866 -11.87238 -5.080858,-6.348636 -13.85888 -5.014628,-6.066875 -13.10177 -5.121315,-6.114254 -12.66263 -5.227086,-6.255245 -12.41836 -5.339731,8.610,
-3.608456 -13.73482 -3.713186,-3.712938 -13.17135 -3.799475,-3.715814 -12.54997 -3.651759,-3.631985 -12.05122 -3.483765,-3.545754 -11.72957 -3.291271,-3.614554 -12.13722 -3.171019,-3.286755 -11.60819 -2.857922,-3.025679 -11.34199 -2.708782,-2.805213 -11.21046 -2.655929,-3.542252 -12.31819 -2.997045,-3.149156 -11.81063 -2.660059,-2.87222 -11.63212 -2.56722,-2.643355 -11.56783 -2.559324,-3.454787 -12.59718 -2.845709,-3.088218 -12.15664 -2.54177,-2.826804 -11.97519 -2.479677,-2.630809 -11.9102 -2.477829,-3.35127 -12.92599 -2.724028,-3.0466 -12.60925 -2.521409,-2.823578 -12.47151 -2.466767,-2.642565 -12.38551 -2.444502,-7.354191 -14.78693 -4.887255,-7.625728 -14.1233 -4.472265,-7.659127 -13.31615 -4.206444,-7.642956 -12.61197 -4.077623,-7.620625 -11.94987 -3.998161,-6.859317 -13.16157 -3.995292,-6.555468 -12.03589 -4.071692,-6.628649 -11.48469 -4.299691,-6.787862 -11.27495 -4.481396,-6.536279 -13.41382 -4.313225,-6.158093 -12.29552 -4.35031,-6.185751 -11.6969 -4.574588,-6.309309 -11.41745 -4.743984,-6.382214 -13.65655 -4.670021,-6.037557 -12.70761 -4.772153,-6.093813 -12.14998 -4.946504,-6.249866 -11.87238 -5.080858,-6.348636 -13.85888 -5.014628,-6.066875 -13.10177 -5.121315,-6.114254 -12.66263 -5.227086,-6.255245 -12.41836 -5.339731,8.710,
-3.608456 -13.73482 -3.713186,-3.712938 -13.17135 -3.799475,-3.715814 -12.54997 -3.651759,-3.631985 -12.05122 -3.483765,-3.545754 -11.72957 -3.291271,-3.614554 -12.13722 -3.171019,-3.286755 -11.60819 -2.857922,-3.025679 -11.34199 -2.708782,-2.805213 -11.21046 -2.655929,-3.542252 -12.31819 -2.997045,-3.149156 -11.81063 -2.660059,-2.87222 -11.63212 -2.56722,-2.643355 -11.56783 -2.559324,-3.454787 -12.59718 -2.845709,-3.088218 -12.15664 -2.54177,-2.826804 -11.97519 -2.479677,-2.630809 -11.9102 -2.477829,-3.35127 -12.92599 -2.724028,-3.0466 -12.60925 -2.521409,-2.823578 -12.47151 -2.466767,-2.642565 -12.38551 -2.444502,-7.354191 -14.78693 -4.887255,-7.625728 -14.1233 -4.472265,-7.659127 -13.31615 -4.206444,-7.642956 -12.61197 -4.077623,-7.620625 -11.94987 -3.998161,-6.859317 -13.16157 -3.995292,-6.555468 -12.03589 -4.071692,-6.628649 -11.48469 -4.299691,-6.787862 -11.27495 -4.481396,-6.536279 -13.41382 -4.313225,-6.158093 -12.29552 -4.35031,-6.185751 -11.6969 -4.574588,-6.309309 -11.41745 -4.743984,-6.382214 -13.65655 -4.670021,-6.037557 -12.70761 -4.772153,-6.093813 -12.14998 -4.946504,-6.249866 -11.87238 -5.080858,-6.348636 -13.85888 -5.014628,-6.066875 -13.10177 -5.121315,-6.114254 -12.66263 -5.227086,-6.255245 -12.41836 -5.339731,8.810,
-3.608456 -13.73482 -3.713186,-3.712938 -13.17135 -3.799475,-3.715814 -12.54997 -3.651759,-3.631985 -12.05122 -3.483765,-3.545754 -11.72957 -3.291271,-3.614554 -12.13722 -3.171019,-3.286755 -11.60819 -2.857922,-3.025679 -11.34199 -2.708782,-2.805213 -11.21046 -2.655929,-3.542252 -12.31819 -2.997045,-3.149156 -11.81063 -2.660059,-2.87222 -11.63212 -2.56722,-2.643355 -11.56783 -2.559324,-3.454787 -12.59718 -2.845709,-3.088218 -12.15664 -2.54177,-2.826804 -11.97519 -2.479677,-2.630809 -11.9102 -2.477829,-3.35127 -12.92599 -2.724028,-3.0466 -12.60925 -2.521409,-2.823578 -12.47151 -2.466767,-2.642565 -12.38551 -2.444502,-7.354191 -14.78693 -4.887255,-7.625728 -14.1233 -4.472265,-7.659127 -13.31615 -4.206444,-7.642956 -12.61197 -4.077623,-7.620625 -11.94987 -3.998161,-6.859317 -13.16157 -3.995292,-6.555468 -12.03589 -4.071692,-6.628649 -11.48469 -4.299691,-6.787862 -11.27495 -4.481396,-6.536279 -13.41382 -4.313225,-6.158093 -12.29552 -4.35031,-6.185751 -11.6969 -4.574588,-6.309309 -11.41745 -4.743984,-6.382214 -13.65655 -4.670021,-6.037557 -12.70761 -4.772153,-6.093813 -12.14998 -4.946504,-6.249866 -11.87238 -5.080858,-6.348636 -13.85888 -5.014628,-6.066875 -13.10177 -5.121315,-6.114254 -12.66263 -5.227086,-6.255245 -12.41836 -5.339731,8.910,
-3.608456 -13.73482 -3.713186,-3.712938 -13.17135 -3.799475,-3.715814 -12.54997 -3.651759,-3.631985 -12.05122 -3.483765,-3.545754 -11.72957 -3.291271,-3.614554 -12.13722 -3.171019,-3.286755 -11.60819 -2.857922,-3.025679 -11.34199 -2.708782,-2.805213 -11.21046 -2.655929,-3.542252 -12.31819 -2.997045,-3.149156 -11.81063 -2.660059,-2.87222 -11.63212 -2.56722,-2.643355 -11.56783 -2.559324,-3.454787 -12.59718 -2.845709,-3.088218 -12.15664 -2.54177,-2.826804 -11.97519 -2.479677,-2.630809 -11.9102 -2.477829,-3.35127 -12.92599 -2.724028,-3.0466 -12.60925 -2.521409,-2.823578 -12.47151 -2.466767,-2.642565 -12.38551 -2.444502,-7.354191 -14.78693 -4.887255,-7.625728 -14.1233 -4.472265,-7.659127 -13.31615 -4.206444,-7.642956 -12.61197 -4.077623,-7.620625 -11.94987 -3.998161,-6.859317 -13.16157 -3.995292,-6.555468 -12.03589 -4.071692,-6.628649 -11.48469 -4.299691,-6.787862 -11.27495 -4.481396,-6.536279 -13.41382 -4.313225,-6.158093 -12.29552 -4.35031,-6.185751 -11.6969 -4.574588,-6.309309 -11.41745 -4.743984,-6.382214 -13.65655 -4.670021,-6.037557 -12.70761 -4.772153,-6.093813 -12.14998 -4.946504,-6.249866 -11.87238 -5.080858,-6.348636 -13.85888 -5.014628,-6.066875 -13.10177 -5.121315,-6.114254 -12.66263 -5.227086,-6.255245 -12.41836 -5.339731,9.010,
-3.608456 -13.73482 -3.713186,-3.712938 -13.17135 -3.799475,-3.715814 -12.54997 -3.651759,-3.631985 -12.05122 -3.483765,-3.545754 -11.72957 -3.291271,-3.614554 -12.13722 -3.171019,-3.286755 -11.60819 -2.857922,-3.025679 -11.34199 -2.708782,-2.805213 -11.21046 -2.655929,-3.542252 -12.31819 -2.997045,-3.149156 -11.81063 -2.660059,-2.87222 -11.63212 -2.56722,-2.643355 -11.56783 -2.559324,-3.454787 -12.59718 -2.845709,-3.088218 -12.15664 -2.54177,-2.826804 -11.97519 -2.479677,-2.630809 -11.9102 -2.477829,-3.35127 -12.92599 -2.724028,-3.0466 -12.60925 -2.521409,-2.823578 -12.47151 -2.466767,-2.642565 -12.38551 -2.444502,-7.354191 -14.78693 -4.887255,-7.625728 -14.1233 -4.472265,-7.659127 -13.31615 -4.206444,-7.642956 -12.61197 -4.077623,-7.620625 -11.94987 -3.998161,-6.859317 -13.16157 -3.995292,-6.555468 -12.03589 -4.071692,-6.628649 -11.48469 -4.299691,-6.787862 -11.27495 -4.481396,-6.536279 -13.41382 -4.313225,-6.158093 -12.29552 -4.35031,-6.185751 -11.6969 -4.574588,-6.309309 -11.41745 -4.743984,-6.382214 -13.65655 -4.670021,-6.037557 -12.70761 -4.772153,-6.093813 -12.14998 -4.946504,-6.249866 -11.87238 -5.080858,-6.348636 -13.85888 -5.014628,-6.066875 -13.10177 -5.121315,-6.114254 -12.66263 -5.227086,-6.255245 -12.41836 -5.339731,9.110,
-3.608456 -13.73482 -3.713186,-3.712938 -13.17135 -3.799475,-3.715814 -12.54997 -3.651759,-3.631985 -12.05122 -3.483765,-3.545754 -11.72957 -3.291271,-3.614554 -12.13722 -3.171019,-3.286755 -11.60819 -2.857922,-3.025679 -11.34199 -2.708782,-2.805213 -11.21046 -2.655929,-3.542252 -12.31819 -2.997045,-3.149156 -11.81063 -2.660059,-2.87222 -11.63212 -2.56722,-2.643355 -11.56783 -2.559324,-3.454787 -12.59718 -2.845709,-3.088218 -12.15664 -2.54177,-2.826804 -11.97519 -2.479677,-2.630809 -11.9102 -2.477829,-3.35127 -12.92599 -2.724028,-3.0466 -12.60925 -2.521409,-2.823578 -12.47151 -2.466767,-2.642565 -12.38551 -2.444502,-7.354191 -14.78693 -4.887255,-7.625728 -14.1233 -4.472265,-7.659127 -13.31615 -4.206444,-7.642956 -12.61197 -4.077623,-7.620625 -11.94987 -3.998161,-6.859317 -13.16157 -3.995292,-6.555468 -12.03589 -4.071692,-6.628649 -11.48469 -4.299691,-6.787862 -11.27495 -4.481396,-6.536279 -13.41382 -4.313225,-6.158093 -12.29552 -4.35031,-6.185751 -11.6969 -4.574588,-6.309309 -11.41745 -4.743984,-6.382214 -13.65655 -4.670021,-6.037557 -12.70761 -4.772153,-6.093813 -12.14998 -4.946504,-6.249866 -11.87238 -5.080858,-6.348636 -13.85888 -5.014628,-6.066875 -13.10177 -5.121315,-6.114254 -12.66263 -5.227086,-6.255245 -12.41836 -5.339731,9.210,
-3.608456 -13.73482 -3.713186,-3.712938 -13.17135 -3.799475,-3.715814 -12.54997 -3.651759,-3.631985 -12.05122 -3.483765,-3.545754 -11.72957 -3.291271,-3.614554 -12.13722 -3.171019,-3.286755 -11.60819 -2.857922,-3.025679 -11.34199 -2.708782,-2.805213 -11.21046 -2.655929,-3.542252 -12.31819 -2.997045,-3.149156 -11.81063 -2.660059,-2.87222 -11.63212 -2.56722,-2.643355 -11.56783 -2.559324,-3.454787 -12.59718 -2.845709,-3.088218 -12.15664 -2.54177,-2.826804 -11.97519 -2.479677,-2.630809 -11.9102 -2.477829,-3.35127 -12.92599 -2.724028,-3.0466 -12.60925 -2.521409,-2.823578 -12.47151 -2.466767,-2.642565 -12.38551 -2.444502,-7.354191 -14.78693 -4.887255,-7.625728 -14.1233 -4.472265,-7.659127 -13.31615 -4.206444,-7.642956 -12.61197 -4.077623,-7.620625 -11.94987 -3.998161,-6.859317 -13.16157 -3.995292,-6.555468 -12.03589 -4.071692,-6.628649 -11.48469 -4.299691,-6.787862 -11.27495 -4.481396,-6.536279 -13.41382 -4.313225,-6.158093 -12.29552 -4.35031,-6.185751 -11.6969 -4.574588,-6.309309 -11.41745 -4.743984,-6.382214 -13.65655 -4.670021,-6.037557 -12.70761 -4.772153,-6.093813 -12.14998 -4.946504,-6.249866 -11.87238 -5.080858,-6.348636 -13.85888 -5.014628,-6.066875 -13.10177 -5.121315,-6.114254 -12.66263 -5.227086,-6.255245 -12.41836 -5.339731,9.310,
-3.608456 -13.73482 -3.713186,-3.712938 -13.17135 -3.799475,-3.715814 -12.54997 -3.651759,-3.631985 -12.05122 -3.483765,-3.545754 -11.72957 -3.291271,-3.614554 -12.13722 -3.171019,-3.286755 -11.60819 -2.857922,-3.025679 -11.34199 -2.708782,-2.805213 -11.21046 -2.655929,-3.542252 -12.31819 -2.997045,-3.149156 -11.81063 -2.660059,-2.87222 -11.63212 -2.56722,-2.643355 -11.56783 -2.559324,-3.454787 -12.59718 -2.845709,-3.088218 -12.15664 -2.54177,-2.826804 -11.97519 -2.479677,-2.630809 -11.9102 -2.477829,-3.35127 -12.92599 -2.724028,-3.0466 -12.60925 -2.521409,-2.823578 -12.47151 -2.466767,-2.642565 -12.38551 -2.444502,-7.354191 -14.78693 -4.887255,-7.625728 -14.1233 -4.472265,-7.659127 -13.31615 -4.206444,-7.642956 -12.61197 -4.077623,-7.620625 -11.94987 -3.998161,-6.859317 -13.16157 -3.995292,-6.555468 -12.03589 -4.071692,-6.628649 -11.48469 -4.299691,-6.787862 -11.27495 -4.481396,-6.536279 -13.41382 -4.313225,-6.158093 -12.29552 -4.35031,-6.185751 -11.6969 -4.574588,-6.309309 -11.41745 -4.743984,-6.382214 -13.65655 -4.670021,-6.037557 -12.70761 -4.772153,-6.093813 -12.14998 -4.946504,-6.249866 -11.87238 -5.080858,-6.348636 -13.85888 -5.014628,-6.066875 -13.10177 -5.121315,-6.114254 -12.66263 -5.227086,-6.255245 -12.41836 -5.339731,9.410,
-3.608456 -13.73482 -3.713186,-3.712938 -13.17135 -3.799475,-3.715814 -12.54997 -3.651759,-3.631985 -12.05122 -3.483765,-3.545754 -11.72957 -3.291271,-3.614554 -12.13722 -3.171019,-3.286755 -11.60819 -2.857922,-3.025679 -11.34199 -2.708782,-2.805213 -11.21046 -2.655929,-3.542252 -12.31819 -2.997045,-3.149156 -11.81063 -2.660059,-2.87222 -11.63212 -2.56722,-2.643355 -11.56783 -2.559324,-3.454787 -12.59718 -2.845709,-3.088218 -12.15664 -2.54177,-2.826804 -11.97519 -2.479677,-2.630809 -11.9102 -2.477829,-3.35127 -12.92599 -2.724028,-3.0466 -12.60925 -2.521409,-2.823578 -12.47151 -2.466767,-2.642565 -12.38551 -2.444502,-7.354191 -14.78693 -4.887255,-7.625728 -14.1233 -4.472265,-7.659127 -13.31615 -4.206444,-7.642956 -12.61197 -4.077623,-7.620625 -11.94987 -3.998161,-6.859317 -13.16157 -3.995292,-6.555468 -12.03589 -4.071692,-6.628649 -11.48469 -4.299691,-6.787862 -11.27495 -4.481396,-6.536279 -13.41382 -4.313225,-6.158093 -12.29552 -4.35031,-6.185751 -11.6969 -4.574588,-6.309309 -11.41745 -4.743984,-6.382214 -13.65655 -4.670021,-6.037557 -12.70761 -4.772153,-6.093813 -12.14998 -4.946504,-6.249866 -11.87238 -5.080858,-6.348636 -13.85888 -5.014628,-6.066875 -13.10177 -5.121315,-6.114254 -12.66263 -5.227086,-6.255245 -12.41836 -5.339731,9.510,
-3.608456 -13.73482 -3.713186,-3.712938 -13.17135 -3.799475,-3.715814 -12.54997 -3.651759,-3.631985 -12.05122 -3.483765,-3.545754 -11.72957 -3.291271,-3.614554 -12.13722 -3.171019,-3.286755 -11.60819 -2.857922,-3.025679 -11.34199 -2.708782,-2.805213 -11.21046 -2.655929,-3.542252 -12.31819 -2.997045,-3.149156 -11.81063 -2.660059,-2.87222 -11.63212 -2.56722,-2.643355 -11.56783 -2.559324,-3.454787 -12.59718 -2.845709,-3.088218 -12.15664 -2.54177,-2.826804 -11.97519 -2.479677,-2.630809 -11.9102 -2.477829,-3.35127 -12.92599 -2.724028,-3.0466 -12.60925 -2.521409,-2.823578 -12.47151 -2.466767,-2.642565 -12.38551 -2.444502,-7.354191 -14.78693 -4.887255,-7.625728 -14.1233 -4.472265,-7.659127 -13.31615 -4.206444,-7.642956 -12.61197 -4.077623,-7.620625 -11.94987 -3.998161,-6.859317 -13.16157 -3.995292,-6.555468 -12.03589 -4.071692,-6.628649 -11.48469 -4.299691,-6.787862 -11.27495 -4.481396,-6.536279 -13.41382 -4.313225,-6.158093 -12.29552 -4.35031,-6.185751 -11.6969 -4.574588,-6.309309 -11.41745 -4.743984,-6.382214 -13.65655 -4.670021,-6.037557 -12.70761 -4.772153,-6.093813 -12.14998 -4.946504,-6.249866 -11.87238 -5.080858,-6.348636 -13.85888 -5.014628,-6.066875 -13.10177 -5.121315,-6.114254 -12.66263 -5.227086,-6.255245 -12.41836 -5.339731,9.610,
-3.608456 -13.73482 -3.713186,-3.712938 -13.17135 -3.799475,-3.715814 -12.54997 -3.651759,-3.631985 -12.05122 -3.483765,-3.545754 -11.72957 -3.291271,-3.614554 -12.13722 -3.171019,-3.286755 -11.60819 -2.857922,-3.025679 -11.34199 -2.708782,-2.805213 -11.21046 -2.655929,-3.542252 -12.31819 -2.997045,-3.149156 -11.81063 -2.660059,-2.87222 -11.63212 -2.56722,-2.643355 -11.56783 -2.559324,-3.454787 -12.59718 -2.845709,-3.088218 -12.15664 -2.54177,-2.826804 -11.97519 -2.479677,-2.630809 -11.9102 -2.477829,-3.35127 -12.92599 -2.724028,-3.0466 -12.60925 -2.521409,-2.823578 -12.47151 -2.466767,-2.642565 -12.38551 -2.444502,-7.354191 -14.78693 -4.887255,-7.625728 -14.1233 -4.472265,-7.659127 -13.31615 -4.206444,-7.642956 -12.61197 -4.077623,-7.620625 -11.94987 -3.998161,-6.859317 -13.16157 -3.995292,-6.555468 -12.03589 -4.071692,-6.628649 -11.48469 -4.299691,-6.787862 -11.27495 -4.481396,-6.536279 -13.41382 -4.313225,-6.158093 -12.29552 -4.35031,-6.185751 -11.6969 -4.574588,-6.309309 -11.41745 -4.743984,-6.382214 -13.65655 -4.670021,-6.037557 -12.70761 -4.772153,-6.093813 -12.14998 -4.946504,-6.249866 -11.87238 -5.080858,-6.348636 -13.85888 -5.014628,-6.066875 -13.10177 -5.121315,-6.114254 -12.66263 -5.227086,-6.255245 -12.41836 -5.339731,9.710,
-3.608456 -13.73482 -3.713186,-3.712938 -13.17135 -3.799475,-3.715814 -12.54997 -3.651759,-3.631985 -12.05122 -3.483765,-3.545754 -11.72957 -3.291271,-3.614554 -12.13722 -3.171019,-3.286755 -11.60819 -2.857922,-3.025679 -11.34199 -2.708782,-2.805213 -11.21046 -2.655929,-3.542252 -12.31819 -2.997045,-3.149156 -11.81063 -2.660059,-2.87222 -11.63212 -2.56722,-2.643355 -11.56783 -2.559324,-3.454787 -12.59718 -2.845709,-3.088218 -12.15664 -2.54177,-2.826804 -11.97519 -2.479677,-2.630809 -11.9102 -2.477829,-3.35127 -12.92599 -2.724028,-3.0466 -12.60925 -2.521409,-2.823578 -12.47151 -2.466767,-2.642565 -12.38551 -2.444502,-7.354191 -14.78693 -4.887255,-7.625728 -14.1233 -4.472265,-7.659127 -13.31615 -4.206444,-7.642956 -12.61197 -4.077623,-7.620625 -11.94987 -3.998161,-6.859317 -13.16157 -3.995292,-6.555468 -12.03589 -4.071692,-6.628649 -11.48469 -4.299691,-6.787862 -11.27495 -4.481396,-6.536279 -13.41382 -4.313225,-6.158093 -12.29552 -4.35031,-6.185751 -11.6969 -4.574588,-6.309309 -11.41745 -4.743984,-6.382214 -13.65655 -4.670021,-6.037557 -12.70761 -4.772153,-6.093813 -12.14998 -4.946504,-6.249866 -11.87238 -5.080858,-6.348636 -13.85888 -5.014628,-6.066875 -13.10177 -5.121315,-6.114254 -12.66263 -5.227086,-6.255245 -12.41836 -5.339731,9.810,
-3.608456 -13.73482 -3.713186,-3.712938 -13.17135 -3.799475,-3.715814 -12.54997 -3.651759,-3.631985 -12.05122 -3.483765,-3.545754 -11.72957 -3.291271,-3.614554 -12.13722 -3.171019,-3.286755 -11.60819 -2.857922,-3.025679 -11.34199 -2.708782,-2.805213 -11.21046 -2.655929,-3.542252 -12.31819 -2.997045,-3.149156 -11.81063 -2.660059,-2.87222 -11.63212 -2.56722,-2.643355 -11.56783 -2.559324,-3.454787 -12.59718 -2.845709,-3.088218 -12.15664 -2.54177,-2.826804 -11.97519 -2.479677,-2.630809 -11.9102 -2.477829,-3.35127 -12.92599 -2.724028,-3.0466 -12.60925 -2.521409,-2.823578 -12.47151 -2.466767,-2.642565 -12.38551 -2.444502,-7.354191 -14.78693 -4.887255,-7.625728 -14.1233 -4.472265,-7.659127 -13.31615 -4.206444,-7.642956 -12.61197 -4.077623,-7.620625 -11.94987 -3.998161,-6.859317 -13.16157 -3.995292,-6.555468 -12.03589 -4.071692,-6.628649 -11.48469 -4.299691,-6.787862 -11.27495 -4.481396,-6.536279 -13.41382 -4.313225,-6.158093 -12.29552 -4.35031,-6.185751 -11.6969 -4.574588,-6.309309 -11.41745 -4.743984,-6.382214 -13.65655 -4.670021,-6.037557 -12.70761 -4.772153,-6.093813 -12.14998 -4.946504,-6.249866 -11.87238 -5.080858,-6.348636 -13.85888 -5.014628,-6.066875 -13.10177 -5.121315,-6.114254 -12.66263 -5.227086,-6.255245 -12.41836 -5.339731,9.910,
-3.608456 -13.73482 -3.713186,-3.712938 -13.17135 -3.799475,-3.715814 -12.54997 -3.651759,-3.631985 -12.05122 -3.483765,-3.545754 -11.72957 -3.291271,-3.614554 -12.13722 -3.171019,-3.286755 -11.60819 -2.857922,-3.025679 -11.34199 -2.708782,-2.805213 -11.21046 -2.655929,-3.542252 -12.31819 -2.997045,-3.149156 -11.81063 -2.660059,-2.87222 -11.63212 -2.56722,-2.643355 -11.56783 -2.559324,-3.454787 -12.59718 -2.845709,-3.088218 -12.15664 -2.54177,-2.826804 -11.97519 -2.479677,-2.630809 -11.9102 -2.477829,-3.35127 -12.92599 -2.724028,-3.0466 -12.60925 -2.521409,-2.823578 -12.47151 -2.466767,-2.642565 -12.38551 -2.444502,-7.354191 -14.78693 -4.887255,-7.625728 -14.1233 -4.472265,-7.659127 -13.31615 -4.206444,-7.642956 -12.61197 -4.077623,-7.620625 -11.94987 -3.998161,-6.859317 -13.16157 -3.995292,-6.555468 -12.03589 -4.071692,-6.628649 -11.48469 -4.299691,-6.787862 -11.27495 -4.481396,-6.536279 -13.41382 -4.313225,-6.158093 -12.29552 -4.35031,-6.185751 -11.6969 -4.574588,-6.309309 -11.41745 -4.743984,-6.382214 -13.65655 -4.670021,-6.037557 -12.70761 -4.772153,-6.093813 -12.14998 -4.946504,-6.249866 -11.87238 -5.080858,-6.348636 -13.85888 -5.014628,-6.066875 -13.10177 -5.121315,-6.114254 -12.66263 -5.227086,-6.255245 -12.41836 -5.339731,10.010,
-3.608456 -13.73482 -3.713186,-3.712938 -13.17135 -3.799475,-3.715814 -12.54997 -3.651759,-3.631985 -12.05122 -3.483765,-3.545754 -11.72957 -3.291271,-3.614554 -12.13722 -3.171019,-3.286755 -11.60819 -2.857922,-3.025679 -11.34199 -2.708782,-2.805213 -11.21046 -2.655929,-3.542252 -12.31819 -2.997045,-3.149156 -11.81063 -2.660059,-2.87222 -11.63212 -2.56722,-2.643355 -11.56783 -2.559324,-3.454787 -12.59718 -2.845709,-3.088218 -12.15664 -2.54177,-2.826804 -11.97519 -2.479677,-2.630809 -11.9102 -2.477829,-3.35127 -12.92599 -2.724028,-3.0466 -12.60925 -2.521409,-2.823578 -12.47151 -2.466767,-2.642565 -12.38551 -2.444502,-7.354191 -14.78693 -4.887255,-7.625728 -14.1233 -4.472265,-7.659127 -13.31615 -4.206444,-7.642956 -12.61197 -4.077623,-7.620625 -11.94987 -3.998161,-6.859317 -13.16157 -3.995292,-6.555468 -12.03589 -4.071692,-6.628649 -11.48469 -4.299691,-6.787862 -11.27495 -4.481396,-6.536279 -13.41382 -4.313225,-6.158093 -12.29552 -4.35031,-6.185751 -11.6969 -4.574588,-6.309309 -11.41745 -4.743984,-6.382214 -13.65655 -4.670021,-6.037557 -12.70761 -4.772153,-6.093813 -12.14998 -4.946504,-6.249866 -11.87238 -5.080858,-6.348636 -13.85888 -5.014628,-6.066875 -13.10177 -5.121315,-6.114254 -12.66263 -5.227086,-6.255245 -12.41836 -5.339731,10.110,
-3.608456 -13.73482 -3.713186,-3.712938 -13.17135 -3.799475,-3.715814 -12.54997 -3.651759,-3.631985 -12.05122 -3.483765,-3.545754 -11.72957 -3.291271,-3.614554 -12.13722 -3.171019,-3.286755 -11.60819 -2.857922,-3.025679 -11.34199 -2.708782,-2.805213 -11.21046 -2.655929,-3.542252 -12.31819 -2.997045,-3.149156 -11.81063 -2.660059,-2.87222 -11.63212 -2.56722,-2.643355 -11.56783 -2.559324,-3.454787 -12.59718 -2.845709,-3.088218 -12.15664 -2.54177,-2.826804 -11.97519 -2.479677,-2.630809 -11.9102 -2.477829,-3.35127 -12.92599 -2.724028,-3.0466 -12.60925 -2.521409,-2.823578 -12.47151 -2.466767,-2.642565 -12.38551 -2.444502,-7.354191 -14.78693 -4.887255,-7.625728 -14.1233 -4.472265,-7.659127 -13.31615 -4.206444,-7.642956 -12.61197 -4.077623,-7.620625 -11.94987 -3.998161,-6.859317 -13.16157 -3.995292,-6.555468 -12.03589 -4.071692,-6.628649 -11.48469 -4.299691,-6.787862 -11.27495 -4.481396,-6.536279 -13.41382 -4.313225,-6.158093 -12.29552 -4.35031,-6.185751 -11.6969 -4.574588,-6.309309 -11.41745 -4.743984,-6.382214 -13.65655 -4.670021,-6.037557 -12.70761 -4.772153,-6.093813 -12.14998 -4.946504,-6.249866 -11.87238 -5.080858,-6.348636 -13.85888 -5.014628,-6.066875 -13.10177 -5.121315,-6.114254 -12.66263 -5.227086,-6.255245 -12.41836 -5.339731,10.210,
-3.608456 -13.73482 -3.713186,-3.712938 -13.17135 -3.799475,-3.715814 -12.54997 -3.651759,-3.631985 -12.05122 -3.483765,-3.545754 -11.72957 -3.291271,-3.614554 -12.13722 -3.171019,-3.286755 -11.60819 -2.857922,-3.025679 -11.34199 -2.708782,-2.805213 -11.21046 -2.655929,-3.542252 -12.31819 -2.997045,-3.149156 -11.81063 -2.660059,-2.87222 -11.63212 -2.56722,-2.643355 -11.56783 -2.559324,-3.454787 -12.59718 -2.845709,-3.088218 -12.15664 -2.54177,-2.826804 -11.97519 -2.479677,-2.630809 -11.9102 -2.477829,-3.35127 -12.92599 -2.724028,-3.0466 -12.60925 -2.521409,-2.823578 -12.47151 -2.466767,-2.642565 -12.38551 -2.444502,-7.354191 -14.78693 -4.887255,-7.625728 -14.1233 -4.472265,-7.659127 -13.31615 -4.206444,-7.642956 -12.61197 -4.077623,-7.620625 -11.94987 -3.998161,-6.859317 -13.16157 -3.995292,-6.555468 -12.03589 -4.071692,-6.628649 -11.48469 -4.299691,-6.787862 -11.27495 -4.481396,-6.536279 -13.41382 -4.313225,-6.158093 -12.29552 -4.35031,-6.185751 -11.6969 -4.574588,-6.309309 -11.41745 -4.743984,-6.382214 -13.65655 -4.670021,-6.037557 -12.70761 -4.772153,-6.093813 -12.14998 -4.946504,-6.249866 -11.87238 -5.080858,-6.348636 -13.85888 -5.014628,-6.066875 -13.10177 -5.121315,-6.114254 -12.66263 -5.227086,-6.255245 -12.41836 -5.339731,10.310,
-3.608456 -13.73482 -3.713186,-3.712938 -13.17135 -3.799475,-3.715814 -12.54997 -3.651759,-3.631985 -12.05122 -3.483765,-3.545754 -11.72957 -3.291271,-3.614554 -12.13722 -3.171019,-3.286755 -11.60819 -2.857922,-3.025679 -11.34199 -2.708782,-2.805213 -11.21046 -2.655929,-3.542252 -12.31819 -2.997045,-3.149156 -11.81063 -2.660059,-2.87222 -11.63212 -2.56722,-2.643355 -11.56783 -2.559324,-3.454787 -12.59718 -2.845709,-3.088218 -12.15664 -2.54177,-2.826804 -11.97519 -2.479677,-2.630809 -11.9102 -2.477829,-3.35127 -12.92599 -2.724028,-3.0466 -12.60925 -2.521409,-2.823578 -12.47151 -2.466767,-2.642565 -12.38551 -2.444502,-7.354191 -14.78693 -4.887255,-7.625728 -14.1233 -4.472265,-7.659127 -13.31615 -4.206444,-7.642956 -12.61197 -4.077623,-7.620625 -11.94987 -3.998161,-6.859317 -13.16157 -3.995292,-6.555468 -12.03589 -4.071692,-6.628649 -11.48469 -4.299691,-6.787862 -11.27495 -4.481396,-6.536279 -13.41382 -4.313225,-6.158093 -12.29552 -4.35031,-6.185751 -11.6969 -4.574588,-6.309309 -11.41745 -4.743984,-6.382214 -13.65655 -4.670021,-6.037557 -12.70761 -4.772153,-6.093813 -12.14998 -4.946504,-6.249866 -11.87238 -5.080858,-6.348636 -13.85888 -5.014628,-6.066875 -13.10177 -5.121315,-6.114254 -12.66263 -5.227086,-6.255245 -12.41836 -5.339731,10.410,
-3.608456 -13.73482 -3.713186,-3.712938 -13.17135 -3.799475,-3.715814 -12.54997 -3.651759,-3.631985 -12.05122 -3.483765,-3.545754 -11.72957 -3.291271,-3.614554 -12.13722 -3.171019,-3.286755 -11.60819 -2.857922,-3.025679 -11.34199 -2.708782,-2.805213 -11.21046 -2.655929,-3.542252 -12.31819 -2.997045,-3.149156 -11.81063 -2.660059,-2.87222 -11.63212 -2.56722,-2.643355 -11.56783 -2.559324,-3.454787 -12.59718 -2.845709,-3.088218 -12.15664 -2.54177,-2.826804 -11.97519 -2.479677,-2.630809 -11.9102 -2.477829,-3.35127 -12.92599 -2.724028,-3.0466 -12.60925 -2.521409,-2.823578 -12.47151 -2.466767,-2.642565 -12.38551 -2.444502,-7.354191 -14.78693 -4.887255,-7.625728 -14.1233 -4.472265,-7.659127 -13.31615 -4.206444,-7.642956 -12.61197 -4.077623,-7.620625 -11.94987 -3.998161,-6.859317 -13.16157 -3.995292,-6.555468 -12.03589 -4.071692,-6.628649 -11.48469 -4.299691,-6.787862 -11.27495 -4.481396,-6.536279 -13.41382 -4.313225,-6.158093 -12.29552 -4.35031,-6.185751 -11.6969 -4.574588,-6.309309 -11.41745 -4.743984,-6.382214 -13.65655 -4.670021,-6.037557 -12.70761 -4.772153,-6.093813 -12.14998 -4.946504,-6.249866 -11.87238 -5.080858,-6.348636 -13.85888 -5.014628,-6.066875 -13.10177 -5.121315,-6.114254 -12.66263 -5.227086,-6.255245 -12.41836 -5.339731,10.510,
-3.608456 -13.73482 -3.713186,-3.712938 -13.17135 -3.799475,-3.715814 -12.54997 -3.651759,-3.631985 -12.05122 -3.483765,-3.545754 -11.72957 -3.291271,-3.614554 -12.13722 -3.171019,-3.286755 -11.60819 -2.857922,-3.025679 -11.34199 -2.708782,-2.805213 -11.21046 -2.655929,-3.542252 -12.31819 -2.997045,-3.149156 -11.81063 -2.660059,-2.87222 -11.63212 -2.56722,-2.643355 -11.56783 -2.559324,-3.454787 -12.59718 -2.845709,-3.088218 -12.15664 -2.54177,-2.826804 -11.97519 -2.479677,-2.630809 -11.9102 -2.477829,-3.35127 -12.92599 -2.724028,-3.0466 -12.60925 -2.521409,-2.823578 -12.47151 -2.466767,-2.642565 -12.38551 -2.444502,-7.354191 -14.78693 -4.887255,-7.625728 -14.1233 -4.472265,-7.659127 -13.31615 -4.206444,-7.642956 -12.61197 -4.077623,-7.620625 -11.94987 -3.998161,-6.859317 -13.16157 -3.995292,-6.555468 -12.03589 -4.071692,-6.628649 -11.48469 -4.299691,-6.787862 -11.27495 -4.481396,-6.536279 -13.41382 -4.313225,-6.158093 -12.29552 -4.35031,-6.185751 -11.6969 -4.574588,-6.309309 -11.41745 -4.743984,-6.382214 -13.65655 -4.670021,-6.037557 -12.70761 -4.772153,-6.093813 -12.14998 -4.946504,-6.249866 -11.87238 -5.080858,-6.348636 -13.85888 -5.014628,-6.066875 -13.10177 -5.121315,-6.114254 -12.66263 -5.227086,-6.255245 -12.41836 -5.339731,10.610,
-3.608456 -13.73482 -3.713186,-3.712938 -13.17135 -3.799475,-3.715814 -12.54997 -3.651759,-3.631985 -12.05122 -3.483765,-3.545754 -11.72957 -3.291271,-3.614554 -12.13722 -3.171019,-3.286755 -11.60819 -2.857922,-3.025679 -11.34199 -2.708782,-2.805213 -11.21046 -2.655929,-3.542252 -12.31819 -2.997045,-3.149156 -11.81063 -2.660059,-2.87222 -11.63212 -2.56722,-2.643355 -11.56783 -2.559324,-3.454787 -12.59718 -2.845709,-3.088218 -12.15664 -2.54177,-2.826804 -11.97519 -2.479677,-2.630809 -11.9102 -2.477829,-3.35127 -12.92599 -2.724028,-3.0466 -12.60925 -2.521409,-2.823578 -12.47151 -2.466767,-2.642565 -12.38551 -2.444502,-7.354191 -14.78693 -4.887255,-7.625728 -14.1233 -4.472265,-7.659127 -13.31615 -4.206444,-7.642956 -12.61197 -4.077623,-7.620625 -11.94987 -3.998161,-6.859317 -13.16157 -3.995292,-6.555468 -12.03589 -4.071692,-6.628649 -11.48469 -4.299691,-6.787862 -11.27495 -4.481396,-6.536279 -13.41382 -4.313225,-6.158093 -12.29552 -4.35031,-6.185751 -11.6969 -4.574588,-6.309309 -11.41745 -4.743984,-6.382214 -13.65655 -4.670021,-6.037557 -12.70761 -4.772153,-6.093813 -12.14998 -4.946504,-6.249866 -11.87238 -5.080858,-6.348636 -13.85888 -5.014628,-6.066875 -13.10177 -5.121315,-6.114254 -12.66263 -5.227086,-6.255245 -12.41836 -5.339731,10.710,
-3.608456 -13.73482 -3.713186,-3.712938 -13.17135 -3.799475,-3.715814 -12.54997 -3.651759,-3.631985 -12.05122 -3.483765,-3.545754 -11.72957 -3.291271,-3.614554 -12.13722 -3.171019,-3.286755 -11.60819 -2.857922,-3.025679 -11.34199 -2.708782,-2.805213 -11.21046 -2.655929,-3.542252 -12.31819 -2.997045,-3.149156 -11.81063 -2.660059,-2.87222 -11.63212 -2.56722,-2.643355 -11.56783 -2.559324,-3.454787 -12.59718 -2.845709,-3.088218 -12.15664 -2.54177,-2.826804 -11.97519 -2.479677,-2.630809 -11.9102 -2.477829,-3.35127 -12.92599 -2.724028,-3.0466 -12.60925 -2.521409,-2.823578 -12.47151 -2.466767,-2.642565 -12.38551 -2.444502,-7.354191 -14.78693 -4.887255,-7.625728 -14.1233 -4.472265,-7.659127 -13.31615 -4.206444,-7.642956 -12.61197 -4.077623,-7.620625 -11.94987 -3.998161,-6.859317 -13.16157 -3.995292,-6.555468 -12.03589 -4.071692,-6.628649 -11.48469 -4.299691,-6.787862 -11.27495 -4.481396,-6.536279 -13.41382 -4.313225,-6.158093 -12.29552 -4.35031,-6.185751 -11.6969 -4.574588,-6.309309 -11.41745 -4.743984,-6.382214 -13.65655 -4.670021,-6.037557 -12.70761 -4.772153,-6.093813 -12.14998 -4.946504,-6.249866 -11.87238 -5.080858,-6.348636 -13.85888 -5.014628,-6.066875 -13.10177 -5.121315,-6.114254 -12.66263 -5.227086,-6.255245 -12.41836 -5.339731,10.810,
-3.608456 -13.73482 -3.713186,-3.712938 -13.17135 -3.799475,-3.715814 -12.54997 -3.651759,-3.631985 -12.05122 -3.483765,-3.545754 -11.72957 -3.291271,-3.614554 -12.13722 -3.171019,-3.286755 -11.60819 -2.857922,-3.025679 -11.34199 -2.708782,-2.805213 -11.21046 -2.655929,-3.542252 -12.31819 -2.997045,-3.149156 -11.81063 -2.660059,-2.87222 -11.63212 -2.56722,-2.643355 -11.56783 -2.559324,-3.454787 -12.59718 -2.845709,-3.088218 -12.15664 -2.54177,-2.826804 -11.97519 -2.479677,-2.630809 -11.9102 -2.477829,-3.35127 -12.92599 -2.724028,-3.0466 -12.60925 -2.521409,-2.823578 -12.47151 -2.466767,-2.642565 -12.38551 -2.444502,-7.354191 -14.78693 -4.887255,-7.625728 -14.1233 -4.472265,-7.659127 -13.31615 -4.206444,-7.642956 -12.61197 -4.077623,-7.620625 -11.94987 -3.998161,-6.859317 -13.16157 -3.995292,-6.555468 -12.03589 -4.071692,-6.628649 -11.48469 -4.299691,-6.787862 -11.27495 -4.481396,-6.536279 -13.41382 -4.313225,-6.158093 -12.29552 -4.35031,-6.185751 -11.6969 -4.574588,-6.309309 -11.41745 -4.743984,-6.382214 -13.65655 -4.670021,-6.037557 -12.70761 -4.772153,-6.093813 -12.14998 -4.946504,-6.249866 -11.87238 -5.080858,-6.348636 -13.85888 -5.014628,-6.066875 -13.10177 -5.121315,-6.114254 -12.66263 -5.227086,-6.255245 -12.41836 -5.339731,10.910,
-3.608456 -13.73482 -3.713186,-3.712938 -13.17135 -3.799475,-3.715814 -12.54997 -3.651759,-3.631985 -12.05122 -3.483765,-3.545754 -11.72957 -3.291271,-3.614554 -12.13722 -3.171019,-3.286755 -11.60819 -2.857922,-3.025679 -11.34199 -2.708782,-2.805213 -11.21046 -2.655929,-3.542252 -12.31819 -2.997045,-3.149156 -11.81063 -2.660059,-2.87222 -11.63212 -2.56722,-2.643355 -11.56783 -2.559324,-3.454787 -12.59718 -2.845709,-3.088218 -12.15664 -2.54177,-2.826804 -11.97519 -2.479677,-2.630809 -11.9102 -2.477829,-3.35127 -12.92599 -2.724028,-3.0466 -12.60925 -2.521409,-2.823578 -12.47151 -2.466767,-2.642565 -12.38551 -2.444502,-7.354191 -14.78693 -4.887255,-7.625728 -14.1233 -4.472265,-7.659127 -13.31615 -4.206444,-7.642956 -12.61197 -4.077623,-7.620625 -11.94987 -3.998161,-6.859317 -13.16157 -3.995292,-6.555468 -12.03589 -4.071692,-6.628649 -11.48469 -4.299691,-6.787862 -11.27495 -4.481396,-6.536279 -13.41382 -4.313225,-6.158093 -12.29552 -4.35031,-6.185751 -11.6969 -4.574588,-6.309309 -11.41745 -4.743984,-6.382214 -13.65655 -4.670021,-6.037557 -12.70761 -4.772153,-6.093813 -12.14998 -4.946504,-6.249866 -11.87238 -5.080858,-6.348636 -13.85888 -5.014628,-6.066875 -13.10177 -5.121315,-6.114254 -12.66263 -5.227086,-6.255245 -12.41836 -5.339731,11.010,
-3.608456 -13.73482 -3.713186,-3.712938 -13.17135 -3.799475,-3.715814 -12.54997 -3.651759,-3.631985 -12.05122 -3.483765,-3.545754 -11.72957 -3.291271,-3.614554 -12.13722 -3.171019,-3.286755 -11.60819 -2.857922,-3.025679 -11.34199 -2.708782,-2.805213 -11.21046 -2.655929,-3.542252 -12.31819 -2.997045,-3.149156 -11.81063 -2.660059,-2.87222 -11.63212 -2.56722,-2.643355 -11.56783 -2.559324,-3.454787 -12.59718 -2.845709,-3.088218 -12.15664 -2.54177,-2.826804 -11.97519 -2.479677,-2.630809 -11.9102 -2.477829,-3.35127 -12.92599 -2.724028,-3.0466 -12.60925 -2.521409,-2.823578 -12.47151 -2.466767,-2.642565 -12.38551 -2.444502,-7.354191 -14.78693 -4.887255,-7.625728 -14.1233 -4.472265,-7.659127 -13.31615 -4.206444,-7.642956 -12.61197 -4.077623,-7.620625 -11.94987 -3.998161,-6.859317 -13.16157 -3.995292,-6.555468 -12.03589 -4.071692,-6.628649 -11.48469 -4.299691,-6.787862 -11.27495 -4.481396,-6.536279 -13.41382 -4.313225,-6.158093 -12.29552 -4.35031,-6.185751 -11.6969 -4.574588,-6.309309 -11.41745 -4.743984,-6.382214 -13.65655 -4.670021,-6.037557 -12.70761 -4.772153,-6.093813 -12.14998 -4.946504,-6.249866 -11.87238 -5.080858,-6.348636 -13.85888 -5.014628,-6.066875 -13.10177 -5.121315,-6.114254 -12.66263 -5.227086,-6.255245 -12.41836 -5.339731,11.110,
-3.608456 -13.73482 -3.713186,-3.712938 -13.17135 -3.799475,-3.715814 -12.54997 -3.651759,-3.631985 -12.05122 -3.483765,-3.545754 -11.72957 -3.291271,-3.614554 -12.13722 -3.171019,-3.286755 -11.60819 -2.857922,-3.025679 -11.34199 -2.708782,-2.805213 -11.21046 -2.655929,-3.542252 -12.31819 -2.997045,-3.149156 -11.81063 -2.660059,-2.87222 -11.63212 -2.56722,-2.643355 -11.56783 -2.559324,-3.454787 -12.59718 -2.845709,-3.088218 -12.15664 -2.54177,-2.826804 -11.97519 -2.479677,-2.630809 -11.9102 -2.477829,-3.35127 -12.92599 -2.724028,-3.0466 -12.60925 -2.521409,-2.823578 -12.47151 -2.466767,-2.642565 -12.38551 -2.444502,-7.354191 -14.78693 -4.887255,-7.625728 -14.1233 -4.472265,-7.659127 -13.31615 -4.206444,-7.642956 -12.61197 -4.077623,-7.620625 -11.94987 -3.998161,-6.859317 -13.16157 -3.995292,-6.555468 -12.03589 -4.071692,-6.628649 -11.48469 -4.299691,-6.787862 -11.27495 -4.481396,-6.536279 -13.41382 -4.313225,-6.158093 -12.29552 -4.35031,-6.185751 -11.6969 -4.574588,-6.309309 -11.41745 -4.743984,-6.382214 -13.65655 -4.670021,-6.037557 -12.70761 -4.772153,-6.093813 -12.14998 -4.946504,-6.249866 -11.87238 -5.080858,-6.348636 -13.85888 -5.014628,-6.066875 -13.10177 -5.121315,-6.114254 -12.66263 -5.227086,-6.255245 -12.41836 -5.339731,11.210,
-3.608456 -13.73482 -3.713186,-3.712938 -13.17135 -3.799475,-3.715814 -12.54997 -3.651759,-3.631985 -12.05122 -3.483765,-3.545754 -11.72957 -3.291271,-3.614554 -12.13722 -3.171019,-3.286755 -11.60819 -2.857922,-3.025679 -11.34199 -2.708782,-2.805213 -11.21046 -2.655929,-3.542252 -12.31819 -2.997045,-3.149156 -11.81063 -2.660059,-2.87222 -11.63212 -2.56722,-2.643355 -11.56783 -2.559324,-3.454787 -12.59718 -2.845709,-3.088218 -12.15664 -2.54177,-2.826804 -11.97519 -2.479677,-2.630809 -11.9102 -2.477829,-3.35127 -12.92599 -2.724028,-3.0466 -12.60925 -2.521409,-2.823578 -12.47151 -2.466767,-2.642565 -12.38551 -2.444502,-7.354191 -14.78693 -4.887255,-7.625728 -14.1233 -4.472265,-7.659127 -13.31615 -4.206444,-7.642956 -12.61197 -4.077623,-7.620625 -11.94987 -3.998161,-6.859317 -13.16157 -3.995292,-6.555468 -12.03589 -4.071692,-6.628649 -11.48469 -4.299691,-6.787862 -11.27495 -4.481396,-6.536279 -13.41382 -4.313225,-6.158093 -12.29552 -4.35031,-6.185751 -11.6969 -4.574588,-6.309309 -11.41745 -4.743984,-6.382214 -13.65655 -4.670021,-6.037557 -12.70761 -4.772153,-6.093813 -12.14998 -4.946504,-6.249866 -11.87238 -5.080858,-6.348636 -13.85888 -5.014628,-6.066875 -13.10177 -5.121315,-6.114254 -12.66263 -5.227086,-6.255245 -12.41836 -5.339731,11.310,
-3.608456 -13.73482 -3.713186,-3.712938 -13.17135 -3.799475,-3.715814 -12.54997 -3.651759,-3.631985 -12.05122 -3.483765,-3.545754 -11.72957 -3.291271,-3.614554 -12.13722 -3.171019,-3.286755 -11.60819 -2.857922,-3.025679 -11.34199 -2.708782,-2.805213 -11.21046 -2.655929,-3.542252 -12.31819 -2.997045,-3.149156 -11.81063 -2.660059,-2.87222 -11.63212 -2.56722,-2.643355 -11.56783 -2.559324,-3.454787 -12.59718 -2.845709,-3.088218 -12.15664 -2.54177,-2.826804 -11.97519 -2.479677,-2.630809 -11.9102 -2.477829,-3.35127 -12.92599 -2.724028,-3.0466 -12.60925 -2.521409,-2.823578 -12.47151 -2.466767,-2.642565 -12.38551 -2.444502,-7.354191 -14.78693 -4.887255,-7.625728 -14.1233 -4.472265,-7.659127 -13.31615 -4.206444,-7.642956 -12.61197 -4.077623,-7.620625 -11.94987 -3.998161,-6.859317 -13.16157 -3.995292,-6.555468 -12.03589 -4.071692,-6.628649 -11.48469 -4.299691,-6.787862 -11.27495 -4.481396,-6.536279 -13.41382 -4.313225,-6.158093 -12.29552 -4.35031,-6.185751 -11.6969 -4.574588,-6.309309 -11.41745 -4.743984,-6.382214 -13.65655 -4.670021,-6.037557 -12.70761 -4.772153,-6.093813 -12.14998 -4.946504,-6.249866 -11.87238 -5.080858,-6.348636 -13.85888 -5.014628,-6.066875 -13.10177 -5.121315,-6.114254 -12.66263 -5.227086,-6.255245 -12.41836 -5.339731,11.410,
-3.608456 -13.73482 -3.713186,-3.712938 -13.17135 -3.799475,-3.715814 -12.54997 -3.651759,-3.631985 -12.05122 -3.483765,-3.545754 -11.72957 -3.291271,-3.614554 -12.13722 -3.171019,-3.286755 -11.60819 -2.857922,-3.025679 -11.34199 -2.708782,-2.805213 -11.21046 -2.655929,-3.542252 -12.31819 -2.997045,-3.149156 -11.81063 -2.660059,-2.87222 -11.63212 -2.56722,-2.643355 -11.56783 -2.559324,-3.454787 -12.59718 -2.845709,-3.088218 -12.15664 -2.54177,-2.826804 -11.97519 -2.479677,-2.630809 -11.9102 -2.477829,-3.35127 -12.92599 -2.724028,-3.0466 -12.60925 -2.521409,-2.823578 -12.47151 -2.466767,-2.642565 -12.38551 -2.444502,-7.354191 -14.78693 -4.887255,-7.625728 -14.1233 -4.472265,-7.659127 -13.31615 -4.206444,-7.642956 -12.61197 -4.077623,-7.620625 -11.94987 -3.998161,-6.859317 -13.16157 -3.995292,-6.555468 -12.03589 -4.071692,-6.628649 -11.48469 -4.299691,-6.787862 -11.27495 -4.481396,-6.536279 -13.41382 -4.313225,-6.158093 -12.29552 -4.35031,-6.185751 -11.6969 -4.574588,-6.309309 -11.41745 -4.743984,-6.382214 -13.65655 -4.670021,-6.037557 -12.70761 -4.772153,-6.093813 -12.14998 -4.946504,-6.249866 -11.87238 -5.080858,-6.348636 -13.85888 -5.014628,-6.066875 -13.10177 -5.121315,-6.114254 -12.66263 -5.227086,-6.255245 -12.41836 -5.339731,11.510,
-3.608456 -13.73482 -3.713186,-3.712938 -13.17135 -3.799475,-3.715814 -12.54997 -3.651759,-3.631985 -12.05122 -3.483765,-3.545754 -11.72957 -3.291271,-3.614554 -12.13722 -3.171019,-3.286755 -11.60819 -2.857922,-3.025679 -11.34199 -2.708782,-2.805213 -11.21046 -2.655929,-3.542252 -12.31819 -2.997045,-3.149156 -11.81063 -2.660059,-2.87222 -11.63212 -2.56722,-2.643355 -11.56783 -2.559324,-3.454787 -12.59718 -2.845709,-3.088218 -12.15664 -2.54177,-2.826804 -11.97519 -2.479677,-2.630809 -11.9102 -2.477829,-3.35127 -12.92599 -2.724028,-3.0466 -12.60925 -2.521409,-2.823578 -12.47151 -2.466767,-2.642565 -12.38551 -2.444502,-7.354191 -14.78693 -4.887255,-7.625728 -14.1233 -4.472265,-7.659127 -13.31615 -4.206444,-7.642956 -12.61197 -4.077623,-7.620625 -11.94987 -3.998161,-6.859317 -13.16157 -3.995292,-6.555468 -12.03589 -4.071692,-6.628649 -11.48469 -4.299691,-6.787862 -11.27495 -4.481396,-6.536279 -13.41382 -4.313225,-6.158093 -12.29552 -4.35031,-6.185751 -11.6969 -4.574588,-6.309309 -11.41745 -4.743984,-6.382214 -13.65655 -4.670021,-6.037557 -12.70761 -4.772153,-6.093813 -12.14998 -4.946504,-6.249866 -11.87238 -5.080858,-6.348636 -13.85888 -5.014628,-6.066875 -13.10177 -5.121315,-6.114254 -12.66263 -5.227086,-6.255245 -12.41836 -5.339731,11.610,
-3.608456 -13.73482 -3.713186,-3.712938 -13.17135 -3.799475,-3.715814 -12.54997 -3.651759,-3.631985 -12.05122 -3.483765,-3.545754 -11.72957 -3.291271,-3.614554 -12.13722 -3.171019,-3.286755 -11.60819 -2.857922,-3.025679 -11.34199 -2.708782,-2.805213 -11.21046 -2.655929,-3.542252 -12.31819 -2.997045,-3.149156 -11.81063 -2.660059,-2.87222 -11.63212 -2.56722,-2.643355 -11.56783 -2.559324,-3.454787 -12.59718 -2.845709,-3.088218 -12.15664 -2.54177,-2.826804 -11.97519 -2.479677,-2.630809 -11.9102 -2.477829,-3.35127 -12.92599 -2.724028,-3.0466 -12.60925 -2.521409,-2.823578 -12.47151 -2.466767,-2.642565 -12.38551 -2.444502,-7.354191 -14.78693 -4.887255,-7.625728 -14.1233 -4.472265,-7.659127 -13.31615 -4.206444,-7.642956 -12.61197 -4.077623,-7.620625 -11.94987 -3.998161,-6.859317 -13.16157 -3.995292,-6.555468 -12.03589 -4.071692,-6.628649 -11.48469 -4.299691,-6.787862 -11.27495 -4.481396,-6.536279 -13.41382 -4.313225,-6.158093 -12.29552 -4.35031,-6.185751 -11.6969 -4.574588,-6.309309 -11.41745 -4.743984,-6.382214 -13.65655 -4.670021,-6.037557 -12.70761 -4.772153,-6.093813 -12.14998 -4.946504,-6.249866 -11.87238 -5.080858,-6.348636 -13.85888 -5.014628,-6.066875 -13.10177 -5.121315,-6.114254 -12.66263 -5.227086,-6.255245 -12.41836 -5.339731,11.710,
-3.608456 -13.73482 -3.713186,-3.712938 -13.17135 -3.799475,-3.715814 -12.54997 -3.651759,-3.631985 -12.05122 -3.483765,-3.545754 -11.72957 -3.291271,-3.614554 -12.13722 -3.171019,-3.286755 -11.60819 -2.857922,-3.025679 -11.34199 -2.708782,-2.805213 -11.21046 -2.655929,-3.542252 -12.31819 -2.997045,-3.149156 -11.81063 -2.660059,-2.87222 -11.63212 -2.56722,-2.643355 -11.56783 -2.559324,-3.454787 -12.59718 -2.845709,-3.088218 -12.15664 -2.54177,-2.826804 -11.97519 -2.479677,-2.630809 -11.9102 -2.477829,-3.35127 -12.92599 -2.724028,-3.0466 -12.60925 -2.521409,-2.823578 -12.47151 -2.466767,-2.642565 -12.38551 -2.444502,-7.354191 -14.78693 -4.887255,-7.625728 -14.1233 -4.472265,-7.659127 -13.31615 -4.206444,-7.642956 -12.61197 -4.077623,-7.620625 -11.94987 -3.998161,-6.859317 -13.16157 -3.995292,-6.555468 -12.03589 -4.071692,-6.628649 -11.48469 -4.299691,-6.787862 -11.27495 -4.481396,-6.536279 -13.41382 -4.313225,-6.158093 -12.29552 -4.35031,-6.185751 -11.6969 -4.574588,-6.309309 -11.41745 -4.743984,-6.382214 -13.65655 -4.670021,-6.037557 -12.70761 -4.772153,-6.093813 -12.14998 -4.946504,-6.249866 -11.87238 -5.080858,-6.348636 -13.85888 -5.014628,-6.066875 -13.10177 -5.121315,-6.114254 -12.66263 -5.227086,-6.255245 -12.41836 -5.339731,11.810,
-3.608456 -13.73482 -3.713186,-3.712938 -13.17135 -3.799475,-3.715814 -12.54997 -3.651759,-3.631985 -12.05122 -3.483765,-3.545754 -11.72957 -3.291271,-3.614554 -12.13722 -3.171019,-3.286755 -11.60819 -2.857922,-3.025679 -11.34199 -2.708782,-2.805213 -11.21046 -2.655929,-3.542252 -12.31819 -2.997045,-3.149156 -11.81063 -2.660059,-2.87222 -11.63212 -2.56722,-2.643355 -11.56783 -2.559324,-3.454787 -12.59718 -2.845709,-3.088218 -12.15664 -2.54177,-2.826804 -11.97519 -2.479677,-2.630809 -11.9102 -2.477829,-3.35127 -12.92599 -2.724028,-3.0466 -12.60925 -2.521409,-2.823578 -12.47151 -2.466767,-2.642565 -12.38551 -2.444502,-7.354191 -14.78693 -4.887255,-7.625728 -14.1233 -4.472265,-7.659127 -13.31615 -4.206444,-7.642956 -12.61197 -4.077623,-7.620625 -11.94987 -3.998161,-6.859317 -13.16157 -3.995292,-6.555468 -12.03589 -4.071692,-6.628649 -11.48469 -4.299691,-6.787862 -11.27495 -4.481396,-6.536279 -13.41382 -4.313225,-6.158093 -12.29552 -4.35031,-6.185751 -11.6969 -4.574588,-6.309309 -11.41745 -4.743984,-6.382214 -13.65655 -4.670021,-6.037557 -12.70761 -4.772153,-6.093813 -12.14998 -4.946504,-6.249866 -11.87238 -5.080858,-6.348636 -13.85888 -5.014628,-6.066875 -13.10177 -5.121315,-6.114254 -12.66263 -5.227086,-6.255245 -12.41836 -5.339731,11.910,
