TiagoOliveira98/HandTracking/DataLogging/JointData/Logs(1642726852)_SAI_Calculator.csv
WRIST,THUMB_CMC,THUMB_MCP,THUMB_IP,THUMB_TIP,INDEX_FINGER_MCP,INDEX_FINGER_PIP,INDEX_FINGER_DIP,INDEX_FINGER_TIP,MIDDLE_FINGER_MCP,MIDDLE_FINGER_PIP,MIDDLE_FINGER_DIP,MIDDLE_FINGER_TIP,RING_FINGER_MCP,RING_FINGER_PIP,RING_FINGER_DIP,RING_FINGER_TIP,PINKY_MCP,PINKY_PIP,PINKY_DIP,PINKY_TIP,WRIST2,THUMB_CMC2,THUMB_MCP2,THUMB_IP2,THUMB_TIP2,INDEX_FINGER_MCP2,INDEX_FINGER_PIP2,INDEX_FINGER_DIP2,INDEX_FINGER_TIP2,MIDDLE_FINGER_MCP2,MIDDLE_FINGER_PIP2,MIDDLE_FINGER_DIP2,MIDDLE_FINGER_TIP2,RING_FINGER_MCP2,RING_FINGER_PIP2,RING_FINGER_DIP2,RING_FINGER_TIP2,PINKY_MCP2,PINKY_PIP2,PINKY_DIP2,PINKY_TIP2,Timestamp,Event
10 0 0,10 7.47 0,10 7.47 0,10 7.47 0,10 7.47 0,10 7.47 0,10 7.47 0,10 7.47 0,10 7.47 0,10 7.47 0,10 7.47 0,10 7.47 0,10 7.47 0,10 7.47 0,10 7.47 0,10 7.47 0,10 7.47 0,10 7.47 0,10 7.47 0,10 7.47 0,10 7.47 0,10 0 0,10 7.47 0,10 7.47 0,10 7.47 0,10 7.47 0,10 7.47 0,10 7.47 0,10 7.47 0,10 7.47 0,10 7.47 0,10 7.47 0,10 7.47 0,10 7.47 0,10 7.47 0,10 7.47 0,10 7.47 0,10 7.47 0,10 7.47 0,10 7.47 0,10 7.47 0,10 7.47 0,0.010,
2 0 -6.61315,2 0 -6.61315,2 0 -6.61315,2 0 -6.61315,2 0 -6.61315,2 0 -6.61315,2 0 -6.61315,2 0 -6.61315,2 0 -6.61315,2 0 -6.61315,2 0 -6.61315,2 0 -6.61315,2 0 -6.61315,2 0 -6.61315,2 0 -6.61315,2 0 -6.61315,2 0 -6.61315,2 0 -6.61315,2 0 -6.61315,2 0 -6.61315,2 0 -6.61315,2 0 -8.305335,2 0 -8.305335,2 0 -8.305335,2 0 -8.305335,2 0 -8.305335,2 0 -8.305335,2 0 -8.305335,2 0 -8.305335,2 0 -8.305335,2 0 -8.305335,2 0 -8.305335,2 0 -8.305335,2 0 -8.305335,2 0 -8.305335,2 0 -8.305335,2 0 -8.305335,2 0 -8.305335,2 0 -8.305335,2 0 -8.305335,2 0 -8.305335,2 0 -8.305335,0.110,
2 0 -6.61315,2 0 -6.61315,2 0 -6.61315,2 0 -6.61315,2 0 -6.61315,2 0 -6.61315,2 0 -6.61315,2 0 -6.61315,2 0 -6.61315,2 0 -6.61315,2 0 -6.61315,2 0 -6.61315,2 0 -6.61315,2 0 -6.61315,2 0 -6.61315,2 0 -6.61315,2 0 -6.61315,2 0 -6.61315,2 0 -6.61315,2 0 -6.61315,2 0 -6.61315,2 0 -8.305335,2 0 -8.305335,2 0 -8.305335,2 0 -8.305335,2 0 -8.305335,2 0 -8.305335,2 0 -8.305335,2 0 -8.305335,2 0 -8.305335,2 0 -8.305335,2 0 -8.305335,2 0 -8.305335,2 0 -8.305335,2 0 -8.305335,2 0 -8.305335,2 0 -8.305335,2 0 -8.305335,2 0 -8.305335,2 0 -8.305335,2 0 -8.305335,2 0 -8.305335,0.210,
2 0 -6.61315,2 0 -6.61315,2 0 -6.61315,2 0 -6.61315,2 0 -6.61315,2 0 -6.61315,2 0 -6.61315,2 0 -6.61315,2 0 -6.61315,2 0 -6.61315,2 0 -6.61315,2 0 -6.61315,2 0 -6.61315,2 0 -6.61315,2 0 -6.61315,2 0 -6.61315,2 0 -6.61315,2 0 -6.61315,2 0 -6.61315,2 0 -6.61315,2 0 -6.61315,2 0 -8.305335,2 0 -8.305335,2 0 -8.305335,2 0 -8.305335,2 0 -8.305335,2 0 -8.305335,2 0 -8.305335,2 0 -8.305335,2 0 -8.305335,2 0 -8.305335,2 0 -8.305335,2 0 -8.305335,2 0 -8.305335,2 0 -8.305335,2 0 -8.305335,2 0 -8.305335,2 0 -8.305335,2 0 -8.305335,2 0 -8.305335,2 0 -8.305335,2 0 -8.305335,0.310,
2 0 -6.61315,2 0 -6.61315,2 0 -6.61315,2 0 -6.61315,2 0 -6.61315,2 0 -6.61315,2 0 -6.61315,2 0 -6.61315,2 0 -6.61315,2 0 -6.61315,2 0 -6.61315,2 0 -6.61315,2 0 -6.61315,2 0 -6.61315,2 0 -6.61315,2 0 -6.61315,2 0 -6.61315,2 0 -6.61315,2 0 -6.61315,2 0 -6.61315,2 0 -6.61315,2 0 -8.305335,2 0 -8.305335,2 0 -8.305335,2 0 -8.305335,2 0 -8.305335,2 0 -8.305335,2 0 -8.305335,2 0 -8.305335,2 0 -8.305335,2 0 -8.305335,2 0 -8.305335,2 0 -8.305335,2 0 -8.305335,2 0 -8.305335,2 0 -8.305335,2 0 -8.305335,2 0 -8.305335,2 0 -8.305335,2 0 -8.305335,2 0 -8.305335,2 0 -8.305335,0.410,
2 0 -6.61315,2 0 -6.61315,2 0 -6.61315,2 0 -6.61315,2 0 -6.61315,2 0 -6.61315,2 0 -6.61315,2 0 -6.61315,2 0 -6.61315,2 0 -6.61315,2 0 -6.61315,2 0 -6.61315,2 0 -6.61315,2 0 -6.61315,2 0 -6.61315,2 0 -6.61315,2 0 -6.61315,2 0 -6.61315,2 0 -6.61315,2 0 -6.61315,2 0 -6.61315,2 0 -8.305335,2 0 -8.305335,2 0 -8.305335,2 0 -8.305335,2 0 -8.305335,2 0 -8.305335,2 0 -8.305335,2 0 -8.305335,2 0 -8.305335,2 0 -8.305335,2 0 -8.305335,2 0 -8.305335,2 0 -8.305335,2 0 -8.305335,2 0 -8.305335,2 0 -8.305335,2 0 -8.305335,2 0 -8.305335,2 0 -8.305335,2 0 -8.305335,2 0 -8.305335,0.510,
2 0 -6.61315,2 0 -6.61315,2 0 -6.61315,2 0 -6.61315,2 0 -6.61315,2 0 -6.61315,2 0 -6.61315,2 0 -6.61315,2 0 -6.61315,2 0 -6.61315,2 0 -6.61315,2 0 -6.61315,2 0 -6.61315,2 0 -6.61315,2 0 -6.61315,2 0 -6.61315,2 0 -6.61315,2 0 -6.61315,2 0 -6.61315,2 0 -6.61315,2 0 -6.61315,2 0 -8.305335,2 0 -8.305335,2 0 -8.305335,2 0 -8.305335,2 0 -8.305335,2 0 -8.305335,2 0 -8.305335,2 0 -8.305335,2 0 -8.305335,2 0 -8.305335,2 0 -8.305335,2 0 -8.305335,2 0 -8.305335,2 0 -8.305335,2 0 -8.305335,2 0 -8.305335,2 0 -8.305335,2 0 -8.305335,2 0 -8.305335,2 0 -8.305335,2 0 -8.305335,0.610,
2 0 -6.61315,2 0 -6.61315,2 0 -6.61315,2 0 -6.61315,2 0 -6.61315,2 0 -6.61315,2 0 -6.61315,2 0 -6.61315,2 0 -6.61315,2 0 -6.61315,2 0 -6.61315,2 0 -6.61315,2 0 -6.61315,2 0 -6.61315,2 0 -6.61315,2 0 -6.61315,2 0 -6.61315,2 0 -6.61315,2 0 -6.61315,2 0 -6.61315,2 0 -6.61315,2 0 -8.305335,2 0 -8.305335,2 0 -8.305335,2 0 -8.305335,2 0 -8.305335,2 0 -8.305335,2 0 -8.305335,2 0 -8.305335,2 0 -8.305335,2 0 -8.305335,2 0 -8.305335,2 0 -8.305335,2 0 -8.305335,2 0 -8.305335,2 0 -8.305335,2 0 -8.305335,2 0 -8.305335,2 0 -8.305335,2 0 -8.305335,2 0 -8.305335,2 0 -8.305335,0.710,
2 0 -6.61315,2 0 -6.61315,2 0 -6.61315,2 0 -6.61315,2 0 -6.61315,2 0 -6.61315,2 0 -6.61315,2 0 -6.61315,2 0 -6.61315,2 0 -6.61315,2 0 -6.61315,2 0 -6.61315,2 0 -6.61315,2 0 -6.61315,2 0 -6.61315,2 0 -6.61315,2 0 -6.61315,2 0 -6.61315,2 0 -6.61315,2 0 -6.61315,2 0 -6.61315,2 0 -8.305335,2 0 -8.305335,2 0 -8.305335,2 0 -8.305335,2 0 -8.305335,2 0 -8.305335,2 0 -8.305335,2 0 -8.305335,2 0 -8.305335,2 0 -8.305335,2 0 -8.305335,2 0 -8.305335,2 0 -8.305335,2 0 -8.305335,2 0 -8.305335,2 0 -8.305335,2 0 -8.305335,2 0 -8.305335,2 0 -8.305335,2 0 -8.305335,2 0 -8.305335,0.810,
2 0 -6.61315,2 0 -6.61315,2 0 -6.61315,2 0 -6.61315,2 0 -6.61315,2 0 -6.61315,2 0 -6.61315,2 0 -6.61315,2 0 -6.61315,2 0 -6.61315,2 0 -6.61315,2 0 -6.61315,2 0 -6.61315,2 0 -6.61315,2 0 -6.61315,2 0 -6.61315,2 0 -6.61315,2 0 -6.61315,2 0 -6.61315,2 0 -6.61315,2 0 -6.61315,2 0 -8.305335,2 0 -8.305335,2 0 -8.305335,2 0 -8.305335,2 0 -8.305335,2 0 -8.305335,2 0 -8.305335,2 0 -8.305335,2 0 -8.305335,2 0 -8.305335,2 0 -8.305335,2 0 -8.305335,2 0 -8.305335,2 0 -8.305335,2 0 -8.305335,2 0 -8.305335,2 0 -8.305335,2 0 -8.305335,2 0 -8.305335,2 0 -8.305335,2 0 -8.305335,0.910,
2 0 -6.61315,2 0 -6.61315,2 0 -6.61315,2 0 -6.61315,2 0 -6.61315,2 0 -6.61315,2 0 -6.61315,2 0 -6.61315,2 0 -6.61315,2 0 -6.61315,2 0 -6.61315,2 0 -6.61315,2 0 -6.61315,2 0 -6.61315,2 0 -6.61315,2 0 -6.61315,2 0 -6.61315,2 0 -6.61315,2 0 -6.61315,2 0 -6.61315,2 0 -6.61315,2 0 -8.305335,2 0 -8.305335,2 0 -8.305335,2 0 -8.305335,2 0 -8.305335,2 0 -8.305335,2 0 -8.305335,2 0 -8.305335,2 0 -8.305335,2 0 -8.305335,2 0 -8.305335,2 0 -8.305335,2 0 -8.305335,2 0 -8.305335,2 0 -8.305335,2 0 -8.305335,2 0 -8.305335,2 0 -8.305335,2 0 -8.305335,2 0 -8.305335,2 0 -8.305335,1.010,
2 0 -6.61315,2 0 -6.61315,2 0 -6.61315,2 0 -6.61315,2 0 -6.61315,2 0 -6.61315,2 0 -6.61315,2 0 -6.61315,2 0 -6.61315,2 0 -6.61315,2 0 -6.61315,2 0 -6.61315,2 0 -6.61315,2 0 -6.61315,2 0 -6.61315,2 0 -6.61315,2 0 -6.61315,2 0 -6.61315,2 0 -6.61315,2 0 -6.61315,2 0 -6.61315,2 0 -8.305335,2 0 -8.305335,2 0 -8.305335,2 0 -8.305335,2 0 -8.305335,2 0 -8.305335,2 0 -8.305335,2 0 -8.305335,2 0 -8.305335,2 0 -8.305335,2 0 -8.305335,2 0 -8.305335,2 0 -8.305335,2 0 -8.305335,2 0 -8.305335,2 0 -8.305335,2 0 -8.305335,2 0 -8.305335,2 0 -8.305335,2 0 -8.305335,2 0 -8.305335,1.110,
2 0 -6.61315,2 0 -6.61315,2 0 -6.61315,2 0 -6.61315,2 0 -6.61315,2 0 -6.61315,2 0 -6.61315,2 0 -6.61315,2 0 -6.61315,2 0 -6.61315,2 0 -6.61315,2 0 -6.61315,2 0 -6.61315,2 0 -6.61315,2 0 -6.61315,2 0 -6.61315,2 0 -6.61315,2 0 -6.61315,2 0 -6.61315,2 0 -6.61315,2 0 -6.61315,2 0 -8.305335,2 0 -8.305335,2 0 -8.305335,2 0 -8.305335,2 0 -8.305335,2 0 -8.305335,2 0 -8.305335,2 0 -8.305335,2 0 -8.305335,2 0 -8.305335,2 0 -8.305335,2 0 -8.305335,2 0 -8.305335,2 0 -8.305335,2 0 -8.305335,2 0 -8.305335,2 0 -8.305335,2 0 -8.305335,2 0 -8.305335,2 0 -8.305335,2 0 -8.305335,1.210,
-2.721239 -14.28934 2.596554,-3.343533 -13.91004 2.884159,-3.759426 -13.07652 2.996208,-3.894289 -12.22941 3.111179,-3.967056 -11.46427 3.219623,-3.376551 -11.80208 2.496072,-3.457104 -10.95519 2.547016,-3.550684 -10.45706 2.649626,-3.649122 -10.08326 2.736182,-3.026964 -11.67876 2.475411,-3.087469 -10.72163 2.556529,-3.202332 -10.18101 2.721895,-3.319008 -9.841965 2.812642,-2.710221 -11.73841 2.520461,-2.76127 -10.85118 2.639815,-2.886116 -10.35427 2.824147,-3.01405 -10.05716 2.94821,-2.401206 -11.96214 2.599885,-2.40992 -11.23448 2.788618,-2.507938 -10.84396 2.943829,-2.62663 -10.60933 3.03079,-8.291543 -14.6919 2.285281,-7.484318 -14.44275 1.72139,-7.074935 -13.96221 1.437891,-6.828277 -13.31347 1.190817,-6.69994 -12.75437 0.9376669,-7.125913 -12.22867 1.601652,-7.017394 -11.61296 0.9722902,-7.110488 -11.69321 0.590452,-7.224048 -11.97573 0.3646832,-7.577075 -11.81934 1.657403,-7.392885 -11.25562 0.9286624,-7.409421 -11.40713 0.5674382,-7.447533 -11.79613 0.4256165,-8.008361 -11.72686 1.638071,-7.831958 -11.24453 1.0087,-7.813931 -11.44227 0.7534437,-7.83835 -11.8407 0.6798893,-8.395264 -11.80179 1.581831,-8.340991 -11.31208 1.120679,-8.287324 -11.48836 0.818882,-8.263887 -11.81892 0.6410319,1.310,Left Hand Closed
-2.830642 -12.94532 2.151929,-3.439169 -12.54698 2.354273,-3.830988 -11.70378 2.43163,-3.967662 -10.84556 2.543479,-4.101722 -10.09534 2.667362,-3.48869 -10.5665 2.119314,-3.588855 -9.529875 2.207807,-3.679226 -8.956772 2.316036,-3.762776 -8.451836 2.414329,-3.154284 -10.46212 2.164304,-3.213032 -9.368641 2.285833,-3.303747 -8.757454 2.483731,-3.396832 -8.303587 2.630671,-2.846775 -10.50049 2.251466,-2.88752 -9.499886 2.384468,-2.992153 -8.920649 2.574287,-3.115255 -8.487947 2.735808,-2.542947 -10.65939 2.367914,-2.553034 -9.861765 2.522974,-2.646152 -9.419718 2.650892,-2.764941 -9.074316 2.756796,-7.696885 -12.90594 0.7647886,-7.085099 -12.47754 0.8145177,-6.755556 -11.62422 1.001394,-6.561344 -10.8939 1.227928,-6.311766 -10.25106 1.491427,-7.129274 -10.40325 1.187489,-7.054201 -9.397343 1.508939,-6.943822 -8.700331 1.813434,-6.816001 -8.080812 2.075977,-7.371286 -10.42051 1.421483,-7.350622 -9.340437 1.812606,-7.26069 -8.526999 2.142824,-7.187811 -7.824937 2.395243,-7.628453 -10.63397 1.653948,-7.615105 -9.628714 2.013492,-7.523837 -8.890284 2.268608,-7.443913 -8.243681 2.479229,-7.891626 -11.02895 1.872938,-7.88866 -10.31658 2.211258,-7.817325 -9.751625 2.423746,-7.748707 -9.204611 2.605024,1.410,
-2.793168 -10.46635 2.491414,-3.445057 -10.2455 2.782377,-3.875679 -9.51325 2.970826,-4.141495 -8.646193 3.034569,-4.237425 -7.880253 3.061814,-3.677881 -8.253286 3.264713,-3.990497 -6.853474 3.237173,-4.128418 -6.342594 2.99027,-4.162703 -6.178443 2.750467,-3.320608 -7.983938 3.062329,-3.588811 -6.400303 3.058902,-3.748178 -5.902857 2.703374,-3.797812 -5.752925 2.354672,-3.001711 -7.898168 2.833942,-3.212559 -6.439889 2.84708,-3.367479 -5.932214 2.616555,-3.437816 -5.709893 2.388195,-2.729654 -7.934767 2.614122,-2.886214 -6.803577 2.616959,-3.041203 -6.358818 2.477511,-3.142481 -6.130491 2.288041,-7.696885 -12.90594 0.7647886,-7.085099 -12.47754 0.8145177,-6.755556 -11.62422 1.001394,-6.561344 -10.8939 1.227928,-6.311766 -10.25106 1.491427,-7.129274 -10.40325 1.187489,-7.054201 -9.397343 1.508939,-6.943822 -8.700331 1.813434,-6.816001 -8.080812 2.075977,-7.371286 -10.42051 1.421483,-7.350622 -9.340437 1.812606,-7.26069 -8.526999 2.142824,-7.187811 -7.824937 2.395243,-7.628453 -10.63397 1.653948,-7.615105 -9.628714 2.013492,-7.523837 -8.890284 2.268608,-7.443913 -8.243681 2.479229,-7.891626 -11.02895 1.872938,-7.88866 -10.31658 2.211258,-7.817325 -9.751625 2.423746,-7.748707 -9.204611 2.605024,1.510,
-2.773026 -10.23344 2.962747,-3.528337 -9.738365 2.968829,-4.008562 -8.883736 2.95183,-4.226678 -7.922431 2.938883,-4.393879 -7.183381 2.944369,-3.716185 -7.766668 3.067163,-3.927411 -6.630412 2.951468,-4.051422 -6.084232 2.794771,-4.1486 -5.663411 2.660778,-3.369658 -7.564625 3.03892,-3.585247 -6.291682 2.903107,-3.739504 -5.703364 2.72398,-3.824099 -5.255775 2.603839,-3.077461 -7.527252 3.002323,-3.226239 -6.29018 2.915496,-3.367704 -5.702634 2.75092,-3.467426 -5.240993 2.643128,-2.822615 -7.652302 2.976498,-2.919211 -6.626065 2.89893,-3.033104 -6.126343 2.776406,-3.12756 -5.697614 2.691737,-7.696885 -12.90594 0.7647886,-7.085099 -12.47754 0.8145177,-6.755556 -11.62422 1.001394,-6.561344 -10.8939 1.227928,-6.311766 -10.25106 1.491427,-7.129274 -10.40325 1.187489,-7.054201 -9.397343 1.508939,-6.943822 -8.700331 1.813434,-6.816001 -8.080812 2.075977,-7.371286 -10.42051 1.421483,-7.350622 -9.340437 1.812606,-7.26069 -8.526999 2.142824,-7.187811 -7.824937 2.395243,-7.628453 -10.63397 1.653948,-7.615105 -9.628714 2.013492,-7.523837 -8.890284 2.268608,-7.443913 -8.243681 2.479229,-7.891626 -11.02895 1.872938,-7.88866 -10.31658 2.211258,-7.817325 -9.751625 2.423746,-7.748707 -9.204611 2.605024,1.610,
-3.029421 -8.704771 2.02902,-3.659399 -8.30611 2.036969,-4.089545 -7.652963 1.99229,-4.37289 -6.919093 1.984648,-4.527391 -6.352054 1.951911,-3.872551 -6.48398 1.700176,-4.130477 -5.505577 1.705332,-4.258512 -5.154907 1.795688,-4.314306 -4.936332 1.881957,-3.597486 -6.316097 1.76964,-3.794909 -5.154085 1.696068,-3.935476 -4.77573 1.686061,-3.971636 -4.598849 1.693552,-3.321012 -6.277748 1.894333,-3.441469 -5.165897 1.838074,-3.560266 -4.708996 1.81028,-3.620811 -4.422969 1.833574,-3.016756 -6.390304 2.041775,-3.046497 -5.54656 2.016198,-3.135536 -5.08806 1.993709,-3.196304 -4.715203 1.992667,-7.696885 -12.90594 0.7647886,-7.085099 -12.47754 0.8145177,-6.755556 -11.62422 1.001394,-6.561344 -10.8939 1.227928,-6.311766 -10.25106 1.491427,-7.129274 -10.40325 1.187489,-7.054201 -9.397343 1.508939,-6.943822 -8.700331 1.813434,-6.816001 -8.080812 2.075977,-7.371286 -10.42051 1.421483,-7.350622 -9.340437 1.812606,-7.26069 -8.526999 2.142824,-7.187811 -7.824937 2.395243,-7.628453 -10.63397 1.653948,-7.615105 -9.628714 2.013492,-7.523837 -8.890284 2.268608,-7.443913 -8.243681 2.479229,-7.891626 -11.02895 1.872938,-7.88866 -10.31658 2.211258,-7.817325 -9.751625 2.423746,-7.748707 -9.204611 2.605024,1.710,
-2.958704 -8.509714 1.567082,-3.529689 -8.132591 1.62641,-3.964156 -7.592256 1.684793,-4.23571 -6.981824 1.813134,-4.462412 -6.503612 1.974518,-3.788597 -6.430237 1.381215,-4.029834 -5.646158 1.466285,-4.147345 -5.215486 1.550086,-4.239246 -4.803254 1.612403,-3.545581 -6.248796 1.497313,-3.732229 -5.342847 1.537037,-3.84208 -4.827167 1.645817,-3.926598 -4.357492 1.744709,-3.299273 -6.232812 1.668679,-3.40696 -5.337221 1.735712,-3.505299 -4.83564 1.857674,-3.601952 -4.389843 1.957095,-3.025555 -6.374715 1.860094,-3.043125 -5.634824 1.942364,-3.098699 -5.196428 2.030815,-3.168608 -4.782181 2.103145,-9.152675 -8.993124 0.04090791,-8.618391 -8.628841 0.1764021,-8.143822 -7.895734 0.363868,-7.818147 -7.284535 0.5316722,-7.58112 -6.900875 0.7086121,-7.92345 -7.152524 0.435291,-7.612697 -6.275257 0.5478089,-7.458804 -5.700759 0.7353645,-7.304855 -5.106594 0.8998384,-8.08909 -6.901485 0.4644377,-7.746811 -5.9582 0.5459578,-7.557671 -5.201543 0.688098,-7.356277 -4.529788 0.8760262,-8.300873 -6.810471 0.501266,-8.000107 -5.955736 0.553204,-7.831006 -5.293146 0.6704007,-7.637202 -4.739193 0.8051613,-8.560295 -6.821016 0.5478354,-8.386866 -6.232706 0.573154,-8.259268 -5.729475 0.5882611,-8.113885 -5.30705 0.6131936,1.810,
-2.985197 -8.510704 1.401455,-3.540235 -8.195589 1.486536,-3.969199 -7.658445 1.536406,-4.238299 -7.043931 1.650945,-4.468327 -6.567539 1.786089,-3.792171 -6.488146 1.240444,-4.034784 -5.705308 1.323946,-4.162933 -5.260978 1.387737,-4.261463 -4.853431 1.432631,-3.54848 -6.29263 1.330054,-3.740594 -5.397468 1.355277,-3.86142 -4.869636 1.439146,-3.953588 -4.401377 1.519865,-3.301666 -6.26457 1.476893,-3.425913 -5.385036 1.53177,-3.532457 -4.869415 1.632343,-3.63218 -4.423088 1.722107,-3.026253 -6.395227 1.648449,-3.065398 -5.667895 1.713624,-3.129515 -5.231227 1.79955,-3.200499 -4.83152 1.876993,-9.152675 -8.993124 0.04090791,-8.618391 -8.628841 0.1764021,-8.143822 -7.895734 0.363868,-7.818147 -7.284535 0.5316722,-7.58112 -6.900875 0.7086121,-7.92345 -7.152524 0.435291,-7.612697 -6.275257 0.5478089,-7.458804 -5.700759 0.7353645,-7.304855 -5.106594 0.8998384,-8.08909 -6.901485 0.4644377,-7.746811 -5.9582 0.5459578,-7.557671 -5.201543 0.688098,-7.356277 -4.529788 0.8760262,-8.300873 -6.810471 0.501266,-8.000107 -5.955736 0.553204,-7.831006 -5.293146 0.6704007,-7.637202 -4.739193 0.8051613,-8.560295 -6.821016 0.5478354,-8.386866 -6.232706 0.573154,-8.259268 -5.729475 0.5882611,-8.113885 -5.30705 0.6131936,1.910,
-2.995068 -8.506367 1.267683,-3.540937 -8.227537 1.351085,-3.975763 -7.69576 1.388595,-4.249313 -7.101099 1.490461,-4.469541 -6.632883 1.60937,-3.801169 -6.531661 1.095328,-4.041862 -5.752857 1.171668,-4.172395 -5.303154 1.227892,-4.269598 -4.903398 1.264517,-3.55875 -6.328517 1.178514,-3.756562 -5.443508 1.190219,-3.879408 -4.916313 1.2607,-3.972647 -4.45783 1.322253,-3.312117 -6.286443 1.319581,-3.444014 -5.41739 1.357368,-3.549197 -4.897065 1.440221,-3.646358 -4.452134 1.509074,-3.037571 -6.394247 1.48677,-3.079713 -5.666772 1.537645,-3.140356 -5.228961 1.610994,-3.205164 -4.838474 1.672726,-9.255985 -9.204685 2.727766,-8.380342 -8.92565 2.700629,-7.759318 -8.197844 2.827885,-7.354051 -7.438271 2.980325,-7.048807 -6.889495 3.154628,-7.797334 -6.654232 3.079296,-7.350211 -5.393011 3.322071,-7.164988 -4.885468 3.391502,-7.062167 -4.718702 3.328319,-8.177614 -6.278441 3.186235,-7.663441 -4.993902 3.284991,-7.508489 -4.640131 3.161024,-7.403538 -4.570541 3.068437,-8.581361 -6.20712 3.314249,-8.13681 -5.051326 3.3622,-7.967833 -4.841897 3.240174,-7.838959 -4.759674 3.153607,-9.019689 -6.396563 3.425035,-8.756858 -5.504982 3.42849,-8.547 -5.244621 3.365806,-8.313427 -5.050313 3.313933,2.010,
-3.032765 -8.521311 1.051532,-3.577954 -8.257696 1.151659,-4.004494 -7.765338 1.210127,-4.268918 -7.202245 1.327354,-4.484715 -6.73213 1.455721,-3.822744 -6.604404 0.9542869,-4.055931 -5.844869 1.057668,-4.179581 -5.399742 1.122595,-4.270344 -4.991577 1.167579,-3.573099 -6.399456 1.036549,-3.760687 -5.534566 1.092964,-3.880289 -5.00085 1.184999,-3.970297 -4.537399 1.264827,-3.3181 -6.369413 1.171881,-3.443064 -5.522352 1.255756,-3.546934 -4.998729 1.358785,-3.642365 -4.556968 1.444167,-3.039314 -6.502291 1.328654,-3.065531 -5.799524 1.417377,-3.121959 -5.361454 1.515145,-3.189119 -4.973926 1.595347,-8.909909 -9.194103 2.215635,-8.042974 -8.662039 1.998348,-7.532621 -7.989349 1.875827,-7.212509 -7.30927 1.826976,-6.936756 -6.839357 1.772696,-7.639839 -6.602952 1.619216,-7.391055 -5.601905 1.446243,-7.275135 -5.103971 1.352651,-7.169344 -4.678121 1.316761,-7.893097 -6.403717 1.752805,-7.666723 -5.311376 1.494902,-7.545163 -4.728012 1.410693,-7.411642 -4.220481 1.342627,-8.157086 -6.368148 1.899521,-7.980593 -5.393819 1.732381,-7.876635 -4.814144 1.670431,-7.736986 -4.32818 1.621163,-8.44326 -6.514293 2.055294,-8.388093 -5.73134 1.921542,-8.338268 -5.232561 1.869838,-8.23707 -4.811903 1.859166,2.110,
-3.057584 -8.534525 0.8786947,-3.593781 -8.296204 0.983261,-4.021379 -7.809961 1.025081,-4.280842 -7.252025 1.112203,-4.492416 -6.810532 1.209361,-3.858561 -6.686118 0.8122346,-4.09019 -5.930561 0.9122196,-4.209096 -5.480232 0.9749066,-4.297724 -5.074214 1.0234,-3.611401 -6.467168 0.8721102,-3.801488 -5.617902 0.9127983,-3.920168 -5.095205 0.9922759,-4.014487 -4.650123 1.063819,-3.361498 -6.420991 0.9805657,-3.49069 -5.589447 1.056438,-3.583897 -5.074673 1.152282,-3.677708 -4.644887 1.231152,-3.085808 -6.534339 1.112158,-3.123165 -5.861505 1.191569,-3.17767 -5.444456 1.286188,-3.247132 -5.068902 1.360733,-8.758697 -9.002661 1.860831,-7.968691 -8.492514 1.704438,-7.488643 -7.817435 1.654135,-7.18189 -7.146515 1.685134,-6.915413 -6.667815 1.714787,-7.626226 -6.436508 1.461322,-7.385136 -5.49901 1.377706,-7.254507 -5.007839 1.34657,-7.136384 -4.570739 1.339141,-7.873275 -6.248627 1.601971,-7.639317 -5.214939 1.435312,-7.511992 -4.656808 1.404889,-7.374825 -4.159902 1.390667,-8.124022 -6.242723 1.757031,-7.938912 -5.29171 1.658431,-7.849184 -4.721306 1.639465,-7.716578 -4.225883 1.611932,-8.394417 -6.420049 1.912979,-8.325468 -5.662783 1.822996,-8.287772 -5.184005 1.766679,-8.199427 -4.762613 1.750796,2.210,
-3.093612 -8.42572 0.6945164,-3.609473 -8.224018 0.835336,-4.030177 -7.766908 0.8963014,-4.292591 -7.233094 0.9942714,-4.501908 -6.789598 1.09728,-3.867262 -6.620697 0.6880158,-4.115913 -5.867975 0.7815866,-4.23369 -5.42193 0.8393065,-4.310096 -5.013612 0.8858899,-3.626112 -6.407468 0.7308584,-3.830597 -5.558275 0.783711,-3.939078 -5.045838 0.8662576,-4.010496 -4.601991 0.9306203,-3.379923 -6.363733 0.8238472,-3.515913 -5.536899 0.9035124,-3.612074 -5.029055 1.006626,-3.697577 -4.587762 1.090664,-3.106951 -6.476889 0.9386172,-3.150103 -5.806848 1.026548,-3.207191 -5.402793 1.125177,-3.27067 -5.032917 1.201159,-8.554097 -8.637508 0.5988872,-7.869705 -8.289482 0.5274323,-7.408467 -7.691421 0.5497701,-7.140751 -7.050455 0.6353363,-6.934719 -6.589822 0.7085797,-7.591421 -6.384308 0.4059018,-7.378574 -5.525388 0.425247,-7.262545 -5.090502 0.4459938,-7.16063 -4.685219 0.4513865,-7.844837 -6.194959 0.5459911,-7.623821 -5.165486 0.5241976,-7.524296 -4.60325 0.5870448,-7.433626 -4.076444 0.619696,-8.100636 -6.180957 0.7008281,-7.938197 -5.250318 0.7269382,-7.868856 -4.689752 0.7979606,-7.772684 -4.191944 0.8497055,-8.377883 -6.328751 0.8562092,-8.332702 -5.623966 0.8849339,-8.295143 -5.164455 0.9468757,-8.225011 -4.747119 1.000745,2.310,
-3.123524 -8.412027 0.6813152,-3.636061 -8.229486 0.8080521,-4.06067 -7.756635 0.8413937,-4.316717 -7.211772 0.9166104,-4.527072 -6.788454 0.9939587,-3.902287 -6.614675 0.6035708,-4.136783 -5.874084 0.6844404,-4.252565 -5.429368 0.7393883,-4.329737 -5.028292 0.7853385,-3.662346 -6.399282 0.6487128,-3.854655 -5.556179 0.6776678,-3.961142 -5.040296 0.7510362,-4.032963 -4.600602 0.8106989,-3.416138 -6.350947 0.7486084,-3.547141 -5.53267 0.814248,-3.639029 -5.025123 0.9115232,-3.722019 -4.590415 0.9897173,-3.142898 -6.45487 0.8762071,-3.18688 -5.795818 0.9499674,-3.243481 -5.396698 1.043165,-3.306326 -5.029923 1.116295,-8.458151 -8.625492 0.4722892,-7.850984 -8.32967 0.3647363,-7.40586 -7.67176 0.3833627,-7.145608 -7.041664 0.476479,-6.90294 -6.620621 0.5836234,-7.59791 -6.381752 0.2560269,-7.418591 -5.516717 0.2681985,-7.311983 -5.043392 0.3079162,-7.217146 -4.6317 0.3405564,-7.844917 -6.194231 0.43183,-7.654546 -5.173501 0.4222696,-7.551746 -4.58036 0.5057452,-7.459404 -4.060977 0.5592101,-8.097308 -6.18048 0.6179254,-7.96193 -5.236283 0.655075,-7.888617 -4.663701 0.742114,-7.798661 -4.169275 0.8086228,-8.368114 -6.335481 0.8003519,-8.349735 -5.608789 0.861725,-8.327872 -5.155593 0.9307473,-8.274592 -4.733909 0.9791715,2.410,
-3.13341 -8.338467 0.5583277,-3.631491 -8.16506 0.737169,-4.04408 -7.711565 0.8112468,-4.297527 -7.171264 0.9154533,-4.516897 -6.734451 1.024803,-3.911345 -6.571199 0.5666685,-4.15325 -5.833522 0.6546206,-4.269878 -5.393157 0.7254592,-4.345049 -4.994606 0.780568,-3.675735 -6.362962 0.5860227,-3.880854 -5.528089 0.6280001,-3.990072 -5.024059 0.7094988,-4.054453 -4.594673 0.7727485,-3.431355 -6.320751 0.6639419,-3.567255 -5.515216 0.7348717,-3.671034 -5.021249 0.8421295,-3.756493 -4.590503 0.9274278,-3.154721 -6.430743 0.7696118,-3.206835 -5.782112 0.8460717,-3.268898 -5.39808 0.9396238,-3.328478 -5.04886 1.010194,-8.388286 -8.577639 0.1796683,-7.819792 -8.291985 0.1846448,-7.394989 -7.660789 0.2441499,-7.159231 -7.057817 0.3647622,-6.936539 -6.650521 0.4982253,-7.599687 -6.392174 0.1008606,-7.435951 -5.540044 0.1722483,-7.333999 -5.035657 0.2658668,-7.243258 -4.598949 0.3400042,-7.848146 -6.215022 0.2320478,-7.685516 -5.219898 0.2678376,-7.584527 -4.607411 0.4011224,-7.494638 -4.058601 0.5035789,-8.100182 -6.221706 0.3839836,-7.988908 -5.286182 0.4490122,-7.910731 -4.715227 0.5652784,-7.821338 -4.222009 0.6608486,-8.368898 -6.388931 0.5333265,-8.36744 -5.658966 0.6299328,-8.342424 -5.20753 0.716777,-8.288965 -4.788733 0.7711034,2.510,
-3.120668 -8.280537 0.5533746,-3.620056 -8.097982 0.7412322,-4.028679 -7.641682 0.8196211,-4.279985 -7.083371 0.9239956,-4.485567 -6.630802 1.030374,-3.895718 -6.518007 0.5654228,-4.126791 -5.773096 0.6541879,-4.236797 -5.333212 0.7369242,-4.307224 -4.931602 0.8037441,-3.659429 -6.305446 0.5776076,-3.856606 -5.469005 0.6163527,-3.966743 -4.965536 0.7013349,-4.030988 -4.536615 0.7712581,-3.414869 -6.260403 0.6474163,-3.546833 -5.459094 0.7135736,-3.65066 -4.973331 0.8134661,-3.73411 -4.544721 0.8979846,-3.138893 -6.36818 0.7495638,-3.18955 -5.726413 0.8268477,-3.252563 -5.350005 0.9163687,-3.311991 -5.006525 0.9854089,-8.384105 -8.516985 0.06535092,-7.822264 -8.241968 0.04929414,-7.40581 -7.601163 0.1144381,-7.168662 -7.011446 0.2534951,-6.940065 -6.593111 0.4111927,-7.620032 -6.347657 0.006700769,-7.468491 -5.483893 0.09793742,-7.370093 -4.97813 0.1916626,-7.282763 -4.539609 0.2604261,-7.859144 -6.186229 0.1712417,-7.707885 -5.195854 0.2361892,-7.604459 -4.596035 0.3661103,-7.508567 -4.057897 0.4705523,-8.108942 -6.208107 0.3600554,-8.003119 -5.272447 0.4588026,-7.920072 -4.70038 0.5979887,-7.824293 -4.193904 0.7057676,-8.37848 -6.393622 0.5414914,-8.382506 -5.658548 0.6730772,-8.35895 -5.208749 0.7820877,-8.301579 -4.775638 0.8568452,2.610,
-3.099691 -8.181349 0.5166931,-3.596983 -7.976012 0.705499,-4.005577 -7.523246 0.7968627,-4.257668 -6.967123 0.9183458,-4.45289 -6.500261 1.044198,-3.863205 -6.416439 0.5315262,-4.091322 -5.671329 0.628493,-4.205546 -5.238601 0.7097001,-4.280615 -4.843061 0.7766459,-3.624241 -6.213638 0.5603685,-3.813702 -5.374277 0.6032231,-3.926325 -4.86728 0.6944551,-3.992161 -4.433002 0.7740073,-3.375968 -6.17815 0.6454133,-3.500696 -5.375509 0.7178735,-3.609137 -4.880592 0.8261706,-3.693274 -4.444967 0.917961,-3.098635 -6.296297 0.7641787,-3.136962 -5.653764 0.8501711,-3.196694 -5.267204 0.9468474,-3.252041 -4.910474 1.026755,-8.346698 -8.399393 -0.1165386,-7.801161 -8.159525 -0.080832,-7.402417 -7.526254 -0.0147463,-7.174947 -6.935981 0.1147639,-6.940301 -6.521236 0.261906,-7.635888 -6.269959 -0.2235231,-7.487368 -5.419563 -0.1665187,-7.39286 -4.898433 -0.07322441,-7.307398 -4.450811 -0.002594337,-7.873829 -6.108251 -0.1028177,-7.731206 -5.129994 -0.0863065,-7.633531 -4.533552 0.03680407,-7.544125 -4.012554 0.136572,-8.117146 -6.126424 0.05162536,-8.018927 -5.207103 0.1067131,-7.937342 -4.635255 0.232181,-7.847345 -4.139397 0.3308599,-8.381577 -6.295852 0.2039556,-8.393678 -5.561903 0.3122734,-8.378833 -5.097946 0.4149638,-8.337113 -4.657259 0.4795477,2.710,
-3.084536 -8.128717 0.4628684,-3.580786 -7.941703 0.6724155,-3.990503 -7.485516 0.7659537,-4.246477 -6.927138 0.8832346,-4.445934 -6.445358 1.002087,-3.855967 -6.384716 0.4808481,-4.08621 -5.631763 0.5749043,-4.198029 -5.187732 0.6597352,-4.267195 -4.780086 0.7298366,-3.617972 -6.179113 0.4942387,-3.81161 -5.337806 0.5315213,-3.917879 -4.829608 0.6150526,-3.974102 -4.394985 0.6820073,-3.370167 -6.128718 0.568083,-3.498282 -5.323259 0.6362119,-3.602047 -4.823689 0.7430987,-3.681509 -4.378288 0.8350502,-3.092656 -6.222902 0.6768789,-3.144348 -5.574887 0.7592094,-3.206995 -5.190624 0.8529182,-3.26215 -4.834476 0.9302511,-8.35218 -8.302959 -0.2148473,-7.805403 -8.069187 -0.2213692,-7.409866 -7.428977 -0.1843416,-7.18286 -6.837101 -0.0773053,-6.956973 -6.415184 0.04295257,-7.665046 -6.199943 -0.3856552,-7.515226 -5.369985 -0.349049,-7.408431 -4.860839 -0.2637317,-7.312865 -4.419494 -0.1898184,-7.90205 -6.036132 -0.2514969,-7.748597 -5.05763 -0.2529976,-7.628815 -4.461706 -0.1382152,-7.52249 -3.948326 -0.04659393,-8.143461 -6.04845 -0.08536988,-8.04001 -5.12528 -0.05652547,-7.947641 -4.560987 0.05289164,-7.844943 -4.068143 0.1388282,-8.403259 -6.205904 0.0774014,-8.411477 -5.469757 0.1807269,-8.384628 -5.002269 0.2820741,-8.327404 -4.564208 0.3416978,2.810,
-3.111248 -8.058136 0.4160572,-3.603403 -7.865343 0.6203486,-4.006504 -7.421888 0.710416,-4.250456 -6.859701 0.8266853,-4.436363 -6.370296 0.9442151,-3.875254 -6.323686 0.4148156,-4.098139 -5.583383 0.5167149,-4.207705 -5.144069 0.6108551,-4.279869 -4.739353 0.68893,-3.634398 -6.119403 0.4285586,-3.81523 -5.296813 0.4605511,-3.918253 -4.798547 0.5492102,-3.981239 -4.375038 0.6229721,-3.385065 -6.080688 0.5030154,-3.505103 -5.290601 0.5661607,-3.601849 -4.805912 0.6728633,-3.68372 -4.385268 0.7635134,-3.107437 -6.188028 0.6129064,-3.147043 -5.554664 0.6975881,-3.203505 -5.174802 0.7958909,-3.261123 -4.820568 0.8755202,-8.364435 -8.20406 -0.2566136,-7.808825 -7.959527 -0.2378217,-7.417569 -7.341363 -0.2039728,-7.192801 -6.754566 -0.1015034,-6.966928 -6.35318 0.01126763,-7.671908 -6.118173 -0.443366,-7.523477 -5.297335 -0.4144273,-7.421738 -4.795743 -0.3310551,-7.33338 -4.366248 -0.2630461,-7.910758 -5.950873 -0.3249297,-7.771983 -4.983686 -0.3402699,-7.664337 -4.388105 -0.2216446,-7.570376 -3.884262 -0.1275653,-8.155376 -5.957752 -0.1731393,-8.054955 -5.044433 -0.1599351,-7.964599 -4.482157 -0.04663768,-7.871603 -4.011262 0.04941913,-8.41983 -6.110883 -0.01806113,-8.439816 -5.381502 0.07241458,-8.424882 -4.916349 0.1784937,-8.382128 -4.493133 0.2452223,2.910,
-3.120374 -8.050205 0.3135574,-3.61613 -7.857883 0.535442,-4.021877 -7.430227 0.6458797,-4.265144 -6.879388 0.7774315,-4.450109 -6.393901 0.906958,-3.886549 -6.335584 0.3382289,-4.102896 -5.598427 0.4493391,-4.208599 -5.15553 0.5521448,-4.283444 -4.743473 0.6395535,-3.642624 -6.141781 0.3456318,-3.819296 -5.332295 0.3919458,-3.917355 -4.840139 0.4990941,-3.979059 -4.409505 0.5921043,-3.393612 -6.106117 0.4098359,-3.511341 -5.33073 0.4809256,-3.608383 -4.85733 0.6026989,-3.68997 -4.441164 0.703756,-3.120512 -6.211614 0.5089749,-3.157269 -5.586795 0.5995314,-3.215696 -5.213613 0.7059416,-3.27536 -4.864452 0.7902678,-8.358624 -8.201206 -0.2189334,-7.811392 -7.933162 -0.2293454,-7.433144 -7.298559 -0.2086979,-7.216233 -6.714265 -0.1127765,-6.986036 -6.329665 -0.004965633,-7.69593 -6.091581 -0.4303079,-7.555079 -5.25342 -0.394028,-7.453338 -4.743266 -0.2951163,-7.361866 -4.301427 -0.2119617,-7.931007 -5.932138 -0.2925137,-7.79766 -4.965468 -0.2921346,-7.684248 -4.363668 -0.1535337,-7.584305 -3.853071 -0.04673216,-8.172628 -5.941685 -0.1247179,-8.072192 -5.027994 -0.09867243,-7.976057 -4.456834 0.02856959,-7.874819 -3.97885 0.1290465,-8.433269 -6.102451 0.04287985,-8.443181 -5.368335 0.1440026,-8.422057 -4.8957 0.2531033,-8.371835 -4.464423 0.3183604,3.010,
-3.153099 -8.171019 0.1871745,-3.637133 -8.015078 0.4001951,-4.030519 -7.571966 0.4879906,-4.251274 -7.015996 0.5976663,-4.431955 -6.530057 0.7089612,-3.915179 -6.491046 0.1979447,-4.132132 -5.779447 0.3093991,-4.248853 -5.337144 0.4224563,-4.334585 -4.909326 0.5221006,-3.668255 -6.297937 0.208763,-3.839479 -5.525433 0.2679272,-3.944838 -5.054702 0.380587,-4.010777 -4.65425 0.4736333,-3.418566 -6.258058 0.2762889,-3.532121 -5.513288 0.3573823,-3.629767 -5.053835 0.4933459,-3.713196 -4.669596 0.6010628,-3.146906 -6.358446 0.375904,-3.191466 -5.756524 0.4769343,-3.254044 -5.389875 0.593518,-3.320385 -5.055581 0.6831473,-8.366782 -8.239332 -0.2269398,-7.820594 -7.975363 -0.1974073,-7.438021 -7.339378 -0.1595023,-7.228563 -6.738979 -0.05618721,-7.007326 -6.321754 0.06322804,-7.708111 -6.134707 -0.418557,-7.555079 -5.309827 -0.3812019,-7.446439 -4.81808 -0.2844888,-7.353187 -4.385019 -0.2103014,-7.950752 -5.970409 -0.3006084,-7.811584 -5.000459 -0.3104656,-7.704366 -4.394536 -0.1776487,-7.612422 -3.889328 -0.07461008,-8.197115 -5.981345 -0.1475147,-8.089375 -5.062268 -0.1267093,-7.997572 -4.477428 -0.002541304,-7.902135 -3.997864 0.1052218,-8.463283 -6.143937 0.0124411,-8.46681 -5.403596 0.105426,-8.444011 -4.932438 0.2167948,-8.392486 -4.509509 0.2907348,3.110,
-3.163136 -8.242329 0.1093766,-3.637692 -8.098904 0.3169042,-4.024474 -7.639594 0.4019702,-4.23793 -7.06502 0.5109938,-4.414291 -6.560745 0.6159851,-3.923191 -6.574747 0.07031289,-4.123795 -5.866119 0.172864,-4.240361 -5.432207 0.3047065,-4.333055 -5.007973 0.4153738,-3.67485 -6.391412 0.08146641,-3.832385 -5.642442 0.1208915,-3.935885 -5.204273 0.2417358,-4.009434 -4.831849 0.3435102,-3.421702 -6.348977 0.1473718,-3.524711 -5.62266 0.2076825,-3.622766 -5.18782 0.3454146,-3.714387 -4.829094 0.4573888,-3.146749 -6.43145 0.2527656,-3.194704 -5.837405 0.3312377,-3.259361 -5.476387 0.4419943,-3.331772 -5.142564 0.5349598,-8.373057 -8.254433 -0.2260812,-7.821283 -8.007851 -0.2244068,-7.449101 -7.350605 -0.1926609,-7.246413 -6.749918 -0.08987802,-7.014847 -6.339017 0.02765507,-7.718791 -6.1387 -0.4172657,-7.576471 -5.285769 -0.3644403,-7.46344 -4.776689 -0.2544439,-7.366524 -4.343006 -0.1742881,-7.957533 -5.984541 -0.2758166,-7.827888 -4.991943 -0.2647224,-7.713499 -4.373573 -0.1243747,-7.615457 -3.858407 -0.01885743,-8.205414 -6.003631 -0.1034963,-8.105162 -5.059525 -0.06771925,-8.006478 -4.464384 0.05713105,-7.906085 -3.974013 0.1608159,-8.475533 -6.172933 0.06968686,-8.4867 -5.401987 0.1823838,-8.464756 -4.90547 0.2962219,-8.415798 -4.456954 0.3676602,3.210,
-3.174902 -8.312994 0.04133936,-3.648926 -8.191631 0.2964278,-4.011258 -7.699932 0.3888057,-4.18438 -7.098083 0.5093178,-4.343248 -6.559939 0.6323527,-3.93858 -6.650804 -0.08940904,-4.129259 -5.966248 -0.04569602,-4.242146 -5.546852 0.06813948,-4.33109 -5.125097 0.1901286,-3.674261 -6.48353 -0.09290224,-3.822756 -5.810515 -0.04398183,-3.892154 -5.475158 0.1353746,-3.931487 -5.24562 0.2690179,-3.414551 -6.443882 -0.03726632,-3.51193 -5.791423 0.04175378,-3.579324 -5.440471 0.2702899,-3.642134 -5.235981 0.4366307,-3.139233 -6.496021 0.0627086,-3.201518 -5.959453 0.1554599,-3.266443 -5.651515 0.295314,-3.331953 -5.415267 0.4152909,-8.414273 -8.304039 -0.05708442,-7.876205 -8.058029 -0.03010694,-7.500707 -7.381703 0.01536972,-7.294099 -6.766609 0.1277912,-7.065348 -6.342507 0.257313,-7.764553 -6.144413 -0.2376211,-7.613614 -5.303378 -0.1653445,-7.497519 -4.800878 -0.04432071,-7.396902 -4.365013 0.03694968,-8.009094 -5.983171 -0.1034387,-7.875979 -4.995181 -0.08325995,-7.760148 -4.373315 0.05915532,-7.659288 -3.857345 0.1562409,-8.260592 -5.999654 0.06831339,-8.159361 -5.050783 0.1063947,-8.062212 -4.454622 0.233114,-7.959054 -3.966199 0.3334096,-8.532739 -6.173457 0.2414463,-8.532479 -5.394353 0.3558497,-8.503964 -4.894554 0.4684812,-8.446668 -4.439714 0.5356016,3.310,
-3.186272 -8.31027 -0.09973084,-3.638189 -8.224072 0.1884924,-3.991993 -7.700597 0.3373283,-4.149937 -7.083063 0.4984986,-4.288208 -6.507466 0.6392069,-3.958586 -6.699592 -0.1482373,-4.153482 -6.005629 -0.05858389,-4.279814 -5.529342 0.1019887,-4.367971 -5.135646 0.2565557,-3.698088 -6.521263 -0.1122665,-3.850821 -5.745043 0.1762253,-3.913893 -5.617361 0.5364273,-3.886469 -5.794273 0.7442434,-3.441315 -6.468193 -0.03255528,-3.548948 -5.722342 0.2186351,-3.609676 -5.613035 0.6007344,-3.609182 -5.810772 0.8362787,-3.157871 -6.515116 0.09244037,-3.223452 -5.92671 0.3106614,-3.320516 -5.803768 0.5830666,-3.367302 -5.958262 0.7913746,-8.452421 -8.329226 -0.02654411,-7.898936 -8.094 0.01052275,-7.516284 -7.413108 0.05934496,-7.308949 -6.788311 0.1821112,-7.06597 -6.354436 0.3190771,-7.777717 -6.171072 -0.1949288,-7.627672 -5.327477 -0.1219934,-7.512584 -4.814527 0.0009451807,-7.41555 -4.362968 0.08824931,-8.030919 -6.002164 -0.06082613,-7.900245 -5.004209 -0.04125785,-7.782525 -4.369434 0.1127138,-7.6789 -3.844137 0.2222371,-8.291015 -6.008989 0.1116469,-8.189063 -5.052876 0.1491111,-8.090002 -4.447337 0.286043,-7.982626 -3.956094 0.3963357,-8.571663 -6.175323 0.28721,-8.57479 -5.39005 0.4057894,-8.546247 -4.877647 0.5283699,-8.487464 -4.417225 0.6030902,3.410,
-3.197009 -8.277237 -0.4115199,-3.640453 -8.214806 -0.1249128,-3.995605 -7.687863 0.03353515,-4.158566 -7.091625 0.1966045,-4.298599 -6.546854 0.3395523,-3.980617 -6.741736 -0.4687508,-4.166782 -6.066595 -0.3498279,-4.303738 -5.589571 -0.1757702,-4.41573 -5.134042 -0.01703599,-3.724344 -6.586131 -0.4480032,-3.845252 -5.781305 -0.09273294,-3.89852 -5.862056 0.2295807,-3.880033 -6.125707 0.3603481,-3.469608 -6.538197 -0.3743967,-3.560987 -5.744676 -0.04882634,-3.639172 -5.918426 0.2497193,-3.647106 -6.24418 0.3601559,-3.18749 -6.577287 -0.2650328,-3.286244 -5.980407 0.01494074,-3.366218 -6.094548 0.2407171,-3.369615 -6.396356 0.3642008,-8.468061 -8.384764 0.09856699,-7.929608 -8.129263 0.1678098,-7.550846 -7.433141 0.2302285,-7.347052 -6.800235 0.3606924,-7.089396 -6.360872 0.5111809,-7.820578 -6.178295 -0.03816354,-7.663942 -5.333586 0.05598101,-7.545959 -4.816192 0.183802,-7.445206 -4.354393 0.2779696,-8.076488 -6.015983 0.093244,-7.937324 -5.022283 0.1423209,-7.809184 -4.391924 0.3126599,-7.693007 -3.865844 0.4359636,-8.336471 -6.033849 0.2673871,-8.233414 -5.074964 0.3374085,-8.130674 -4.46881 0.4918497,-8.015603 -3.97668 0.6152129,-8.617966 -6.213169 0.4465168,-8.608007 -5.435884 0.5907196,-8.569974 -4.929111 0.7235161,-8.499379 -4.465324 0.8063176,3.510,
-3.220808 -8.307217 -0.5406447,-3.653341 -8.225348 -0.2884713,-4.004669 -7.684824 -0.1457918,-4.173991 -7.077589 0.01711351,-4.295373 -6.519639 0.1396307,-3.989212 -6.806377 -0.6250913,-4.163584 -6.109819 -0.511022,-4.30014 -5.601647 -0.3472579,-4.422186 -5.114677 -0.196668,-3.738911 -6.652114 -0.5863436,-3.843941 -5.826108 -0.2207824,-3.901975 -6.005268 0.05922973,-3.899783 -6.328295 0.1439046,-3.480135 -6.599888 -0.4933035,-3.555874 -5.796614 -0.1619437,-3.638687 -6.100016 0.09094882,-3.65266 -6.505828 0.1498345,-3.188955 -6.623586 -0.3677872,-3.28236 -6.024862 -0.0948087,-3.373208 -6.209532 0.1002541,-3.390984 -6.564847 0.1925891,-8.47693 -8.3825 0.1205547,-7.94384 -8.122635 0.2376995,-7.561334 -7.432703 0.3289637,-7.35736 -6.794333 0.4741694,-7.109825 -6.33992 0.6316776,-7.838537 -6.172023 0.07196935,-7.679719 -5.320934 0.1863921,-7.56292 -4.809675 0.3203775,-7.463999 -4.354443 0.4166183,-8.096702 -6.006153 0.1774635,-7.955403 -5.016805 0.2473521,-7.831926 -4.388514 0.4164501,-7.721283 -3.863442 0.5374398,-8.35893 -6.023111 0.3269962,-8.258065 -5.067039 0.4094942,-8.156699 -4.468479 0.5664686,-8.04491 -3.983289 0.6889226,-8.642415 -6.200768 0.485007,-8.63425 -5.433488 0.6313928,-8.601463 -4.935951 0.7608188,-8.538485 -4.473396 0.842924,3.610,
-3.207808 -8.280306 -0.6906011,-3.63545 -8.231054 -0.4107672,-3.986279 -7.694522 -0.2711475,-4.165173 -7.096666 -0.1116456,-4.291218 -6.545014 0.002066791,-3.97165 -6.827316 -0.7883513,-4.1499 -6.118534 -0.679221,-4.289041 -5.592081 -0.5183982,-4.406079 -5.101394 -0.3681842,-3.726944 -6.671913 -0.7729272,-3.838488 -5.849203 -0.4064521,-3.888408 -6.07017 -0.1362877,-3.875515 -6.422477 -0.0675447,-3.47098 -6.619752 -0.698562,-3.552719 -5.818563 -0.3500516,-3.627718 -6.173122 -0.09419203,-3.632594 -6.599144 -0.04557294,-3.184171 -6.63219 -0.5917663,-3.289063 -6.060637 -0.2946285,-3.376209 -6.273537 -0.09286755,-3.380641 -6.63433 -0.005537987,-8.550878 -8.433319 0.1868671,-7.999344 -8.140259 0.2443712,-7.633037 -7.407541 0.285366,-7.440203 -6.73456 0.4046786,-7.201365 -6.236345 0.5243324,-7.899487 -6.186838 -0.08386025,-7.749557 -5.375246 -0.04240629,-7.638823 -4.895986 0.04510726,-7.532567 -4.444074 0.09724274,-8.178381 -6.0414 0.02420165,-8.045832 -5.15258 -0.0002150685,-7.910591 -4.646591 0.1453277,-7.782519 -4.237516 0.2408827,-8.436129 -6.041814 0.1745981,-8.365145 -5.155837 0.1760175,-8.266113 -4.657081 0.2911004,-8.151232 -4.265939 0.3835782,-8.701661 -6.191097 0.337908,-8.69163 -5.458131 0.4185243,-8.632538 -5.015196 0.5041052,-8.535377 -4.612047 0.5594738,3.710,
-3.190756 -8.256279 -0.7562274,-3.631965 -8.20717 -0.4482729,-3.976807 -7.697643 -0.2973791,-4.153931 -7.098332 -0.1379049,-4.274585 -6.553421 -0.01983309,-3.962934 -6.818058 -0.7990727,-4.137207 -6.11441 -0.6622625,-4.275141 -5.582527 -0.4839007,-4.390888 -5.067661 -0.3275858,-3.711119 -6.666305 -0.7921556,-3.8076 -5.857805 -0.3933434,-3.847473 -6.109478 -0.1289403,-3.832642 -6.444309 -0.06569868,-3.451899 -6.616207 -0.7230398,-3.519527 -5.858457 -0.3299133,-3.585875 -6.290174 -0.0925442,-3.586017 -6.729505 -0.07060969,-3.166611 -6.632869 -0.6193886,-3.25405 -6.086608 -0.2943798,-3.343084 -6.336531 -0.1009183,-3.353533 -6.695848 -0.03219533,-8.579098 -8.450838 -0.2038965,-8.074658 -8.121769 0.01266371,-7.730483 -7.444499 0.179068,-7.564269 -6.757596 0.3850583,-7.411836 -6.104023 0.5363125,-7.909158 -6.310817 -0.3412948,-7.777246 -5.464693 -0.2798276,-7.656218 -4.933987 -0.1720433,-7.55179 -4.468378 -0.06837182,-8.191111 -6.169652 -0.2543091,-8.120419 -5.142999 -0.01311632,-8.059189 -5.372325 0.2862142,-8.087587 -5.777214 0.4474096,-8.467518 -6.168865 -0.1324223,-8.408587 -5.188016 0.1385088,-8.345572 -5.401186 0.3963549,-8.378163 -5.833751 0.5198634,-8.772218 -6.290527 0.002587795,-8.738723 -5.46406 0.2391946,-8.638248 -5.465431 0.4025293,-8.604168 -5.776623 0.4949117,3.810,
-3.204379 -8.263443 -0.6452841,-3.622818 -8.201599 -0.3810641,-3.962978 -7.678081 -0.2351222,-4.140909 -7.083421 -0.0651809,-4.25872 -6.555589 0.07370031,-3.946558 -6.776046 -0.6900599,-4.110912 -6.08667 -0.5356867,-4.252058 -5.565994 -0.3504944,-4.370699 -5.066011 -0.1901712,-3.699379 -6.63187 -0.6515847,-3.790775 -5.821907 -0.2417525,-3.835554 -6.159931 -0.008183479,-3.822472 -6.54622 0.03214329,-3.438395 -6.599713 -0.5518629,-3.504824 -5.831015 -0.1660399,-3.581161 -6.318744 0.01474291,-3.58523 -6.762058 0.001999259,-3.147251 -6.646997 -0.4180191,-3.230894 -6.089975 -0.09996134,-3.321488 -6.387446 0.0572716,-3.334067 -6.752782 0.1003816,-8.618187 -8.480583 -0.2253463,-8.115393 -8.16371 0.01847373,-7.755107 -7.479263 0.1891748,-7.601125 -6.766248 0.3998483,-7.552875 -6.146902 0.5599576,-7.939691 -6.358028 -0.4214397,-7.805167 -5.543931 -0.2526057,-7.660233 -5.10696 -0.06929195,-7.545865 -4.709951 0.08237228,-8.198965 -6.213157 -0.3353861,-8.071405 -5.247697 0.01981008,-7.988504 -5.887737 0.3204201,-8.040837 -6.446203 0.4267604,-8.473319 -6.196884 -0.1922525,-8.364845 -5.24529 0.1741195,-8.267135 -5.841963 0.4061527,-8.323069 -6.421819 0.4526662,-8.784 -6.286488 -0.03272896,-8.722013 -5.48053 0.262383,-8.600655 -5.669375 0.402877,-8.595587 -6.093351 0.4348247,3.910,
-3.181789 -8.250782 -0.7631262,-3.60874 -8.198982 -0.4740197,-3.947851 -7.686285 -0.3260569,-4.125502 -7.076221 -0.1732314,-4.251719 -6.530923 -0.05574441,-3.931154 -6.807502 -0.7830023,-4.102706 -6.114851 -0.640088,-4.238557 -5.584941 -0.463742,-4.349373 -5.065628 -0.3048285,-3.679436 -6.655265 -0.7720334,-3.765768 -5.857958 -0.3850555,-3.793029 -6.191192 -0.1623592,-3.774644 -6.554792 -0.1198657,-3.41797 -6.619654 -0.6997288,-3.485216 -5.880874 -0.3249183,-3.542452 -6.37598 -0.145305,-3.537224 -6.807672 -0.1516321,-3.130367 -6.663517 -0.5985566,-3.2187 -6.115224 -0.2925458,-3.305532 -6.40562 -0.1386396,-3.31719 -6.759525 -0.09531724,-8.627844 -8.50811 -0.2294466,-8.121363 -8.175531 0.1208703,-7.764456 -7.505398 0.3427252,-7.628753 -6.781929 0.5870703,-7.637936 -6.158067 0.7874061,-7.923234 -6.385217 -0.283865,-7.78333 -5.606914 -0.04732645,-7.648491 -5.209812 0.167568,-7.538821 -4.826849 0.3175468,-8.190578 -6.242656 -0.2426981,-8.062838 -5.433185 0.227446,-8.011441 -6.20669 0.5301514,-8.070351 -6.761358 0.5802238,-8.476522 -6.228754 -0.1280494,-8.37707 -5.409003 0.3447612,-8.305835 -6.132892 0.578796,-8.358673 -6.700304 0.5644432,-8.800135 -6.327585 0.00751926,-8.752932 -5.584869 0.3616843,-8.639421 -5.901063 0.5055289,-8.628755 -6.345889 0.4893252,4.010,
-3.136492 -8.226757 -0.7693662,-3.557748 -8.172455 -0.46703,-3.908799 -7.675231 -0.2882884,-4.092337 -7.087495 -0.09438801,-4.203968 -6.547817 0.07288295,-3.876047 -6.76756 -0.7115405,-4.050096 -6.052786 -0.5266088,-4.18931 -5.515909 -0.3174214,-4.294601 -5.009241 -0.1360195,-3.626097 -6.632913 -0.6835763,-3.720877 -5.792504 -0.2412851,-3.75253 -6.2028 -0.008368611,-3.723959 -6.643716 0.02868503,-3.359167 -6.617689 -0.5969157,-3.43272 -5.847675 -0.1694305,-3.476158 -6.457855 0.008855879,-3.454129 -6.944265 -0.00677079,-3.06658 -6.686454 -0.4828673,-3.159237 -6.146828 -0.1206344,-3.221125 -6.556391 0.01931262,-3.214446 -6.946163 0.04534274,-8.609932 -8.414093 -0.9340135,-8.161427 -8.107555 -0.5442775,-7.849115 -7.486142 -0.316977,-7.777071 -6.813186 -0.08186209,-7.89624 -6.326076 0.09228611,-7.986593 -6.480141 -0.8869724,-7.827959 -5.725698 -0.5877056,-7.701249 -5.355711 -0.341455,-7.602444 -4.993047 -0.1863077,-8.251085 -6.339962 -0.8653182,-8.122661 -5.579984 -0.3001988,-8.107929 -6.390012 -0.02553159,-8.170688 -6.973308 -0.03020561,-8.546865 -6.324071 -0.7492185,-8.455892 -5.560281 -0.2465544,-8.415526 -6.320104 -0.06357038,-8.454562 -6.85852 -0.1277586,-8.882624 -6.433431 -0.6098281,-8.858918 -5.733606 -0.2534376,-8.758868 -6.1081 -0.1393479,-8.733893 -6.530725 -0.1793581,4.110,
-3.131315 -8.221069 -0.7850159,-3.543786 -8.169142 -0.4818006,-3.886988 -7.664423 -0.3016133,-4.070293 -7.069165 -0.1106523,-4.182073 -6.532871 0.03459543,-3.869291 -6.754106 -0.745311,-4.045034 -6.045707 -0.5531511,-4.180857 -5.507698 -0.3541632,-4.285456 -4.984258 -0.1812217,-3.617023 -6.629806 -0.7190939,-3.709983 -5.816703 -0.2769118,-3.72225 -6.238238 -0.07783175,-3.688816 -6.642622 -0.06108499,-3.347092 -6.621234 -0.6272323,-3.417431 -5.929817 -0.1790829,-3.433811 -6.587116 -0.04821646,-3.401849 -7.035593 -0.09137976,-3.055727 -6.693086 -0.5129825,-3.152666 -6.20189 -0.1436456,-3.191557 -6.665756 -0.0399847,-3.171728 -7.022689 -0.03937155,-8.613895 -8.25272 -1.305843,-8.180919 -8.042492 -0.8768117,-7.863271 -7.459692 -0.6425923,-7.789054 -6.775024 -0.4237552,-7.907485 -6.283363 -0.2837808,-8.012279 -6.433925 -1.182414,-7.87102 -5.729726 -0.7786883,-7.748873 -5.383921 -0.4702138,-7.63326 -5.041219 -0.2885431,-8.284205 -6.283861 -1.186768,-8.18186 -5.563005 -0.5886096,-8.164415 -6.341545 -0.3371027,-8.211015 -6.854651 -0.3768442,-8.581938 -6.290659 -1.08,-8.509178 -5.585814 -0.5421439,-8.465882 -6.344135 -0.4195659,-8.499627 -6.819842 -0.5361774,-8.914639 -6.442174 -0.9463976,-8.906378 -5.780654 -0.575008,-8.805418 -6.157367 -0.5105429,-8.781015 -6.536991 -0.5985856,4.210,
-3.130449 -8.226906 -0.7927141,-3.542601 -8.175404 -0.4911961,-3.888618 -7.667318 -0.3132565,-4.07563 -7.074848 -0.1238657,-4.184592 -6.539629 0.02330428,-3.856475 -6.755792 -0.7577379,-4.040768 -6.046371 -0.5558112,-4.185499 -5.494938 -0.341167,-4.297516 -4.958772 -0.154662,-3.605286 -6.63451 -0.730997,-3.702427 -5.837996 -0.2861592,-3.71706 -6.242641 -0.08141029,-3.679606 -6.629625 -0.05631191,-3.335722 -6.621037 -0.6386344,-3.417536 -5.956032 -0.183502,-3.432385 -6.610654 -0.05425686,-3.389704 -7.051622 -0.09661913,-3.043674 -6.679663 -0.5256933,-3.1598 -6.207544 -0.1489021,-3.19421 -6.681509 -0.05083215,-3.159389 -7.032156 -0.05295444,-8.634284 -8.167767 -1.366637,-8.202516 -8.011623 -0.890538,-7.85751 -7.436255 -0.6280538,-7.786325 -6.75616 -0.3918819,-7.953487 -6.317138 -0.2322366,-8.003341 -6.380073 -1.200381,-7.864693 -5.702274 -0.7559227,-7.751846 -5.353902 -0.4076015,-7.640246 -4.993468 -0.2059956,-8.280904 -6.222841 -1.216385,-8.185575 -5.534642 -0.583562,-8.18193 -6.314966 -0.3334811,-8.231 -6.833869 -0.383284,-8.590916 -6.226626 -1.118988,-8.519765 -5.543674 -0.5629014,-8.489253 -6.305685 -0.4555815,-8.523535 -6.788646 -0.5859745,-8.936833 -6.371669 -0.989711,-8.919588 -5.727417 -0.6131489,-8.829743 -6.134229 -0.5682639,-8.811944 -6.535758 -0.6735409,4.310,
-3.101444 -8.235514 -0.8713222,-3.520829 -8.172905 -0.5739131,-3.883938 -7.665138 -0.4084077,-4.071173 -7.076278 -0.2253166,-4.171638 -6.528535 -0.09928882,-3.84252 -6.782907 -0.8537876,-4.011825 -6.072317 -0.6510463,-4.149152 -5.520744 -0.4433098,-4.264652 -4.995214 -0.2687128,-3.592344 -6.67102 -0.8236364,-3.689455 -5.873985 -0.3739536,-3.736437 -6.171036 -0.1502156,-3.726297 -6.514028 -0.1142867,-3.326482 -6.65788 -0.726724,-3.416294 -5.984883 -0.2407829,-3.440443 -6.615222 -0.1032058,-3.404686 -7.079505 -0.1506916,-3.033667 -6.707307 -0.6106617,-3.161606 -6.21491 -0.2007644,-3.207283 -6.679341 -0.08311963,-3.180354 -7.058641 -0.07604855,-8.652566 -8.125406 -1.498248,-8.239859 -8.004814 -1.013006,-7.891068 -7.410917 -0.7523293,-7.809573 -6.719338 -0.5148188,-7.98552 -6.2849 -0.3533673,-8.050488 -6.371282 -1.385833,-7.892992 -5.670198 -0.9774281,-7.775977 -5.30047 -0.6406812,-7.673471 -4.915329 -0.4472523,-8.320829 -6.21145 -1.40201,-8.248754 -5.476058 -0.7686584,-8.254804 -6.263956 -0.5241897,-8.296402 -6.772331 -0.596356,-8.622413 -6.186611 -1.308352,-8.58171 -5.44336 -0.7757653,-8.543296 -6.172201 -0.6693925,-8.563285 -6.623926 -0.8100438,-8.952704 -6.284517 -1.183298,-8.955536 -5.625005 -0.8285818,-8.875295 -6.035362 -0.7748483,-8.858208 -6.42452 -0.8794407,4.410,
-3.084611 -8.328974 -0.8246271,-3.514512 -8.205421 -0.606695,-3.870321 -7.682607 -0.4624056,-4.041927 -7.120501 -0.2785077,-4.158615 -6.579086 -0.1488839,-3.800467 -6.847854 -0.8784804,-3.959544 -6.17748 -0.7008929,-4.091253 -5.633249 -0.5172991,-4.206751 -5.095666 -0.3546937,-3.555693 -6.743875 -0.8050569,-3.672064 -5.969546 -0.4069411,-3.760918 -6.158788 -0.201268,-3.77426 -6.416774 -0.1661646,-3.296057 -6.729309 -0.6682595,-3.404237 -6.038328 -0.2219183,-3.435848 -6.625106 -0.09481907,-3.393591 -7.086589 -0.137771,-3.000592 -6.781263 -0.5131454,-3.142561 -6.245489 -0.1486111,-3.199524 -6.678554 -0.05266976,-3.167647 -7.079765 -0.0473479,-8.717842 -7.988183 -1.474603,-8.300776 -7.947319 -0.9463277,-7.935537 -7.346179 -0.6471124,-7.859942 -6.670194 -0.380849,-8.054314 -6.255517 -0.1810334,-8.092367 -6.252532 -1.236764,-7.93932 -5.59304 -0.8014778,-7.840058 -5.226261 -0.4704407,-7.75489 -4.841583 -0.2811103,-8.385779 -6.079481 -1.239135,-8.316442 -5.423151 -0.568396,-8.314405 -6.169845 -0.3066448,-8.353935 -6.67155 -0.3559138,-8.705667 -6.061125 -1.133304,-8.665787 -5.333755 -0.5788352,-8.616192 -5.993005 -0.4439998,-8.628368 -6.453183 -0.5470903,-9.051496 -6.172075 -0.9943224,-9.067087 -5.532005 -0.6303015,-8.985672 -5.857213 -0.5396271,-8.961674 -6.220194 -0.6092278,4.510,
-3.041427 -8.374371 -0.8077609,-3.482784 -8.228348 -0.620724,-3.847734 -7.705572 -0.5039611,-4.028521 -7.127058 -0.332658,-4.155899 -6.579475 -0.191678,-3.747698 -6.915849 -0.9703302,-3.866241 -6.351982 -0.7328482,-3.914783 -6.065971 -0.4777851,-3.915204 -5.930335 -0.2959735,-3.525404 -6.791371 -0.9113635,-3.631427 -6.047852 -0.558601,-3.723186 -6.091344 -0.2916121,-3.736855 -6.307153 -0.1786686,-3.282384 -6.756888 -0.7821035,-3.38669 -6.081768 -0.3731405,-3.406313 -6.648172 -0.2010227,-3.369327 -7.143034 -0.1970618,-2.992034 -6.796823 -0.6344385,-3.118961 -6.256536 -0.3023323,-3.176168 -6.675292 -0.1645802,-3.166088 -7.079597 -0.1252358,-8.726654 -7.905787 -1.424244,-8.333226 -7.841037 -0.8296436,-7.97218 -7.26375 -0.5266543,-7.908953 -6.581571 -0.2710245,-8.12636 -6.166232 -0.07002264,-8.138511 -6.158391 -1.121484,-7.996343 -5.518888 -0.6526896,-7.907748 -5.148092 -0.2950587,-7.828514 -4.759653 -0.0849846,-8.437609 -5.978965 -1.161385,-8.388274 -5.32315 -0.4468843,-8.37247 -6.110297 -0.1805059,-8.392218 -6.692096 -0.2351915,-8.764791 -5.978218 -1.081689,-8.739634 -5.249868 -0.4359706,-8.691907 -5.961966 -0.2428522,-8.686485 -6.51033 -0.3313808,-9.111076 -6.124174 -0.9685404,-9.161191 -5.486169 -0.5315868,-9.090592 -5.751047 -0.3925496,-9.049902 -6.110898 -0.4332203,4.610,
-3.295111 -8.678055 2.042229,-4.094607 -8.085396 1.780586,-4.534245 -7.183165 1.824506,-4.689772 -6.362594 1.865241,-4.678302 -5.829829 1.957023,-4.335277 -6.387724 2.609004,-4.409937 -5.149306 2.614574,-4.36776 -5.4201 2.444579,-4.333509 -5.908094 2.29952,-3.879635 -6.378278 2.737493,-3.898693 -5.55814 2.629653,-3.868162 -6.120968 2.248415,-3.85681 -6.552302 2.092242,-3.432514 -6.530876 2.816242,-3.516201 -5.934627 2.605668,-3.537516 -6.494319 2.282368,-3.540128 -6.90769 2.221255,-3.015465 -6.760204 2.879488,-3.150013 -6.237493 2.672429,-3.221483 -6.694064 2.416694,-3.234821 -7.047272 2.326653,-8.759214 -7.814714 -1.50507,-8.372012 -7.786127 -0.9088003,-8.007846 -7.234724 -0.5930428,-7.948912 -6.559818 -0.3313922,-8.168895 -6.119792 -0.1217926,-8.199183 -6.090727 -1.174379,-8.050177 -5.475826 -0.7041614,-7.961735 -5.113583 -0.3544729,-7.883971 -4.707472 -0.1356095,-8.503782 -5.909735 -1.22072,-8.441248 -5.287021 -0.4925572,-8.416821 -6.079219 -0.2330736,-8.441727 -6.622373 -0.2869811,-8.840952 -5.905796 -1.142848,-8.811197 -5.185436 -0.4875391,-8.755678 -5.916685 -0.3067135,-8.754368 -6.446941 -0.4000884,-9.192801 -6.040596 -1.027591,-9.251765 -5.391502 -0.6059213,-9.185125 -5.628171 -0.4803337,-9.154128 -5.955036 -0.5230094,4.710,Right Hand Closed 
-3.009239 -8.630669 0.8597498,-3.702085 -8.159019 0.73422,-4.099247 -7.478473 0.8920382,-4.3045 -6.75247 1.08369,-4.338117 -6.164478 1.319318,-4.053944 -6.748891 1.187681,-4.242849 -5.613517 1.384968,-4.288809 -5.40474 1.505597,-4.270254 -5.461558 1.53894,-3.689404 -6.664117 1.337061,-3.867909 -5.736921 1.458925,-3.822538 -6.216426 1.300529,-3.75007 -6.571846 1.23656,-3.325802 -6.691914 1.481661,-3.506512 -5.972003 1.506981,-3.508424 -6.475925 1.275033,-3.481274 -6.789489 1.203778,-2.979842 -6.805107 1.60929,-3.196854 -6.23496 1.549165,-3.23859 -6.615911 1.340361,-3.219128 -6.854758 1.238538,-8.774019 -7.766521 -1.463023,-8.380138 -7.750169 -0.8742915,-8.014231 -7.188907 -0.5659135,-7.959253 -6.526941 -0.3154423,-8.182242 -6.12004 -0.1219106,-8.2063 -6.043998 -1.153481,-8.057583 -5.427603 -0.6111651,-7.98035 -5.082131 -0.2156307,-7.917202 -4.653966 0.01093388,-8.501228 -5.847188 -1.210644,-8.434368 -5.240162 -0.4627453,-8.419724 -6.075841 -0.2230994,-8.449035 -6.565071 -0.3279122,-8.834607 -5.821725 -1.141525,-8.803222 -5.136234 -0.4899584,-8.766008 -5.920488 -0.3697195,-8.782799 -6.401046 -0.5253273,-9.19212 -5.936798 -1.02998,-9.233384 -5.313334 -0.6137277,-9.153907 -5.685003 -0.5539137,-9.126733 -6.069285 -0.6701963,4.810,
-2.909032 -8.609632 0.7948219,-3.530209 -8.194906 0.9131352,-3.906766 -7.659217 1.046229,-4.148687 -7.054852 1.235039,-4.223794 -6.420453 1.387089,-3.879457 -6.692422 0.5616363,-4.060122 -5.87692 0.7434008,-4.173416 -5.466254 0.931328,-4.274668 -5.087864 1.046102,-3.61034 -6.617279 0.661921,-3.777473 -5.830753 1.0779,-3.769889 -6.40578 1.284009,-3.731363 -6.803222 1.303539,-3.336358 -6.63137 0.8046364,-3.447552 -5.941194 1.157556,-3.464454 -6.596122 1.21275,-3.44021 -7.007612 1.127825,-3.046486 -6.748001 0.9581946,-3.17625 -6.216018 1.177101,-3.229871 -6.676172 1.223805,-3.21604 -7.038458 1.198626,-8.783446 -7.7493 -1.287335,-8.38625 -7.725715 -0.6923523,-8.004456 -7.166519 -0.3632913,-7.944493 -6.497298 -0.1025947,-8.187399 -6.092029 0.09373581,-8.204936 -5.995714 -0.8894952,-8.067128 -5.427041 -0.328966,-7.970542 -5.134208 0.07499337,-7.877944 -4.779727 0.3294907,-8.501479 -5.794271 -0.9422762,-8.436871 -5.209974 -0.2200828,-8.418585 -6.015286 0.0470922,-8.445501 -6.525627 0.01698983,-8.834544 -5.762382 -0.8791113,-8.801867 -5.117488 -0.23956,-8.770739 -5.896247 -0.105356,-8.793176 -6.401536 -0.2195537,-9.194403 -5.865551 -0.7686995,-9.23001 -5.2458 -0.351199,-9.152807 -5.634073 -0.2877718,-9.123088 -6.043764 -0.3780671,4.910,
-2.950303 -8.560961 0.5942506,-3.525053 -8.204821 0.7289946,-3.896317 -7.665552 0.8534805,-4.100883 -7.049388 1.027129,-4.18836 -6.420175 1.16373,-3.867472 -6.69066 0.4166174,-4.041368 -5.940012 0.5722201,-4.15184 -5.488117 0.7556522,-4.262549 -5.043994 0.9003785,-3.600163 -6.608193 0.529116,-3.752588 -5.813724 0.9339757,-3.776937 -6.239522 1.173897,-3.754652 -6.596886 1.243576,-3.32572 -6.635868 0.6832691,-3.437271 -6.000883 1.064094,-3.452238 -6.629232 1.182841,-3.411085 -7.038059 1.15689,-3.032486 -6.770372 0.8463941,-3.173792 -6.308668 1.114429,-3.227157 -6.739968 1.199423,-3.199732 -7.077659 1.217553,-8.752447 -7.765642 -1.268857,-8.386331 -7.736756 -0.6273007,-8.020448 -7.198855 -0.2799133,-7.956442 -6.569902 0.006530643,-8.180868 -6.152776 0.238049,-8.211493 -5.987067 -0.8349733,-8.072357 -5.437387 -0.2395856,-7.971964 -5.177432 0.1552351,-7.87308 -4.860168 0.3811712,-8.510246 -5.806902 -0.8861248,-8.453814 -5.227895 -0.08474278,-8.437238 -6.056806 0.1801105,-8.460263 -6.56084 0.121078,-8.842361 -5.798175 -0.81146,-8.820286 -5.130966 -0.09153795,-8.77787 -5.905976 0.06075883,-8.786476 -6.404983 -0.05730617,-9.19766 -5.935133 -0.6889627,-9.26777 -5.273386 -0.2204539,-9.19593 -5.569635 -0.1053959,-9.163329 -5.917343 -0.1626157,5.010,
-3.001746 -8.426718 0.01488601,-3.514971 -8.181475 0.2135586,-3.883554 -7.676432 0.339295,-4.080384 -7.070485 0.5023938,-4.183459 -6.487594 0.6088744,-3.832128 -6.719623 -0.1241496,-3.996225 -5.98981 0.01904646,-4.120382 -5.506248 0.1855976,-4.226795 -5.022053 0.3343662,-3.576649 -6.623737 -0.04860094,-3.717035 -5.851117 0.3497327,-3.753641 -6.279059 0.5670554,-3.725203 -6.687355 0.6249592,-3.313417 -6.622436 0.08527251,-3.43239 -6.016004 0.4938701,-3.440835 -6.674157 0.6407095,-3.3822 -7.148094 0.628172,-3.023914 -6.698498 0.231427,-3.167971 -6.21772 0.5631282,-3.215557 -6.670677 0.6865272,-3.176664 -7.062225 0.7128986,-8.740252 -7.896278 -0.9969651,-8.356941 -7.871813 -0.3147927,-7.975352 -7.353235 0.1101228,-7.904469 -6.746439 0.4451187,-8.120964 -6.310553 0.7623498,-8.137197 -6.140813 -0.2694279,-7.996566 -5.663864 0.3794732,-7.902669 -5.436978 0.8032967,-7.801897 -5.182186 1.062935,-8.462368 -5.932388 -0.3440509,-8.35421 -5.428988 0.4418776,-8.345067 -6.283113 0.6355482,-8.366111 -6.788431 0.5932316,-8.826631 -5.905224 -0.3010163,-8.739251 -5.346166 0.3945707,-8.704696 -6.162382 0.5027478,-8.71526 -6.639942 0.3988415,-9.21653 -6.000135 -0.2071377,-9.226199 -5.385129 0.2778293,-9.130934 -5.864006 0.3770107,-9.083375 -6.312 0.3488867,5.110,
-3.03018 -8.419355 -0.2566353,-3.51008 -8.206089 -0.03366856,-3.872498 -7.69278 0.117688,-4.06858 -7.102434 0.3078116,-4.168074 -6.527663 0.4271591,-3.811792 -6.752757 -0.3374788,-3.967501 -6.021138 -0.1679736,-4.092579 -5.52048 0.00937885,-4.19824 -5.0261 0.1614181,-3.559064 -6.682132 -0.2598815,-3.685078 -5.882007 0.1611657,-3.735456 -6.223991 0.3772427,-3.718007 -6.565234 0.4299766,-3.296341 -6.690423 -0.117553,-3.411014 -6.088138 0.3123596,-3.415247 -6.719306 0.4350963,-3.35659 -7.150194 0.4060645,-3.009819 -6.766237 0.04004788,-3.149706 -6.261502 0.3656614,-3.187645 -6.697282 0.4592447,-3.139809 -7.056791 0.4657537,-8.712294 -7.972286 -1.061162,-8.327461 -7.919178 -0.3896905,-7.944334 -7.413286 0.04451895,-7.869329 -6.813186 0.3968275,-8.097212 -6.396122 0.7186235,-8.119954 -6.203948 -0.3570994,-7.994864 -5.685464 0.3022231,-7.876133 -5.472755 0.754396,-7.744165 -5.242377 1.0427,-8.446186 -6.02182 -0.4219035,-8.339047 -5.471181 0.3655155,-8.314193 -6.302109 0.5989267,-8.336766 -6.771846 0.5921037,-8.802239 -6.007994 -0.3725823,-8.72291 -5.396453 0.2937001,-8.685803 -6.173012 0.3782588,-8.711141 -6.616913 0.2801384,-9.18484 -6.12739 -0.2678321,-9.199905 -5.4915 0.1860102,-9.105977 -5.902821 0.2608374,-9.072554 -6.302944 0.2207626,5.210,
-3.023726 -8.410686 -0.4954035,-3.496408 -8.234409 -0.293586,-3.854725 -7.711363 -0.1621638,-4.036383 -7.130562 0.02442372,-4.155796 -6.581022 0.1391898,-3.793052 -6.837707 -0.5941911,-3.946125 -6.137366 -0.4381486,-4.068384 -5.613435 -0.2855608,-4.183788 -5.096229 -0.1497787,-3.541727 -6.741541 -0.5117785,-3.645815 -5.944141 -0.1163557,-3.725299 -6.163047 0.09855437,-3.745895 -6.44292 0.1390926,-3.282881 -6.73693 -0.3682789,-3.374118 -6.056438 0.06476808,-3.397993 -6.661362 0.2138392,-3.362104 -7.140951 0.1873839,-2.999445 -6.815306 -0.2121311,-3.114637 -6.278934 0.1233004,-3.167191 -6.691299 0.2370269,-3.14718 -7.090436 0.2533621,-8.656364 -8.069492 -0.9054856,-8.260789 -8.023903 -0.1902978,-7.869987 -7.52775 0.2724847,-7.79482 -6.938768 0.6557009,-8.046128 -6.555387 1.00149,-8.059761 -6.26799 -0.1344969,-7.9203 -5.769809 0.5992192,-7.794857 -5.559759 1.070652,-7.655029 -5.300613 1.352154,-8.395777 -6.093357 -0.2006035,-8.277658 -5.577148 0.6682955,-8.251402 -6.44915 0.8999635,-8.270787 -6.905709 0.8637756,-8.759377 -6.085141 -0.1477041,-8.662429 -5.527667 0.5784715,-8.617767 -6.361764 0.6318355,-8.640556 -6.794206 0.487159,-9.145785 -6.216739 -0.03646284,-9.138862 -5.589851 0.4573292,-9.035863 -6.047256 0.5056802,-9.000437 -6.453785 0.4230394,5.310,
-3.038949 -8.347958 -0.6332031,-3.496897 -8.206778 -0.4214783,-3.847385 -7.685905 -0.2816063,-4.023516 -7.110858 -0.1013923,-4.132307 -6.5573 0.00615108,-3.804088 -6.834173 -0.7000518,-3.974232 -6.148327 -0.5458716,-4.098906 -5.601074 -0.3895355,-4.207068 -5.048056 -0.2450778,-3.555767 -6.719583 -0.6342763,-3.668833 -5.955371 -0.2364602,-3.731623 -6.224104 -0.05461925,-3.728464 -6.537755 -0.04418713,-3.293076 -6.704297 -0.5086503,-3.386124 -6.048561 -0.07933909,-3.410469 -6.657928 0.04542756,-3.364437 -7.131771 0.0009716749,-3.002848 -6.774514 -0.3655839,-3.137092 -6.261495 -0.02380878,-3.195681 -6.676804 0.07309496,-3.168703 -7.071197 0.06901562,-8.642443 -8.09997 -0.8360196,-8.259514 -8.100277 -0.08166963,-7.873751 -7.590744 0.3922049,-7.797003 -6.998899 0.783777,-8.024691 -6.593767 1.147649,-8.020346 -6.302436 -0.0291813,-7.871368 -5.806145 0.7432674,-7.759089 -5.593177 1.234932,-7.633956 -5.332927 1.518394,-8.362912 -6.113636 -0.1073799,-8.278893 -5.593631 0.8197922,-8.251451 -6.473945 1.072601,-8.253778 -6.959762 1.032452,-8.731869 -6.113542 -0.06196004,-8.68321 -5.526174 0.7057276,-8.629022 -6.318649 0.8092364,-8.624183 -6.759061 0.6914055,-9.107029 -6.265062 0.03781408,-9.14887 -5.653301 0.5539776,-9.059807 -6.028942 0.6577255,-9.00653 -6.385637 0.6128871,5.410,
-3.119132 -8.271715 -0.7441608,-3.524052 -8.188826 -0.4591229,-3.867304 -7.676857 -0.3003411,-4.051475 -7.112079 -0.120932,-4.16408 -6.596574 0.01537073,-3.837605 -6.789695 -0.6752994,-4.012384 -6.100406 -0.4621465,-4.157194 -5.550989 -0.2260077,-4.273191 -5.048923 -0.02740079,-3.595935 -6.668025 -0.6329097,-3.720259 -5.862746 -0.1996385,-3.730426 -6.271558 0.01051134,-3.676 -6.748737 0.05099076,-3.330907 -6.66609 -0.5276915,-3.427493 -5.983313 -0.06123084,-3.449645 -6.620164 0.09496254,-3.415641 -7.14656 0.07406837,-3.034969 -6.737758 -0.3983674,-3.138141 -6.253238 0.006352603,-3.188292 -6.689643 0.1287993,-3.172283 -7.094224 0.1375724,-8.676053 -8.219038 -0.833999,-8.250641 -8.175896 -0.06295127,-7.841618 -7.719755 0.4184251,-7.75761 -7.124357 0.8069265,-8.001999 -6.710699 1.142113,-8.022038 -6.436292 0.02725649,-7.866935 -5.876747 0.8333993,-7.74931 -5.629621 1.364565,-7.625933 -5.385825 1.68364,-8.371696 -6.255174 -0.05454749,-8.302909 -5.710989 0.8758246,-8.306781 -6.596831 1.13391,-8.331749 -7.089818 1.101591,-8.740904 -6.244818 -0.01143181,-8.695691 -5.669769 0.8156574,-8.666934 -6.497474 0.9437709,-8.675761 -6.961051 0.8236374,-9.121048 -6.379943 0.08478957,-9.185316 -5.717418 0.6322242,-9.10118 -6.127695 0.7502191,-9.040965 -6.530965 0.7003609,5.510,
-3.10564 -8.228241 -0.8309488,-3.513962 -8.189024 -0.4979355,-3.868353 -7.705009 -0.3039751,-4.058367 -7.144078 -0.1043838,-4.162889 -6.606164 0.05015028,-3.837086 -6.776877 -0.7059843,-4.017361 -6.098699 -0.4841668,-4.155586 -5.553421 -0.2458965,-4.267879 -5.043695 -0.03890419,-3.592344 -6.656673 -0.6818692,-3.710169 -5.900814 -0.2084376,-3.719645 -6.271291 0.03049099,-3.672266 -6.692613 0.09527522,-3.327295 -6.652507 -0.5931212,-3.429459 -6.031909 -0.08138537,-3.439632 -6.679214 0.07051641,-3.398386 -7.183037 0.04607338,-3.036512 -6.718204 -0.4808834,-3.156129 -6.281805 -0.05041188,-3.198923 -6.744977 0.07233566,-3.177357 -7.13429 0.08724427,-8.663898 -8.276245 -0.7684574,-8.244202 -8.174129 -0.02059007,-7.850555 -7.690509 0.452588,-7.775142 -7.09023 0.8367314,-8.023544 -6.72696 1.16973,-8.044023 -6.426287 0.08277428,-7.914775 -5.871566 0.8906845,-7.795926 -5.658812 1.430795,-7.665359 -5.452973 1.754289,-8.391026 -6.291978 0.02224547,-8.336574 -5.740629 0.9857767,-8.332483 -6.61383 1.267268,-8.350584 -7.113257 1.254495,-8.757198 -6.3206 0.08110964,-8.729088 -5.716659 0.9308114,-8.693608 -6.482875 1.069877,-8.689722 -6.922289 0.9562317,-9.128753 -6.497406 0.1925447,-9.221909 -5.81441 0.761559,-9.162346 -5.989213 0.9237984,-9.110395 -6.197477 0.9104414,5.610,
-3.095528 -8.228104 -0.8821733,-3.493795 -8.193035 -0.5553515,-3.842878 -7.710325 -0.3732386,-4.032114 -7.148321 -0.1926689,-4.154121 -6.630777 -0.050883,-3.814924 -6.787635 -0.7542725,-3.994162 -6.105257 -0.5277188,-4.137939 -5.566338 -0.2903348,-4.254539 -5.058574 -0.09463215,-3.568573 -6.667839 -0.7319391,-3.677423 -5.921783 -0.2585851,-3.692793 -6.353338 -0.04375511,-3.655895 -6.782276 -0.004969597,-3.302847 -6.66854 -0.6455232,-3.401435 -6.056087 -0.1394798,-3.427536 -6.716369 -0.007289886,-3.395422 -7.191461 -0.04989606,-3.012777 -6.740549 -0.5363586,-3.127857 -6.295701 -0.1153793,-3.181196 -6.769102 -0.01025915,-3.167424 -7.149434 -0.01631737,-8.665205 -8.289162 -0.7056666,-8.246092 -8.181986 0.05708081,-7.858242 -7.701479 0.5302346,-7.791536 -7.104631 0.9092479,-8.054046 -6.746858 1.232073,-8.062466 -6.455347 0.2111683,-7.930378 -5.91102 1.068821,-7.821876 -5.68105 1.620687,-7.703993 -5.441284 1.95236,-8.422661 -6.303535 0.1387525,-8.368398 -5.769809 1.137192,-8.349943 -6.657066 1.408141,-8.355101 -7.160528 1.388466,-8.79603 -6.316218 0.1932713,-8.770507 -5.722499 1.0647,-8.722963 -6.500589 1.194953,-8.714047 -6.954332 1.081613,-9.169774 -6.481926 0.299494,-9.275992 -5.825279 0.8779272,-9.20997 -6.060653 1.041358,-9.149727 -6.338713 1.03337,5.710,
-3.093985 -8.255228 -0.8747672,-3.491926 -8.202131 -0.56776,-3.839205 -7.709348 -0.3976645,-4.02939 -7.150205 -0.2216429,-4.137516 -6.631207 -0.07995778,-3.796576 -6.80475 -0.7651743,-3.978066 -6.124688 -0.5735481,-4.11431 -5.59683 -0.3690912,-4.226767 -5.102414 -0.1857513,-3.550762 -6.686522 -0.7396604,-3.655865 -5.943127 -0.3026585,-3.673525 -6.330015 -0.09080368,-3.646839 -6.750631 -0.04157281,-3.288633 -6.688467 -0.6560377,-3.380754 -6.058599 -0.1697491,-3.413374 -6.692182 -0.02261424,-3.392767 -7.205818 -0.05377859,-3.001535 -6.764993 -0.5466338,-3.108745 -6.300954 -0.1379485,-3.17181 -6.743055 -0.0182516,-3.172147 -7.144167 -0.009138942,-8.683447 -8.276949 -0.2134612,-8.270991 -8.169697 0.5842754,-7.871296 -7.67996 1.11305,-7.808353 -7.118071 1.533678,-8.085987 -6.837219 1.914376,-8.093319 -6.401302 0.9433213,-7.977073 -5.928789 1.854694,-7.887897 -5.704292 2.413646,-7.788542 -5.467315 2.746644,-8.478643 -6.246644 0.8731565,-8.433393 -5.788725 1.898719,-8.402663 -6.660079 2.154325,-8.393826 -7.173342 2.156699,-8.870214 -6.283887 0.9110869,-8.851613 -5.776123 1.801846,-8.785539 -6.530181 1.890056,-8.754616 -6.980513 1.790329,-9.238585 -6.495302 1.007153,-9.371214 -5.900268 1.619558,-9.344961 -5.971088 1.807076,-9.308269 -6.063291 1.848814,5.810,
-3.081949 -8.254555 -0.8853593,-3.473202 -8.225885 -0.5556114,-3.821949 -7.737318 -0.3733305,-4.012611 -7.17541 -0.1875854,-4.128892 -6.6555 -0.03882247,-3.79733 -6.818845 -0.7587759,-3.97554 -6.13563 -0.5509862,-4.112443 -5.595212 -0.3285201,-4.22226 -5.090986 -0.1290637,-3.552362 -6.69382 -0.7415568,-3.663116 -5.952749 -0.2915543,-3.675509 -6.337055 -0.07368308,-3.635042 -6.758453 -0.02320212,-3.288075 -6.690897 -0.6611582,-3.381186 -6.082734 -0.1693062,-3.404154 -6.72046 -0.02465856,-3.372972 -7.218184 -0.05328625,-2.998395 -6.762147 -0.5570699,-3.109333 -6.322826 -0.1392366,-3.1656 -6.775321 -0.02337569,-3.157572 -7.167789 -0.01703197,-8.802124 -8.283449 -0.4435313,-8.355259 -8.206181 0.3084501,-7.938708 -7.743848 0.8044612,-7.879191 -7.174516 1.219974,-8.171413 -6.908573 1.577773,-8.197336 -6.474631 0.6113019,-8.076929 -5.937273 1.541871,-7.982093 -5.695793 2.109584,-7.887918 -5.472538 2.426731,-8.579883 -6.280717 0.548952,-8.551577 -5.835475 1.57737,-8.534709 -6.714124 1.839252,-8.532348 -7.183939 1.820542,-8.958688 -6.264659 0.6071346,-8.963472 -5.770362 1.521956,-8.910326 -6.557443 1.603403,-8.882526 -6.99773 1.479632,-9.322616 -6.402381 0.7148306,-9.478793 -5.795807 1.317561,-9.414515 -6.064054 1.489201,-9.324436 -6.351268 1.493101,5.910,
-3.083817 -8.276468 -0.8838131,-3.476326 -8.228468 -0.565099,-3.823586 -7.740444 -0.3831047,-4.014236 -7.184692 -0.1934105,-4.118623 -6.651826 -0.04124773,-3.784445 -6.825056 -0.768501,-3.963896 -6.129848 -0.570492,-4.103447 -5.601384 -0.3584517,-4.216822 -5.116256 -0.1666368,-3.536987 -6.709892 -0.7434607,-3.64346 -5.947456 -0.3067213,-3.654564 -6.378263 -0.0932036,-3.619929 -6.828214 -0.04347289,-3.27561 -6.717909 -0.6606021,-3.365347 -6.091287 -0.1797016,-3.395835 -6.741407 -0.04039323,-3.373787 -7.248384 -0.07345939,-2.991141 -6.799912 -0.5501664,-3.094825 -6.330377 -0.1497276,-3.153637 -6.778717 -0.03749263,-3.150915 -7.174323 -0.03437924,-8.80634 -8.30377 -0.135114,-8.367843 -8.212402 0.6551452,-7.960741 -7.747694 1.197098,-7.916157 -7.196144 1.643664,-8.23374 -6.934314 2.043604,-8.212258 -6.458457 1.053427,-8.114621 -5.967529 2.007354,-8.040084 -5.736576 2.588679,-7.964192 -5.518626 2.931032,-8.611302 -6.262314 0.9799665,-8.591234 -5.851326 2.026343,-8.564394 -6.727041 2.308788,-8.552691 -7.221563 2.326465,-9.010998 -6.263698 1.025226,-9.02739 -5.802444 1.939665,-8.969741 -6.588118 2.041867,-8.937151 -7.041692 1.947318,-9.395152 -6.435567 1.120775,-9.552841 -5.851111 1.729326,-9.479043 -6.135657 1.913495,-9.38651 -6.439357 1.940565,6.010,
-3.058619 -8.282719 -0.923068,-3.457254 -8.237082 -0.6178006,-3.807632 -7.757318 -0.4438539,-3.999081 -7.197586 -0.2618709,-4.106604 -6.667669 -0.119755,-3.76652 -6.847835 -0.8210699,-3.944635 -6.155832 -0.6269685,-4.088951 -5.628165 -0.4244034,-4.206911 -5.132476 -0.2454491,-3.521547 -6.729556 -0.7960755,-3.625607 -5.970296 -0.3614695,-3.640581 -6.400538 -0.162927,-3.608837 -6.832988 -0.1289188,-3.261539 -6.730331 -0.7136615,-3.357155 -6.110494 -0.2444837,-3.385351 -6.754344 -0.1177161,-3.356644 -7.240442 -0.1579888,-2.978755 -6.800206 -0.6064183,-3.089328 -6.340753 -0.2244992,-3.143167 -6.786979 -0.1238149,-3.133103 -7.167896 -0.1280109,-8.908215 -8.382841 0.3437277,-8.423693 -8.295881 1.110932,-7.983714 -7.795686 1.679295,-7.968679 -7.245828 2.154176,-8.339439 -7.004751 2.593465,-8.266362 -6.435135 1.544603,-8.219189 -5.915078 2.505786,-8.140269 -5.702405 3.082944,-8.064579 -5.542058 3.394869,-8.680577 -6.209665 1.49776,-8.63612 -5.980006 2.570721,-8.59847 -6.896396 2.863639,-8.602077 -7.362678 2.895898,-9.094228 -6.194368 1.558701,-9.074347 -5.926204 2.472664,-8.99215 -6.782987 2.508008,-8.96349 -7.22192 2.364552,-9.503802 -6.333683 1.665388,-9.610901 -5.874555 2.258117,-9.471187 -6.385613 2.347983,-9.353489 -6.811283 2.29091,6.110,
-3.046204 -8.263323 -0.9733225,-3.447722 -8.217464 -0.6751179,-3.799536 -7.750816 -0.5038826,-3.993683 -7.190996 -0.3193355,-4.079071 -6.652044 -0.182811,-3.762005 -6.852075 -0.8715885,-3.944042 -6.155336 -0.677725,-4.08262 -5.625309 -0.4806639,-4.197739 -5.123113 -0.3046415,-3.516376 -6.727545 -0.8445118,-3.616896 -5.970651 -0.4145899,-3.631695 -6.387538 -0.2160371,-3.604853 -6.823235 -0.1797506,-3.256402 -6.72073 -0.7600611,-3.345287 -6.10223 -0.2837442,-3.372934 -6.753251 -0.1567668,-3.347168 -7.263011 -0.2002588,-2.976039 -6.792072 -0.6523695,-3.079937 -6.325959 -0.2627236,-3.131868 -6.778586 -0.1635573,-3.126932 -7.179271 -0.1723992,-8.89345 -8.410664 0.1916096,-8.411744 -8.31926 1.0005,-7.98364 -7.816799 1.581248,-7.973398 -7.268587 2.061029,-8.337728 -7.069583 2.499917,-8.282767 -6.495735 1.41376,-8.24412 -5.985975 2.416141,-8.175484 -5.775228 3.016676,-8.113431 -5.587059 3.330593,-8.698955 -6.283053 1.344299,-8.688617 -5.985967 2.443873,-8.646244 -6.907458 2.74848,-8.638038 -7.326288 2.77513,-9.106979 -6.269649 1.388864,-9.119036 -5.934265 2.338546,-9.034263 -6.786788 2.392309,-8.99683 -7.190506 2.245793,-9.509828 -6.401087 1.480087,-9.648946 -5.870029 2.079339,-9.510377 -6.36435 2.180058,-9.387678 -6.77598 2.124049,6.210,
-3.03098 -8.286646 -0.8959668,-3.426159 -8.258379 -0.5496026,-3.768669 -7.782259 -0.3566957,-3.952124 -7.225109 -0.1661408,-4.052999 -6.704035 -0.004770219,-3.747063 -6.848251 -0.7325919,-3.921206 -6.172603 -0.5363711,-4.045938 -5.645071 -0.3268176,-4.148354 -5.14698 -0.1359912,-3.495422 -6.73119 -0.714807,-3.595638 -6.014619 -0.2576859,-3.604221 -6.409738 -0.02116191,-3.577217 -6.82902 0.04272938,-3.232057 -6.734624 -0.6397058,-3.313648 -6.135914 -0.1398507,-3.339004 -6.765004 0.008952022,-3.321313 -7.264221 -0.02097374,-2.947518 -6.819118 -0.5348063,-3.033787 -6.362716 -0.12029,-3.092777 -6.800249 -0.003570795,-3.10161 -7.192609 -0.0002997518,-8.90121 -8.429068 0.1482365,-8.423001 -8.313425 1.058079,-7.977773 -7.836562 1.704657,-7.993669 -7.301832 2.220967,-8.397029 -7.111825 2.64076,-8.314435 -6.619337 1.583473,-8.264984 -6.133744 2.727633,-8.206542 -5.954414 3.390578,-8.170579 -5.760587 3.721496,-8.742381 -6.412898 1.468492,-8.775812 -6.012721 2.647254,-8.710296 -6.965409 2.916143,-8.675951 -7.366476 2.898655,-9.146367 -6.382738 1.472504,-9.193643 -5.962286 2.502618,-9.090446 -6.871969 2.457929,-9.043795 -7.273368 2.21465,-9.526208 -6.50118 1.541848,-9.700838 -5.90281 2.184674,-9.545453 -6.414608 2.224067,-9.406837 -6.823377 2.077613,6.310,
-3.024663 -8.292032 -0.920633,-3.4231 -8.246016 -0.587175,-3.764767 -7.772287 -0.3950362,-3.947817 -7.219003 -0.2046536,-4.040603 -6.684513 -0.05585378,-3.729295 -6.850857 -0.7628344,-3.909119 -6.169914 -0.5568384,-4.042224 -5.643589 -0.3453217,-4.150269 -5.143926 -0.1568283,-3.477684 -6.740381 -0.7413938,-3.577833 -6.016243 -0.2786259,-3.595537 -6.400103 -0.05572367,-3.571064 -6.799043 -0.003188312,-3.214075 -6.757568 -0.6633209,-3.295396 -6.156282 -0.1560128,-3.325447 -6.793567 -0.0242039,-3.307478 -7.288054 -0.06851184,-2.929595 -6.855494 -0.5584176,-3.020739 -6.396581 -0.1389697,-3.083841 -6.845796 -0.02838778,-3.091909 -7.240688 -0.03088713,-8.899689 -8.378195 -0.02354715,-8.407575 -8.295147 0.8232288,-7.970314 -7.837543 1.45039,-7.989769 -7.346823 1.956969,-8.376028 -7.152498 2.374052,-8.316127 -6.636545 1.380603,-8.262051 -6.165245 2.475976,-8.204675 -5.971088 3.093458,-8.174311 -5.778798 3.392952,-8.747027 -6.418451 1.293585,-8.762752 -6.110944 2.418446,-8.695024 -7.023338 2.683147,-8.661556 -7.411871 2.682434,-9.15088 -6.392301 1.323253,-9.179439 -6.078269 2.302895,-9.067653 -6.943634 2.280619,-9.01257 -7.328735 2.087283,-9.532364 -6.511137 1.409525,-9.693537 -5.99445 2.019383,-9.530534 -6.509587 2.096073,-9.380692 -6.91229 2.011795,6.410,
-3.012436 -8.302849 -0.8703598,-3.408828 -8.258442 -0.5383965,-3.754061 -7.771526 -0.3571196,-3.940117 -7.20869 -0.1775184,-4.039555 -6.687383 -0.03723007,-3.723296 -6.85861 -0.724582,-3.902781 -6.179264 -0.5207039,-4.033422 -5.64714 -0.311316,-4.137928 -5.147133 -0.1256688,-3.474436 -6.73698 -0.7075938,-3.569825 -5.997354 -0.2549071,-3.577351 -6.390723 -0.03417522,-3.545053 -6.814271 0.01821405,-3.211113 -6.743225 -0.6336337,-3.291142 -6.121563 -0.1411291,-3.316162 -6.754747 0.004778087,-3.294577 -7.256301 -0.02691936,-2.925866 -6.832951 -0.5329968,-3.018796 -6.372955 -0.1166865,-3.076086 -6.814938 0.004360795,-3.078223 -7.213217 0.01342994,-8.894411 -8.408463 0.3104222,-8.387618 -8.284632 1.193685,-7.940752 -7.819818 1.872589,-7.981202 -7.368683 2.433044,-8.382581 -7.220775 2.894496,-8.294297 -6.628411 1.853224,-8.269105 -6.171457 3.024307,-8.215001 -6.006963 3.672447,-8.19749 -5.817319 3.978531,-8.744301 -6.4216 1.755878,-8.771149 -6.119974 2.921098,-8.694685 -7.04165 3.139423,-8.65737 -7.368696 3.100849,-9.157659 -6.401164 1.766661,-9.189554 -6.077832 2.74748,-9.073896 -6.955718 2.640706,-9.023598 -7.282706 2.394951,-9.536369 -6.531805 1.843091,-9.689451 -6.027164 2.432148,-9.52877 -6.530728 2.442768,-9.394326 -6.869291 2.291174,6.510,
-2.999854 -8.316109 -0.8884961,-3.392569 -8.284578 -0.5469375,-3.741659 -7.804723 -0.3626102,-3.932508 -7.247595 -0.1791326,-4.036489 -6.723047 -0.03365862,-3.715524 -6.88044 -0.7455268,-3.889999 -6.19177 -0.5523057,-4.022932 -5.649564 -0.3450579,-4.131258 -5.145339 -0.1537082,-3.467676 -6.756561 -0.7338614,-3.57217 -6.011447 -0.2876783,-3.582795 -6.377153 -0.05705339,-3.548162 -6.800601 0.004456818,-3.207901 -6.752126 -0.6642291,-3.2918 -6.134279 -0.1640753,-3.313514 -6.764156 -0.009328902,-3.289063 -7.28684 -0.03866422,-2.926677 -6.826797 -0.5676289,-3.017762 -6.364145 -0.1476483,-3.071828 -6.802639 -0.0276925,-3.073515 -7.212583 -0.02082831,-8.898325 -8.273569 -0.6714164,-8.361741 -8.170584 0.186938,-7.930733 -7.770164 0.8940349,-7.971847 -7.37969 1.443233,-8.329686 -7.247827 1.858789,-8.285366 -6.984182 1.062434,-8.26477 -6.328596 2.096797,-8.214442 -6.024311 2.669729,-8.223357 -5.793436 3.006278,-8.726141 -6.823793 0.9490228,-8.782763 -6.127198 1.93657,-8.681905 -6.871273 2.065402,-8.639699 -7.214358 2.0634,-9.126313 -6.770418 0.9159359,-9.18929 -6.100784 1.733364,-9.056167 -6.800762 1.581579,-9.000049 -7.115163 1.386927,-9.489402 -6.796298 0.9483966,-9.672538 -6.093912 1.461828,-9.526229 -6.435672 1.468538,-9.413323 -6.716459 1.380316,6.610,
-2.983319 -8.32892 -0.996189,-3.388477 -8.280209 -0.6626242,-3.736039 -7.801427 -0.4908922,-3.917917 -7.238672 -0.3161355,-3.998805 -6.702718 -0.193051,-3.681636 -6.906271 -0.8773046,-3.857862 -6.196722 -0.6952703,-3.986823 -5.66097 -0.4971023,-4.087263 -5.172468 -0.316004,-3.433235 -6.794087 -0.8654226,-3.536501 -6.033118 -0.4329901,-3.547341 -6.37716 -0.2114467,-3.512501 -6.788602 -0.1493465,-3.175825 -6.798132 -0.7935419,-3.25859 -6.181909 -0.3047355,-3.274826 -6.782677 -0.1458282,-3.244706 -7.290447 -0.1712818,-2.895338 -6.874097 -0.6961573,-2.987057 -6.399223 -0.2812191,-3.037621 -6.81372 -0.1490307,-3.030722 -7.212327 -0.1309415,-8.936921 -8.447563 -0.03084682,-8.396829 -8.301271 0.8749287,-7.936887 -7.804204 1.608346,-7.996511 -7.3629 2.180923,-8.411634 -7.234346 2.625572,-8.283262 -6.897425 1.67776,-8.284525 -6.325725 2.802643,-8.262487 -6.072613 3.45823,-8.298469 -5.839195 3.825809,-8.747977 -6.715477 1.567083,-8.81702 -6.226748 2.708333,-8.709513 -7.020076 2.93909,-8.654062 -7.307619 2.966279,-9.174086 -6.659279 1.541081,-9.238363 -6.203331 2.486033,-9.082735 -7.000823 2.324399,-9.009974 -7.278217 2.066336,-9.557119 -6.722202 1.583469,-9.722076 -6.172527 2.128853,-9.53749 -6.644483 2.064731,-9.387353 -6.942582 1.873986,6.710,
-2.974462 -8.327883 -0.9446074,-3.376301 -8.293175 -0.6034211,-3.724122 -7.822462 -0.4162202,-3.909981 -7.264081 -0.2312444,-3.99567 -6.724466 -0.08464748,-3.686734 -6.903686 -0.7919155,-3.871943 -6.206599 -0.593677,-4.001606 -5.67284 -0.3816274,-4.102448 -5.186468 -0.1862819,-3.434528 -6.784124 -0.7775199,-3.542562 -6.04437 -0.3272348,-3.5471 -6.412158 -0.09265041,-3.508595 -6.840532 -0.01977152,-3.172321 -6.785202 -0.7085463,-3.256931 -6.177224 -0.198177,-3.271963 -6.804325 -0.04062808,-3.244221 -7.326876 -0.06523836,-2.886626 -6.863946 -0.6120672,-2.980041 -6.392967 -0.1850731,-3.033805 -6.825933 -0.05863339,-3.035015 -7.231117 -0.04205632,-8.956077 -8.509796 0.3706523,-8.423073 -8.355925 1.25174,-7.945375 -7.842723 1.965628,-7.993345 -7.312925 2.533844,-8.473264 -7.207016 2.978206,-8.328499 -6.734855 1.952556,-8.31632 -6.172526 3.106568,-8.265391 -6.073024 3.763092,-8.281969 -5.94944 4.081553,-8.799726 -6.544467 1.873147,-8.785817 -6.139384 3.014415,-8.690077 -7.067232 3.18642,-8.66889 -7.40146 3.151114,-9.232615 -6.537128 1.896503,-9.236856 -6.163665 2.827837,-9.075691 -7.087827 2.647065,-9.023433 -7.422462 2.379234,-9.625095 -6.677021 1.992818,-9.752154 -6.207262 2.50254,-9.541617 -6.78777 2.397544,-9.388853 -7.150497 2.175634,6.810,Left Hand Closed
-2.948252 -8.344246 -0.9354497,-3.347243 -8.316681 -0.5861171,-3.697157 -7.861027 -0.3919127,-3.891119 -7.304338 -0.2015578,-3.968445 -6.766594 -0.05781049,-3.669121 -6.924385 -0.7729824,-3.856407 -6.228335 -0.5788471,-3.9831 -5.690867 -0.3771065,-4.081589 -5.194521 -0.1922106,-3.421944 -6.801842 -0.7686411,-3.526738 -6.064634 -0.319696,-3.527025 -6.411134 -0.09096664,-3.489127 -6.81797 -0.02718216,-3.163857 -6.799247 -0.7087532,-3.240532 -6.191597 -0.1969502,-3.247946 -6.81232 -0.04193878,-3.217826 -7.326699 -0.07203686,-2.8854 -6.874952 -0.6218692,-2.967862 -6.41163 -0.2013612,-3.013273 -6.84815 -0.07383579,-3.014336 -7.24842 -0.05885565,-8.951548 -8.499561 -0.01133917,-8.391689 -8.328636 0.8506547,-7.919975 -7.81092 1.613962,-8.001642 -7.412315 2.255747,-8.441813 -7.388319 2.74539,-8.310237 -6.793025 1.527961,-8.330116 -6.142814 2.687435,-8.299591 -6.089033 3.272532,-8.316824 -6.060285 3.494276,-8.793984 -6.650833 1.46264,-8.873189 -6.235363 2.657532,-8.768048 -7.135501 2.846493,-8.692478 -7.39817 2.812969,-9.231445 -6.660618 1.500757,-9.318946 -6.28335 2.476937,-9.150784 -7.16362 2.32628,-9.051862 -7.427558 2.080181,-9.629005 -6.756805 1.613756,-9.817463 -6.196352 2.107351,-9.620609 -6.768218 2.05008,-9.441451 -7.099658 1.8692,6.910,Left Hand Closed
-2.952987 -8.378162 -0.8993025,-3.353313 -8.315016 -0.5651402,-3.695581 -7.837589 -0.3861225,-3.878625 -7.28096 -0.2000538,-3.964825 -6.747979 -0.06452632,-3.6572 -6.928548 -0.7658899,-3.827888 -6.224178 -0.57759,-3.954138 -5.693065 -0.3840618,-4.05209 -5.206604 -0.2118568,-3.405258 -6.817151 -0.7458751,-3.503269 -6.053419 -0.2920054,-3.513297 -6.430748 -0.06618786,-3.483942 -6.852897 -0.008909464,-3.146004 -6.823654 -0.6688014,-3.227923 -6.198524 -0.1627083,-3.242882 -6.823946 -0.01751453,-3.214912 -7.331516 -0.06168318,-2.866181 -6.90513 -0.5640953,-2.953808 -6.422826 -0.1473154,-3.004126 -6.849409 -0.02904028,-3.001453 -7.240186 -0.02545398,-8.962407 -8.488289 0.04558218,-8.395833 -8.330132 0.9441641,-7.919042 -7.84181 1.737509,-7.975144 -7.469766 2.39965,-8.405263 -7.441017 2.917298,-8.332672 -6.807987 1.658212,-8.380033 -6.167158 2.806421,-8.334201 -6.197931 3.330319,-8.329578 -6.197875 3.495655,-8.818006 -6.670518 1.584161,-8.896627 -6.222309 2.791525,-8.777395 -7.126468 2.961744,-8.71028 -7.40747 2.913751,-9.257289 -6.69362 1.610927,-9.348101 -6.278067 2.576732,-9.16474 -7.173652 2.430505,-9.064631 -7.472015 2.197229,-9.65893 -6.806829 1.717487,-9.848004 -6.216264 2.212303,-9.653324 -6.797592 2.179571,-9.479756 -7.159709 2.041992,7.010,Left Hand Closed
-2.896237 -8.41811 -0.9222317,-3.296515 -8.3566 -0.576079,-3.635807 -7.889917 -0.3883765,-3.814402 -7.333326 -0.2052426,-3.901815 -6.805296 -0.06104791,-3.587951 -6.963153 -0.7668538,-3.772984 -6.254106 -0.5949161,-3.891865 -5.721092 -0.4087074,-3.97957 -5.227878 -0.2343896,-3.33173 -6.86156 -0.7461542,-3.422846 -6.104573 -0.2900149,-3.422905 -6.524066 -0.0546546,-3.400504 -6.963382 0.01175499,-3.070094 -6.878852 -0.6746385,-3.150148 -6.285774 -0.1623833,-3.166201 -6.919284 0.006536484,-3.147079 -7.417028 -0.01313722,-2.788763 -6.973571 -0.5742517,-2.875826 -6.505172 -0.1524305,-2.927517 -6.942354 -0.02062505,-2.932871 -7.330846 -0.006261647,-8.926323 -8.663094 0.8189425,-8.395547 -8.483849 1.662433,-7.923548 -7.983343 2.367077,-7.953815 -7.491491 2.950692,-8.413052 -7.333369 3.422553,-8.302775 -6.650268 2.252444,-8.290678 -6.102481 3.430596,-8.245564 -6.050699 4.070294,-8.225233 -6.019815 4.328202,-8.757909 -6.443682 2.175863,-8.778668 -6.177455 3.34544,-8.72336 -7.173574 3.565996,-8.676041 -7.516078 3.535368,-9.177445 -6.464895 2.20926,-9.208637 -6.189638 3.177025,-9.088051 -7.160816 3.089561,-9.015307 -7.50729 2.864693,-9.57369 -6.615405 2.307101,-9.705169 -6.151269 2.829744,-9.53967 -6.772792 2.823807,-9.391982 -7.164756 2.674239,7.110,
-2.877081 -8.467499 -0.8945464,-3.269207 -8.400255 -0.5526941,-3.607637 -7.915542 -0.3590909,-3.789648 -7.355863 -0.1667991,-3.876241 -6.818189 -0.01332194,-3.54985 -6.993547 -0.7434546,-3.747168 -6.288178 -0.573162,-3.87475 -5.743715 -0.3803926,-3.968891 -5.241395 -0.1888112,-3.29607 -6.898414 -0.7167757,-3.401787 -6.143557 -0.2746883,-3.407955 -6.533435 -0.04617769,-3.381115 -6.972326 0.02422065,-3.038068 -6.912422 -0.6374983,-3.125437 -6.32402 -0.127272,-3.142298 -6.962744 0.02482545,-3.119326 -7.485773 -0.001901865,-2.760695 -7.001604 -0.5275871,-2.859922 -6.518941 -0.103873,-2.911493 -6.958558 0.01876318,-2.911114 -7.361703 0.02799821,-8.890365 -8.64604 0.36012,-8.392591 -8.519747 1.21755,-7.939658 -8.016706 1.845724,-7.941578 -7.451911 2.361519,-8.347668 -7.206531 2.800331,-8.291961 -6.692817 1.661974,-8.265036 -6.167787 2.785129,-8.232956 -6.005112 3.437357,-8.227068 -5.88433 3.741785,-8.727705 -6.495574 1.576086,-8.763946 -6.152399 2.748529,-8.716751 -7.119615 3.01052,-8.68933 -7.52666 2.974709,-9.138797 -6.494131 1.614887,-9.190114 -6.130466 2.632427,-9.089693 -7.054926 2.601635,-9.030903 -7.45224 2.362913,-9.529057 -6.639583 1.709004,-9.701575 -6.099625 2.319287,-9.550096 -6.638275 2.374924,-9.399611 -7.035285 2.234601,7.210,
-2.835027 -8.515039 -0.821957,-3.230093 -8.460043 -0.4681372,-3.574379 -7.945066 -0.2722874,-3.738594 -7.361451 -0.08886856,-3.801408 -6.807173 0.04647851,-3.532976 -7.045923 -0.6245576,-3.727615 -6.357549 -0.4489724,-3.8626 -5.813149 -0.263124,-3.973527 -5.300962 -0.07287717,-3.276999 -6.934528 -0.6124202,-3.386035 -6.201021 -0.1662012,-3.386559 -6.577394 0.05565459,-3.355719 -7.008996 0.1217636,-3.013895 -6.945343 -0.5476428,-3.102226 -6.392656 -0.01650459,-3.114381 -7.038452 0.1277502,-3.087699 -7.567634 0.09266841,-2.7332 -7.042535 -0.4560212,-2.824786 -6.585363 -0.01890415,-2.873264 -7.024854 0.09597886,-2.875861 -7.422142 0.1011233,-8.891446 -8.593807 -0.1208574,-8.436131 -8.416142 0.6781368,-8.00931 -7.94618 1.232493,-7.949726 -7.346498 1.710691,-8.273496 -7.055073 2.129025,-8.2774 -6.658228 0.9294063,-8.192079 -6.125225 1.91958,-8.131028 -5.889644 2.545033,-8.074341 -5.646211 2.88795,-8.672494 -6.488998 0.874068,-8.660961 -6.036273 1.996902,-8.635433 -6.926309 2.37884,-8.623094 -7.372678 2.410902,-9.056035 -6.481773 0.945349,-9.080026 -5.999799 1.922258,-9.023356 -6.819799 2.051187,-8.987823 -7.252164 1.901586,-9.433854 -6.621418 1.068829,-9.592558 -5.979782 1.676492,-9.499835 -6.30753 1.81765,-9.384826 -6.637281 1.752748,7.310,
-2.814588 -8.499306 -0.8814773,-3.198787 -8.450653 -0.5184357,-3.550997 -7.936361 -0.3193631,-3.715053 -7.35485 -0.1349818,-3.75703 -6.791181 -0.01330251,-3.520485 -7.053504 -0.6744347,-3.71509 -6.369396 -0.4916956,-3.85417 -5.827109 -0.3045093,-3.975111 -5.312816 -0.1165382,-3.269749 -6.940826 -0.6685441,-3.388523 -6.226553 -0.2162998,-3.393364 -6.586002 -0.005885005,-3.360271 -6.995842 0.04568154,-3.005484 -6.958835 -0.6054769,-3.098536 -6.425071 -0.06634212,-3.10815 -7.070053 0.07128847,-3.074535 -7.585254 0.02774417,-2.720691 -7.060693 -0.5156211,-2.814746 -6.617151 -0.07292569,-2.860829 -7.065987 0.03724933,-2.858223 -7.464414 0.03640711,-8.780709 -8.592148 -0.2366835,-8.347466 -8.424456 0.5101157,-7.955564 -7.895683 1.046021,-7.923738 -7.27943 1.497145,-8.284374 -7.000322 1.889884,-8.230883 -6.660482 0.7656118,-8.157749 -6.092132 1.678276,-8.068331 -5.832663 2.286311,-7.988729 -5.591758 2.654594,-8.614642 -6.502513 0.7226232,-8.59427 -5.97032 1.748242,-8.550443 -6.828243 2.105651,-8.554068 -7.32479 2.168687,-8.989446 -6.509023 0.8006736,-9.0079 -5.954451 1.692988,-8.941644 -6.754341 1.824011,-8.925184 -7.237728 1.708764,-9.367072 -6.669173 0.9320006,-9.523458 -6.024704 1.515707,-9.419497 -6.379447 1.644605,-9.31401 -6.778755 1.602813,7.410,
-2.812725 -8.40126 -0.9547524,-3.198697 -8.388422 -0.5890647,-3.557467 -7.873412 -0.4061382,-3.715086 -7.293512 -0.2366337,-3.749313 -6.744703 -0.1303253,-3.536376 -7.004961 -0.7371507,-3.743455 -6.336862 -0.5476543,-3.899124 -5.795705 -0.361749,-4.03517 -5.274513 -0.1720918,-3.289303 -6.871669 -0.7394569,-3.427871 -6.176244 -0.2907647,-3.419967 -6.624511 -0.118018,-3.36425 -7.077579 -0.1085116,-3.020996 -6.869153 -0.6789539,-3.13962 -6.352313 -0.1345602,-3.138587 -7.040643 -0.0174793,-3.083878 -7.567218 -0.0798251,-2.727646 -6.952129 -0.5919009,-2.847335 -6.536699 -0.1435621,-2.886543 -7.020065 -0.05318016,-2.866677 -7.430671 -0.07229418,-8.737389 -8.545984 -0.7160215,-8.318403 -8.383574 -0.0731771,-7.931348 -7.780045 0.3270992,-7.895041 -7.133363 0.6827556,-8.204719 -6.787338 0.9676136,-8.242126 -6.570793 -0.2104678,-8.114856 -5.886908 0.4347306,-7.998331 -5.560708 0.8851259,-7.891253 -5.199014 1.166959,-8.576666 -6.439768 -0.226537,-8.523952 -5.831755 0.6480108,-8.457719 -6.696287 0.9683541,-8.462765 -7.239233 0.9711906,-8.926858 -6.452924 -0.1167111,-8.920995 -5.775707 0.6222638,-8.853047 -6.548278 0.801095,-8.848348 -7.093717 0.7169048,-9.298592 -6.596212 0.03858387,-9.423269 -5.899158 0.5083839,-9.324106 -6.159225 0.6271589,-9.243011 -6.563215 0.5723711,7.510,
-2.822993 -8.359612 -0.9343099,-3.217482 -8.352442 -0.5502858,-3.583061 -7.822131 -0.4022079,-3.725416 -7.237426 -0.2758246,-3.753542 -6.717168 -0.2032769,-3.552134 -6.967771 -0.6754079,-3.770838 -6.304947 -0.4571623,-3.941987 -5.765411 -0.2533584,-4.103537 -5.262689 -0.03882676,-3.304654 -6.830627 -0.6852704,-3.447612 -6.166072 -0.2187888,-3.411575 -6.682477 -0.05255014,-3.341532 -7.211648 -0.03929085,-3.032629 -6.821339 -0.6332268,-3.161299 -6.372636 -0.04047871,-3.133655 -7.092323 0.07589597,-3.066017 -7.669441 0.008210838,-2.732995 -6.901054 -0.5551633,-2.86063 -6.517045 -0.06456661,-2.892134 -7.022913 0.02501243,-2.870843 -7.465393 0.005180717,-8.764071 -8.478106 -1.000593,-8.332382 -8.368645 -0.3585469,-7.93871 -7.760709 0.01592588,-7.887254 -7.090641 0.3370135,-8.164243 -6.734437 0.5773091,-8.250994 -6.57368 -0.556089,-8.113682 -5.847963 0.02833629,-7.986335 -5.513866 0.435781,-7.877454 -5.133792 0.6843593,-8.570526 -6.440619 -0.5922043,-8.51783 -5.804832 0.2391593,-8.464441 -6.649087 0.5621228,-8.484924 -7.165731 0.5598043,-8.912127 -6.44481 -0.5060602,-8.899563 -5.747003 0.2126554,-8.83942 -6.512446 0.4185556,-8.844913 -7.0471 0.3478404,-9.279564 -6.573053 -0.3774829,-9.37028 -5.884303 0.07117164,-9.270001 -6.191997 0.1952324,-9.205716 -6.616542 0.1450107,7.610,
-2.874955 -8.403446 -0.3749647,-3.273582 -8.352619 -0.02583885,-3.665308 -7.849485 0.1358461,-3.817623 -7.264806 0.292905,-3.844244 -6.723615 0.4380727,-3.655579 -6.905863 -0.0666163,-3.935293 -6.33912 0.2845849,-4.094619 -5.896591 0.5288378,-4.238241 -5.493164 0.7100772,-3.373789 -6.726595 -0.03617123,-3.536671 -6.548978 0.5305951,-3.414688 -7.309877 0.6487585,-3.317083 -7.896608 0.6102933,-3.07273 -6.683128 0.04523483,-3.230528 -6.628946 0.663262,-3.163055 -7.389564 0.7193986,-3.098047 -7.942588 0.6256948,-2.763148 -6.72863 0.1514205,-2.927095 -6.607857 0.6327425,-2.95303 -7.185985 0.6774368,-2.951479 -7.638651 0.6319087,-8.810685 -8.574192 -1.247358,-8.382528 -8.47624 -0.6863048,-7.993908 -7.831609 -0.381072,-7.942074 -7.132322 -0.119404,-8.190729 -6.783903 0.08140361,-8.274612 -6.700418 -0.9937491,-8.128871 -5.931461 -0.463875,-7.982268 -5.591942 -0.07527554,-7.853054 -5.23222 0.1436785,-8.577729 -6.58502 -1.012218,-8.49444 -5.877666 -0.2247546,-8.44282 -6.695924 0.06283736,-8.472472 -7.201623 0.005413294,-8.909724 -6.613369 -0.9046752,-8.869474 -5.879968 -0.2005126,-8.795623 -6.633529 -0.02887213,-8.806942 -7.135021 -0.1479173,-9.274417 -6.760196 -0.7600806,-9.326127 -6.0446 -0.3192725,-9.210199 -6.387405 -0.1931016,-9.157148 -6.797222 -0.2578912,7.710,
-2.867011 -8.420538 -0.1082519,-3.278551 -8.35284 0.2173298,-3.671124 -7.878279 0.3841146,-3.828808 -7.314856 0.5469536,-3.862905 -6.769626 0.7034065,-3.679531 -6.873707 0.2151969,-3.96415 -6.338686 0.5590421,-4.117726 -5.918204 0.7825931,-4.257402 -5.529468 0.9483318,-3.393084 -6.676036 0.2562481,-3.537415 -6.581163 0.8150211,-3.396666 -7.359538 0.9466129,-3.298512 -7.935386 0.9214469,-3.089225 -6.635053 0.3394969,-3.225402 -6.630689 0.9227877,-3.144365 -7.39343 0.965881,-3.083585 -7.927066 0.8846159,-2.779308 -6.700347 0.450842,-2.929962 -6.615825 0.9046804,-2.952347 -7.187622 0.9658863,-2.958925 -7.618301 0.9415889,-8.832975 -8.582762 -1.193435,-8.416355 -8.505438 -0.6322026,-8.028172 -7.858819 -0.3265533,-7.964964 -7.176393 -0.0569011,-8.204425 -6.796625 0.1472946,-8.294925 -6.693969 -0.9427962,-8.151113 -5.936103 -0.4213663,-8.007431 -5.58168 -0.02720678,-7.878427 -5.224732 0.2044028,-8.59613 -6.579437 -0.94975,-8.529757 -5.871412 -0.1651201,-8.466783 -6.674297 0.1369349,-8.477262 -7.196159 0.09659374,-8.925644 -6.619691 -0.8285083,-8.905966 -5.879201 -0.1319137,-8.823688 -6.60938 0.05066192,-8.81866 -7.11354 -0.04815447,-9.283587 -6.787482 -0.672548,-9.351741 -6.088153 -0.2260346,-9.239291 -6.397164 -0.09866166,-9.176707 -6.784484 -0.1537631,7.810,
-2.862413 -8.426022 0.158344,-3.28453 -8.359549 0.4729016,-3.692545 -7.896657 0.6573524,-3.857862 -7.34303 0.8441646,-3.863054 -6.804849 1.02564,-3.69282 -6.821347 0.4667156,-3.968296 -6.304063 0.8025615,-4.11302 -5.888031 1.026079,-4.256147 -5.482566 1.192073,-3.405639 -6.606145 0.5252304,-3.554598 -6.562989 1.094756,-3.409977 -7.352613 1.235124,-3.305355 -7.923525 1.220371,-3.094959 -6.568941 0.6244792,-3.229353 -6.628902 1.221207,-3.142488 -7.394132 1.272091,-3.077007 -7.917572 1.191113,-2.779987 -6.654302 0.7504865,-2.931736 -6.615612 1.186524,-2.953565 -7.199432 1.230491,-2.961055 -7.625913 1.192566,-8.851223 -8.608664 -1.285852,-8.4244 -8.517859 -0.7489538,-8.048829 -7.878847 -0.4545512,-7.989607 -7.183635 -0.1996214,-8.215739 -6.738687 -0.02601814,-8.30594 -6.733531 -1.113636,-8.17108 -5.947161 -0.6238993,-8.033574 -5.581583 -0.2484071,-7.907074 -5.191066 -0.02987742,-8.601496 -6.625289 -1.124221,-8.523447 -5.906645 -0.3552232,-8.482965 -6.733625 -0.07470798,-8.508532 -7.243309 -0.1438494,-8.925398 -6.653416 -1.006483,-8.891149 -5.904354 -0.3196937,-8.824481 -6.675464 -0.1559001,-8.832661 -7.177011 -0.2828138,-9.284664 -6.795505 -0.8538403,-9.319592 -6.097305 -0.413964,-9.211712 -6.483895 -0.3056106,-9.16574 -6.905973 -0.3800851,7.910,
-2.865746 -8.432217 0.1369732,-3.293571 -8.349007 0.449769,-3.700644 -7.882069 0.6152564,-3.858517 -7.315017 0.7811253,-3.870298 -6.774637 0.940926,-3.694229 -6.834785 0.4733373,-3.972406 -6.301782 0.8289334,-4.117815 -5.881284 1.071815,-4.255116 -5.469098 1.255266,-3.404787 -6.620983 0.5201917,-3.550348 -6.555698 1.082269,-3.404668 -7.346756 1.196172,-3.297918 -7.928873 1.168022,-3.094788 -6.582365 0.6116772,-3.230574 -6.629352 1.211485,-3.142462 -7.396785 1.249652,-3.073816 -7.927394 1.164699,-2.780427 -6.664877 0.7275496,-2.933673 -6.593727 1.178563,-2.957788 -7.173334 1.226922,-2.96498 -7.606196 1.194438,-8.860345 -8.669901 -1.295893,-8.436619 -8.553093 -0.7860208,-8.06297 -7.926506 -0.5084552,-7.987923 -7.234426 -0.2613227,-8.200426 -6.778629 -0.08418286,-8.318831 -6.801218 -1.150455,-8.160954 -6.02127 -0.7042132,-8.009242 -5.66357 -0.367623,-7.87859 -5.29735 -0.172995,-8.60969 -6.688114 -1.153577,-8.51066 -5.971886 -0.4209481,-8.461617 -6.752031 -0.1139171,-8.487975 -7.27487 -0.1514335,-8.922879 -6.707868 -1.033456,-8.876298 -5.956108 -0.3716392,-8.803172 -6.679847 -0.1707289,-8.806433 -7.202075 -0.2602116,-9.268976 -6.841363 -0.8821603,-9.307312 -6.147328 -0.450448,-9.196821 -6.472913 -0.3077062,-9.140252 -6.8841 -0.3517602,8.010,
-2.856757 -8.438253 0.0233174,-3.285192 -8.339592 0.3428127,-3.686215 -7.874216 0.5099689,-3.845785 -7.319938 0.6759725,-3.860009 -6.7903 0.8407655,-3.676528 -6.852545 0.3742087,-3.950508 -6.303545 0.7390063,-4.094784 -5.889905 0.9862771,-4.227356 -5.489549 1.172994,-3.389494 -6.663704 0.4246053,-3.519842 -6.533366 1.019316,-3.379799 -7.326685 1.16071,-3.277608 -7.923316 1.147301,-3.079671 -6.628414 0.5169061,-3.201805 -6.605097 1.161448,-3.123915 -7.380272 1.209376,-3.059575 -7.92368 1.118128,-2.767733 -6.711993 0.6304945,-2.90198 -6.616255 1.117113,-2.931386 -7.203592 1.166017,-2.946111 -7.636776 1.120087,-8.880292 -8.725771 -1.271806,-8.446195 -8.594296 -0.7835678,-8.070014 -7.970882 -0.5126986,-7.985776 -7.281611 -0.2617002,-8.197056 -6.834499 -0.088467,-8.316617 -6.847583 -1.174798,-8.161952 -6.079452 -0.740131,-8.017024 -5.703702 -0.4032446,-7.890947 -5.32953 -0.2112412,-8.604332 -6.73813 -1.164625,-8.508965 -6.029145 -0.4423247,-8.471891 -6.799785 -0.1476167,-8.506798 -7.325947 -0.1969457,-8.917432 -6.763643 -1.033796,-8.871624 -6.021169 -0.3844668,-8.805324 -6.737215 -0.1982012,-8.815329 -7.257675 -0.3012949,-9.266433 -6.908004 -0.8719369,-9.298796 -6.218169 -0.4541961,-9.189155 -6.534061 -0.3291928,-9.13797 -6.936447 -0.3890096,8.110,
-2.854494 -8.426023 0.01208139,-3.284027 -8.324413 0.3418927,-3.683174 -7.849535 0.498761,-3.837891 -7.275856 0.6529443,-3.852695 -6.732746 0.8021181,-3.677332 -6.834909 0.3449978,-3.940081 -6.283648 0.7116264,-4.079178 -5.869556 0.959166,-4.20839 -5.474966 1.144042,-3.389059 -6.649244 0.3850355,-3.518857 -6.530178 0.9808359,-3.372717 -7.321666 1.113076,-3.265054 -7.919902 1.08482,-3.079678 -6.613861 0.4719,-3.201169 -6.599345 1.111994,-3.115254 -7.373363 1.159216,-3.04671 -7.913882 1.063197,-2.76733 -6.689535 0.5837603,-2.903842 -6.573068 1.067058,-2.929739 -7.155347 1.121378,-2.940568 -7.594642 1.079468,-8.910092 -8.745775 -1.278769,-8.46937 -8.58186 -0.7894166,-8.099581 -7.952516 -0.5273323,-8.004666 -7.258516 -0.286544,-8.195104 -6.79366 -0.1238393,-8.33258 -6.869847 -1.179043,-8.186184 -6.120111 -0.7602592,-8.054475 -5.724158 -0.4201832,-7.933451 -5.336198 -0.2155762,-8.623253 -6.761515 -1.175079,-8.542736 -6.035823 -0.4652103,-8.497429 -6.796594 -0.1690702,-8.518253 -7.335935 -0.2140816,-8.936695 -6.789787 -1.052384,-8.902831 -6.020875 -0.4107186,-8.825516 -6.716087 -0.2030042,-8.823309 -7.248747 -0.2912667,-9.279756 -6.938428 -0.9010561,-9.319908 -6.250766 -0.4913365,-9.210457 -6.534196 -0.3492572,-9.153814 -6.924977 -0.385618,8.210,
-2.848865 -8.456055 0.1492517,-3.271601 -8.364008 0.5038111,-3.672274 -7.902681 0.7113991,-3.825768 -7.346721 0.912628,-3.839634 -6.801357 1.118178,-3.682572 -6.857413 0.5735849,-3.95634 -6.305623 0.9530976,-4.096016 -5.892435 1.211172,-4.214741 -5.487682 1.408861,-3.385417 -6.658327 0.6096802,-3.501598 -6.532672 1.194041,-3.360385 -7.33677 1.312954,-3.256266 -7.921407 1.281267,-3.067383 -6.631101 0.6911197,-3.176415 -6.605854 1.31635,-3.099459 -7.390705 1.349351,-3.042563 -7.915653 1.261398,-2.751719 -6.720232 0.7973331,-2.871724 -6.607484 1.270571,-2.895785 -7.206282 1.317386,-2.910326 -7.624938 1.284754,-8.888128 -8.676361 -1.381154,-8.457494 -8.543552 -0.9061376,-8.083511 -7.92871 -0.6372661,-8.003372 -7.252961 -0.387143,-8.220819 -6.81851 -0.21289,-8.341849 -6.824253 -1.294253,-8.198051 -6.050085 -0.8599818,-8.05899 -5.660268 -0.5156538,-7.93659 -5.2756 -0.3133438,-8.624812 -6.718065 -1.283791,-8.52465 -5.985953 -0.5669317,-8.474569 -6.745512 -0.2613622,-8.507203 -7.277414 -0.2960789,-8.933254 -6.742561 -1.160461,-8.882401 -5.999818 -0.524841,-8.8097 -6.704195 -0.322472,-8.819166 -7.229604 -0.4074693,-9.280703 -6.884288 -1.003987,-9.310084 -6.199728 -0.5838135,-9.192462 -6.513895 -0.4469087,-9.139177 -6.93669 -0.4910946,8.310,
-2.847363 -8.493385 0.2095155,-3.272697 -8.372122 0.5477124,-3.667006 -7.878213 0.7312424,-3.814039 -7.320203 0.9107719,-3.83302 -6.79737 1.101641,-3.661966 -6.853712 0.6158237,-3.921452 -6.318883 0.9894498,-4.064097 -5.908828 1.243978,-4.193346 -5.508781 1.443464,-3.368721 -6.669343 0.6561654,-3.486855 -6.552104 1.236772,-3.355158 -7.347036 1.351871,-3.256012 -7.924249 1.323223,-3.057226 -6.648999 0.7418984,-3.165342 -6.622564 1.370855,-3.091136 -7.395794 1.398699,-3.031704 -7.914377 1.309921,-2.746784 -6.74434 0.8499653,-2.866343 -6.614954 1.318843,-2.890083 -7.199247 1.364154,-2.901265 -7.609715 1.331114,-8.874532 -8.686045 -1.389258,-8.447214 -8.558208 -0.9283581,-8.078321 -7.940691 -0.6462491,-7.988311 -7.270526 -0.3798628,-8.184728 -6.816342 -0.1860529,-8.320556 -6.835886 -1.276518,-8.165462 -6.065115 -0.850544,-8.024821 -5.694261 -0.5302641,-7.904349 -5.329118 -0.3386195,-8.604324 -6.733488 -1.251588,-8.504027 -5.990757 -0.5611116,-8.445082 -6.730268 -0.2789562,-8.472817 -7.244058 -0.3189405,-8.910821 -6.772983 -1.114157,-8.867293 -6.005199 -0.5097827,-8.779887 -6.669673 -0.3234766,-8.778616 -7.172475 -0.4002796,-9.252188 -6.932683 -0.9415203,-9.291559 -6.255956 -0.5426636,-9.174874 -6.524841 -0.4052694,-9.114697 -6.911256 -0.4390632,8.410,
