TiagoOliveira98/HandTracking/DataLogging/JointData/Logs(1643071240)_Tiago_MemoryGame.csv
WRIST,THUMB_CMC,THUMB_MCP,THUMB_IP,THUMB_TIP,INDEX_FINGER_MCP,INDEX_FINGER_PIP,INDEX_FINGER_DIP,INDEX_FINGER_TIP,MIDDLE_FINGER_MCP,MIDDLE_FINGER_PIP,MIDDLE_FINGER_DIP,MIDDLE_FINGER_TIP,RING_FINGER_MCP,RING_FINGER_PIP,RING_FINGER_DIP,RING_FINGER_TIP,PINKY_MCP,PINKY_PIP,PINKY_DIP,PINKY_TIP,WRIST2,THUMB_CMC2,THUMB_MCP2,THUMB_IP2,THUMB_TIP2,INDEX_FINGER_MCP2,INDEX_FINGER_PIP2,INDEX_FINGER_DIP2,INDEX_FINGER_TIP2,MIDDLE_FINGER_MCP2,MIDDLE_FINGER_PIP2,MIDDLE_FINGER_DIP2,MIDDLE_FINGER_TIP2,RING_FINGER_MCP2,RING_FINGER_PIP2,RING_FINGER_DIP2,RING_FINGER_TIP2,PINKY_MCP2,PINKY_PIP2,PINKY_DIP2,PINKY_TIP2,Timestamp,Event
10 0 0,10 7.47 0,10 7.47 0,10 7.47 0,10 7.47 0,10 7.47 0,10 7.47 0,10 7.47 0,10 7.47 0,10 7.47 0,10 7.47 0,10 7.47 0,10 7.47 0,10 7.47 0,10 7.47 0,10 7.47 0,10 7.47 0,10 7.47 0,10 7.47 0,10 7.47 0,10 7.47 0,10 0 0,10 7.47 0,10 7.47 0,10 7.47 0,10 7.47 0,10 7.47 0,10 7.47 0,10 7.47 0,10 7.47 0,10 7.47 0,10 7.47 0,10 7.47 0,10 7.47 0,10 7.47 0,10 7.47 0,10 7.47 0,10 7.47 0,10 7.47 0,10 7.47 0,10 7.47 0,10 7.47 0,0.010,
2 0 -8.996844,2 0 -8.996844,2 0 -8.996844,2 0 -8.996844,2 0 -8.996844,2 0 -8.996844,2 0 -8.996844,2 0 -8.996844,2 0 -8.996844,2 0 -8.996844,2 0 -8.996844,2 0 -8.996844,2 0 -8.996844,2 0 -8.996844,2 0 -8.996844,2 0 -8.996844,2 0 -8.996844,2 0 -8.996844,2 0 -8.996844,2 0 -8.996844,2 0 -8.996844,2 0 -8.792824,2 0 -8.792824,2 0 -8.792824,2 0 -8.792824,2 0 -8.792824,2 0 -8.792824,2 0 -8.792824,2 0 -8.792824,2 0 -8.792824,2 0 -8.792824,2 0 -8.792824,2 0 -8.792824,2 0 -8.792824,2 0 -8.792824,2 0 -8.792824,2 0 -8.792824,2 0 -8.792824,2 0 -8.792824,2 0 -8.792824,2 0 -8.792824,2 0 -8.792824,0.110, 0
2 0 -8.996844,2 0 -8.996844,2 0 -8.996844,2 0 -8.996844,2 0 -8.996844,2 0 -8.996844,2 0 -8.996844,2 0 -8.996844,2 0 -8.996844,2 0 -8.996844,2 0 -8.996844,2 0 -8.996844,2 0 -8.996844,2 0 -8.996844,2 0 -8.996844,2 0 -8.996844,2 0 -8.996844,2 0 -8.996844,2 0 -8.996844,2 0 -8.996844,2 0 -8.996844,2 0 -8.792824,2 0 -8.792824,2 0 -8.792824,2 0 -8.792824,2 0 -8.792824,2 0 -8.792824,2 0 -8.792824,2 0 -8.792824,2 0 -8.792824,2 0 -8.792824,2 0 -8.792824,2 0 -8.792824,2 0 -8.792824,2 0 -8.792824,2 0 -8.792824,2 0 -8.792824,2 0 -8.792824,2 0 -8.792824,2 0 -8.792824,2 0 -8.792824,2 0 -8.792824,0.210, 0
2 0 -8.996844,2 0 -8.996844,2 0 -8.996844,2 0 -8.996844,2 0 -8.996844,2 0 -8.996844,2 0 -8.996844,2 0 -8.996844,2 0 -8.996844,2 0 -8.996844,2 0 -8.996844,2 0 -8.996844,2 0 -8.996844,2 0 -8.996844,2 0 -8.996844,2 0 -8.996844,2 0 -8.996844,2 0 -8.996844,2 0 -8.996844,2 0 -8.996844,2 0 -8.996844,2 0 -8.792824,2 0 -8.792824,2 0 -8.792824,2 0 -8.792824,2 0 -8.792824,2 0 -8.792824,2 0 -8.792824,2 0 -8.792824,2 0 -8.792824,2 0 -8.792824,2 0 -8.792824,2 0 -8.792824,2 0 -8.792824,2 0 -8.792824,2 0 -8.792824,2 0 -8.792824,2 0 -8.792824,2 0 -8.792824,2 0 -8.792824,2 0 -8.792824,2 0 -8.792824,0.310, 0
2 0 -8.996844,2 0 -8.996844,2 0 -8.996844,2 0 -8.996844,2 0 -8.996844,2 0 -8.996844,2 0 -8.996844,2 0 -8.996844,2 0 -8.996844,2 0 -8.996844,2 0 -8.996844,2 0 -8.996844,2 0 -8.996844,2 0 -8.996844,2 0 -8.996844,2 0 -8.996844,2 0 -8.996844,2 0 -8.996844,2 0 -8.996844,2 0 -8.996844,2 0 -8.996844,2 0 -8.792824,2 0 -8.792824,2 0 -8.792824,2 0 -8.792824,2 0 -8.792824,2 0 -8.792824,2 0 -8.792824,2 0 -8.792824,2 0 -8.792824,2 0 -8.792824,2 0 -8.792824,2 0 -8.792824,2 0 -8.792824,2 0 -8.792824,2 0 -8.792824,2 0 -8.792824,2 0 -8.792824,2 0 -8.792824,2 0 -8.792824,2 0 -8.792824,2 0 -8.792824,0.410, 0
2 0 -8.996844,2 0 -8.996844,2 0 -8.996844,2 0 -8.996844,2 0 -8.996844,2 0 -8.996844,2 0 -8.996844,2 0 -8.996844,2 0 -8.996844,2 0 -8.996844,2 0 -8.996844,2 0 -8.996844,2 0 -8.996844,2 0 -8.996844,2 0 -8.996844,2 0 -8.996844,2 0 -8.996844,2 0 -8.996844,2 0 -8.996844,2 0 -8.996844,2 0 -8.996844,2 0 -8.792824,2 0 -8.792824,2 0 -8.792824,2 0 -8.792824,2 0 -8.792824,2 0 -8.792824,2 0 -8.792824,2 0 -8.792824,2 0 -8.792824,2 0 -8.792824,2 0 -8.792824,2 0 -8.792824,2 0 -8.792824,2 0 -8.792824,2 0 -8.792824,2 0 -8.792824,2 0 -8.792824,2 0 -8.792824,2 0 -8.792824,2 0 -8.792824,2 0 -8.792824,0.510, 0
2 0 -8.996844,2 0 -8.996844,2 0 -8.996844,2 0 -8.996844,2 0 -8.996844,2 0 -8.996844,2 0 -8.996844,2 0 -8.996844,2 0 -8.996844,2 0 -8.996844,2 0 -8.996844,2 0 -8.996844,2 0 -8.996844,2 0 -8.996844,2 0 -8.996844,2 0 -8.996844,2 0 -8.996844,2 0 -8.996844,2 0 -8.996844,2 0 -8.996844,2 0 -8.996844,2 0 -8.792824,2 0 -8.792824,2 0 -8.792824,2 0 -8.792824,2 0 -8.792824,2 0 -8.792824,2 0 -8.792824,2 0 -8.792824,2 0 -8.792824,2 0 -8.792824,2 0 -8.792824,2 0 -8.792824,2 0 -8.792824,2 0 -8.792824,2 0 -8.792824,2 0 -8.792824,2 0 -8.792824,2 0 -8.792824,2 0 -8.792824,2 0 -8.792824,2 0 -8.792824,0.610, 0
2 0 -8.996844,2 0 -8.996844,2 0 -8.996844,2 0 -8.996844,2 0 -8.996844,2 0 -8.996844,2 0 -8.996844,2 0 -8.996844,2 0 -8.996844,2 0 -8.996844,2 0 -8.996844,2 0 -8.996844,2 0 -8.996844,2 0 -8.996844,2 0 -8.996844,2 0 -8.996844,2 0 -8.996844,2 0 -8.996844,2 0 -8.996844,2 0 -8.996844,2 0 -8.996844,2 0 -8.792824,2 0 -8.792824,2 0 -8.792824,2 0 -8.792824,2 0 -8.792824,2 0 -8.792824,2 0 -8.792824,2 0 -8.792824,2 0 -8.792824,2 0 -8.792824,2 0 -8.792824,2 0 -8.792824,2 0 -8.792824,2 0 -8.792824,2 0 -8.792824,2 0 -8.792824,2 0 -8.792824,2 0 -8.792824,2 0 -8.792824,2 0 -8.792824,2 0 -8.792824,0.710, 0
2 0 -8.996844,2 0 -8.996844,2 0 -8.996844,2 0 -8.996844,2 0 -8.996844,2 0 -8.996844,2 0 -8.996844,2 0 -8.996844,2 0 -8.996844,2 0 -8.996844,2 0 -8.996844,2 0 -8.996844,2 0 -8.996844,2 0 -8.996844,2 0 -8.996844,2 0 -8.996844,2 0 -8.996844,2 0 -8.996844,2 0 -8.996844,2 0 -8.996844,2 0 -8.996844,2 0 -8.792824,2 0 -8.792824,2 0 -8.792824,2 0 -8.792824,2 0 -8.792824,2 0 -8.792824,2 0 -8.792824,2 0 -8.792824,2 0 -8.792824,2 0 -8.792824,2 0 -8.792824,2 0 -8.792824,2 0 -8.792824,2 0 -8.792824,2 0 -8.792824,2 0 -8.792824,2 0 -8.792824,2 0 -8.792824,2 0 -8.792824,2 0 -8.792824,2 0 -8.792824,0.810, 0
2 0 -8.996844,2 0 -8.996844,2 0 -8.996844,2 0 -8.996844,2 0 -8.996844,2 0 -8.996844,2 0 -8.996844,2 0 -8.996844,2 0 -8.996844,2 0 -8.996844,2 0 -8.996844,2 0 -8.996844,2 0 -8.996844,2 0 -8.996844,2 0 -8.996844,2 0 -8.996844,2 0 -8.996844,2 0 -8.996844,2 0 -8.996844,2 0 -8.996844,2 0 -8.996844,2 0 -8.792824,2 0 -8.792824,2 0 -8.792824,2 0 -8.792824,2 0 -8.792824,2 0 -8.792824,2 0 -8.792824,2 0 -8.792824,2 0 -8.792824,2 0 -8.792824,2 0 -8.792824,2 0 -8.792824,2 0 -8.792824,2 0 -8.792824,2 0 -8.792824,2 0 -8.792824,2 0 -8.792824,2 0 -8.792824,2 0 -8.792824,2 0 -8.792824,2 0 -8.792824,0.910, 0
2 0 -8.996844,2 0 -8.996844,2 0 -8.996844,2 0 -8.996844,2 0 -8.996844,2 0 -8.996844,2 0 -8.996844,2 0 -8.996844,2 0 -8.996844,2 0 -8.996844,2 0 -8.996844,2 0 -8.996844,2 0 -8.996844,2 0 -8.996844,2 0 -8.996844,2 0 -8.996844,2 0 -8.996844,2 0 -8.996844,2 0 -8.996844,2 0 -8.996844,2 0 -8.996844,2 0 -8.792824,2 0 -8.792824,2 0 -8.792824,2 0 -8.792824,2 0 -8.792824,2 0 -8.792824,2 0 -8.792824,2 0 -8.792824,2 0 -8.792824,2 0 -8.792824,2 0 -8.792824,2 0 -8.792824,2 0 -8.792824,2 0 -8.792824,2 0 -8.792824,2 0 -8.792824,2 0 -8.792824,2 0 -8.792824,2 0 -8.792824,2 0 -8.792824,2 0 -8.792824,1.010, 0
2 0 -8.996844,2 0 -8.996844,2 0 -8.996844,2 0 -8.996844,2 0 -8.996844,2 0 -8.996844,2 0 -8.996844,2 0 -8.996844,2 0 -8.996844,2 0 -8.996844,2 0 -8.996844,2 0 -8.996844,2 0 -8.996844,2 0 -8.996844,2 0 -8.996844,2 0 -8.996844,2 0 -8.996844,2 0 -8.996844,2 0 -8.996844,2 0 -8.996844,2 0 -8.996844,2 0 -8.792824,2 0 -8.792824,2 0 -8.792824,2 0 -8.792824,2 0 -8.792824,2 0 -8.792824,2 0 -8.792824,2 0 -8.792824,2 0 -8.792824,2 0 -8.792824,2 0 -8.792824,2 0 -8.792824,2 0 -8.792824,2 0 -8.792824,2 0 -8.792824,2 0 -8.792824,2 0 -8.792824,2 0 -8.792824,2 0 -8.792824,2 0 -8.792824,2 0 -8.792824,1.110, 0
2 0 -8.996844,2 0 -8.996844,2 0 -8.996844,2 0 -8.996844,2 0 -8.996844,2 0 -8.996844,2 0 -8.996844,2 0 -8.996844,2 0 -8.996844,2 0 -8.996844,2 0 -8.996844,2 0 -8.996844,2 0 -8.996844,2 0 -8.996844,2 0 -8.996844,2 0 -8.996844,2 0 -8.996844,2 0 -8.996844,2 0 -8.996844,2 0 -8.996844,2 0 -8.996844,2 0 -8.792824,2 0 -8.792824,2 0 -8.792824,2 0 -8.792824,2 0 -8.792824,2 0 -8.792824,2 0 -8.792824,2 0 -8.792824,2 0 -8.792824,2 0 -8.792824,2 0 -8.792824,2 0 -8.792824,2 0 -8.792824,2 0 -8.792824,2 0 -8.792824,2 0 -8.792824,2 0 -8.792824,2 0 -8.792824,2 0 -8.792824,2 0 -8.792824,2 0 -8.792824,1.210, 0
2 0 -8.996844,2 0 -8.996844,2 0 -8.996844,2 0 -8.996844,2 0 -8.996844,2 0 -8.996844,2 0 -8.996844,2 0 -8.996844,2 0 -8.996844,2 0 -8.996844,2 0 -8.996844,2 0 -8.996844,2 0 -8.996844,2 0 -8.996844,2 0 -8.996844,2 0 -8.996844,2 0 -8.996844,2 0 -8.996844,2 0 -8.996844,2 0 -8.996844,2 0 -8.996844,2 0 -8.792824,2 0 -8.792824,2 0 -8.792824,2 0 -8.792824,2 0 -8.792824,2 0 -8.792824,2 0 -8.792824,2 0 -8.792824,2 0 -8.792824,2 0 -8.792824,2 0 -8.792824,2 0 -8.792824,2 0 -8.792824,2 0 -8.792824,2 0 -8.792824,2 0 -8.792824,2 0 -8.792824,2 0 -8.792824,2 0 -8.792824,2 0 -8.792824,2 0 -8.792824,1.310, 0
-1.277992 -13.52813 0.9950103,-1.881635 -12.94039 1.186411,-2.320205 -12.09595 1.378694,-2.518226 -11.24869 1.489802,-2.631371 -10.56819 1.557023,-1.749689 -10.85043 1.755933,-2.001326 -9.602015 1.721377,-2.197344 -9.571796 1.567092,-2.258813 -9.891655 1.447654,-1.362189 -10.75996 1.687105,-1.603826 -9.483282 1.643625,-1.893687 -9.477451 1.398694,-2.010286 -9.722523 1.232676,-1.043748 -10.84989 1.585768,-1.216851 -9.583197 1.571615,-1.482316 -9.57408 1.395855,-1.591298 -9.880795 1.26332,-0.7953343 -11.06882 1.48865,-0.7787285 -9.993876 1.5308,-0.934545 -9.787556 1.452567,-1.02248 -9.957954 1.330352,2 0 -8.792824,2 0 -8.792824,2 0 -8.792824,2 0 -8.792824,2 0 -8.792824,2 0 -8.792824,2 0 -8.792824,2 0 -8.792824,2 0 -8.792824,2 0 -8.792824,2 0 -8.792824,2 0 -8.792824,2 0 -8.792824,2 0 -8.792824,2 0 -8.792824,2 0 -8.792824,2 0 -8.792824,2 0 -8.792824,2 0 -8.792824,2 0 -8.792824,2 0 -8.792824,1.410, 2
-1.277992 -13.52813 0.9950103,-1.881635 -12.94039 1.186411,-2.320205 -12.09595 1.378694,-2.518226 -11.24869 1.489802,-2.631371 -10.56819 1.557023,-1.749689 -10.85043 1.755933,-2.001326 -9.602015 1.721377,-2.197344 -9.571796 1.567092,-2.258813 -9.891655 1.447654,-1.362189 -10.75996 1.687105,-1.603826 -9.483282 1.643625,-1.893687 -9.477451 1.398694,-2.010286 -9.722523 1.232676,-1.043748 -10.84989 1.585768,-1.216851 -9.583197 1.571615,-1.482316 -9.57408 1.395855,-1.591298 -9.880795 1.26332,-0.7953343 -11.06882 1.48865,-0.7787285 -9.993876 1.5308,-0.934545 -9.787556 1.452567,-1.02248 -9.957954 1.330352,-8.395079 -11.84501 -0.1537645,-7.810649 -11.34516 -0.1192197,-7.437626 -10.63079 0.06894651,-7.228726 -10.08314 0.3131222,-7.077178 -9.55909 0.5600256,-7.632168 -9.47961 0.1334241,-7.487929 -8.49773 0.4441989,-7.208635 -8.68733 0.6377754,-7.055557 -9.132347 0.7333505,-7.881619 -9.478573 0.3241104,-7.674981 -8.484913 0.673171,-7.381985 -8.74893 0.9152055,-7.252073 -9.204845 1.013293,-8.137172 -9.625532 0.5380395,-7.954322 -8.689695 0.8432326,-7.662972 -8.831673 1.030544,-7.528744 -9.245316 1.095589,-8.393433 -9.92415 0.7406012,-8.20871 -9.125015 0.9680489,-7.944566 -9.117065 1.110449,-7.786379 -9.377453 1.187353,1.510,Left Hand Closed 3
-1.379766 -11.2402 0.2322419,-2.033556 -10.93524 0.4452517,-2.478131 -10.15811 0.5715588,-2.706811 -9.282833 0.571286,-2.834293 -8.559441 0.481143,-2.084579 -8.859722 1.017335,-2.350594 -7.492752 1.064979,-2.580235 -7.079127 0.9257964,-2.754232 -7.038652 0.8050948,-1.677657 -8.696701 0.8603386,-1.977509 -7.219249 0.8564049,-2.272553 -6.972726 0.6026723,-2.481655 -7.124652 0.356689,-1.314898 -8.728144 0.6793451,-1.537811 -7.373711 0.6796585,-1.813939 -7.114913 0.4524488,-2.040385 -7.217845 0.2680848,-0.995451 -8.912594 0.4926437,-1.064152 -7.769794 0.4670772,-1.270775 -7.516607 0.3413384,-1.468984 -7.59979 0.1878873,-8.517289 -11.08478 1.264948,-7.831832 -10.35335 1.020307,-7.420274 -9.503748 0.9848769,-7.135531 -8.867783 1.086977,-6.87719 -8.303505 1.214175,-7.672478 -8.332863 0.7732792,-7.60313 -7.533579 0.8583274,-7.387801 -7.180492 1.047845,-7.159945 -7.191876 1.218191,-7.899698 -8.28746 1.039475,-7.814276 -7.441448 1.107086,-7.5824 -7.167747 1.28404,-7.325905 -7.262855 1.445481,-8.13112 -8.407066 1.359124,-8.048775 -7.577945 1.386066,-7.812467 -7.255363 1.529621,-7.585798 -7.228546 1.648597,-8.380513 -8.65056 1.671138,-8.267497 -7.944068 1.692635,-8.082438 -7.636285 1.779712,-7.866456 -7.510597 1.87896,1.610, 10
-1.403064 -9.95784 1.987461,-2.216035 -9.467117 2.278171,-2.794669 -8.413107 2.616181,-3.166298 -7.274758 2.800387,-3.153526 -6.39936 2.843479,-2.212752 -7.203521 3.313294,-2.445883 -5.098934 3.382843,-2.75006 -4.855071 3.040745,-2.895779 -5.117066 2.703283,-1.690777 -7.043285 3.114838,-1.954859 -4.758874 3.07952,-2.344874 -4.73526 2.475152,-2.507969 -5.163948 1.966096,-1.273675 -7.090166 2.873749,-1.471293 -5.038671 2.79084,-1.823184 -4.960445 2.215398,-1.984948 -5.277816 1.774941,-0.9645128 -7.267668 2.616618,-1.069705 -5.706827 2.477887,-1.325231 -5.487251 2.112857,-1.469181 -5.643728 1.729003,-8.234941 -9.201849 0.3544018,-7.646523 -8.966173 0.4721998,-7.213629 -8.232533 0.6065372,-6.903073 -7.554595 0.7093278,-6.629616 -7.030384 0.7461281,-7.466031 -6.789579 0.6810944,-7.234095 -5.522157 0.7364369,-7.117092 -4.9997 0.681846,-7.035811 -4.695084 0.610185,-7.830496 -6.637983 0.6580731,-7.614133 -5.289781 0.7048147,-7.465944 -4.765617 0.6083439,-7.343802 -4.58981 0.5166577,-8.164948 -6.730079 0.6167774,-8.03919 -5.525305 0.6205044,-7.894694 -5.078195 0.5461117,-7.74856 -4.937374 0.4671288,-8.464914 -6.996902 0.567816,-8.426639 -6.088062 0.5341793,-8.317044 -5.682716 0.4430258,-8.190289 -5.49205 0.3180866,1.710, 6
-1.460455 -8.533339 1.3584,-2.208997 -8.329174 1.828416,-2.761095 -7.909464 2.23923,-3.184785 -7.268398 2.521447,-3.299019 -6.547637 2.743525,-2.516201 -6.018743 2.369036,-2.898653 -4.5193 2.55669,-3.015777 -3.981147 2.434026,-3.043957 -3.780407 2.300517,-2.052299 -5.748271 2.16213,-2.308976 -4.016466 2.344722,-2.408175 -3.452462 2.155329,-2.423518 -3.302582 1.949913,-1.588904 -5.755867 1.952683,-1.744518 -4.179908 2.108785,-1.857094 -3.550219 2.006682,-1.929009 -3.289884 1.888032,-1.145687 -5.966075 1.741071,-1.175656 -4.763048 1.840886,-1.200819 -4.220691 1.847969,-1.239431 -3.887694 1.811271,-8.234668 -8.452858 1.2269,-7.58123 -7.960897 1.310841,-7.108582 -7.26993 1.55926,-6.796471 -6.640773 1.867148,-6.498024 -6.081913 2.218419,-7.459352 -5.796003 1.385307,-7.282312 -4.834589 1.624084,-7.133882 -4.158174 1.824234,-6.978283 -3.55063 1.991859,-7.763295 -5.656782 1.620067,-7.605494 -4.543978 1.863076,-7.450303 -3.712961 2.049017,-7.279442 -2.972278 2.189301,-8.068775 -5.697294 1.87514,-7.949977 -4.588503 2.068365,-7.818724 -3.817195 2.182703,-7.657766 -3.137417 2.280157,-8.407457 -5.91344 2.156895,-8.37271 -4.974638 2.282984,-8.324491 -4.338311 2.350006,-8.248248 -3.711826 2.417667,1.810, 10
-1.421649 -8.572922 1.988089,-2.166769 -8.171108 2.088701,-2.737239 -7.598575 2.20204,-3.108162 -6.999388 2.308248,-3.300838 -6.451309 2.377129,-2.381279 -5.737154 2.089555,-2.709289 -4.508929 2.182911,-2.824552 -3.873492 2.137822,-2.895237 -3.433425 2.063976,-1.987217 -5.488478 2.115759,-2.232521 -4.071279 2.198785,-2.352733 -3.325795 2.167719,-2.427752 -2.821014 2.122576,-1.597557 -5.503079 2.160016,-1.738481 -4.170168 2.258962,-1.856526 -3.457231 2.273221,-1.969288 -2.970491 2.264359,-1.213236 -5.758534 2.222411,-1.151383 -4.731305 2.313502,-1.187943 -4.132099 2.384647,-1.259325 -3.640794 2.402328,-8.142626 -7.555606 0.4150017,-7.563286 -7.378335 0.5840229,-7.115383 -6.653669 0.7392299,-6.81663 -5.940366 0.9400888,-6.534424 -5.454724 1.062734,-7.412403 -5.157367 0.5247906,-7.175656 -4.030916 0.6175219,-7.052553 -3.420678 0.6657074,-6.947613 -2.910485 0.761658,-7.725385 -4.967491 0.6331013,-7.51074 -3.575217 0.7684458,-7.386991 -2.859623 0.9253628,-7.285155 -2.254702 1.018365,-8.03327 -5.014235 0.7648733,-7.894127 -3.714435 0.9069554,-7.766186 -3.030678 1.055879,-7.618252 -2.434097 1.199908,-8.351482 -5.268814 0.8982693,-8.342609 -4.323711 1.067319,-8.303697 -3.738246 1.216769,-8.230694 -3.163538 1.300786,1.910, 10
-1.462291 -7.767864 1.088949,-2.095948 -7.512884 1.359107,-2.608415 -6.789656 1.479971,-2.932533 -6.069771 1.639969,-3.274055 -5.624634 1.854107,-2.346328 -5.179349 1.071327,-2.604698 -4.126979 1.240524,-2.729428 -3.500551 1.373884,-2.819578 -2.937629 1.489853,-1.997334 -4.936822 1.131688,-2.199518 -3.748622 1.233944,-2.310072 -3.015646 1.370311,-2.389517 -2.375917 1.484478,-1.643957 -4.930974 1.282172,-1.775233 -3.772258 1.424024,-1.883737 -3.056433 1.578156,-1.978961 -2.420426 1.717438,-1.266058 -5.142358 1.484335,-1.236578 -4.247047 1.632393,-1.257957 -3.643568 1.797373,-1.294321 -3.060608 1.925688,-8.220084 -7.409696 1.117117,-7.59127 -7.137565 1.250693,-7.116823 -6.399229 1.416625,-6.826899 -5.664697 1.643044,-6.535939 -5.133704 1.880475,-7.426376 -4.82068 1.117635,-7.253263 -3.814937 1.268809,-7.130174 -3.194233 1.453815,-7.021688 -2.638581 1.580773,-7.742245 -4.622424 1.255203,-7.587976 -3.410532 1.357652,-7.462225 -2.645751 1.553913,-7.343793 -1.988269 1.707951,-8.063314 -4.6525 1.430907,-7.945396 -3.490901 1.534539,-7.822712 -2.765981 1.692425,-7.691956 -2.158716 1.804117,-8.408743 -4.878318 1.623987,-8.396793 -3.954569 1.774341,-8.36436 -3.360276 1.891418,-8.303679 -2.795396 1.961441,2.010, 10
-1.441284 -7.709415 1.168358,-2.079772 -7.425113 1.366373,-2.597649 -6.661085 1.446627,-2.932653 -5.9382 1.586142,-3.300087 -5.516218 1.775686,-2.300115 -5.087448 1.086228,-2.581764 -4.05745 1.237322,-2.725436 -3.43721 1.345488,-2.828856 -2.86174 1.438292,-1.969843 -4.853866 1.182069,-2.185798 -3.677707 1.328521,-2.318799 -2.960289 1.48072,-2.42003 -2.306183 1.60331,-1.629771 -4.865896 1.367759,-1.755281 -3.714797 1.552745,-1.867369 -3.005724 1.732991,-1.967711 -2.341524 1.887189,-1.259014 -5.104542 1.587449,-1.227843 -4.21804 1.763112,-1.261204 -3.633799 1.953034,-1.306107 -3.054198 2.096279,-8.255472 -7.346832 1.099416,-7.622383 -7.079893 1.239345,-7.141934 -6.355268 1.396852,-6.845637 -5.626117 1.609911,-6.554128 -5.089862 1.830938,-7.445108 -4.775917 1.109019,-7.266642 -3.751382 1.262617,-7.138234 -3.123186 1.447256,-7.026765 -2.557363 1.575608,-7.749472 -4.569606 1.236267,-7.59019 -3.347803 1.344596,-7.458041 -2.566373 1.546358,-7.335396 -1.898981 1.699083,-8.066628 -4.595186 1.40329,-7.947523 -3.422783 1.514889,-7.820962 -2.690614 1.684297,-7.686645 -2.083793 1.803433,-8.414678 -4.82116 1.583685,-8.407312 -3.88523 1.753918,-8.372807 -3.275516 1.894615,-8.309855 -2.711074 1.97785,2.110, 10
-1.414635 -7.674623 1.2035,-2.06762 -7.374918 1.349977,-2.582061 -6.613412 1.41129,-2.91263 -5.891488 1.545594,-3.281839 -5.441135 1.733519,-2.29912 -5.034112 1.057987,-2.570044 -4.018932 1.186895,-2.713991 -3.413494 1.271571,-2.81903 -2.85005 1.340422,-1.968999 -4.813933 1.16885,-2.174279 -3.643769 1.285192,-2.310046 -2.943698 1.413688,-2.413971 -2.319899 1.518246,-1.629861 -4.830135 1.368794,-1.753956 -3.688265 1.535519,-1.878331 -2.987088 1.695688,-1.990753 -2.352925 1.835187,-1.260132 -5.071237 1.597559,-1.229095 -4.186836 1.763051,-1.27646 -3.595098 1.948347,-1.33794 -3.02704 2.088435,-8.306868 -7.328161 1.01363,-7.674332 -7.084061 1.148098,-7.190835 -6.388986 1.30769,-6.890681 -5.662157 1.523363,-6.594252 -5.15295 1.743441,-7.465744 -4.807945 1.042022,-7.270472 -3.774073 1.181753,-7.139994 -3.141043 1.352773,-7.030864 -2.563875 1.473775,-7.772494 -4.581789 1.160079,-7.601832 -3.342864 1.262969,-7.462196 -2.560553 1.460902,-7.338491 -1.891943 1.609963,-8.094097 -4.584264 1.313232,-7.965798 -3.40501 1.417244,-7.828484 -2.675404 1.583995,-7.691494 -2.074205 1.702515,-8.445579 -4.784255 1.47568,-8.424102 -3.834365 1.645172,-8.382999 -3.216182 1.791289,-8.319345 -2.646909 1.873463,2.210, 10
-1.463867 -7.761947 1.277878,-2.090415 -7.400312 1.607386,-2.548902 -6.599216 1.771083,-2.748179 -5.755449 1.985906,-2.898238 -5.07724 2.253728,-2.425552 -5.133117 1.070809,-2.697924 -4.159305 1.182551,-2.829182 -3.555447 1.327593,-2.930018 -3.013048 1.450422,-2.072919 -4.895578 1.106926,-2.303247 -3.79274 1.116383,-2.439579 -3.103487 1.276433,-2.564623 -2.460192 1.412924,-1.724218 -4.87957 1.234012,-1.881825 -3.842254 1.323505,-2.017526 -3.186752 1.539405,-2.153005 -2.602803 1.71614,-1.347199 -5.059006 1.431418,-1.422731 -4.248887 1.587441,-1.51773 -3.716831 1.77165,-1.619644 -3.208297 1.920017,-8.36458 -7.357593 1.067533,-7.732944 -7.110645 1.208359,-7.239669 -6.400443 1.370126,-6.939362 -5.664743 1.588101,-6.637352 -5.137312 1.818137,-7.496962 -4.829517 1.119441,-7.289939 -3.807201 1.278494,-7.148781 -3.190687 1.452823,-7.026615 -2.628242 1.568062,-7.802343 -4.602843 1.244221,-7.626291 -3.389093 1.358169,-7.480621 -2.612699 1.563609,-7.348324 -1.947597 1.715515,-8.12367 -4.612538 1.40427,-7.99234 -3.453755 1.526846,-7.853773 -2.723338 1.711355,-7.710712 -2.115076 1.842959,-8.477092 -4.821243 1.572735,-8.455077 -3.881439 1.758869,-8.411607 -3.265047 1.92086,-8.341319 -2.688125 2.013105,2.310, 10
-1.45534 -7.653927 0.4692574,-2.049045 -7.271126 0.7401,-2.475316 -6.441697 0.9583282,-2.595065 -5.591739 1.245266,-2.656305 -4.871912 1.575598,-2.513486 -5.247447 0.383276,-2.825044 -4.293729 0.5226703,-2.948524 -3.616159 0.6548524,-3.024418 -2.991498 0.7638916,-2.169047 -5.045391 0.4781212,-2.349791 -3.847542 0.6288543,-2.452136 -3.15666 0.8013704,-2.544294 -2.52289 0.9345018,-1.808735 -5.075906 0.6643709,-1.96146 -4.137022 1.06259,-2.061851 -4.597322 1.452508,-2.105381 -5.081904 1.664273,-1.404305 -5.223178 0.8614189,-1.542552 -4.625553 1.2966,-1.663118 -4.976635 1.619305,-1.708669 -5.409758 1.815935,-8.403829 -7.329336 1.046916,-7.775053 -7.082941 1.204522,-7.283661 -6.386437 1.385743,-6.988976 -5.645881 1.622546,-6.692214 -5.097948 1.871651,-7.529325 -4.808813 1.104627,-7.326099 -3.792709 1.26897,-7.195433 -3.166111 1.450235,-7.077581 -2.60134 1.569448,-7.838595 -4.581335 1.225529,-7.658566 -3.376854 1.339186,-7.516345 -2.60696 1.54148,-7.38419 -1.940129 1.695831,-8.164171 -4.584642 1.384138,-8.022943 -3.431535 1.497181,-7.880375 -2.71754 1.671149,-7.731099 -2.120251 1.795648,-8.523184 -4.782462 1.553195,-8.488609 -3.852076 1.727914,-8.441689 -3.244314 1.877203,-8.368383 -2.669248 1.96535,2.410, 8
-1.453985 -7.607523 0.111416,-2.016602 -7.190176 0.2687051,-2.339697 -6.244051 0.3690411,-2.296825 -5.234606 0.5311315,-2.145056 -4.45004 0.6281396,-2.456732 -5.32147 -0.1887332,-2.810816 -4.350135 -0.06900583,-3.003817 -3.701617 -0.0503882,-3.151199 -3.091182 -0.04680695,-2.138891 -5.103258 -0.06371744,-2.357887 -3.889424 0.1469361,-2.498436 -3.054001 0.3171207,-2.610498 -2.286902 0.461793,-1.794642 -5.149557 0.1329949,-2.000073 -4.344911 0.6142212,-2.027306 -5.243433 0.7469606,-1.965316 -5.89207 0.7079455,-1.438875 -5.336624 0.332918,-1.678509 -4.718854 0.681124,-1.772389 -5.338083 0.776359,-1.760287 -5.847999 0.7789049,-8.466473 -7.328489 1.129471,-7.845717 -7.087928 1.316477,-7.360021 -6.368368 1.502442,-7.071225 -5.608177 1.738059,-6.796156 -5.048036 1.979469,-7.61597 -4.770651 1.16809,-7.433828 -3.766332 1.325693,-7.319028 -3.142773 1.501295,-7.212477 -2.578777 1.625194,-7.931483 -4.547777 1.261838,-7.771473 -3.357634 1.361906,-7.639751 -2.596032 1.563394,-7.513594 -1.922239 1.726177,-8.261312 -4.564264 1.398749,-8.141934 -3.42737 1.500161,-8.018778 -2.725286 1.671207,-7.889388 -2.122354 1.798869,-8.62051 -4.785291 1.550817,-8.595421 -3.883536 1.715725,-8.554338 -3.291299 1.866948,-8.490639 -2.724872 1.958631,2.510, 7
-1.495748 -7.570009 0.01641465,-2.042537 -7.167299 0.1931331,-2.357417 -6.232084 0.3159155,-2.298324 -5.213472 0.4942397,-2.115121 -4.422119 0.5967402,-2.435578 -5.279687 -0.2314415,-2.775714 -4.290209 -0.0948761,-2.964368 -3.628627 -0.07155439,-3.103617 -3.021915 -0.07215003,-2.116376 -5.074243 -0.1124648,-2.320899 -3.836589 0.08600371,-2.470901 -2.956855 0.2683181,-2.58113 -2.168661 0.4296758,-1.776546 -5.120008 0.07264358,-1.988313 -4.391557 0.542335,-2.052976 -5.271824 0.6590388,-2.007091 -5.916671 0.6152666,-1.435133 -5.305056 0.2651328,-1.669629 -4.700933 0.5920868,-1.793321 -5.287342 0.6905155,-1.805238 -5.795125 0.7003291,-8.504744 -7.397407 1.1964,-7.890554 -7.083873 1.34837,-7.417246 -6.341951 1.511122,-7.143548 -5.578999 1.734856,-6.879176 -5.000524 1.948391,-7.69218 -4.789016 1.173837,-7.522742 -3.807801 1.311606,-7.402455 -3.224791 1.46398,-7.277244 -2.699756 1.570286,-8.010316 -4.588015 1.283522,-7.861881 -3.439584 1.369895,-7.736958 -2.718665 1.566603,-7.613313 -2.095585 1.735598,-8.327682 -4.620605 1.43446,-8.21575 -3.517546 1.519422,-8.10413 -2.839984 1.691447,-7.974726 -2.275765 1.827225,-8.666086 -4.859182 1.596159,-8.629495 -3.985233 1.75038,-8.569062 -3.422922 1.897629,-8.477849 -2.909251 1.996432,2.610, 7
-1.532132 -7.479125 -0.2500281,-2.048152 -7.137668 -0.04624863,-2.38944 -6.219322 0.0767042,-2.320316 -5.211658 0.2527791,-2.095736 -4.464047 0.3511104,-2.442869 -5.255252 -0.4674416,-2.799205 -4.244939 -0.3189368,-2.995388 -3.616512 -0.2777443,-3.140356 -3.048372 -0.2651828,-2.123753 -5.0536 -0.3551624,-2.282303 -3.778397 -0.1909325,-2.389413 -2.90975 -0.03010526,-2.45733 -2.169957 0.106836,-1.797574 -5.122215 -0.1682604,-1.994084 -4.481916 0.3135927,-2.059095 -5.335723 0.4369622,-2.011987 -5.955852 0.4067842,-1.477477 -5.317604 0.02171603,-1.700457 -4.71088 0.3783392,-1.809182 -5.294185 0.4777634,-1.819236 -5.803422 0.4845465,-8.563923 -7.521358 0.2270069,-8.005205 -6.997691 0.4149446,-7.645571 -6.185776 0.6786713,-7.57 -5.340599 1.004426,-7.697548 -4.644184 1.292285,-7.7878 -5.043779 0.241192,-7.680445 -4.087179 0.615301,-7.676659 -4.610144 0.8380129,-7.726797 -5.150495 0.910736,-8.108752 -4.98921 0.3765704,-8.005969 -4.160553 0.8397025,-7.981927 -5.049727 1.080563,-8.042302 -5.645517 1.117801,-8.412105 -5.049192 0.5820755,-8.303867 -4.301216 1.006391,-8.247255 -5.209006 1.084945,-8.294893 -5.806209 1.039407,-8.735398 -5.228353 0.8033184,-8.601649 -4.567258 1.070764,-8.533592 -5.18054 1.1308,-8.572252 -5.670978 1.095086,2.710,Left Hand Closed 2
-1.57374 -7.453443 -0.2880829,-2.078455 -7.125818 -0.08035938,-2.410192 -6.215621 0.0451279,-2.340088 -5.206913 0.2241046,-2.120321 -4.469124 0.3211585,-2.45405 -5.231417 -0.4923091,-2.801038 -4.229717 -0.3246585,-2.990633 -3.596522 -0.2802359,-3.134358 -3.016331 -0.2737798,-2.132493 -5.030825 -0.3810405,-2.295481 -3.775251 -0.1887729,-2.411655 -2.903093 -0.01244441,-2.492839 -2.142123 0.1395084,-1.80131 -5.091065 -0.1942258,-2.010268 -4.466407 0.3044769,-2.083933 -5.336774 0.4198918,-2.038103 -5.960279 0.3819833,-1.474828 -5.282497 -0.003034085,-1.710948 -4.692573 0.3497636,-1.825458 -5.288568 0.4409141,-1.836226 -5.798858 0.4437413,-8.583658 -7.49302 -0.1288319,-8.02699 -7.00855 0.06977902,-7.650537 -6.240124 0.3370381,-7.59122 -5.413556 0.655411,-7.761171 -4.765415 0.9387945,-7.795259 -5.129529 -0.1062874,-7.676717 -4.269685 0.226785,-7.695112 -4.90944 0.4071639,-7.76673 -5.425731 0.4258866,-8.109877 -5.066721 0.0004199296,-8.00539 -4.336254 0.3986949,-7.98438 -5.180969 0.5986899,-8.055215 -5.703531 0.5986052,-8.418543 -5.114946 0.1714082,-8.314511 -4.46537 0.515815,-8.246425 -5.291779 0.6056569,-8.290774 -5.835764 0.5765368,-8.757973 -5.266792 0.3697731,-8.632143 -4.66897 0.568251,-8.541187 -5.212215 0.6413528,-8.564492 -5.680601 0.623342,2.810,Left Hand Closed 2
-1.600119 -7.40409 -0.4925025,-2.093942 -7.075353 -0.2844284,-2.410364 -6.171616 -0.158011,-2.348867 -5.19638 0.01565486,-2.142139 -4.454053 0.09365016,-2.473648 -5.232544 -0.6593858,-2.815419 -4.203393 -0.4714107,-3.005672 -3.544639 -0.4131313,-3.141702 -2.953136 -0.3967548,-2.1592 -5.040138 -0.5364126,-2.360741 -3.764172 -0.3269232,-2.503081 -2.866779 -0.1388985,-2.602106 -2.070889 0.0255782,-1.824688 -5.101684 -0.3417399,-2.035398 -4.445664 0.1924167,-2.098128 -5.318139 0.2972458,-2.054031 -5.95133 0.2403467,-1.485326 -5.284509 -0.1444051,-1.720279 -4.666957 0.2276294,-1.837632 -5.254898 0.306962,-1.853095 -5.767246 0.2934031,-8.547329 -7.344931 -0.5370982,-8.043779 -6.959943 -0.2750852,-7.675798 -6.210402 0.02048808,-7.629655 -5.363457 0.3665456,-7.843435 -4.756925 0.6445379,-7.85303 -5.07266 -0.530134,-7.70063 -4.302625 -0.08694914,-7.700677 -4.993192 0.08753091,-7.77151 -5.423753 0.01396924,-8.154043 -5.020952 -0.4465393,-8.011119 -4.410076 0.09768343,-8.002674 -5.328139 0.2267498,-8.089842 -5.672811 0.07575041,-8.456868 -5.096565 -0.2710552,-8.333712 -4.554603 0.1856529,-8.27997 -5.431457 0.2147821,-8.35428 -5.798545 0.07355893,-8.794995 -5.283591 -0.05268425,-8.644568 -4.78506 0.1783835,-8.55574 -5.369564 0.2111174,-8.606604 -5.712305 0.1066221,2.910,Left Hand Closed 2
-1.593411 -7.418052 -0.4361298,-2.092705 -7.090198 -0.2284018,-2.421215 -6.190778 -0.09652656,-2.356013 -5.215452 0.07971317,-2.128162 -4.480321 0.1520774,-2.46848 -5.228788 -0.6326922,-2.800754 -4.207983 -0.4809941,-2.987086 -3.558725 -0.4371929,-3.117041 -2.973112 -0.4298156,-2.158409 -5.0399 -0.5169522,-2.362951 -3.775306 -0.3427277,-2.501926 -2.887117 -0.1662354,-2.597998 -2.105526 -0.009916723,-1.827872 -5.100774 -0.3302657,-2.045033 -4.438772 0.1665096,-2.09607 -5.29732 0.287999,-2.038961 -5.924839 0.2559047,-1.493305 -5.278512 -0.1393528,-1.730089 -4.660459 0.2096292,-1.8355 -5.241318 0.2924149,-1.839586 -5.747205 0.2883416,-8.537198 -7.348938 -0.6331099,-8.049861 -6.955318 -0.3076716,-7.693175 -6.207654 -0.01501477,-7.640145 -5.372116 0.3145474,-7.823033 -4.782716 0.5765392,-7.890239 -5.080844 -0.5857444,-7.766358 -4.309927 -0.09736454,-7.754988 -4.973499 0.09744638,-7.807149 -5.396015 0.03196323,-8.189797 -5.045805 -0.5339966,-8.062091 -4.455744 0.05673844,-8.045282 -5.37113 0.1878633,-8.120601 -5.677051 0.02342677,-8.484547 -5.126693 -0.3759468,-8.373466 -4.594079 0.1305225,-8.318079 -5.468637 0.1543706,-8.38455 -5.806994 -0.003736615,-8.807493 -5.317901 -0.1731925,-8.674242 -4.820907 0.09009933,-8.589231 -5.390955 0.128429,-8.63655 -5.706231 0.02142799,3.010,Left Hand Closed 2
-1.607569 -7.441053 -0.3553366,-2.112049 -7.115274 -0.1608675,-2.433302 -6.203449 -0.03680867,-2.370711 -5.212244 0.1426405,-2.16841 -4.450886 0.2216212,-2.486147 -5.236285 -0.5834339,-2.828836 -4.222579 -0.4203426,-3.017653 -3.565294 -0.3791268,-3.152656 -2.973191 -0.3766988,-2.167377 -5.038682 -0.4554042,-2.37823 -3.781822 -0.2562621,-2.5216 -2.898973 -0.07545045,-2.622036 -2.119735 0.06890854,-1.828193 -5.08863 -0.2533169,-2.056126 -4.441481 0.2722732,-2.126064 -5.310239 0.3829572,-2.082045 -5.948347 0.3242559,-1.481809 -5.258214 -0.04862919,-1.725307 -4.651001 0.3138083,-1.850087 -5.225018 0.3875877,-1.868663 -5.730789 0.366935,-8.528252 -7.282318 -0.6924315,-8.055857 -6.917109 -0.3581958,-7.698107 -6.165555 -0.04378331,-7.65476 -5.321923 0.3091643,-7.870995 -4.728403 0.5746975,-7.906875 -5.020589 -0.6193305,-7.788591 -4.324429 -0.1263648,-7.785705 -5.034879 0.04594982,-7.845431 -5.448133 -0.03994292,-8.209769 -4.9935 -0.5656559,-8.083057 -4.438619 0.02756381,-8.059016 -5.358046 0.1221325,-8.136323 -5.63817 -0.07404625,-8.511369 -5.104919 -0.4059557,-8.393662 -4.618949 0.1085447,-8.328681 -5.495676 0.1068213,-8.401543 -5.805372 -0.07438767,-8.83613 -5.328392 -0.2000923,-8.691452 -4.861379 0.06278366,-8.601604 -5.436362 0.09047216,-8.653296 -5.730988 -0.03642249,3.110,Left Hand Closed 2
-1.596588 -7.431814 -0.386288,-2.107633 -7.122032 -0.1956671,-2.433724 -6.214031 -0.08354318,-2.368655 -5.227366 0.08590525,-2.16888 -4.457288 0.1551144,-2.478893 -5.250624 -0.6360297,-2.822705 -4.226755 -0.4848904,-3.013058 -3.561924 -0.4468133,-3.14922 -2.970016 -0.4431874,-2.16745 -5.042586 -0.5168639,-2.384373 -3.787777 -0.3243121,-2.53376 -2.905488 -0.1457133,-2.647815 -2.14291 -0.004212111,-1.832231 -5.078952 -0.3223924,-2.061064 -4.442502 0.2051418,-2.127845 -5.30698 0.3271617,-2.088301 -5.95224 0.2710529,-1.490967 -5.230073 -0.1249776,-1.744722 -4.639862 0.2377366,-1.875496 -5.202703 0.3204877,-1.90136 -5.710521 0.3036974,-8.511486 -7.30496 -0.6707564,-8.043228 -6.922637 -0.3001995,-7.685314 -6.166612 0.0302732,-7.642221 -5.307596 0.3972152,-7.874196 -4.723815 0.6445854,-7.919615 -5.023508 -0.5965512,-7.788492 -4.364224 -0.05872118,-7.790782 -5.137169 0.08657676,-7.855904 -5.49834 -0.03969902,-8.218223 -5.006284 -0.548207,-8.079358 -4.466747 0.115522,-8.061606 -5.439311 0.1514286,-8.150938 -5.627725 -0.1156358,-8.523051 -5.124818 -0.3720078,-8.397643 -4.630653 0.2086318,-8.335844 -5.556669 0.1588131,-8.42397 -5.793458 -0.07208902,-8.849348 -5.341472 -0.1446435,-8.698647 -4.858455 0.1485885,-8.610159 -5.461551 0.1647258,-8.678239 -5.711886 0.00844878,3.210,Left Hand Closed 2
-1.61921 -7.448175 -0.3278189,-2.115463 -7.099369 -0.112221,-2.431673 -6.199777 0.02224845,-2.362461 -5.241401 0.1954988,-2.156209 -4.508802 0.2829686,-2.485551 -5.21957 -0.4777656,-2.823746 -4.192255 -0.3052596,-3.016528 -3.532604 -0.2519186,-3.149804 -2.949826 -0.234539,-2.168205 -5.033582 -0.3729005,-2.366673 -3.770553 -0.1817214,-2.507969 -2.887809 -0.008812517,-2.602528 -2.119761 0.1382711,-1.832801 -5.112913 -0.1957527,-2.03685 -4.471342 0.3085852,-2.116828 -5.313692 0.419717,-2.085441 -5.941204 0.3694542,-1.495646 -5.315465 -0.01331794,-1.71823 -4.71339 0.3438917,-1.85117 -5.270752 0.4328986,-1.883709 -5.781235 0.4247497,-8.501064 -7.266103 -0.6882312,-8.029449 -6.907943 -0.3202334,-7.67048 -6.164428 0.01347226,-7.640996 -5.30657 0.377763,-7.887605 -4.760211 0.6151916,-7.910683 -4.998064 -0.623648,-7.777087 -4.376764 -0.1086181,-7.799144 -5.17217 -0.005785525,-7.875551 -5.481059 -0.1723288,-8.210655 -4.971408 -0.5799583,-8.06924 -4.45168 0.07153922,-8.063506 -5.432693 0.06576061,-8.157665 -5.553306 -0.2351136,-8.516757 -5.085327 -0.4026923,-8.387618 -4.62881 0.1764184,-8.32949 -5.556045 0.1328054,-8.421032 -5.723985 -0.1005283,-8.841795 -5.286182 -0.1792729,-8.688342 -4.84213 0.112074,-8.60816 -5.463792 0.1381344,-8.686042 -5.673534 -0.0152415,3.310,Left Hand Closed 2
-1.615794 -7.489149 -0.3277046,-2.121745 -7.120761 -0.1447062,-2.43323 -6.207845 -0.02570835,-2.37585 -5.238016 0.1510707,-2.175196 -4.465457 0.2370238,-2.484031 -5.265776 -0.5536678,-2.820074 -4.238559 -0.3930314,-3.010326 -3.576813 -0.3395337,-3.145609 -2.987323 -0.3213649,-2.16909 -5.077076 -0.4260557,-2.369362 -3.797753 -0.2369035,-2.50622 -2.903452 -0.04948509,-2.600852 -2.123608 0.1050831,-1.831208 -5.141191 -0.2268463,-2.055265 -4.464698 0.2898384,-2.135552 -5.306558 0.4163343,-2.103098 -5.947139 0.3683053,-1.485566 -5.318017 -0.02713448,-1.725142 -4.702045 0.3381342,-1.858625 -5.2514 0.4205033,-1.887771 -5.7548 0.4087916,-8.49896 -7.256395 -0.716749,-8.027968 -6.917572 -0.3460574,-7.666955 -6.170757 -0.01934582,-7.64018 -5.306066 0.3379295,-7.882806 -4.755804 0.5653225,-7.909207 -5.004215 -0.6499088,-7.784247 -4.387558 -0.1261033,-7.809393 -5.18958 -0.02218872,-7.883018 -5.515363 -0.1849881,-8.209429 -4.969803 -0.6083588,-8.080858 -4.443161 0.04445636,-8.074739 -5.436653 0.03006852,-8.162972 -5.575819 -0.2814225,-8.51751 -5.08398 -0.4320617,-8.404168 -4.61359 0.1458967,-8.343603 -5.554942 0.08667171,-8.429518 -5.737811 -0.1625149,-8.844402 -5.291189 -0.2074212,-8.704148 -4.838165 0.08370769,-8.62483 -5.471698 0.101302,-8.701655 -5.688667 -0.0606178,3.410,Left Hand Closed 2
-1.609639 -7.501565 -0.2887587,-2.120522 -7.165026 -0.08787094,-2.43704 -6.237612 0.02900746,-2.364749 -5.249463 0.200079,-2.15253 -4.487731 0.2767659,-2.467879 -5.268389 -0.5041298,-2.809986 -4.229846 -0.3509754,-3.000623 -3.560481 -0.3123602,-3.135174 -2.965207 -0.3058212,-2.153292 -5.075777 -0.3834742,-2.352776 -3.803531 -0.1988442,-2.495776 -2.918115 -0.0222258,-2.593753 -2.150794 0.1228932,-1.818785 -5.140681 -0.1889724,-2.040348 -4.497468 0.3330657,-2.118224 -5.354139 0.4498739,-2.077772 -5.98928 0.3962319,-1.48454 -5.326093 0.009501934,-1.728006 -4.721045 0.3741872,-1.865091 -5.27913 0.451442,-1.892956 -5.784381 0.4356334,-8.499332 -7.250204 -0.5876545,-8.028749 -6.915312 -0.2113347,-7.667206 -6.181796 0.1182583,-7.628463 -5.33369 0.4864365,-7.863384 -4.776684 0.7310597,-7.905587 -4.963354 -0.5289822,-7.757018 -4.402538 0.01941913,-7.794023 -5.209087 0.1449793,-7.878906 -5.525633 -0.008114934,-8.209515 -4.926009 -0.4886668,-8.055774 -4.462692 0.1756929,-8.063 -5.462584 0.1566429,-8.16453 -5.575157 -0.16468,-8.519393 -5.043323 -0.3089054,-8.378945 -4.629369 0.2889413,-8.333761 -5.577409 0.2330405,-8.432633 -5.736112 -0.02010483,-8.846068 -5.253401 -0.08265525,-8.676675 -4.848526 0.2230927,-8.605797 -5.486631 0.2442405,-8.697222 -5.685652 0.07920706,3.510,Left Hand Closed 2
-1.604109 -7.502262 -0.3070762,-2.116021 -7.186806 -0.1146138,-2.440671 -6.25014 0.004923761,-2.363675 -5.257118 0.187127,-2.140207 -4.503628 0.2724696,-2.468118 -5.284563 -0.5450538,-2.812118 -4.260646 -0.3802482,-2.998384 -3.592824 -0.3344277,-3.126535 -2.996242 -0.3276932,-2.151155 -5.083122 -0.4146293,-2.347893 -3.819355 -0.2254646,-2.487384 -2.925816 -0.03858906,-2.582809 -2.143663 0.1163369,-1.815772 -5.134159 -0.2068395,-2.043068 -4.501171 0.3104488,-2.117416 -5.36136 0.4253211,-2.068734 -5.989555 0.3737249,-1.480359 -5.302078 0.00373745,-1.731791 -4.709389 0.3668751,-1.858507 -5.286389 0.4444869,-1.875336 -5.791442 0.4280392,-8.493758 -7.24052 -0.5831702,-8.022309 -6.904611 -0.1847546,-7.656681 -6.178313 0.1708144,-7.614218 -5.331039 0.5601516,-7.858877 -4.768167 0.8211589,-7.897118 -4.957337 -0.5110613,-7.732087 -4.425771 0.06204379,-7.774876 -5.236625 0.1880279,-7.869834 -5.52872 0.03130275,-8.203511 -4.915405 -0.4773729,-8.034164 -4.467832 0.2192791,-8.046191 -5.484768 0.197731,-8.15767 -5.57743 -0.1380837,-8.518101 -5.028956 -0.299935,-8.361061 -4.632219 0.3164396,-8.316052 -5.595321 0.2567164,-8.421401 -5.729761 -0.004895329,-8.847303 -5.227947 -0.07339758,-8.657617 -4.849522 0.2382258,-8.588789 -5.498475 0.2532734,-8.690083 -5.674728 0.07716489,3.610,Left Hand Closed 2
-1.60095 -7.464567 -0.3712745,-2.108877 -7.142045 -0.1741227,-2.429296 -6.232807 -0.06276017,-2.359944 -5.246871 0.1086532,-2.151348 -4.49893 0.1880178,-2.472422 -5.270285 -0.6037598,-2.81251 -4.248104 -0.4424628,-2.997231 -3.589448 -0.4021858,-3.13034 -2.994815 -0.4025865,-2.156476 -5.066467 -0.48475,-2.350458 -3.803633 -0.2861449,-2.480125 -2.910417 -0.09715316,-2.572988 -2.129688 0.06064573,-1.821592 -5.106746 -0.2914492,-2.042875 -4.518968 0.2337221,-2.105995 -5.378139 0.3496186,-2.06083 -6.008179 0.297268,-1.485631 -5.260807 -0.09512776,-1.731143 -4.689144 0.2624732,-1.84969 -5.268341 0.3344058,-1.867923 -5.778064 0.3148698,-8.497584 -7.251438 -0.4651324,-8.02169 -6.936153 -0.04355523,-7.653507 -6.213573 0.3131869,-7.617772 -5.346155 0.6956011,-7.85656 -4.772005 0.9483598,-7.879226 -4.955717 -0.3467031,-7.713652 -4.447656 0.2364742,-7.781671 -5.262466 0.3395116,-7.878935 -5.538972 0.1701584,-8.197269 -4.895067 -0.3298188,-8.028069 -4.48911 0.392567,-8.057958 -5.512106 0.3535089,-8.166071 -5.56157 -0.0002347231,-8.51687 -5.001571 -0.1648572,-8.361502 -4.660538 0.4852538,-8.32868 -5.630403 0.41785,-8.4269 -5.713244 0.1447876,-8.845903 -5.192078 0.04858416,-8.657699 -4.876303 0.3840573,-8.595047 -5.540564 0.412868,-8.690597 -5.670436 0.2420432,3.710,Left Hand Closed 2
-1.615909 -7.494682 -0.3285899,-2.108646 -7.152399 -0.1200412,-2.427209 -6.248403 0.01223251,-2.349466 -5.277179 0.1897173,-2.121929 -4.535223 0.2665163,-2.474896 -5.267572 -0.5220582,-2.796641 -4.236524 -0.3741188,-2.976925 -3.58509 -0.3368877,-3.105012 -3.006867 -0.3299165,-2.155563 -5.07929 -0.4133074,-2.332287 -3.805867 -0.2637183,-2.452634 -2.930959 -0.09986086,-2.533123 -2.162017 0.04987609,-1.823188 -5.154075 -0.2329767,-2.023045 -4.508464 0.254227,-2.084009 -5.374221 0.3625721,-2.036151 -5.995444 0.3218852,-1.49036 -5.345726 -0.04895675,-1.71657 -4.723533 0.2962109,-1.823414 -5.306354 0.3669024,-1.826482 -5.812577 0.3536207,-8.485795 -7.231269 -0.5346058,-8.004641 -6.936683 -0.1126422,-7.632164 -6.217145 0.2481602,-7.594251 -5.367355 0.6343368,-7.848127 -4.82901 0.9001551,-7.87665 -4.944879 -0.3991145,-7.714864 -4.447967 0.1829655,-7.773451 -5.259794 0.2931823,-7.871814 -5.542135 0.1208023,-8.193221 -4.895236 -0.3784621,-8.016865 -4.497827 0.3317617,-8.036545 -5.506912 0.2958257,-8.146095 -5.574246 -0.046839,-8.511239 -5.010351 -0.2144183,-8.34765 -4.675136 0.4185818,-8.307433 -5.629729 0.3556335,-8.408176 -5.735368 0.09680223,-8.840043 -5.212316 0.0004547834,-8.648104 -4.893522 0.3199352,-8.580558 -5.545819 0.341499,-8.675114 -5.698604 0.17317,3.810,Left Hand Closed 2
-1.620145 -7.487879 -0.3633705,-2.117553 -7.138248 -0.1536083,-2.427427 -6.215299 -0.01980227,-2.355294 -5.240183 0.1668416,-2.148065 -4.497909 0.2622147,-2.449229 -5.252729 -0.5470889,-2.780622 -4.214228 -0.3765567,-2.964893 -3.554444 -0.3250075,-3.095057 -2.965257 -0.3130867,-2.133886 -5.076438 -0.4290425,-2.322794 -3.805983 -0.2320714,-2.45146 -2.92274 -0.04165459,-2.537677 -2.147096 0.1225991,-1.804155 -5.153279 -0.2367685,-2.025231 -4.51605 0.2787329,-2.101404 -5.367094 0.3996683,-2.059519 -5.991741 0.3596916,-1.472363 -5.344125 -0.04220921,-1.710041 -4.736366 0.3211956,-1.833983 -5.307783 0.4013144,-1.851636 -5.811821 0.3927526,-8.482877 -7.223655 -0.634221,-8.012191 -6.946367 -0.1976431,-7.638446 -6.222513 0.158701,-7.594458 -5.371042 0.5413136,-7.846904 -4.832164 0.7954246,-7.858957 -4.970552 -0.5068962,-7.689152 -4.449746 0.09999865,-7.754654 -5.26123 0.2217006,-7.856765 -5.553583 0.05990726,-8.175952 -4.917592 -0.4884596,-8.005725 -4.48732 0.2472367,-8.03209 -5.512085 0.2206954,-8.139016 -5.596105 -0.1264294,-8.50022 -5.029287 -0.3233195,-8.34376 -4.664159 0.3376185,-8.30791 -5.637897 0.2719614,-8.405094 -5.75724 -0.006520689,-8.838367 -5.231073 -0.105767,-8.648119 -4.876523 0.2341404,-8.581454 -5.537986 0.2478862,-8.675881 -5.702943 0.06498879,3.910,Left Hand Closed 2
-1.611605 -7.473445 -0.4063357,-2.111354 -7.175199 -0.1776706,-2.42806 -6.262096 -0.05284849,-2.362074 -5.271374 0.1160704,-2.153523 -4.523704 0.1806148,-2.475953 -5.280621 -0.6149128,-2.793022 -4.241493 -0.4627771,-2.970165 -3.575195 -0.4263073,-3.100295 -2.975061 -0.4239831,-2.16116 -5.084051 -0.5148157,-2.348126 -3.816096 -0.3334086,-2.480236 -2.929342 -0.1626268,-2.574156 -2.14005 -0.0188992,-1.828961 -5.133708 -0.3375716,-2.038003 -4.497539 0.1929259,-2.107252 -5.375356 0.3047595,-2.064385 -6.007717 0.2402374,-1.494373 -5.303298 -0.1533633,-1.728805 -4.690205 0.2159193,-1.843511 -5.268674 0.2961227,-1.85062 -5.776201 0.2803445,-8.478584 -7.219076 -0.5609028,-8.007736 -6.935168 -0.1128883,-7.633226 -6.215368 0.2585568,-7.592706 -5.375077 0.6543981,-7.849937 -4.829266 0.9286054,-7.859135 -4.947334 -0.4086123,-7.686047 -4.448114 0.2027897,-7.754707 -5.257968 0.3348333,-7.857754 -5.557991 0.1853694,-8.178758 -4.892599 -0.3903655,-8.004119 -4.489843 0.3417832,-8.028593 -5.50724 0.3291264,-8.137374 -5.595493 -0.007655561,-8.504943 -5.007032 -0.2273609,-8.340148 -4.665784 0.426021,-8.30124 -5.633694 0.3749686,-8.399199 -5.754755 0.1066684,-8.84427 -5.212579 -0.01295185,-8.641882 -4.897045 0.3238544,-8.573024 -5.558316 0.3449225,-8.669271 -5.716777 0.1683038,4.010,Left Hand Closed 2
-1.640779 -7.480762 -0.3280807,-2.121387 -7.126615 -0.1095573,-2.431366 -6.211157 0.02262622,-2.351076 -5.253215 0.2048651,-2.130413 -4.523931 0.29298,-2.457156 -5.228305 -0.4967209,-2.781053 -4.193027 -0.3199995,-2.965723 -3.535053 -0.267329,-3.099401 -2.94287 -0.2599373,-2.13795 -5.05529 -0.3835984,-2.31035 -3.787864 -0.194644,-2.43655 -2.898063 -0.01741686,-2.522165 -2.11345 0.1358235,-1.808787 -5.136356 -0.1962327,-2.01785 -4.508502 0.3284616,-2.093699 -5.357694 0.4490335,-2.052057 -5.984499 0.3987147,-1.479749 -5.331728 -0.004871905,-1.714572 -4.718772 0.3481134,-1.840635 -5.283088 0.4218236,-1.860927 -5.789571 0.4029602,-8.469853 -7.244341 -0.5837401,-8.004022 -6.95602 -0.1360427,-7.629779 -6.234596 0.2292474,-7.592809 -5.368097 0.6156647,-7.857858 -4.814958 0.8603972,-7.856932 -4.979605 -0.4521085,-7.693554 -4.459564 0.1460941,-7.758206 -5.271938 0.2495328,-7.856156 -5.542982 0.07899785,-8.173956 -4.922466 -0.4347068,-8.017879 -4.488918 0.3134769,-8.040597 -5.518706 0.2759684,-8.139077 -5.564949 -0.08332413,-8.496929 -5.036432 -0.2684669,-8.356396 -4.669755 0.3973763,-8.312451 -5.650919 0.3217323,-8.400983 -5.724598 0.03841358,-8.830808 -5.234689 -0.04705143,-8.65545 -4.899131 0.2889045,-8.583969 -5.569822 0.302845,-8.669693 -5.699265 0.1221741,4.110,Left Hand Closed 2
-1.612947 -7.528982 -0.2847602,-2.10983 -7.185947 -0.06973708,-2.419778 -6.271526 0.05567104,-2.345194 -5.29721 0.2278231,-2.144037 -4.527561 0.3033081,-2.45688 -5.280487 -0.4945452,-2.759533 -4.230114 -0.3458031,-2.927532 -3.563959 -0.3006546,-3.049564 -2.961189 -0.2866936,-2.138492 -5.098358 -0.3877027,-2.315992 -3.820977 -0.2139268,-2.434252 -2.94541 -0.03567052,-2.517576 -2.164548 0.1143666,-1.804414 -5.171337 -0.204841,-2.012018 -4.521541 0.312506,-2.081166 -5.39486 0.4359952,-2.042096 -6.028257 0.3905761,-1.470488 -5.3575 -0.01882058,-1.706466 -4.755268 0.3460552,-1.822972 -5.333219 0.4208074,-1.832861 -5.837713 0.4033992,-8.465198 -7.244342 -0.5454111,-7.996892 -6.936626 -0.1252615,-7.622471 -6.220798 0.228405,-7.579803 -5.363069 0.6112281,-7.842093 -4.811539 0.8675339,-7.87792 -4.956588 -0.4403148,-7.700048 -4.463089 0.1576508,-7.751589 -5.272724 0.2907116,-7.852245 -5.5639 0.1384603,-8.190368 -4.907651 -0.4161119,-8.005045 -4.507681 0.309587,-8.022197 -5.530836 0.2946938,-8.136575 -5.608758 -0.04347342,-8.509738 -5.022033 -0.246948,-8.339298 -4.688743 0.3941176,-8.297735 -5.659476 0.3293638,-8.402212 -5.763528 0.06190592,-8.841697 -5.218635 -0.0255242,-8.637134 -4.912295 0.297564,-8.56762 -5.575328 0.3115581,-8.66734 -5.724643 0.1314261,4.210,Left Hand Closed 2
-1.612866 -7.526477 -0.2977943,-2.107122 -7.17745 -0.08461811,-2.421066 -6.265012 0.04665431,-2.352155 -5.294099 0.2278439,-2.143395 -4.547138 0.3127059,-2.454849 -5.282604 -0.4857192,-2.769176 -4.233173 -0.3337061,-2.943282 -3.565406 -0.2904739,-3.069736 -2.968988 -0.2817273,-2.137744 -5.098625 -0.3764007,-2.311851 -3.811996 -0.2064316,-2.432261 -2.925329 -0.03423363,-2.517789 -2.142675 0.1203149,-1.805583 -5.171667 -0.1934991,-2.018126 -4.519229 0.3270895,-2.084648 -5.397716 0.4498067,-2.039096 -6.042438 0.4042917,-1.472407 -5.356977 -0.009553373,-1.712551 -4.740897 0.3554108,-1.824573 -5.33151 0.4317369,-1.829393 -5.853977 0.4181324,-8.484143 -7.252635 -0.629137,-8.010373 -6.950294 -0.2077453,-7.631536 -6.242776 0.1505404,-7.586535 -5.400794 0.5403138,-7.839972 -4.843389 0.8019776,-7.869333 -5.000691 -0.5272171,-7.696191 -4.491836 0.06990808,-7.760284 -5.291854 0.1974806,-7.867026 -5.589237 0.0455839,-8.17922 -4.943985 -0.4973959,-7.998633 -4.505746 0.2300524,-8.022657 -5.512908 0.2188208,-8.139868 -5.608537 -0.1199201,-8.501884 -5.050498 -0.3219005,-8.326566 -4.68861 0.3253394,-8.294164 -5.647777 0.2671076,-8.40635 -5.765462 -0.002588928,-8.842164 -5.245858 -0.09825695,-8.630654 -4.909565 0.2283432,-8.565269 -5.567419 0.2419866,-8.67188 -5.728618 0.06314081,4.310,Left Hand Closed 2
-1.606843 -7.576206 -0.1425213,-2.101764 -7.213048 0.05762625,-2.419479 -6.281094 0.1954767,-2.335021 -5.300764 0.3820262,-2.116773 -4.553566 0.4689719,-2.464583 -5.283113 -0.3639172,-2.7704 -4.246498 -0.2088628,-2.940832 -3.588916 -0.1539921,-3.064095 -2.998845 -0.1346756,-2.142726 -5.106205 -0.2447579,-2.310281 -3.832394 -0.08093478,-2.423252 -2.948274 0.09215708,-2.50126 -2.165423 0.2471217,-1.807147 -5.191766 -0.05328065,-2.013731 -4.518322 0.4385938,-2.07266 -5.403556 0.5482813,-2.019676 -6.03547 0.5057416,-1.471055 -5.39416 0.1416973,-1.711865 -4.784584 0.4892054,-1.812277 -5.386786 0.5559371,-1.803498 -5.893569 0.5398043,-8.469313 -7.239316 -0.6623954,-8.003479 -6.954473 -0.2285077,-7.620734 -6.249961 0.141563,-7.573339 -5.414817 0.5386839,-7.838397 -4.876697 0.8076737,-7.856699 -4.996044 -0.5157567,-7.689355 -4.48583 0.08955729,-7.745247 -5.291536 0.2358821,-7.840686 -5.606126 0.09089386,-8.173095 -4.94186 -0.4893241,-7.996717 -4.525152 0.2298294,-8.020946 -5.527092 0.2155766,-8.129787 -5.638399 -0.1161336,-8.498216 -5.053089 -0.3182403,-8.330354 -4.695302 0.3190728,-8.299274 -5.654794 0.2575848,-8.402528 -5.802791 -0.01181006,-8.841631 -5.256771 -0.09686273,-8.645765 -4.906053 0.2223827,-8.580267 -5.561602 0.2295429,-8.674449 -5.747339 0.04713422,4.410,Left Hand Closed 2
-1.597534 -7.542506 -0.1766531,-2.095696 -7.225358 0.05470876,-2.423392 -6.310125 0.1952255,-2.336174 -5.322908 0.3722058,-2.109687 -4.602535 0.4456205,-2.460739 -5.273302 -0.3648356,-2.781637 -4.235048 -0.2362822,-2.949976 -3.586211 -0.2183715,-3.07044 -3.013291 -0.2285209,-2.140111 -5.08373 -0.2739914,-2.310822 -3.809568 -0.1343296,-2.425615 -2.943876 0.01258221,-2.504108 -2.178489 0.1458659,-1.809414 -5.175163 -0.1063794,-2.009632 -4.533552 0.3714883,-2.062821 -5.424677 0.4826826,-2.008081 -6.05565 0.4382467,-1.47841 -5.385443 0.06669968,-1.707893 -4.787706 0.4106586,-1.804498 -5.398394 0.4892706,-1.799562 -5.921173 0.4784859,-8.4594 -7.219566 -0.7193294,-7.989355 -6.944141 -0.2748355,-7.604293 -6.235479 0.09224957,-7.566138 -5.391634 0.4793633,-7.837454 -4.862154 0.7320536,-7.852513 -4.98498 -0.5646076,-7.69125 -4.490757 0.03851753,-7.747867 -5.297003 0.1706645,-7.841862 -5.590213 0.01761419,-8.169195 -4.937761 -0.5464116,-7.995631 -4.526735 0.18298,-8.018721 -5.530272 0.1619518,-8.126665 -5.620706 -0.1747468,-8.4957 -5.054964 -0.3836047,-8.327968 -4.705577 0.2635441,-8.293991 -5.66297 0.2011444,-8.39658 -5.789639 -0.0694862,-8.840508 -5.258202 -0.1690546,-8.642928 -4.914094 0.1531792,-8.575091 -5.57257 0.1626739,-8.668465 -5.746906 -0.02042377,4.510,Left Hand Closed 2
-1.609736 -7.513857 -0.2041576,-2.112825 -7.156218 0.003287792,-2.443177 -6.234319 0.136261,-2.342939 -5.259712 0.319555,-2.101477 -4.56485 0.4192146,-2.455612 -5.222229 -0.4021713,-2.780495 -4.175552 -0.2517818,-2.955871 -3.539135 -0.2047219,-3.083192 -2.963085 -0.196706,-2.128775 -5.057756 -0.2921554,-2.293189 -3.791463 -0.1342407,-2.403924 -2.942825 0.02489442,-2.48389 -2.197827 0.1683966,-1.798171 -5.15843 -0.1050676,-2.000781 -4.554201 0.3848257,-2.06067 -5.433288 0.4964612,-2.008275 -6.051585 0.4506605,-1.472511 -5.375664 0.08638099,-1.707152 -4.799831 0.4354303,-1.806049 -5.41245 0.5058069,-1.798857 -5.923082 0.4935001,-8.458989 -7.199253 -0.7730331,-7.99499 -6.937501 -0.3197203,-7.613001 -6.255534 0.05523014,-7.565145 -5.429076 0.450685,-7.822309 -4.888182 0.7177469,-7.846871 -4.987479 -0.6111199,-7.675695 -4.46817 0.004279673,-7.731493 -5.26538 0.1417391,-7.825283 -5.567337 -0.01030523,-8.163841 -4.934186 -0.5928507,-7.986077 -4.513614 0.144704,-8.009345 -5.516796 0.1327608,-8.116632 -5.605794 -0.2070862,-8.490437 -5.046121 -0.4267083,-8.318461 -4.702907 0.2294028,-8.286139 -5.662679 0.1713758,-8.38786 -5.778013 -0.1041846,-8.835278 -5.247201 -0.2092474,-8.631439 -4.908541 0.123601,-8.562672 -5.566849 0.1374052,-8.657385 -5.72908 -0.04379261,4.610,Left Hand Closed 2
-1.62581 -7.520732 -0.2372344,-2.122957 -7.158506 -0.01551631,-2.443686 -6.227573 0.1211151,-2.347778 -5.247383 0.2989072,-2.114186 -4.541017 0.3913561,-2.450896 -5.225956 -0.4179777,-2.768971 -4.186508 -0.2703871,-2.937624 -3.555244 -0.2215438,-3.061297 -2.990081 -0.2021245,-2.12547 -5.069911 -0.3149878,-2.286344 -3.804286 -0.1674401,-2.390379 -2.959043 -0.009594798,-2.466362 -2.208495 0.1310462,-1.795747 -5.1867 -0.1341104,-1.986591 -4.541696 0.3511584,-2.057621 -5.429563 0.4537492,-2.018786 -6.06002 0.407875,-1.469282 -5.425577 0.0540756,-1.69036 -4.827828 0.4155511,-1.797951 -5.43806 0.4894081,-1.803352 -5.943501 0.4798199,-8.470081 -7.213409 -0.6213792,-7.994989 -6.962379 -0.154909,-7.595922 -6.269462 0.2172748,-7.542976 -5.416681 0.6035107,-7.822014 -4.895713 0.8605447,-7.838408 -4.969322 -0.4309513,-7.670581 -4.499418 0.1741239,-7.743592 -5.301872 0.2913051,-7.84284 -5.57826 0.1301806,-8.15989 -4.907712 -0.425908,-7.982382 -4.537892 0.3152022,-8.016351 -5.548267 0.2861468,-8.123053 -5.617078 -0.05866969,-8.487617 -5.017972 -0.2762345,-8.319412 -4.724411 0.3836311,-8.292186 -5.683645 0.3196065,-8.391047 -5.777897 0.05026305,-8.825825 -5.213007 -0.07128465,-8.628285 -4.938665 0.2583399,-8.56712 -5.603194 0.275763,-8.661111 -5.742656 0.0984695,4.710,Left Hand Closed 2
-1.608701 -7.513977 -0.2574776,-2.117931 -7.165346 -0.02443728,-2.439582 -6.240381 0.1108325,-2.349064 -5.252472 0.2801359,-2.122584 -4.539939 0.3572977,-2.451252 -5.239769 -0.4365951,-2.771509 -4.195831 -0.3083193,-2.941599 -3.564954 -0.2682169,-3.070175 -2.998697 -0.2541347,-2.12763 -5.073738 -0.3531197,-2.287044 -3.799885 -0.2243187,-2.390989 -2.955485 -0.06949587,-2.468036 -2.197042 0.07301956,-1.802298 -5.178566 -0.1923267,-1.996936 -4.556587 0.2610819,-2.054538 -5.448104 0.3602189,-2.005229 -6.061922 0.3174946,-1.481602 -5.392726 -0.02403755,-1.703111 -4.814786 0.3097826,-1.798641 -5.434607 0.3789414,-1.792654 -5.937695 0.3702545,-8.454177 -7.20984 -0.6455389,-7.978683 -6.952878 -0.1805702,-7.584553 -6.252234 0.1871218,-7.540146 -5.389274 0.57051,-7.815957 -4.851705 0.8186095,-7.825876 -4.967485 -0.4811082,-7.662305 -4.500483 0.1304687,-7.727833 -5.307989 0.259083,-7.824477 -5.576803 0.1063052,-8.14672 -4.908588 -0.4778404,-7.977151 -4.526217 0.2677463,-8.003634 -5.544705 0.2415198,-8.107648 -5.604097 -0.103323,-8.476947 -5.019689 -0.3282424,-8.313509 -4.711057 0.338055,-8.280234 -5.682451 0.2671639,-8.378771 -5.769884 -0.01218522,-8.820472 -5.212958 -0.1229001,-8.621925 -4.914854 0.2122577,-8.556197 -5.58715 0.2207937,-8.649182 -5.729333 0.03077906,4.810,Left Hand Closed 2
-1.634431 -7.582983 -0.144663,-2.139003 -7.239908 0.07115762,-2.459429 -6.330202 0.2032191,-2.370922 -5.332325 0.3737915,-2.15827 -4.573999 0.4572558,-2.472723 -5.291761 -0.378751,-2.795234 -4.295494 -0.2469043,-2.972744 -3.671812 -0.2007644,-3.101507 -3.111096 -0.1756396,-2.149529 -5.11057 -0.2752012,-2.338801 -3.852039 -0.1441498,-2.468688 -3.01925 0.0301208,-2.552957 -2.272855 0.1806793,-1.813285 -5.204971 -0.09547333,-2.037603 -4.609168 0.3755451,-2.088444 -5.521889 0.4660394,-2.015689 -6.124038 0.4073938,-1.475249 -5.422415 0.09384322,-1.717727 -4.86528 0.4540111,-1.809425 -5.482082 0.5132328,-1.783094 -5.959714 0.4882053,-8.450994 -7.229827 -0.5413242,-7.971216 -6.967051 -0.07939017,-7.558792 -6.248149 0.2723616,-7.513257 -5.384186 0.6266614,-7.804531 -4.887533 0.8234041,-7.818081 -4.969085 -0.3430014,-7.63281 -4.552005 0.2539424,-7.718956 -5.361776 0.3413396,-7.824595 -5.596881 0.1670581,-8.136316 -4.902549 -0.3343208,-7.949281 -4.553522 0.4114338,-7.996437 -5.557573 0.368225,-8.103351 -5.603286 0.01865065,-8.46097 -5.011089 -0.1814221,-8.286351 -4.726041 0.4808214,-8.271866 -5.684568 0.3909572,-8.374933 -5.762655 0.1108838,-8.803043 -5.204895 0.0317921,-8.601608 -4.922227 0.3549856,-8.54323 -5.589673 0.3662905,-8.636616 -5.729894 0.1869193,4.910,Left Hand Closed 2
-1.638023 -7.634199 -0.08678798,-2.15932 -7.281148 0.0452943,-2.488664 -6.377035 0.1691108,-2.413701 -5.39899 0.3699202,-2.23473 -4.619469 0.4990886,-2.519467 -5.34868 -0.381956,-2.86334 -4.394845 -0.2279552,-3.052153 -3.779579 -0.1649508,-3.184607 -3.216108 -0.1213719,-2.197049 -5.154254 -0.2151589,-2.396315 -3.921678 -0.01101821,-2.523861 -3.082722 0.2043832,-2.616968 -2.346114 0.3804069,-1.851791 -5.23042 0.01700289,-2.093625 -4.60376 0.5237355,-2.159665 -5.507438 0.6163953,-2.111331 -6.164621 0.5603034,-1.505248 -5.426727 0.2504278,-1.778813 -4.914072 0.6295817,-1.88201 -5.550256 0.6735734,-1.875731 -6.079114 0.640295,-8.483763 -7.24043 -0.3932379,-7.963714 -6.969162 0.05690551,-7.563961 -6.266867 0.3923116,-7.487413 -5.446629 0.733923,-7.652002 -4.858375 0.937961,-7.737477 -4.964748 -0.1110718,-7.579209 -4.630539 0.4720072,-7.695198 -5.405263 0.5542896,-7.79011 -5.59681 0.3944504,-8.076673 -4.891662 -0.1158355,-7.900223 -4.647538 0.6233665,-7.966288 -5.6079 0.5924144,-8.05442 -5.561033 0.2546665,-8.415495 -4.978956 0.01557833,-8.247174 -4.80381 0.6826085,-8.251259 -5.732574 0.6024532,-8.33478 -5.727886 0.3202234,-8.764193 -5.136678 0.1980059,-8.568667 -4.97735 0.5509096,-8.510747 -5.63565 0.5968137,-8.586925 -5.709463 0.4426687,5.010,Left Hand Closed 2
-1.582705 -7.83447 -0.09638491,-2.164483 -7.477472 0.0135925,-2.546891 -6.604459 0.09534591,-2.578611 -5.641662 0.2738663,-2.502392 -4.912204 0.4498954,-2.585999 -5.645223 -0.5338097,-2.832104 -4.764915 -0.423819,-2.978899 -4.213199 -0.3836062,-3.112047 -3.746635 -0.346474,-2.284074 -5.411367 -0.4166114,-2.459605 -4.42402 -0.2599896,-2.637243 -3.982589 -0.1575834,-2.809562 -3.675035 -0.1027161,-1.94563 -5.406167 -0.1986209,-2.161934 -4.625334 0.2315371,-2.227105 -5.518854 0.3719631,-2.21665 -6.207301 0.3411528,-1.587213 -5.574005 0.02347253,-1.825716 -5.026235 0.4380003,-1.933608 -5.646841 0.6110212,-1.95164 -6.164974 0.6573297,-8.482185 -7.236724 -0.5207152,-7.925934 -6.942873 -0.2204632,-7.551093 -6.137653 0.002765238,-7.398336 -5.309648 0.2646412,-7.24977 -4.639868 0.444772,-7.759105 -4.973667 -0.4240736,-7.613784 -4.64579 0.1179569,-7.710319 -5.419896 0.1876964,-7.779197 -5.562139 0.01687598,-8.082312 -4.910564 -0.3969315,-7.898479 -4.659121 0.303073,-7.978527 -5.649875 0.3095054,-8.068548 -5.527592 -0.01809019,-8.405079 -4.987968 -0.2601756,-8.215748 -4.791263 0.3718386,-8.221118 -5.743797 0.2949482,-8.30677 -5.698264 0.001824737,-8.737164 -5.136261 -0.09007499,-8.533087 -4.978936 0.2776105,-8.463556 -5.654464 0.3256904,-8.53009 -5.713102 0.1292785,5.110,Left Hand Closed 3
-1.605965 -7.838676 -0.4246831,-2.171441 -7.387874 -0.3018619,-2.508942 -6.485195 -0.2502213,-2.536621 -5.522054 -0.127266,-2.465824 -4.780405 -0.03669769,-2.526781 -5.656397 -0.7797137,-2.751952 -4.77963 -0.7092427,-2.908497 -4.224208 -0.6542777,-3.065044 -3.664593 -0.5760247,-2.228342 -5.484622 -0.6865963,-2.382843 -4.674264 -0.4057647,-2.449481 -5.223333 -0.2947231,-2.484847 -5.695266 -0.3087282,-1.909698 -5.471453 -0.5248705,-2.099184 -4.767936 -0.09096885,-2.180809 -5.64657 0.08081979,-2.159303 -6.29606 0.03187263,-1.575616 -5.598602 -0.3607415,-1.800032 -5.06245 -0.04292044,-1.927281 -5.62755 0.05691487,-1.939379 -6.103706 0.03846034,-8.480497 -7.275091 -0.716481,-7.92801 -6.89878 -0.3986928,-7.570332 -6.13368 -0.153948,-7.445384 -5.305126 0.1377038,-7.37763 -4.581827 0.3334746,-7.79981 -5.044652 -0.6787702,-7.665915 -4.673072 -0.1379694,-7.750794 -5.453462 -0.04736376,-7.822579 -5.622386 -0.2215565,-8.113567 -4.99768 -0.6563,-7.953175 -4.693109 0.05397689,-8.010213 -5.664428 0.06416422,-8.088358 -5.546354 -0.2654498,-8.425359 -5.077569 -0.5129826,-8.265096 -4.78117 0.1344149,-8.2596 -5.716589 0.05461514,-8.337581 -5.698743 -0.2563779,-8.747123 -5.210021 -0.3398602,-8.571505 -4.890668 0.01443452,-8.498222 -5.554773 0.04629809,-8.560911 -5.667133 -0.1613325,5.210,Left Hand Closed 2
-1.691422 -7.587631 -0.8519206,-2.187395 -7.284397 -0.6743942,-2.507196 -6.381098 -0.615448,-2.435339 -5.438907 -0.487289,-2.243645 -4.741871 -0.4192148,-2.566273 -5.543327 -1.162338,-2.857469 -4.593834 -1.040378,-3.034288 -3.94558 -1.028194,-3.180817 -3.314667 -1.017725,-2.248766 -5.339273 -1.072981,-2.430031 -4.3627 -0.850672,-2.569536 -3.765855 -0.7314937,-2.673291 -3.249575 -0.6647273,-1.916822 -5.341362 -0.9038921,-2.12115 -4.758836 -0.4371355,-2.185973 -5.606651 -0.3735806,-2.148315 -6.2284 -0.4572702,-1.580879 -5.489604 -0.7158365,-1.813325 -4.964668 -0.3612265,-1.922814 -5.568141 -0.3053398,-1.930526 -6.060804 -0.3432437,-8.449058 -7.19248 -0.7379847,-7.934405 -6.831928 -0.361803,-7.59127 -6.10766 -0.05905229,-7.506382 -5.286947 0.2807103,-7.590722 -4.60371 0.5340595,-7.763755 -4.974809 -0.6194842,-7.626849 -4.598315 -0.03080481,-7.725554 -5.369023 0.09133041,-7.81759 -5.536064 -0.07430428,-8.065912 -4.92679 -0.6105884,-7.91379 -4.618828 0.1452289,-7.980586 -5.602415 0.1780702,-8.064172 -5.526626 -0.1399333,-8.380496 -5.014728 -0.4777292,-8.22215 -4.758928 0.2021582,-8.22487 -5.696373 0.1344324,-8.309651 -5.680803 -0.1542251,-8.707097 -5.155239 -0.3113477,-8.526704 -4.891675 0.05694062,-8.473272 -5.560823 0.074902,-8.545399 -5.660664 -0.1394814,5.310,Left Hand Closed 2
-1.680883 -7.508728 -0.9150594,-2.188432 -7.251354 -0.7265794,-2.521748 -6.399263 -0.6742897,-2.453664 -5.476065 -0.5617867,-2.28839 -4.767205 -0.5101446,-2.601522 -5.486744 -1.199184,-2.892954 -4.541904 -1.061169,-3.067239 -3.890769 -1.031765,-3.212025 -3.25429 -0.999263,-2.279567 -5.286403 -1.098873,-2.467774 -4.264343 -0.8624956,-2.597779 -3.583516 -0.6709483,-2.698049 -2.974388 -0.5388837,-1.942996 -5.294771 -0.9265944,-2.137962 -4.755208 -0.422866,-2.195216 -5.630483 -0.3341385,-2.173678 -6.275617 -0.3958573,-1.603495 -5.431075 -0.7371414,-1.801913 -4.993747 -0.3460781,-1.902074 -5.633806 -0.2660503,-1.927467 -6.133914 -0.2847038,-8.433053 -7.156879 -0.5194758,-7.937938 -6.800113 -0.133487,-7.600599 -6.08101 0.2038936,-7.531293 -5.274114 0.5819796,-7.655108 -4.6285 0.8812234,-7.740393 -4.894961 -0.3464082,-7.565869 -4.566743 0.2896809,-7.677217 -5.333967 0.4213421,-7.789005 -5.498291 0.2447161,-8.049981 -4.831876 -0.3319779,-7.860178 -4.591472 0.4429314,-7.945719 -5.579099 0.4457677,-8.058603 -5.492702 0.09812617,-8.375173 -4.926288 -0.1902937,-8.179855 -4.769228 0.4947375,-8.196965 -5.71836 0.4126281,-8.305619 -5.672213 0.1184839,-8.709116 -5.08624 -0.01347899,-8.483075 -4.948089 0.3444809,-8.440381 -5.632238 0.3449937,-8.539657 -5.682085 0.123984,5.410,Left Hand Closed 2
-1.733607 -7.450383 -0.8151918,-2.22837 -7.290302 -0.5626535,-2.569279 -6.515287 -0.4263524,-2.502112 -5.60555 -0.2598165,-2.322747 -4.895836 -0.1310289,-2.652411 -5.400045 -0.8098533,-2.983556 -4.437829 -0.6106369,-3.178694 -3.827247 -0.5107948,-3.32559 -3.297952 -0.4352878,-2.313311 -5.188385 -0.713913,-2.456686 -3.929222 -0.4854592,-2.526213 -3.069393 -0.2534038,-2.578999 -2.341683 -0.06949937,-1.968282 -5.252615 -0.5773602,-2.139569 -4.873182 -0.02605641,-2.194032 -5.742874 0.04931593,-2.193608 -6.386993 -0.02324575,-1.639252 -5.429342 -0.4171127,-1.798963 -5.047895 -0.06007558,-1.908673 -5.684268 0.01232708,-1.953516 -6.202528 -0.007682145,-8.444566 -7.173161 -0.8243072,-7.948237 -6.809532 -0.4184292,-7.608969 -6.088769 -0.07337087,-7.541656 -5.274622 0.3055394,-7.686852 -4.636228 0.5896814,-7.765276 -4.968599 -0.6726938,-7.614661 -4.54334 -0.05348945,-7.685535 -5.263238 0.1074774,-7.780987 -5.464494 -0.03181028,-8.075106 -4.932357 -0.6640294,-7.920328 -4.574516 0.1153516,-7.963673 -5.522565 0.1533045,-8.053492 -5.496536 -0.1606913,-8.395786 -5.03557 -0.5275847,-8.245726 -4.733427 0.159035,-8.21473 -5.641691 0.1011811,-8.295478 -5.654169 -0.1800261,-8.725872 -5.206434 -0.3530162,-8.550547 -4.915075 0.01004702,-8.469517 -5.555839 0.02671176,-8.529365 -5.665018 -0.1754521,5.510,Left Hand Closed 2
-1.730032 -7.488647 -0.7204725,-2.228351 -7.281543 -0.4677828,-2.579346 -6.438581 -0.3640759,-2.515805 -5.495269 -0.2259937,-2.35715 -4.79222 -0.1397339,-2.656058 -5.397667 -0.7369439,-2.995321 -4.396273 -0.5438977,-3.200108 -3.773206 -0.4749632,-3.363825 -3.204025 -0.4168007,-2.311106 -5.19837 -0.6351491,-2.46048 -3.937097 -0.3878983,-2.550608 -3.09567 -0.1495553,-2.624214 -2.345074 0.0541724,-1.960813 -5.271671 -0.4882987,-2.135986 -4.859609 0.07307261,-2.186253 -5.774278 0.1519885,-2.17548 -6.409261 0.08450603,-1.631459 -5.456 -0.323417,-1.824298 -5.12801 0.1033999,-1.925533 -5.806732 0.1362957,-1.970252 -6.347915 0.08388239,-8.425133 -7.167009 -0.4501935,-7.940139 -6.816617 -0.03295565,-7.584482 -6.11749 0.3423533,-7.51307 -5.319704 0.74765,-7.716841 -4.71758 1.060012,-7.768756 -4.871363 -0.2360279,-7.601856 -4.535285 0.3836507,-7.67297 -5.247148 0.5463708,-7.772084 -5.453651 0.4224542,-8.082246 -4.818824 -0.2270846,-7.904737 -4.564357 0.520613,-7.93686 -5.51327 0.537375,-8.035612 -5.525402 0.2353625,-8.403382 -4.944696 -0.09295338,-8.233573 -4.784203 0.5606813,-8.195827 -5.688783 0.4914593,-8.284193 -5.70104 0.2222903,-8.724577 -5.161827 0.08438241,-8.528482 -5.037302 0.4155136,-8.44801 -5.67856 0.4164818,-8.519041 -5.76231 0.2247247,5.610,Left Hand Closed 2
-1.737895 -7.513002 -0.5274306,-2.232038 -7.298316 -0.2658082,-2.575519 -6.46964 -0.1443288,-2.518639 -5.554234 0.01502025,-2.367299 -4.825977 0.1291624,-2.659896 -5.362848 -0.5449358,-3.000506 -4.377145 -0.349789,-3.206834 -3.756334 -0.2719403,-3.374617 -3.19914 -0.2043605,-2.319314 -5.165832 -0.4447875,-2.474865 -3.910923 -0.1864263,-2.565968 -3.074974 0.06540018,-2.648429 -2.340598 0.2721134,-1.967771 -5.242425 -0.2968359,-2.13185 -4.842596 0.2692286,-2.186833 -5.747432 0.3590533,-2.194271 -6.398197 0.2905602,-1.639325 -5.437871 -0.1283084,-1.813704 -5.128496 0.2986405,-1.921895 -5.787116 0.3436689,-1.983006 -6.338829 0.2913188,-8.433357 -7.16343 -0.4351473,-7.947767 -6.814182 0.001314253,-7.585782 -6.101827 0.3714709,-7.508776 -5.278896 0.7674847,-7.711824 -4.693396 1.057718,-7.762403 -4.868959 -0.1936515,-7.593603 -4.532732 0.4418255,-7.675938 -5.248455 0.5511898,-7.774284 -5.417436 0.3821318,-8.080846 -4.814497 -0.1898161,-7.909698 -4.549329 0.6226991,-7.949543 -5.511687 0.6063077,-8.041902 -5.462301 0.2555935,-8.405384 -4.934646 -0.05526608,-8.246454 -4.774416 0.6459495,-8.208801 -5.689085 0.5616527,-8.296554 -5.626941 0.275021,-8.7251 -5.136658 0.1235766,-8.534373 -5.064395 0.4728761,-8.458319 -5.715812 0.4844411,-8.535226 -5.727354 0.2951378,5.710,Left Hand Closed 2
-1.709528 -7.55063 -0.4206569,-2.227023 -7.327665 -0.1623055,-2.584507 -6.520309 -0.03670701,-2.523571 -5.589857 0.1213276,-2.368177 -4.854883 0.2328771,-2.684822 -5.398259 -0.4242432,-3.031181 -4.378484 -0.2419343,-3.228962 -3.7355 -0.1835199,-3.385206 -3.153108 -0.133525,-2.335361 -5.183707 -0.3265936,-2.505572 -3.925365 -0.08845785,-2.60375 -3.086 0.1275122,-2.687994 -2.35227 0.3118331,-1.976709 -5.256994 -0.1793669,-2.138914 -4.872053 0.3781741,-2.184461 -5.765041 0.4816852,-2.186184 -6.40208 0.4272153,-1.639023 -5.446794 -0.01122805,-1.822083 -5.123058 0.4035426,-1.925655 -5.782352 0.4491399,-1.979667 -6.334529 0.3987464,-8.438505 -7.177303 -0.5210352,-7.955378 -6.846744 -0.05516955,-7.590882 -6.129591 0.314009,-7.528418 -5.306247 0.6968809,-7.753935 -4.751639 0.9757488,-7.745836 -4.921104 -0.2504065,-7.601352 -4.532457 0.3959314,-7.673397 -5.194404 0.5367577,-7.762572 -5.399711 0.3966929,-8.075493 -4.856275 -0.2635055,-7.939159 -4.558038 0.5400347,-7.963646 -5.496365 0.5375043,-8.034843 -5.497955 0.2114542,-8.405635 -4.977862 -0.1431156,-8.288914 -4.778813 0.5611514,-8.233152 -5.677711 0.4734826,-8.292967 -5.662091 0.1814119,-8.731984 -5.200016 0.02549773,-8.586465 -5.08041 0.3887407,-8.493129 -5.721438 0.4051148,-8.539092 -5.766494 0.2222924,5.810,Left Hand Closed 2
-1.708401 -7.568183 -0.4977236,-2.243197 -7.353799 -0.265581,-2.599404 -6.522863 -0.1464202,-2.530296 -5.5812 0.01717645,-2.389899 -4.843813 0.1338213,-2.683319 -5.444855 -0.5487469,-3.033558 -4.418015 -0.3724598,-3.236877 -3.772443 -0.3178188,-3.392319 -3.173854 -0.2758634,-2.3304 -5.221981 -0.4348333,-2.508411 -3.948431 -0.1841771,-2.608764 -3.101891 0.06138396,-2.701028 -2.356899 0.2643673,-1.965796 -5.274402 -0.2748936,-2.159632 -4.921876 0.268144,-2.199809 -5.805468 0.3697499,-2.190137 -6.431011 0.3239282,-1.625415 -5.445202 -0.09692925,-1.831952 -5.182394 0.2949721,-1.933714 -5.834453 0.3311382,-1.981648 -6.374581 0.2876986,-8.447376 -7.198251 -0.544778,-7.99558 -6.937338 -0.07149056,-7.638859 -6.262527 0.3279101,-7.594779 -5.481487 0.7313466,-7.784629 -4.895917 1.045738,-7.767879 -4.955332 -0.2228784,-7.641615 -4.538819 0.3873534,-7.709131 -5.227607 0.6105558,-7.799595 -5.544588 0.5543187,-8.093985 -4.889204 -0.233666,-7.967623 -4.533631 0.4787191,-7.975918 -5.458127 0.5247684,-8.042716 -5.572607 0.2829656,-8.415543 -5.014491 -0.1244261,-8.304602 -4.758667 0.5051351,-8.253157 -5.640397 0.4612656,-8.310793 -5.727976 0.2344766,-8.733935 -5.244148 0.03002363,-8.581929 -5.088938 0.3650688,-8.50169 -5.711666 0.379943,-8.551782 -5.806432 0.2366451,5.910,Left Hand Closed 2
-1.680636 -7.606842 -0.4022567,-2.221982 -7.408058 -0.1916479,-2.588199 -6.566425 -0.06850445,-2.522825 -5.616786 0.108989,-2.359079 -4.893688 0.238067,-2.660345 -5.465071 -0.4826283,-3.010138 -4.446452 -0.3121469,-3.217795 -3.803122 -0.26262,-3.377645 -3.200641 -0.2291668,-2.315412 -5.235725 -0.3440683,-2.502994 -3.973087 -0.09696233,-2.619706 -3.120468 0.1389683,-2.724456 -2.383523 0.3329575,-1.958058 -5.286447 -0.1624616,-2.169018 -4.942085 0.3780606,-2.210823 -5.829792 0.467263,-2.195969 -6.45819 0.4130985,-1.630607 -5.461374 0.035622,-1.849493 -5.241266 0.4084662,-1.947971 -5.90643 0.4237432,-1.993002 -6.452674 0.3719217,-8.369061 -7.062817 -1.305834,-7.923553 -7.229448 -0.6897056,-7.476227 -6.729038 -0.2094202,-7.403528 -6.132265 0.2069888,-7.677887 -5.838365 0.5576364,-7.698448 -5.116773 -0.7499197,-7.62149 -4.146979 -0.1100534,-7.673421 -4.67514 0.240992,-7.739153 -5.227222 0.2927498,-8.039864 -5.015543 -0.7803352,-8.006879 -4.096574 -0.03701496,-8.043551 -4.894586 0.1898551,-8.068301 -5.392345 0.08338833,-8.392271 -5.086963 -0.7088882,-8.376337 -4.225305 -0.09197128,-8.342297 -4.995632 0.08103204,-8.340132 -5.533363 -0.006747842,-8.765873 -5.288906 -0.6097372,-8.763418 -4.659008 -0.1780849,-8.690236 -5.150118 -0.03118646,-8.635363 -5.603136 -0.08279622,6.010,Left Hand Closed 2
-1.711297 -7.627159 -0.2794249,-2.237433 -7.405143 -0.03372107,-2.588771 -6.589927 0.1053537,-2.522541 -5.654302 0.2889602,-2.354708 -4.927954 0.4101444,-2.674634 -5.44636 -0.2960159,-3.023973 -4.455068 -0.1090362,-3.233871 -3.804422 -0.05780269,-3.397139 -3.191534 -0.02482697,-2.332261 -5.217741 -0.1733555,-2.525657 -3.981591 0.09124109,-2.648368 -3.131484 0.3360934,-2.752907 -2.379219 0.5320519,-1.969318 -5.274847 -0.006808937,-2.160723 -4.919954 0.5712574,-2.199322 -5.827127 0.6768802,-2.183306 -6.465549 0.6222096,-1.631063 -5.465009 0.1784311,-1.829563 -5.216728 0.5875201,-1.932569 -5.876213 0.6244881,-1.983883 -6.420543 0.5734823,-8.388561 -7.204525 -1.058706,-7.940147 -7.225621 -0.5209134,-7.492598 -6.741981 -0.02839804,-7.443981 -6.132316 0.4180262,-7.769814 -5.792531 0.7550281,-7.663092 -5.194694 -0.5612128,-7.55559 -4.2828 -0.001547813,-7.607862 -4.920935 0.2339576,-7.691382 -5.414134 0.2491353,-7.99268 -5.090123 -0.5533153,-7.926506 -4.181482 0.08781028,-7.946359 -5.009075 0.2435217,-7.999401 -5.441546 0.1176884,-8.330545 -5.137943 -0.4593928,-8.284424 -4.231377 0.02842987,-8.231574 -5.012733 0.1149865,-8.253808 -5.510471 0.02521682,-8.700476 -5.316743 -0.317361,-8.656398 -4.671676 -0.02899218,-8.572858 -5.174499 0.06800604,-8.553262 -5.583715 0.0187254,6.110,Left Hand Closed 2
-1.721248 -7.666336 -0.1558884,-2.261967 -7.398915 0.04640441,-2.613416 -6.552387 0.1758606,-2.557364 -5.620077 0.3511235,-2.396171 -4.892771 0.4786896,-2.672469 -5.412812 -0.252879,-3.02634 -4.403352 -0.07094785,-3.233982 -3.763752 -0.007090673,-3.399355 -3.173375 0.03541446,-2.327521 -5.21493 -0.1098184,-2.514425 -3.954313 0.1310145,-2.634144 -3.106401 0.356034,-2.739075 -2.378948 0.534528,-1.970247 -5.292129 0.07954289,-2.179879 -4.885774 0.6240672,-2.229965 -5.786434 0.7140669,-2.21113 -6.437084 0.6562876,-1.639302 -5.496446 0.2868522,-1.853912 -5.152666 0.6726871,-1.951809 -5.804861 0.693567,-1.987775 -6.366235 0.6465858,-8.450345 -7.292638 -0.9922285,-7.980559 -7.147009 -0.5512073,-7.599722 -6.566531 -0.1552386,-7.64348 -5.880977 0.1896117,-7.902263 -5.359855 0.4384153,-7.674485 -5.316244 -0.6271926,-7.535672 -4.527094 -0.1654369,-7.589864 -5.075572 0.068946,-7.669701 -5.544914 0.1136709,-7.995629 -5.144022 -0.6130207,-7.893295 -4.363735 -0.09833735,-7.928095 -5.126454 0.05958855,-7.97763 -5.566392 0.004749656,-8.318045 -5.150166 -0.5268754,-8.254005 -4.365665 -0.1328672,-8.222526 -5.113468 -0.05306304,-8.245519 -5.591816 -0.1290824,-8.667083 -5.309779 -0.396268,-8.593015 -4.719825 -0.1681988,-8.527931 -5.200349 -0.1006755,-8.522614 -5.595476 -0.1352045,6.210,Left Hand Closed 2
-1.720387 -7.708328 -0.07938535,-2.25905 -7.441123 0.1167489,-2.620104 -6.593606 0.2497838,-2.551896 -5.648469 0.4253399,-2.373776 -4.921275 0.5568688,-2.700942 -5.464921 -0.1595394,-3.05037 -4.451163 0.0283872,-3.245729 -3.814648 0.08743557,-3.397799 -3.231456 0.1330217,-2.353236 -5.241414 -0.01699974,-2.529712 -3.980853 0.2128791,-2.642179 -3.136303 0.4235557,-2.741846 -2.412184 0.6049798,-1.993539 -5.314067 0.1709437,-2.179681 -4.91591 0.6878842,-2.22662 -5.804477 0.7702609,-2.215012 -6.429978 0.7206365,-1.660236 -5.514934 0.3769568,-1.859369 -5.207407 0.7474121,-1.956825 -5.864435 0.7655455,-2.001532 -6.410847 0.7172317,-8.475348 -7.308395 -0.9733303,-8.063798 -7.099067 -0.5807606,-7.71099 -6.403095 -0.2136445,-7.823639 -5.641297 0.12514,-8.069846 -5.15718 0.3316026,-7.686344 -5.366891 -0.7324684,-7.513106 -4.844496 -0.2799008,-7.600988 -5.412841 -0.065081,-7.706471 -5.763155 -0.02655983,-7.984522 -5.147117 -0.6923226,-7.858171 -4.508665 -0.191131,-7.903681 -5.187854 -0.05130702,-7.971765 -5.505352 -0.130743,-8.293583 -5.140865 -0.5631236,-8.219872 -4.509723 -0.1542708,-8.204556 -5.231029 -0.07860422,-8.257007 -5.539976 -0.1679736,-8.624377 -5.294366 -0.3832892,-8.532817 -4.885698 -0.1486037,-8.480742 -5.388786 -0.105933,-8.50741 -5.632941 -0.1626428,6.310,Left Hand Closed 2
-1.731677 -7.774807 -0.07096197,-2.275034 -7.502694 0.1186119,-2.63016 -6.653125 0.229259,-2.562238 -5.723623 0.3868925,-2.399435 -5.017728 0.4866771,-2.707488 -5.528385 -0.1520194,-3.049514 -4.51305 0.01713793,-3.244238 -3.864237 0.06589895,-3.395101 -3.261232 0.1097452,-2.364137 -5.30549 -0.002821021,-2.552809 -4.033794 0.2406973,-2.667066 -3.174926 0.4723606,-2.772531 -2.447804 0.6700761,-2.003063 -5.369241 0.1843883,-2.211601 -4.97494 0.7097005,-2.25329 -5.856508 0.7994018,-2.234214 -6.48881 0.752483,-1.667645 -5.56668 0.3907654,-1.86121 -5.251173 0.7698045,-1.957366 -5.885967 0.7938334,-1.997951 -6.430229 0.7507834,-8.440064 -7.322229 -1.206419,-8.020916 -7.05887 -0.8535528,-7.698518 -6.327902 -0.5296083,-7.800847 -5.5638 -0.2228814,-8.03723 -5.096548 -0.001985192,-7.709495 -5.388472 -1.022387,-7.571855 -4.857391 -0.5965617,-7.631622 -5.337603 -0.34166,-7.71451 -5.694751 -0.2611412,-8.009597 -5.210001 -0.9803845,-7.904927 -4.57552 -0.504055,-7.927914 -5.181657 -0.3231662,-7.980124 -5.50127 -0.3471677,-8.318131 -5.235976 -0.8524356,-8.269139 -4.644638 -0.4288609,-8.237934 -5.294223 -0.3131797,-8.276 -5.598747 -0.3673052,-8.653356 -5.410987 -0.6916374,-8.596568 -4.999906 -0.4166153,-8.523836 -5.472428 -0.3476163,-8.524239 -5.733904 -0.3776062,6.410,Left Hand Closed 2
-1.733857 -7.847656 0.06585816,-2.279565 -7.546015 0.2268955,-2.640714 -6.687913 0.3388001,-2.596202 -5.761444 0.5064487,-2.429651 -5.064459 0.6312755,-2.712721 -5.548761 -0.07642581,-3.058965 -4.531753 0.06936758,-3.247229 -3.882017 0.1032455,-3.390247 -3.288119 0.1265858,-2.368373 -5.337768 0.09281448,-2.556691 -4.046506 0.3078141,-2.671968 -3.187096 0.528403,-2.779301 -2.451456 0.7242596,-2.010758 -5.415334 0.3025606,-2.210911 -4.955204 0.8174517,-2.261306 -5.867904 0.9157434,-2.246867 -6.527336 0.8758855,-1.677387 -5.633081 0.5300944,-1.869363 -5.241162 0.9063482,-1.963994 -5.898052 0.9374102,-1.997358 -6.47001 0.9025266,-8.334916 -7.356301 -1.279146,-7.911098 -7.116688 -0.8498247,-7.553349 -6.354228 -0.5172915,-7.734586 -5.65058 -0.2045279,-8.06525 -5.34271 0.005534172,-7.699175 -5.363368 -1.026903,-7.592769 -4.848882 -0.4347759,-7.625636 -5.271429 -0.06364202,-7.692254 -5.621113 0.03852689,-8.011306 -5.253706 -0.9912207,-7.941892 -4.654243 -0.400442,-7.93327 -5.180359 -0.1190726,-7.960105 -5.504064 -0.07604492,-8.328509 -5.33568 -0.8627921,-8.312114 -4.760665 -0.3184057,-8.242743 -5.376009 -0.1363077,-8.24498 -5.737228 -0.1564146,-8.674698 -5.562514 -0.6915691,-8.64769 -5.097675 -0.3349671,-8.551597 -5.547531 -0.2497472,-8.518744 -5.88293 -0.2958006,6.510,Left Hand Closed 2
-1.73249 -7.864171 0.3209746,-2.278513 -7.576702 0.5139419,-2.637697 -6.71576 0.6392249,-2.575502 -5.809882 0.8166527,-2.391014 -5.136112 0.9456414,-2.694714 -5.482198 0.2264167,-3.051019 -4.493132 0.3721099,-3.251611 -3.838562 0.4011134,-3.405403 -3.231659 0.4205179,-2.349493 -5.275487 0.383333,-2.55732 -4.027822 0.6234319,-2.691107 -3.183651 0.8526567,-2.811414 -2.456849 1.04592,-1.988076 -5.36731 0.5815317,-2.191731 -4.907524 1.135687,-2.246251 -5.826157 1.26866,-2.231293 -6.500855 1.24182,-1.649126 -5.618355 0.8037176,-1.85333 -5.242099 1.209687,-1.961451 -5.893558 1.279215,-2.004122 -6.461811 1.261587,-8.322878 -7.331563 -1.190604,-7.885482 -7.133334 -0.6937742,-7.499199 -6.405841 -0.3093262,-7.692009 -5.736963 0.03803241,-8.033645 -5.494314 0.2522691,-7.652233 -5.369598 -0.7507795,-7.548788 -4.944119 -0.09696198,-7.587681 -5.454481 0.2435821,-7.660625 -5.764663 0.304405,-7.970052 -5.239679 -0.7244275,-7.883986 -4.695352 -0.03392577,-7.882516 -5.298696 0.2278309,-7.923934 -5.57814 0.2272387,-8.301019 -5.315555 -0.6069503,-8.26028 -4.826652 0.00664711,-8.210617 -5.524587 0.1138799,-8.239567 -5.816822 0.01998997,-8.652112 -5.550958 -0.4379193,-8.590519 -5.172037 -0.05902767,-8.511614 -5.682119 -0.01407015,-8.509481 -5.954248 -0.1185989,6.610,Left Hand Closed 2
-1.727476 -7.888298 0.2282843,-2.284672 -7.560651 0.4017394,-2.63658 -6.697858 0.5103201,-2.557512 -5.763458 0.6633654,-2.354234 -5.068243 0.7670534,-2.710112 -5.540147 0.1058789,-3.062397 -4.528373 0.2455651,-3.244986 -3.87056 0.263128,-3.384549 -3.256633 0.2720455,-2.359798 -5.330054 0.2595115,-2.550407 -4.058404 0.4615273,-2.674179 -3.20961 0.6711756,-2.78153 -2.475461 0.8560175,-1.994352 -5.408868 0.4530323,-2.197719 -4.970676 0.9638314,-2.2515 -5.880898 1.076689,-2.22981 -6.522602 1.050798,-1.653159 -5.632637 0.667446,-1.848427 -5.24197 1.026069,-1.950445 -5.882747 1.06997,-1.984824 -6.428957 1.049881,-8.315642 -7.314302 -1.148693,-7.849936 -7.164547 -0.6247074,-7.417167 -6.480028 -0.2683259,-7.582664 -5.836736 0.02433264,-7.948255 -5.688856 0.1893618,-7.56413 -5.434705 -0.5881549,-7.447708 -5.033397 0.111998,-7.519238 -5.427204 0.472021,-7.605803 -5.695251 0.5373851,-7.897964 -5.245456 -0.5867037,-7.791419 -4.733736 0.1337178,-7.81797 -5.261948 0.4322571,-7.860809 -5.51782 0.4949989,-8.241902 -5.261264 -0.5037562,-8.208663 -4.893022 0.1696986,-8.1702 -5.629158 0.2576798,-8.177349 -5.938914 0.1468016,-8.606916 -5.475013 -0.3762931,-8.558197 -5.14396 0.05020332,-8.473082 -5.686021 0.09019446,-8.444327 -5.98447 -0.02621937,6.710,Left Hand Closed 2
-1.734218 -7.918286 0.3083374,-2.28053 -7.567331 0.4627668,-2.637289 -6.715806 0.5824918,-2.571071 -5.787682 0.7514302,-2.370159 -5.107273 0.8730187,-2.699101 -5.531415 0.1732639,-3.046823 -4.528739 0.3129284,-3.231892 -3.878258 0.3374902,-3.374102 -3.270805 0.3540801,-2.353883 -5.333457 0.3415123,-2.552066 -4.074968 0.551002,-2.685041 -3.232404 0.7601746,-2.797862 -2.505174 0.9444999,-1.994143 -5.427213 0.5485631,-2.196063 -4.945476 1.049531,-2.255437 -5.853703 1.150496,-2.235875 -6.501791 1.116908,-1.655108 -5.673851 0.7751242,-1.848976 -5.253671 1.133351,-1.954815 -5.898277 1.178947,-1.988908 -6.451978 1.157089,-8.277252 -7.331468 -1.264075,-7.80995 -7.185513 -0.7414858,-7.384855 -6.484305 -0.3839126,-7.535938 -5.836757 -0.08440542,-7.907592 -5.714315 0.09401751,-7.557121 -5.441091 -0.7364268,-7.447342 -4.99384 -0.02502632,-7.49278 -5.419599 0.3477122,-7.561164 -5.711717 0.4122956,-7.890589 -5.282928 -0.7336011,-7.797264 -4.734991 0.00421381,-7.795096 -5.273439 0.3068215,-7.820642 -5.544321 0.3591605,-8.232584 -5.319108 -0.6465632,-8.197646 -4.907651 0.04273152,-8.135955 -5.640499 0.1405957,-8.134269 -5.963132 0.0280478,-8.592772 -5.541559 -0.5150568,-8.540272 -5.18329 -0.05505097,-8.437048 -5.723104 0.005006194,-8.401571 -6.042043 -0.1019442,6.810,Left Hand Closed 2
-1.735515 -7.923913 0.3795297,-2.283539 -7.603626 0.5542167,-2.641348 -6.720742 0.6723843,-2.559568 -5.801046 0.8374767,-2.351032 -5.128412 0.9495215,-2.70457 -5.521004 0.2678619,-3.059711 -4.563825 0.4084611,-3.24935 -3.940974 0.4304439,-3.386736 -3.35913 0.4479519,-2.352087 -5.317748 0.4331067,-2.540815 -4.062906 0.6530451,-2.663007 -3.214275 0.8845019,-2.764879 -2.474061 1.087078,-1.984468 -5.428854 0.6363777,-2.174788 -4.993794 1.148552,-2.233207 -5.892574 1.272105,-2.210462 -6.516431 1.25084,-1.645529 -5.70236 0.86129,-1.837034 -5.353197 1.234809,-1.945764 -6.000192 1.293705,-1.981382 -6.536741 1.27903,-8.274817 -7.348473 -1.257223,-7.81227 -7.177824 -0.723278,-7.396356 -6.496196 -0.3612446,-7.537905 -5.869442 -0.05603647,-7.884485 -5.714279 0.1313446,-7.551061 -5.427684 -0.6648182,-7.432127 -5.048461 0.05405021,-7.493519 -5.451654 0.440192,-7.575717 -5.715313 0.5266403,-7.878996 -5.282365 -0.7985358,-7.774945 -4.776821 -0.03403771,-7.798061 -5.387114 0.2320399,-7.840689 -5.609281 0.2026826,-8.220229 -5.317613 -0.6920507,-8.183485 -4.876963 -0.001442432,-8.132578 -5.615509 0.0782063,-8.13998 -5.885693 -0.07905257,-8.579034 -5.538724 -0.5374969,-8.527664 -5.191681 -0.1074028,-8.432988 -5.720569 -0.05712736,-8.4054 -5.996136 -0.1921401,6.910,Left Hand Closed 2
-1.736731 -7.943607 0.3693981,-2.275202 -7.614952 0.5420836,-2.634879 -6.744808 0.6513419,-2.556083 -5.824441 0.8140113,-2.340689 -5.148057 0.927586,-2.686547 -5.542292 0.2246658,-3.039064 -4.535158 0.3508062,-3.227602 -3.872517 0.3568097,-3.371462 -3.266182 0.361996,-2.335895 -5.335822 0.3799358,-2.525387 -4.066753 0.567704,-2.650187 -3.209807 0.770035,-2.759689 -2.491111 0.9418806,-1.972183 -5.42612 0.57468,-2.193508 -5.038024 1.09262,-2.245887 -5.940566 1.223976,-2.217494 -6.58766 1.208818,-1.636067 -5.657535 0.7910825,-1.853702 -5.313821 1.147593,-1.953626 -5.956907 1.201798,-1.980955 -6.509072 1.18288,-8.273726 -7.334134 -1.203945,-7.822916 -7.191906 -0.6770273,-7.407352 -6.517456 -0.3306932,-7.536946 -5.899221 -0.04122567,-7.874061 -5.741039 0.1347114,-7.557737 -5.435142 -0.6450474,-7.438435 -5.018381 0.05798972,-7.481388 -5.428367 0.4352922,-7.549413 -5.712729 0.521482,-7.883617 -5.277503 -0.6385283,-7.777358 -4.756216 0.09811616,-7.790891 -5.331573 0.3858193,-7.825947 -5.585779 0.4194384,-8.225842 -5.317848 -0.5449507,-8.181664 -4.906776 0.1108189,-8.136554 -5.61572 0.1968874,-8.147063 -5.882295 0.08840489,-8.586695 -5.544793 -0.4097959,-8.532644 -5.214717 0.0228734,-8.440984 -5.72881 0.0832653,-8.417087 -5.990774 -0.01256728,7.010,Left Hand Closed 2
-1.723612 -7.896703 0.2771262,-2.286409 -7.577648 0.4309379,-2.64971 -6.739306 0.5418569,-2.590877 -5.825306 0.7145814,-2.425984 -5.117959 0.8392975,-2.712278 -5.544873 0.1093821,-3.064182 -4.524531 0.2534674,-3.24599 -3.871853 0.2829301,-3.384211 -3.275573 0.2966162,-2.360679 -5.325122 0.2506045,-2.53996 -4.057839 0.4476925,-2.636003 -3.221738 0.6549213,-2.727385 -2.494228 0.8231668,-2.000623 -5.38743 0.437288,-2.208334 -5.009462 0.9220492,-2.252743 -5.910539 1.041223,-2.237868 -6.558907 1.021078,-1.661693 -5.57241 0.6410041,-1.873305 -5.266496 0.972762,-1.970397 -5.915393 1.023908,-2.008167 -6.468355 1.003601,-8.271869 -7.361072 -1.145661,-7.822758 -7.205032 -0.6201853,-7.401422 -6.496362 -0.2772196,-7.561205 -5.871738 0.008227229,-7.904732 -5.737538 0.1666061,-7.56131 -5.439453 -0.5829703,-7.4398 -5.04385 0.1082191,-7.489229 -5.476031 0.4607555,-7.563595 -5.752628 0.5303069,-7.898039 -5.286416 -0.571079,-7.801238 -4.750848 0.1655864,-7.805943 -5.292589 0.4656863,-7.838761 -5.531902 0.5161556,-8.24431 -5.330829 -0.4816605,-8.207664 -4.911638 0.1977222,-8.147485 -5.625837 0.3005942,-8.148729 -5.89738 0.1938512,-8.60329 -5.565595 -0.3500565,-8.545132 -5.248751 0.09588885,-8.44818 -5.761965 0.1566443,-8.421892 -6.019771 0.05287588,7.110,Left Hand Closed 2
-1.711678 -7.910146 0.1566932,-2.269197 -7.599164 0.3381469,-2.634703 -6.748342 0.4412217,-2.564888 -5.814708 0.5848758,-2.349248 -5.143966 0.6656758,-2.704884 -5.590911 0.02781896,-3.066978 -4.562984 0.1384086,-3.256556 -3.924592 0.1340299,-3.400705 -3.336927 0.1303161,-2.356661 -5.375962 0.15163,-2.531805 -4.065185 0.3070664,-2.646859 -3.215734 0.4904435,-2.743368 -2.48876 0.6619756,-2.001072 -5.443407 0.3161507,-2.215557 -5.014268 0.7815156,-2.257535 -5.896404 0.8968071,-2.220252 -6.508169 0.8840641,-1.673334 -5.640985 0.502636,-1.875717 -5.256916 0.8184552,-1.961647 -5.884991 0.8722702,-1.977555 -6.415243 0.8674933,-8.275095 -7.343121 -1.12393,-7.820313 -7.182062 -0.5967418,-7.406079 -6.485031 -0.2393562,-7.546424 -5.847768 0.060763,-7.883769 -5.695477 0.2439429,-7.564548 -5.41716 -0.5378015,-7.452245 -5.024513 0.1725334,-7.503754 -5.43881 0.5629829,-7.581255 -5.717422 0.6587131,-7.907359 -5.265981 -0.5310721,-7.817616 -4.728317 0.2043343,-7.815361 -5.205463 0.5245999,-7.845181 -5.422582 0.6101596,-8.256459 -5.31743 -0.4471284,-8.219528 -4.89673 0.2408048,-8.157312 -5.607322 0.3458143,-8.159381 -5.887216 0.2466248,-8.615783 -5.568237 -0.3259854,-8.553989 -5.242362 0.1340485,-8.455454 -5.758861 0.1879742,-8.428446 -6.018726 0.08418798,7.210,Left Hand Closed 2
-1.725276 -7.90876 0.2578244,-2.273425 -7.620317 0.4670853,-2.648879 -6.733034 0.5814048,-2.58071 -5.80091 0.7409629,-2.37075 -5.151472 0.8293903,-2.700008 -5.541788 0.1740428,-3.03702 -4.499021 0.3172378,-3.223736 -3.827416 0.3465161,-3.363081 -3.195666 0.3594897,-2.354469 -5.341312 0.3064933,-2.545323 -4.064341 0.5249311,-2.663501 -3.212677 0.7402434,-2.766115 -2.474101 0.9235296,-1.992588 -5.427037 0.4846369,-2.212985 -4.986123 0.9928663,-2.26896 -5.869615 1.13167,-2.239945 -6.498601 1.117102,-1.655488 -5.659694 0.6899139,-1.861456 -5.293535 1.055751,-1.965596 -5.920132 1.142148,-1.994061 -6.455571 1.148124,-8.269007 -7.346553 -1.081329,-7.81648 -7.162719 -0.5704672,-7.413684 -6.454153 -0.2206992,-7.56955 -5.835158 0.07520878,-7.903212 -5.685597 0.2543584,-7.577253 -5.395263 -0.5070285,-7.467292 -5.00208 0.1853973,-7.5127 -5.405774 0.5736481,-7.583074 -5.69132 0.6836766,-7.914468 -5.253706 -0.4905584,-7.832015 -4.727559 0.2293268,-7.826053 -5.182748 0.5590646,-7.847319 -5.41933 0.6617311,-8.259173 -5.311465 -0.3994613,-8.234899 -4.885629 0.2607148,-8.168138 -5.556558 0.3809589,-8.157573 -5.857301 0.3059967,-8.616619 -5.567613 -0.2705816,-8.571962 -5.247137 0.1858834,-8.467181 -5.738773 0.2601125,-8.424033 -6.019384 0.180626,7.310,Left Hand Closed 2
-1.741121 -7.891464 0.3251169,-2.289361 -7.569538 0.4774976,-2.640565 -6.691516 0.5824064,-2.558977 -5.7926 0.751527,-2.359647 -5.1344 0.8708664,-2.707667 -5.497724 0.2010537,-3.0502 -4.48498 0.3439871,-3.24755 -3.827842 0.3676928,-3.395803 -3.212331 0.3822602,-2.359841 -5.301609 0.3709449,-2.560329 -4.058174 0.5854384,-2.689697 -3.217432 0.8107774,-2.796991 -2.49064 0.9999514,-1.993512 -5.401444 0.5769957,-2.210773 -5.024944 1.074259,-2.26738 -5.906902 1.199937,-2.244394 -6.527952 1.188588,-1.652702 -5.655252 0.8062495,-1.86236 -5.3644 1.153583,-1.965352 -5.99174 1.208139,-1.991552 -6.513866 1.190631,-8.292691 -7.356824 -1.253038,-7.835881 -7.171236 -0.7476459,-7.44792 -6.486609 -0.3733357,-7.584944 -5.866274 -0.05359757,-7.91163 -5.673862 0.1751021,-7.615151 -5.435565 -0.7247527,-7.531794 -4.975268 -0.0127784,-7.538351 -5.120316 0.468281,-7.593358 -5.337596 0.6657195,-7.9561 -5.298123 -0.7152131,-7.896691 -4.732197 0.005093813,-7.859671 -5.060464 0.3787498,-7.86654 -5.31125 0.5388371,-8.295491 -5.362464 -0.6247742,-8.272352 -4.893869 0.0505352,-8.17791 -5.572835 0.2050093,-8.15132 -5.9365 0.1465874,-8.64698 -5.620094 -0.5000822,-8.599298 -5.232482 -0.02537501,-8.483377 -5.732221 0.06618297,-8.433621 -6.063538 0.004197001,7.410,Left Hand Closed 2
-1.726897 -7.910068 0.3150383,-2.277972 -7.589523 0.4777477,-2.627753 -6.734394 0.5931942,-2.558748 -5.825513 0.7794038,-2.387534 -5.111626 0.922773,-2.687147 -5.520631 0.1869032,-3.016394 -4.500541 0.3399895,-3.201988 -3.813936 0.3676103,-3.339917 -3.179819 0.3781242,-2.34277 -5.322443 0.3575881,-2.541803 -4.069715 0.5935826,-2.667505 -3.205235 0.8454065,-2.779107 -2.46514 1.04471,-1.976953 -5.404928 0.5666988,-2.203226 -5.007589 1.092322,-2.260679 -5.907465 1.231048,-2.244982 -6.571271 1.220209,-1.63133 -5.639341 0.7971352,-1.852058 -5.313534 1.168793,-1.964968 -5.94449 1.239059,-2.006396 -6.497636 1.233294,-8.308303 -7.309612 -1.352548,-7.855932 -7.152231 -0.8524787,-7.456187 -6.477461 -0.4970896,-7.582107 -5.839843 -0.1951501,-7.919677 -5.662713 0.008004904,-7.607175 -5.418489 -0.8685044,-7.502379 -4.981832 -0.1798227,-7.546409 -5.376304 0.2309899,-7.61809 -5.688522 0.354931,-7.936625 -5.276235 -0.8560961,-7.852626 -4.710989 -0.1812453,-7.84212 -5.168043 0.1404294,-7.862619 -5.436054 0.2419115,-8.27573 -5.334121 -0.7610155,-8.243001 -4.866112 -0.1305599,-8.177599 -5.559722 0.005197406,-8.173628 -5.915933 -0.06050348,-8.634212 -5.575351 -0.627829,-8.580512 -5.210603 -0.1950842,-8.47387 -5.723749 -0.120813,-8.436236 -6.05197 -0.2024524,7.510,Left Hand Closed 2
-1.708237 -7.886964 0.232288,-2.270279 -7.561106 0.386018,-2.628782 -6.70407 0.4733905,-2.557965 -5.790487 0.6236795,-2.368941 -5.113853 0.7213587,-2.690135 -5.535487 0.06529562,-3.031281 -4.512658 0.1859176,-3.226967 -3.846757 0.1982446,-3.377834 -3.220797 0.2046891,-2.348351 -5.329276 0.2205992,-2.544989 -4.0614 0.4147404,-2.677479 -3.214291 0.6467879,-2.791957 -2.4755 0.8433458,-1.987189 -5.394058 0.4141422,-2.211618 -4.996345 0.9046211,-2.25669 -5.890344 1.038002,-2.222788 -6.519149 1.032512,-1.649305 -5.600336 0.6294713,-1.867154 -5.274942 0.9704527,-1.964325 -5.909442 1.03324,-1.983689 -6.445407 1.025198,-8.3121 -7.317895 -1.290245,-7.84796 -7.148151 -0.7780964,-7.449705 -6.455595 -0.4394518,-7.610584 -5.81749 -0.1567389,-7.952179 -5.658598 0.01966572,-7.593132 -5.43291 -0.7861367,-7.478065 -5.004867 -0.09145665,-7.540154 -5.382112 0.3170884,-7.627455 -5.675292 0.4354734,-7.930533 -5.270925 -0.7808018,-7.845846 -4.740707 -0.07462811,-7.853815 -5.236594 0.2666167,-7.887762 -5.512022 0.3705046,-8.277645 -5.311792 -0.6913669,-8.251195 -4.871263 -0.04027236,-8.187855 -5.562644 0.1048075,-8.183933 -5.898695 0.0406816,-8.639894 -5.544635 -0.5656623,-8.589 -5.227222 -0.1159694,-8.481724 -5.73876 -0.02656078,-8.438396 -6.046203 -0.09664202,7.610,Left Hand Closed 2
-1.711616 -7.878082 0.2392549,-2.268016 -7.557025 0.3857057,-2.623109 -6.674247 0.4866287,-2.532955 -5.758373 0.6425968,-2.328841 -5.096287 0.7384447,-2.689014 -5.531994 0.09471731,-3.042112 -4.520492 0.2116081,-3.237278 -3.861304 0.2233288,-3.388171 -3.243539 0.2326892,-2.342581 -5.316129 0.2511094,-2.548133 -4.066539 0.4330911,-2.686703 -3.227601 0.6534157,-2.800936 -2.505321 0.8515799,-1.977809 -5.37946 0.443529,-2.21244 -5.030998 0.8912083,-2.249344 -5.89849 1.000375,-2.193711 -6.471641 0.9929914,-1.640906 -5.587141 0.6575328,-1.867822 -5.265614 0.9619524,-1.954992 -5.886796 1.005533,-1.952834 -6.388361 0.9984775,-8.290696 -7.306544 -1.212382,-7.834131 -7.139419 -0.6852728,-7.441308 -6.449962 -0.3338256,-7.606994 -5.814756 -0.0441376,-7.948577 -5.644386 0.1445321,-7.596217 -5.407761 -0.6536456,-7.498976 -4.985157 0.0496527,-7.543363 -5.341369 0.4740909,-7.615772 -5.642133 0.6052612,-7.93609 -5.243043 -0.6579601,-7.870366 -4.711832 0.04767275,-7.859453 -5.152812 0.3941574,-7.874685 -5.42798 0.5088407,-8.281522 -5.288394 -0.5813529,-8.269041 -4.867809 0.07568109,-8.19714 -5.54836 0.2326337,-8.179618 -5.893182 0.1798025,-8.639551 -5.535233 -0.4691693,-8.594856 -5.246122 -0.006541252,-8.486106 -5.748849 0.09296656,-8.436749 -6.051052 0.03204715,7.710,Left Hand Closed 2
-1.714788 -7.870125 0.2280163,-2.271298 -7.557711 0.4234416,-2.634085 -6.668581 0.5317166,-2.546828 -5.726413 0.6885327,-2.333332 -5.069704 0.777105,-2.682161 -5.516389 0.1027211,-3.02268 -4.49472 0.2285155,-3.208598 -3.829238 0.2320809,-3.34919 -3.203351 0.228212,-2.335852 -5.309082 0.2457424,-2.543437 -4.053167 0.4560964,-2.680126 -3.207574 0.6765885,-2.795907 -2.475114 0.8628585,-1.970891 -5.382448 0.4298289,-2.20694 -4.965617 0.9424099,-2.259767 -5.864496 1.066288,-2.220963 -6.484642 1.039884,-1.630232 -5.605361 0.6406646,-1.858703 -5.220068 1.002684,-1.960935 -5.844137 1.075547,-1.976749 -6.370631 1.074611,-8.296036 -7.302673 -1.27413,-7.847327 -7.147691 -0.7848825,-7.454125 -6.463768 -0.4466932,-7.600734 -5.845502 -0.1615828,-7.920135 -5.669042 0.02959621,-7.605165 -5.392686 -0.773876,-7.489878 -4.985824 -0.1158344,-7.547895 -5.379085 0.3011521,-7.626713 -5.685218 0.446056,-7.930997 -5.250377 -0.7547671,-7.846366 -4.705135 -0.1090767,-7.837983 -5.117773 0.2310157,-7.858442 -5.404942 0.3665142,-8.267513 -5.30228 -0.6552532,-8.240698 -4.829025 -0.03120136,-8.166626 -5.465184 0.1460508,-8.147398 -5.854747 0.1254915,-8.627756 -5.543008 -0.5217228,-8.573376 -5.188247 -0.07091463,-8.462845 -5.655122 0.0310576,-8.409359 -6.004871 -0.009203434,7.810,Left Hand Closed 2
-1.712721 -7.859388 0.1632211,-2.276593 -7.519222 0.3092895,-2.625525 -6.658765 0.4233963,-2.558227 -5.750598 0.5989609,-2.377147 -5.060034 0.7179427,-2.690214 -5.517291 0.01495917,-3.04578 -4.500518 0.1674241,-3.237202 -3.840337 0.2113048,-3.380879 -3.218251 0.2297102,-2.34901 -5.321121 0.1771214,-2.562714 -4.068536 0.4000913,-2.689616 -3.232692 0.6390203,-2.798068 -2.493701 0.8308318,-1.989717 -5.389317 0.3815688,-2.235518 -4.97249 0.8670483,-2.287712 -5.860601 0.9754462,-2.253519 -6.491214 0.9539213,-1.645877 -5.588401 0.6066546,-1.875745 -5.210121 0.9439123,-1.979805 -5.830223 0.9966733,-2.000522 -6.37091 0.9788085,-8.290593 -7.298071 -1.232316,-7.848297 -7.149949 -0.7442818,-7.448073 -6.437878 -0.4183128,-7.610284 -5.794811 -0.1429578,-7.940289 -5.628851 0.02925003,-7.610843 -5.376485 -0.7344037,-7.498072 -4.968658 -0.08545721,-7.546739 -5.402853 0.3017836,-7.618535 -5.718569 0.4196889,-7.936863 -5.231789 -0.7109972,-7.853872 -4.688637 -0.05866694,-7.840852 -5.17054 0.2711457,-7.858455 -5.485815 0.3874617,-8.274593 -5.289848 -0.6098396,-8.24852 -4.812338 0.007140875,-8.172856 -5.472866 0.1751581,-8.15483 -5.855518 0.1471971,-8.63603 -5.535568 -0.4728347,-8.580075 -5.191585 -0.02452421,-8.470339 -5.67698 0.07429445,-8.420369 -6.020023 0.02514207,7.910,Left Hand Closed 2
-1.702644 -7.857925 0.1136924,-2.262897 -7.532267 0.2740264,-2.629831 -6.638174 0.3618309,-2.549263 -5.69986 0.50372,-2.331632 -5.047611 0.5870001,-2.685714 -5.547447 -0.01632199,-3.050993 -4.507482 0.1098028,-3.24511 -3.848752 0.1245364,-3.395444 -3.234224 0.1313699,-2.340322 -5.334585 0.1165438,-2.534435 -4.086689 0.3091595,-2.660071 -3.246413 0.5224144,-2.767861 -2.523531 0.7103858,-1.980823 -5.380949 0.2908649,-2.21977 -5.028615 0.7445043,-2.263597 -5.874076 0.8503244,-2.218097 -6.445499 0.8383263,-1.647017 -5.558727 0.4890847,-1.884844 -5.225484 0.7948433,-1.980091 -5.84196 0.855266,-1.987074 -6.351117 0.853848,-8.292863 -7.307591 -1.263507,-7.847145 -7.13644 -0.7902343,-7.456125 -6.426512 -0.4696115,-7.615563 -5.785249 -0.1970966,-7.944316 -5.626382 -0.02150619,-7.631731 -5.377435 -0.7810394,-7.52586 -4.950286 -0.1206304,-7.554666 -5.299129 0.2784256,-7.619207 -5.599161 0.407719,-7.960515 -5.241947 -0.7629099,-7.889805 -4.685885 -0.100184,-7.859996 -5.064207 0.2336611,-7.867396 -5.337329 0.3557775,-8.292044 -5.306278 -0.6678814,-8.263372 -4.848474 -0.02732921,-8.17967 -5.487998 0.1392001,-8.159014 -5.858835 0.09620965,-8.642469 -5.559919 -0.5424977,-8.577909 -5.203178 -0.08266807,-8.466837 -5.675718 0.0130353,-8.421165 -6.016578 -0.04085565,8.010,Left Hand Closed 2
-1.707272 -7.832675 0.08667659,-2.265982 -7.527555 0.2634133,-2.627596 -6.647847 0.3819573,-2.536653 -5.696579 0.5450945,-2.329895 -5.008184 0.6445009,-2.694191 -5.544179 -0.01375471,-3.0473 -4.532087 0.1176338,-3.234015 -3.874934 0.1384592,-3.372959 -3.25282 0.151861,-2.347414 -5.31817 0.12253,-2.54566 -4.06317 0.3278925,-2.671688 -3.223415 0.5396747,-2.777764 -2.481484 0.7271403,-1.983926 -5.375199 0.2965908,-2.211766 -4.953758 0.7609977,-2.259621 -5.842504 0.8632826,-2.216964 -6.432683 0.8491648,-1.64752 -5.57362 0.4923335,-1.871071 -5.248412 0.8202806,-1.964587 -5.89298 0.8797533,-1.976061 -6.405374 0.8812855,-8.307636 -7.319561 -1.325819,-7.857233 -7.157906 -0.8516304,-7.471055 -6.472166 -0.5231818,-7.615758 -5.840609 -0.244276,-7.927556 -5.639982 -0.05599248,-7.62263 -5.416653 -0.8602768,-7.507465 -4.979532 -0.1923741,-7.552549 -5.306331 0.2485826,-7.625407 -5.613796 0.4193918,-7.944928 -5.275841 -0.8325035,-7.867264 -4.697221 -0.1823938,-7.844853 -5.000085 0.1860114,-7.846692 -5.270807 0.3580422,-8.274426 -5.334337 -0.7258092,-8.25729 -4.813945 -0.08710492,-8.174362 -5.410514 0.1244959,-8.134867 -5.824237 0.1361462,-8.631696 -5.577194 -0.5875652,-8.587461 -5.179727 -0.1163186,-8.477761 -5.620716 0.01014471,-8.409669 -5.988376 -0.0001246929,8.110,Left Hand Closed 2
-1.70234 -7.824802 0.05931867,-2.263016 -7.506225 0.2244667,-2.616887 -6.62985 0.3128813,-2.532145 -5.68132 0.4579646,-2.344866 -4.995836 0.5444994,-2.692266 -5.540678 -0.09739822,-3.031146 -4.514376 0.03142,-3.218319 -3.852261 0.04560294,-3.359137 -3.23188 0.05622237,-2.349983 -5.320064 0.04460272,-2.561376 -4.086845 0.2575667,-2.69784 -3.253156 0.4843949,-2.810806 -2.529172 0.6755176,-1.985907 -5.37589 0.2291518,-2.20086 -4.96478 0.7147377,-2.250722 -5.83855 0.8333221,-2.221304 -6.441186 0.8171643,-1.642019 -5.577085 0.4333766,-1.850816 -5.228853 0.7897838,-1.954793 -5.852832 0.8609018,-1.981688 -6.36877 0.8552156,-8.28536 -7.343352 -1.193002,-7.848447 -7.162202 -0.6595301,-7.466834 -6.457533 -0.2911333,-7.61618 -5.820793 0.01872313,-7.937851 -5.637261 0.2267663,-7.643744 -5.390399 -0.5893427,-7.555725 -4.953676 0.1211153,-7.596244 -5.332558 0.5486196,-7.660728 -5.644952 0.689824,-7.981141 -5.281145 -0.5848679,-7.937471 -4.685464 0.1396818,-7.910074 -5.072719 0.507156,-7.905699 -5.34013 0.656257,-8.315124 -5.372079 -0.5067506,-8.323181 -4.87581 0.1991128,-8.228262 -5.526366 0.4007989,-8.184357 -5.911966 0.3746407,-8.659602 -5.648889 -0.3957657,-8.637961 -5.256464 0.1121919,-8.515311 -5.719573 0.230412,-8.437606 -6.05622 0.1892778,8.210,Left Hand Closed 2
-1.692492 -7.798175 0.001921655,-2.249529 -7.514352 0.190777,-2.617547 -6.655366 0.2999539,-2.534562 -5.705738 0.4534042,-2.328138 -5.021957 0.5424821,-2.690577 -5.537555 -0.1212357,-3.026684 -4.502273 0.005980326,-3.210957 -3.839306 0.01138352,-3.347614 -3.210691 0.01183543,-2.349055 -5.312662 0.006113783,-2.556216 -4.073987 0.1989373,-2.689559 -3.250601 0.3922334,-2.80494 -2.53477 0.5574116,-1.989223 -5.359844 0.1754785,-2.210574 -4.939075 0.6564746,-2.253207 -5.822958 0.7696857,-2.218995 -6.434836 0.7490624,-1.652401 -5.540454 0.3682055,-1.871861 -5.204678 0.7117254,-1.967737 -5.841303 0.7777203,-1.989698 -6.363399 0.7718127,-8.296413 -7.324696 -1.348682,-7.860803 -7.155336 -0.8764306,-7.481102 -6.462877 -0.5297851,-7.628189 -5.832807 -0.2190934,-7.948921 -5.623451 0.002313495,-7.65456 -5.393735 -0.8871363,-7.553269 -4.935592 -0.2071637,-7.568127 -5.272634 0.2248207,-7.630557 -5.603077 0.3772534,-7.982313 -5.279636 -0.8558443,-7.922166 -4.6892 -0.1862353,-7.877274 -5.064126 0.1598819,-7.875984 -5.359144 0.2978638,-8.31134 -5.373292 -0.7432331,-8.290444 -4.861919 -0.09003091,-8.190388 -5.492581 0.1002305,-8.159248 -5.886692 0.08143711,-8.658307 -5.646591 -0.596126,-8.606268 -5.247362 -0.1169399,-8.487455 -5.706581 4.410744E-05,-8.430216 -6.059064 -0.0330956,8.310,Left Hand Closed 2
-1.717502 -7.785669 0.05744875,-2.268958 -7.482885 0.2424072,-2.625105 -6.594375 0.3514453,-2.535621 -5.65203 0.5107346,-2.316136 -5.007342 0.6199914,-2.672817 -5.470409 -0.03320681,-2.996757 -4.407074 0.1000718,-3.175234 -3.737316 0.1236491,-3.306951 -3.112869 0.1325552,-2.329223 -5.272868 0.1040079,-2.524127 -4.036382 0.3036976,-2.653907 -3.20948 0.5077956,-2.758402 -2.492356 0.6898307,-1.96931 -5.351392 0.2791795,-2.180297 -4.945522 0.753828,-2.234351 -5.827049 0.8602489,-2.205869 -6.421818 0.8365133,-1.636409 -5.572152 0.4822577,-1.84883 -5.24377 0.8224735,-1.950336 -5.87829 0.8883502,-1.972301 -6.381265 0.8863719,-8.317382 -7.292388 -1.179925,-7.884941 -7.125949 -0.6415495,-7.499836 -6.470401 -0.2525817,-7.647077 -5.825233 0.0811013,-7.976686 -5.593839 0.3077787,-7.633478 -5.356641 -0.6542639,-7.531068 -4.951768 0.04771709,-7.587173 -5.314812 0.4615424,-7.668202 -5.607286 0.5870346,-7.967046 -5.209874 -0.6586835,-7.891683 -4.672822 0.02817655,-7.878352 -5.089069 0.3506665,-7.901964 -5.332128 0.4395438,-8.304513 -5.276224 -0.5762122,-8.278086 -4.86784 0.07727325,-8.20577 -5.562795 0.2185699,-8.196059 -5.893425 0.1398956,-8.654519 -5.532348 -0.4566481,-8.592653 -5.214519 -0.02351046,-8.486083 -5.727314 0.03711247,-8.447728 -6.031251 -0.06542659,8.410,Left Hand Closed 2
