TiagoOliveira98/HandTracking/DataLogging/JointData/Logs(1642779577)_Tiago_MemoryGame.csv
WRIST,THUMB_CMC,THUMB_MCP,THUMB_IP,THUMB_TIP,INDEX_FINGER_MCP,INDEX_FINGER_PIP,INDEX_FINGER_DIP,INDEX_FINGER_TIP,MIDDLE_FINGER_MCP,MIDDLE_FINGER_PIP,MIDDLE_FINGER_DIP,MIDDLE_FINGER_TIP,RING_FINGER_MCP,RING_FINGER_PIP,RING_FINGER_DIP,RING_FINGER_TIP,PINKY_MCP,PINKY_PIP,PINKY_DIP,PINKY_TIP,WRIST2,THUMB_CMC2,THUMB_MCP2,THUMB_IP2,THUMB_TIP2,INDEX_FINGER_MCP2,INDEX_FINGER_PIP2,INDEX_FINGER_DIP2,INDEX_FINGER_TIP2,MIDDLE_FINGER_MCP2,MIDDLE_FINGER_PIP2,MIDDLE_FINGER_DIP2,MIDDLE_FINGER_TIP2,RING_FINGER_MCP2,RING_FINGER_PIP2,RING_FINGER_DIP2,RING_FINGER_TIP2,PINKY_MCP2,PINKY_PIP2,PINKY_DIP2,PINKY_TIP2,Timestamp,Event
10 0 0,10 7.47 0,10 7.47 0,10 7.47 0,10 7.47 0,10 7.47 0,10 7.47 0,10 7.47 0,10 7.47 0,10 7.47 0,10 7.47 0,10 7.47 0,10 7.47 0,10 7.47 0,10 7.47 0,10 7.47 0,10 7.47 0,10 7.47 0,10 7.47 0,10 7.47 0,10 7.47 0,10 0 0,10 7.47 0,10 7.47 0,10 7.47 0,10 7.47 0,10 7.47 0,10 7.47 0,10 7.47 0,10 7.47 0,10 7.47 0,10 7.47 0,10 7.47 0,10 7.47 0,10 7.47 0,10 7.47 0,10 7.47 0,10 7.47 0,10 7.47 0,10 7.47 0,10 7.47 0,10 7.47 0,0.010,
2 0 -9.279975,2 0 -9.279975,2 0 -9.279975,2 0 -9.279975,2 0 -9.279975,2 0 -9.279975,2 0 -9.279975,2 0 -9.279975,2 0 -9.279975,2 0 -9.279975,2 0 -9.279975,2 0 -9.279975,2 0 -9.279975,2 0 -9.279975,2 0 -9.279975,2 0 -9.279975,2 0 -9.279975,2 0 -9.279975,2 0 -9.279975,2 0 -9.279975,2 0 -9.279975,2 0 -10.59351,2 0 -10.59351,2 0 -10.59351,2 0 -10.59351,2 0 -10.59351,2 0 -10.59351,2 0 -10.59351,2 0 -10.59351,2 0 -10.59351,2 0 -10.59351,2 0 -10.59351,2 0 -10.59351,2 0 -10.59351,2 0 -10.59351,2 0 -10.59351,2 0 -10.59351,2 0 -10.59351,2 0 -10.59351,2 0 -10.59351,2 0 -10.59351,2 0 -10.59351,0.110, 0
2 0 -9.279975,2 0 -9.279975,2 0 -9.279975,2 0 -9.279975,2 0 -9.279975,2 0 -9.279975,2 0 -9.279975,2 0 -9.279975,2 0 -9.279975,2 0 -9.279975,2 0 -9.279975,2 0 -9.279975,2 0 -9.279975,2 0 -9.279975,2 0 -9.279975,2 0 -9.279975,2 0 -9.279975,2 0 -9.279975,2 0 -9.279975,2 0 -9.279975,2 0 -9.279975,2 0 -10.59351,2 0 -10.59351,2 0 -10.59351,2 0 -10.59351,2 0 -10.59351,2 0 -10.59351,2 0 -10.59351,2 0 -10.59351,2 0 -10.59351,2 0 -10.59351,2 0 -10.59351,2 0 -10.59351,2 0 -10.59351,2 0 -10.59351,2 0 -10.59351,2 0 -10.59351,2 0 -10.59351,2 0 -10.59351,2 0 -10.59351,2 0 -10.59351,2 0 -10.59351,0.210, 0
2 0 -9.279975,2 0 -9.279975,2 0 -9.279975,2 0 -9.279975,2 0 -9.279975,2 0 -9.279975,2 0 -9.279975,2 0 -9.279975,2 0 -9.279975,2 0 -9.279975,2 0 -9.279975,2 0 -9.279975,2 0 -9.279975,2 0 -9.279975,2 0 -9.279975,2 0 -9.279975,2 0 -9.279975,2 0 -9.279975,2 0 -9.279975,2 0 -9.279975,2 0 -9.279975,2 0 -10.59351,2 0 -10.59351,2 0 -10.59351,2 0 -10.59351,2 0 -10.59351,2 0 -10.59351,2 0 -10.59351,2 0 -10.59351,2 0 -10.59351,2 0 -10.59351,2 0 -10.59351,2 0 -10.59351,2 0 -10.59351,2 0 -10.59351,2 0 -10.59351,2 0 -10.59351,2 0 -10.59351,2 0 -10.59351,2 0 -10.59351,2 0 -10.59351,2 0 -10.59351,0.310, 0
2 0 -9.279975,2 0 -9.279975,2 0 -9.279975,2 0 -9.279975,2 0 -9.279975,2 0 -9.279975,2 0 -9.279975,2 0 -9.279975,2 0 -9.279975,2 0 -9.279975,2 0 -9.279975,2 0 -9.279975,2 0 -9.279975,2 0 -9.279975,2 0 -9.279975,2 0 -9.279975,2 0 -9.279975,2 0 -9.279975,2 0 -9.279975,2 0 -9.279975,2 0 -9.279975,2 0 -10.59351,2 0 -10.59351,2 0 -10.59351,2 0 -10.59351,2 0 -10.59351,2 0 -10.59351,2 0 -10.59351,2 0 -10.59351,2 0 -10.59351,2 0 -10.59351,2 0 -10.59351,2 0 -10.59351,2 0 -10.59351,2 0 -10.59351,2 0 -10.59351,2 0 -10.59351,2 0 -10.59351,2 0 -10.59351,2 0 -10.59351,2 0 -10.59351,2 0 -10.59351,0.410, 0
2 0 -9.279975,2 0 -9.279975,2 0 -9.279975,2 0 -9.279975,2 0 -9.279975,2 0 -9.279975,2 0 -9.279975,2 0 -9.279975,2 0 -9.279975,2 0 -9.279975,2 0 -9.279975,2 0 -9.279975,2 0 -9.279975,2 0 -9.279975,2 0 -9.279975,2 0 -9.279975,2 0 -9.279975,2 0 -9.279975,2 0 -9.279975,2 0 -9.279975,2 0 -9.279975,2 0 -10.59351,2 0 -10.59351,2 0 -10.59351,2 0 -10.59351,2 0 -10.59351,2 0 -10.59351,2 0 -10.59351,2 0 -10.59351,2 0 -10.59351,2 0 -10.59351,2 0 -10.59351,2 0 -10.59351,2 0 -10.59351,2 0 -10.59351,2 0 -10.59351,2 0 -10.59351,2 0 -10.59351,2 0 -10.59351,2 0 -10.59351,2 0 -10.59351,2 0 -10.59351,0.510, 0
2 0 -9.279975,2 0 -9.279975,2 0 -9.279975,2 0 -9.279975,2 0 -9.279975,2 0 -9.279975,2 0 -9.279975,2 0 -9.279975,2 0 -9.279975,2 0 -9.279975,2 0 -9.279975,2 0 -9.279975,2 0 -9.279975,2 0 -9.279975,2 0 -9.279975,2 0 -9.279975,2 0 -9.279975,2 0 -9.279975,2 0 -9.279975,2 0 -9.279975,2 0 -9.279975,2 0 -10.59351,2 0 -10.59351,2 0 -10.59351,2 0 -10.59351,2 0 -10.59351,2 0 -10.59351,2 0 -10.59351,2 0 -10.59351,2 0 -10.59351,2 0 -10.59351,2 0 -10.59351,2 0 -10.59351,2 0 -10.59351,2 0 -10.59351,2 0 -10.59351,2 0 -10.59351,2 0 -10.59351,2 0 -10.59351,2 0 -10.59351,2 0 -10.59351,2 0 -10.59351,0.610, 0
2 0 -9.279975,2 0 -9.279975,2 0 -9.279975,2 0 -9.279975,2 0 -9.279975,2 0 -9.279975,2 0 -9.279975,2 0 -9.279975,2 0 -9.279975,2 0 -9.279975,2 0 -9.279975,2 0 -9.279975,2 0 -9.279975,2 0 -9.279975,2 0 -9.279975,2 0 -9.279975,2 0 -9.279975,2 0 -9.279975,2 0 -9.279975,2 0 -9.279975,2 0 -9.279975,2 0 -10.59351,2 0 -10.59351,2 0 -10.59351,2 0 -10.59351,2 0 -10.59351,2 0 -10.59351,2 0 -10.59351,2 0 -10.59351,2 0 -10.59351,2 0 -10.59351,2 0 -10.59351,2 0 -10.59351,2 0 -10.59351,2 0 -10.59351,2 0 -10.59351,2 0 -10.59351,2 0 -10.59351,2 0 -10.59351,2 0 -10.59351,2 0 -10.59351,2 0 -10.59351,0.710, 0
2 0 -9.279975,2 0 -9.279975,2 0 -9.279975,2 0 -9.279975,2 0 -9.279975,2 0 -9.279975,2 0 -9.279975,2 0 -9.279975,2 0 -9.279975,2 0 -9.279975,2 0 -9.279975,2 0 -9.279975,2 0 -9.279975,2 0 -9.279975,2 0 -9.279975,2 0 -9.279975,2 0 -9.279975,2 0 -9.279975,2 0 -9.279975,2 0 -9.279975,2 0 -9.279975,2 0 -10.59351,2 0 -10.59351,2 0 -10.59351,2 0 -10.59351,2 0 -10.59351,2 0 -10.59351,2 0 -10.59351,2 0 -10.59351,2 0 -10.59351,2 0 -10.59351,2 0 -10.59351,2 0 -10.59351,2 0 -10.59351,2 0 -10.59351,2 0 -10.59351,2 0 -10.59351,2 0 -10.59351,2 0 -10.59351,2 0 -10.59351,2 0 -10.59351,2 0 -10.59351,0.810, 0
2 0 -9.279975,2 0 -9.279975,2 0 -9.279975,2 0 -9.279975,2 0 -9.279975,2 0 -9.279975,2 0 -9.279975,2 0 -9.279975,2 0 -9.279975,2 0 -9.279975,2 0 -9.279975,2 0 -9.279975,2 0 -9.279975,2 0 -9.279975,2 0 -9.279975,2 0 -9.279975,2 0 -9.279975,2 0 -9.279975,2 0 -9.279975,2 0 -9.279975,2 0 -9.279975,2 0 -10.59351,2 0 -10.59351,2 0 -10.59351,2 0 -10.59351,2 0 -10.59351,2 0 -10.59351,2 0 -10.59351,2 0 -10.59351,2 0 -10.59351,2 0 -10.59351,2 0 -10.59351,2 0 -10.59351,2 0 -10.59351,2 0 -10.59351,2 0 -10.59351,2 0 -10.59351,2 0 -10.59351,2 0 -10.59351,2 0 -10.59351,2 0 -10.59351,2 0 -10.59351,0.910, 0
-1.82432 -15.49124 -1.930172,-2.453466 -15.08371 -1.873778,-2.777355 -14.42463 -1.876554,-2.911526 -13.6867 -1.963008,-2.920883 -13.08034 -2.130686,-2.299996 -13.47457 -1.610977,-2.497666 -12.3821 -1.795899,-2.653537 -11.93139 -2.081387,-2.768115 -11.67588 -2.307569,-1.905107 -13.39556 -1.824087,-2.139522 -12.25811 -2.081127,-2.331466 -11.91114 -2.446615,-2.452284 -11.74264 -2.73664,-1.598955 -13.48439 -2.083871,-1.758795 -12.48624 -2.376087,-1.939648 -12.23893 -2.705142,-2.069961 -12.16666 -2.908159,-1.382715 -13.67434 -2.34205,-1.464565 -12.88024 -2.583926,-1.604106 -12.60796 -2.773263,-1.711862 -12.4985 -2.914448,2 0 -10.59351,2 0 -10.59351,2 0 -10.59351,2 0 -10.59351,2 0 -10.59351,2 0 -10.59351,2 0 -10.59351,2 0 -10.59351,2 0 -10.59351,2 0 -10.59351,2 0 -10.59351,2 0 -10.59351,2 0 -10.59351,2 0 -10.59351,2 0 -10.59351,2 0 -10.59351,2 0 -10.59351,2 0 -10.59351,2 0 -10.59351,2 0 -10.59351,2 0 -10.59351,1.010, 5
-2.097246 -13.9247 -0.4497084,-2.804338 -13.57213 -0.3220358,-3.188128 -12.7562 -0.2666011,-3.373827 -11.87903 -0.2892502,-3.510318 -11.09303 -0.3845104,-2.673144 -11.54819 -0.277589,-2.825255 -10.51423 -0.5274658,-2.919835 -10.15255 -0.8425344,-2.997268 -9.968651 -1.063227,-2.244241 -11.40623 -0.4609364,-2.347872 -10.20867 -0.6646935,-2.456476 -9.727116 -1.000805,-2.549695 -9.473993 -1.290628,-1.903686 -11.46418 -0.6664144,-1.934803 -10.33501 -0.8387351,-2.039802 -9.745312 -1.049873,-2.146549 -9.373306 -1.217741,-1.657854 -11.67495 -0.8598189,-1.676728 -10.74652 -1.014108,-1.742811 -10.23917 -1.112894,-1.82377 -9.841358 -1.205068,-7.840423 -14.33907 1.03591,-7.091876 -13.85146 1.053871,-6.691598 -12.94557 1.119703,-6.529753 -12.04249 1.147315,-6.430603 -11.32695 1.209679,-7.070368 -11.2641 1.166428,-6.927736 -10.14078 0.9264635,-6.823253 -9.70536 0.6241122,-6.743567 -9.471506 0.4131756,-7.530919 -11.03084 1.02841,-7.259595 -9.894127 0.6304089,-7.073088 -9.608912 0.155539,-6.953226 -9.567701 -0.229288,-7.919884 -11.07317 0.8553493,-7.640527 -9.926664 0.4699438,-7.424471 -9.753304 0.05112797,-7.277743 -9.830301 -0.2322098,-8.232072 -11.31957 0.7109095,-8.004023 -10.29281 0.3940853,-7.804769 -10.08464 0.1048005,-7.660677 -10.14061 -0.1953937,1.110, 10
-2.295874 -10.33009 1.236682,-2.949446 -9.810165 1.134285,-3.417915 -9.08317 1.136187,-3.678053 -8.409754 1.210704,-3.810066 -7.960142 1.27037,-3.280442 -7.583394 1.225667,-3.499969 -6.309461 1.348182,-3.594756 -5.761965 1.285386,-3.63286 -5.454937 1.15651,-2.927273 -7.395488 1.366504,-3.080833 -5.957605 1.494358,-3.153645 -5.382075 1.378923,-3.181319 -5.067877 1.226886,-2.5654 -7.407249 1.534774,-2.666255 -6.100032 1.669519,-2.732547 -5.537994 1.574653,-2.780829 -5.198154 1.451584,-2.178785 -7.613966 1.699596,-2.173122 -6.651128 1.791155,-2.226975 -6.159549 1.760747,-2.302423 -5.794835 1.706117,-8.551399 -11.61879 2.513175,-7.699179 -10.60966 2.441015,-7.201234 -9.505165 2.589822,-6.911522 -8.566639 2.861026,-6.702037 -7.629999 3.210946,-7.560637 -7.950719 2.595473,-7.464106 -6.605974 2.825468,-7.391802 -5.819298 3.07477,-7.311707 -5.067873 3.330572,-7.929677 -7.947101 2.903157,-7.826872 -6.516439 3.072853,-7.696986 -5.683368 3.276498,-7.587717 -4.920812 3.428041,-8.289644 -8.135988 3.271454,-8.285099 -6.827835 3.409477,-8.183653 -6.027713 3.629379,-8.060744 -5.304323 3.775957,-8.659496 -8.562998 3.624551,-8.686529 -7.489231 3.785776,-8.63763 -6.803785 3.918797,-8.557018 -6.164583 4.018394,1.210, 10
-2.321496 -8.978327 1.483385,-3.013356 -8.527342 1.716516,-3.511982 -7.794578 1.940915,-3.802453 -6.994941 2.147608,-3.870006 -6.271198 2.258634,-3.306732 -6.1646 1.857507,-3.599479 -4.736165 1.979449,-3.728806 -4.295047 1.965033,-3.759779 -4.143595 1.882219,-2.941624 -5.985484 1.821456,-3.163592 -4.392927 1.839766,-3.29505 -4.023599 1.660567,-3.31794 -3.965991 1.48485,-2.586014 -6.034392 1.820301,-2.721293 -4.561258 1.815014,-2.843163 -4.111576 1.619773,-2.905422 -3.929561 1.461363,-2.21966 -6.286669 1.856413,-2.217072 -5.222997 1.840192,-2.30771 -4.782224 1.733084,-2.377984 -4.544218 1.597515,-8.856294 -9.542185 0.670075,-8.136025 -9.239893 0.6869388,-7.614002 -8.308989 0.7188837,-7.321279 -7.434204 0.8404478,-7.034152 -6.759229 0.8838224,-7.917858 -6.608281 0.357336,-7.686169 -5.373415 0.3452117,-7.557282 -4.746665 0.3721438,-7.440064 -4.229559 0.4528638,-8.235914 -6.38804 0.5208053,-8.031585 -4.898674 0.4658434,-7.904988 -4.160739 0.5673249,-7.785507 -3.571552 0.6379843,-8.556392 -6.416984 0.7132487,-8.429309 -5.045761 0.7130197,-8.311655 -4.310485 0.8219365,-8.149082 -3.687236 0.960098,-8.913265 -6.692889 0.9273734,-8.904581 -5.622318 0.9617522,-8.853156 -5.014883 1.04737,-8.749615 -4.471891 1.116772,1.310, 10
-2.285937 -8.707689 1.469505,-2.926882 -8.16095 1.666269,-3.449344 -7.452011 1.759929,-3.746485 -6.664655 1.89325,-3.902891 -5.985994 2.055899,-3.246103 -5.928825 1.258202,-3.516046 -4.92377 1.266225,-3.626562 -4.366632 1.309132,-3.686499 -3.903962 1.33542,-2.94065 -5.714818 1.257429,-3.155459 -4.558279 1.174753,-3.258188 -3.937519 1.240059,-3.301802 -3.381989 1.310284,-2.645587 -5.693273 1.318594,-2.787987 -4.610435 1.256254,-2.894227 -4.027963 1.299218,-2.966247 -3.53418 1.337924,-2.324942 -5.856515 1.437007,-2.365555 -5.029075 1.395862,-2.418512 -4.547092 1.413539,-2.466298 -4.090475 1.428111,-8.955824 -9.193188 0.5971316,-8.264637 -8.762619 0.5561495,-7.775264 -7.84407 0.6130747,-7.51144 -7.024045 0.7609758,-7.223787 -6.455945 0.9232431,-8.10544 -6.232058 0.343412,-7.962822 -5.155198 0.422562,-7.858207 -4.507457 0.5654238,-7.75878 -3.933602 0.6746547,-8.420089 -6.0415 0.558756,-8.290034 -4.731264 0.5812213,-8.167317 -3.953297 0.7619053,-8.047325 -3.261575 0.8801682,-8.741037 -6.065561 0.8028713,-8.688036 -4.826015 0.8630939,-8.589884 -4.090719 1.049344,-8.458488 -3.452479 1.175654,-9.071368 -6.294659 1.04074,-9.13701 -5.335635 1.159624,-9.119989 -4.708383 1.281154,-9.056231 -4.118349 1.355221,1.410, 10
-2.351971 -8.327551 1.126017,-2.952084 -7.771972 1.340013,-3.473099 -7.115973 1.431349,-3.780682 -6.378053 1.556438,-3.97028 -5.717977 1.714364,-3.283904 -5.657514 0.9786779,-3.564756 -4.694416 0.9903749,-3.668574 -4.141451 1.041852,-3.723051 -3.665973 1.088838,-2.993223 -5.428843 0.9699901,-3.215858 -4.322807 0.8957599,-3.306224 -3.714808 0.9814261,-3.342341 -3.162111 1.064036,-2.70816 -5.397363 1.014424,-2.85598 -4.35951 0.9451542,-2.947508 -3.794222 0.9812043,-3.002934 -3.302795 1.019748,-2.391778 -5.54523 1.115939,-2.4293 -4.764649 1.061316,-2.476666 -4.286343 1.067677,-2.510309 -3.799276 1.08137,-9.060741 -8.792219 0.381012,-8.391376 -8.394945 0.4184465,-7.890427 -7.533557 0.5446544,-7.62328 -6.7287 0.7629293,-7.366494 -6.090566 1.007214,-8.221282 -5.901742 0.2356304,-8.073144 -4.842969 0.3302502,-7.984314 -4.214139 0.474054,-7.90055 -3.649916 0.578191,-8.550013 -5.699083 0.4324525,-8.413009 -4.415542 0.4770959,-8.311035 -3.650996 0.6245072,-8.215397 -2.944772 0.7246783,-8.881006 -5.714231 0.6588153,-8.81685 -4.493587 0.732189,-8.723864 -3.76688 0.8989188,-8.593804 -3.115882 1.015643,-9.22596 -5.939788 0.8929925,-9.271369 -5.010323 1.010927,-9.257475 -4.398475 1.131455,-9.188469 -3.799415 1.215683,1.510, 10
-2.375195 -8.037867 0.6263913,-2.945684 -7.626287 0.8820763,-3.4575 -6.977439 0.9668328,-3.759665 -6.249206 1.071733,-3.963982 -5.644521 1.203881,-3.318205 -5.514076 0.5183522,-3.599096 -4.558492 0.5579252,-3.701162 -3.984645 0.6071356,-3.74469 -3.496343 0.6402344,-3.028681 -5.2875 0.4926369,-3.249227 -4.166017 0.4590828,-3.338745 -3.563427 0.5345202,-3.371849 -3.012702 0.6014761,-2.743088 -5.237767 0.5295182,-2.890859 -4.198612 0.5122076,-2.976016 -3.64007 0.5770264,-3.026132 -3.142766 0.6271045,-2.424691 -5.358603 0.6252677,-2.477891 -4.570396 0.6207341,-2.526369 -4.110919 0.659251,-2.554156 -3.65773 0.6831604,-9.039902 -8.458584 0.2753363,-8.396316 -8.086544 0.2809068,-7.907117 -7.20364 0.3620867,-7.644652 -6.391916 0.5246621,-7.386309 -5.852006 0.7027338,-8.264584 -5.594087 0.09832042,-8.146089 -4.538351 0.1953397,-8.064428 -3.903597 0.3360454,-7.970757 -3.336112 0.4449857,-8.589393 -5.386247 0.2857711,-8.475834 -4.146317 0.3369708,-8.36602 -3.38688 0.5003437,-8.258952 -2.688361 0.6281031,-8.913145 -5.397134 0.5041492,-8.855572 -4.223818 0.5830207,-8.752263 -3.520486 0.7419258,-8.612638 -2.882328 0.8648463,-9.249095 -5.611106 0.7218586,-9.293728 -4.722936 0.8298091,-9.281338 -4.14234 0.9368189,-9.215809 -3.559361 1.017009,1.610, 10
-2.382012 -7.896716 -0.03736071,-2.9543 -7.536849 0.2662761,-3.447796 -6.978796 0.3816169,-3.752226 -6.297059 0.5069549,-3.965143 -5.664279 0.6442469,-3.327288 -5.56845 -0.05200505,-3.596144 -4.6131 0.02967801,-3.705808 -4.024181 0.1232691,-3.763697 -3.526663 0.2097892,-3.038422 -5.339956 -0.09853281,-3.250022 -4.22253 -0.08877239,-3.348486 -3.579544 0.01668236,-3.392676 -3.013963 0.1142896,-2.751204 -5.277213 -0.0830068,-2.894275 -4.242311 -0.06080897,-2.97852 -3.638564 0.05192731,-3.03261 -3.128591 0.141078,-2.434726 -5.373052 -0.0128352,-2.489966 -4.566819 0.02539281,-2.540797 -4.101663 0.1081046,-2.578608 -3.675381 0.1680515,-9.022589 -8.2796 -0.1429766,-8.376556 -8.005936 -0.03038509,-7.895501 -7.191366 0.06717612,-7.640812 -6.402174 0.2228733,-7.357932 -5.870032 0.377003,-8.263694 -5.54697 -0.202558,-8.096496 -4.453128 -0.06913342,-7.981373 -3.785921 0.0841551,-7.87996 -3.196163 0.1963803,-8.583489 -5.327287 -0.07055541,-8.436636 -4.0419 0.03225745,-8.316453 -3.242546 0.2447185,-8.209644 -2.571608 0.3867372,-8.898728 -5.352891 0.1047365,-8.803697 -4.130838 0.2191205,-8.710741 -3.377326 0.4059189,-8.596154 -2.746149 0.5584006,-9.231772 -5.581978 0.2819276,-9.249674 -4.638961 0.4621366,-9.227908 -4.027518 0.6169739,-9.165735 -3.473022 0.7121233,1.710, 10
-2.406618 -7.813772 -0.2298256,-2.977528 -7.490612 0.08580819,-3.462489 -6.946039 0.1980963,-3.75975 -6.268405 0.3180082,-3.970881 -5.647712 0.4376613,-3.334839 -5.536505 -0.2273045,-3.60155 -4.597295 -0.1500944,-3.710248 -4.015994 -0.05805056,-3.767048 -3.526034 0.02703407,-3.043745 -5.30865 -0.2826924,-3.26024 -4.202201 -0.2843315,-3.360899 -3.56446 -0.1879078,-3.405687 -3.01754 -0.0947036,-2.756244 -5.245803 -0.269685,-2.898787 -4.221572 -0.2550759,-2.989138 -3.617538 -0.1546874,-3.04887 -3.109509 -0.06896731,-2.437879 -5.336891 -0.2015236,-2.488302 -4.535274 -0.1687535,-2.539337 -4.075263 -0.08819118,-2.577805 -3.653961 -0.02492,-9.023115 -8.309834 -0.1167322,-8.37499 -8.040918 -0.005471759,-7.894957 -7.206382 0.08983175,-7.643141 -6.410362 0.2412456,-7.359481 -5.891185 0.387008,-8.256295 -5.576816 -0.1313525,-8.086052 -4.493842 0.008286566,-7.972404 -3.832951 0.154034,-7.872058 -3.244839 0.265387,-8.575281 -5.352784 0.002012461,-8.42131 -4.086116 0.1206136,-8.297576 -3.289296 0.338544,-8.188933 -2.607547 0.4873201,-8.893413 -5.375251 0.1746581,-8.789958 -4.170082 0.3048132,-8.695579 -3.412828 0.4970282,-8.582005 -2.773631 0.6561858,-9.23 -5.605433 0.3434067,-9.245224 -4.659681 0.5392712,-9.225975 -4.039653 0.7022906,-9.166666 -3.471267 0.8058085,1.810, 10
-2.433839 -7.661565 -0.4643046,-2.99896 -7.36335 -0.1381701,-3.468027 -6.846086 -0.01019135,-3.758522 -6.207233 0.1269884,-3.991636 -5.606431 0.2727015,-3.332895 -5.44052 -0.4100139,-3.595625 -4.508156 -0.3283803,-3.70978 -3.931937 -0.2355747,-3.778737 -3.447981 -0.143633,-3.041366 -5.217482 -0.4674858,-3.250865 -4.122977 -0.4513441,-3.3473 -3.485087 -0.3493144,-3.397091 -2.946173 -0.2522743,-2.756683 -5.161184 -0.4579451,-2.892773 -4.145041 -0.4289072,-2.980879 -3.534227 -0.3152409,-3.044817 -3.020911 -0.2163841,-2.442676 -5.259984 -0.3997006,-2.489378 -4.468518 -0.346312,-2.536405 -4.003166 -0.2479751,-2.574341 -3.577388 -0.1717726,-9.006976 -8.202118 -0.2068621,-8.378249 -7.911829 -0.09615625,-7.904377 -7.101467 0.01692674,-7.643566 -6.325824 0.1896548,-7.353492 -5.804847 0.3604218,-8.279863 -5.470043 -0.2311379,-8.119297 -4.393922 -0.08431948,-8.007922 -3.733222 0.08089399,-7.90836 -3.150165 0.2018928,-8.596028 -5.265764 -0.08635329,-8.452266 -4.000761 0.03609344,-8.332408 -3.224121 0.2521907,-8.223603 -2.561184 0.3957706,-8.912797 -5.300298 0.1035725,-8.819664 -4.077117 0.2359107,-8.725644 -3.336782 0.4236006,-8.608117 -2.70733 0.571944,-9.247964 -5.533878 0.2910721,-9.278132 -4.578929 0.4811004,-9.267072 -3.956592 0.6386979,-9.216561 -3.387721 0.7377008,1.910, 10
-2.44322 -7.568149 -0.5370997,-3.005793 -7.281325 -0.2186911,-3.483313 -6.765872 -0.09591192,-3.793882 -6.139062 0.03878576,-4.022028 -5.548439 0.1838354,-3.351406 -5.36922 -0.5158378,-3.621517 -4.449314 -0.4444153,-3.732464 -3.878517 -0.3625196,-3.790534 -3.392069 -0.2794241,-3.067272 -5.149909 -0.5706544,-3.280472 -4.065407 -0.5800546,-3.37472 -3.43487 -0.4871114,-3.416593 -2.898783 -0.4034459,-2.78464 -5.089918 -0.5585803,-2.920846 -4.082904 -0.559047,-3.01091 -3.485584 -0.4660484,-3.069366 -2.986776 -0.3865626,-2.47186 -5.179742 -0.4983198,-2.523432 -4.387111 -0.4742796,-2.571454 -3.921315 -0.3940642,-2.606851 -3.49485 -0.3368295,-9.018562 -8.115156 -0.3368082,-8.394877 -7.829622 -0.2176112,-7.92284 -7.035 -0.09958707,-7.667521 -6.26524 0.0785526,-7.384789 -5.744873 0.2581524,-8.28414 -5.426259 -0.3596298,-8.123541 -4.35536 -0.2069639,-8.011842 -3.701773 -0.03568062,-7.910098 -3.126139 0.09039283,-8.595357 -5.218089 -0.2161238,-8.450365 -3.962276 -0.08640757,-8.330885 -3.189138 0.1367483,-8.219677 -2.527421 0.2869669,-8.905256 -5.24076 -0.02719873,-8.81123 -4.027557 0.1089961,-8.716265 -3.291293 0.310855,-8.595588 -2.663047 0.4648731,-9.234206 -5.459373 0.1609468,-9.259151 -4.515707 0.3521708,-9.244307 -3.899353 0.5152293,-9.188115 -3.32866 0.615032,2.010, 10
-2.458764 -7.476275 -0.6618351,-3.012313 -7.211216 -0.3429263,-3.482658 -6.699373 -0.2153438,-3.77812 -6.067821 -0.07968402,-4.007023 -5.484913 0.07289624,-3.348578 -5.316928 -0.5809527,-3.618149 -4.401735 -0.4825835,-3.734759 -3.836477 -0.3856418,-3.805081 -3.339662 -0.2897534,-3.068106 -5.091163 -0.6225082,-3.278704 -4.021204 -0.5706899,-3.372314 -3.381651 -0.4529632,-3.416368 -2.831982 -0.3522964,-2.78854 -5.032779 -0.5985502,-2.925337 -4.039062 -0.5369905,-3.018831 -3.439292 -0.4098432,-3.083687 -2.92707 -0.3023429,-2.47553 -5.126825 -0.5331825,-2.51944 -4.343302 -0.4528465,-2.562689 -3.882449 -0.3389078,-2.595171 -3.460937 -0.2553772,-9.034048 -8.082323 -0.411484,-8.414269 -7.809769 -0.2928805,-7.948495 -7.005446 -0.1711235,-7.692676 -6.243903 0.01453766,-7.40293 -5.739151 0.1967723,-8.306338 -5.417408 -0.3885155,-8.145658 -4.361972 -0.2309413,-8.032789 -3.723707 -0.06425232,-7.931638 -3.149539 0.06762037,-8.608981 -5.209949 -0.2363669,-8.462843 -3.968145 -0.09101993,-8.335338 -3.189645 0.1470506,-8.221477 -2.512012 0.3108139,-8.915391 -5.239065 -0.04616827,-8.819057 -4.049653 0.1071053,-8.713378 -3.299079 0.3194578,-8.587721 -2.659459 0.4887214,-9.244537 -5.46892 0.1382269,-9.264096 -4.53169 0.3542443,-9.240833 -3.913364 0.5279176,-9.178256 -3.352278 0.6380919,2.110, 10
-2.45408 -7.429248 -0.7138271,-3.011565 -7.166194 -0.3606246,-3.48288 -6.670732 -0.2194248,-3.78443 -6.046527 -0.08065051,-4.008204 -5.452577 0.0677678,-3.338934 -5.284665 -0.5992937,-3.609035 -4.363615 -0.5044947,-3.723154 -3.788925 -0.4043519,-3.788551 -3.300325 -0.3042045,-3.057949 -5.058144 -0.6685148,-3.26753 -3.9786 -0.6306064,-3.360546 -3.3354 -0.5212315,-3.400184 -2.799487 -0.4270569,-2.780712 -5.000268 -0.6714993,-2.915519 -4.001201 -0.623845,-3.007664 -3.39524 -0.4999244,-3.067911 -2.891 -0.3975982,-2.476223 -5.099477 -0.6315089,-2.518052 -4.316591 -0.5592434,-2.561222 -3.855478 -0.4513854,-2.591048 -3.443611 -0.3708047,-9.044501 -8.112095 -0.4573981,-8.422239 -7.843374 -0.3369752,-7.958412 -7.044458 -0.221737,-7.702788 -6.27906 -0.0467003,-7.414802 -5.785608 0.1238905,-8.321082 -5.461313 -0.4297625,-8.150964 -4.409267 -0.2730064,-8.037523 -3.774132 -0.1089815,-7.939836 -3.203335 0.01536563,-8.629433 -5.250896 -0.2930851,-8.477234 -4.007732 -0.1536046,-8.349964 -3.232864 0.08328277,-8.23909 -2.558949 0.2459674,-8.937795 -5.274881 -0.1210877,-8.833449 -4.088807 0.01734063,-8.730383 -3.347823 0.2145467,-8.611026 -2.717014 0.3736926,-9.263498 -5.498775 0.04583353,-9.275742 -4.559011 0.247137,-9.253756 -3.942764 0.4139139,-9.194715 -3.377768 0.5176039,2.210, 10
-2.452025 -7.423524 -0.7515818,-2.993872 -7.160232 -0.3767519,-3.465536 -6.689149 -0.2303783,-3.774707 -6.079113 -0.09033239,-3.989185 -5.49916 0.05374628,-3.337649 -5.297138 -0.6413815,-3.607595 -4.391614 -0.5483887,-3.720185 -3.811461 -0.4377615,-3.783587 -3.315219 -0.3269719,-3.061804 -5.064744 -0.7275046,-3.269368 -3.992977 -0.7130184,-3.362206 -3.349842 -0.5999256,-3.40325 -2.812859 -0.4961472,-2.786644 -4.996076 -0.7499541,-2.92001 -4.007406 -0.7278685,-3.006688 -3.399411 -0.6161631,-3.06307 -2.897739 -0.5199937,-2.484607 -5.081534 -0.7240145,-2.522733 -4.302222 -0.6756433,-2.561234 -3.839931 -0.5839052,-2.590477 -3.428077 -0.5137446,-9.065783 -8.103558 -0.5330159,-8.442993 -7.842805 -0.3875173,-7.978253 -7.055191 -0.246951,-7.726387 -6.296833 -0.05067852,-7.445729 -5.79292 0.146261,-8.345347 -5.477323 -0.464574,-8.191245 -4.408948 -0.2890305,-8.085407 -3.757493 -0.1116873,-7.989498 -3.179039 0.02106154,-8.657589 -5.265687 -0.3303131,-8.512678 -4.016658 -0.1686758,-8.387115 -3.241949 0.06835443,-8.274037 -2.56808 0.2315618,-8.968709 -5.284287 -0.157056,-8.86824 -4.084463 -0.005670726,-8.763762 -3.347245 0.1927832,-8.640589 -2.71768 0.3535662,-9.299877 -5.496423 0.01437902,-9.315708 -4.545045 0.2199354,-9.292006 -3.926463 0.3868553,-9.231016 -3.357603 0.4940304,2.310, 10
-2.450244 -7.446083 -0.8145601,-2.997781 -7.18286 -0.4781713,-3.46541 -6.723403 -0.3379012,-3.769411 -6.110773 -0.1936415,-3.980818 -5.520196 -0.04062557,-3.329342 -5.339687 -0.7210364,-3.598451 -4.437299 -0.6145194,-3.712563 -3.870157 -0.4930129,-3.78254 -3.36693 -0.3751194,-3.056232 -5.105052 -0.7800215,-3.264659 -4.042194 -0.7451276,-3.353767 -3.408266 -0.6179838,-3.396033 -2.869595 -0.5032218,-2.78175 -5.035509 -0.7774473,-2.914888 -4.056169 -0.7417359,-2.996408 -3.456906 -0.6203669,-3.05019 -2.960608 -0.5139537,-2.480104 -5.120645 -0.7324542,-2.514587 -4.338391 -0.6724598,-2.554236 -3.881162 -0.5722429,-2.586325 -3.476346 -0.4981287,-9.073754 -8.115364 -0.5308176,-8.457232 -7.85519 -0.4054512,-7.994111 -7.064281 -0.2878908,-7.739071 -6.313676 -0.1151198,-7.45809 -5.836725 0.0550828,-8.361039 -5.492063 -0.4961849,-8.199157 -4.428688 -0.3236384,-8.086029 -3.783412 -0.1476163,-7.986428 -3.212162 -0.01242095,-8.662886 -5.275828 -0.3490946,-8.498456 -4.034427 -0.1846461,-8.363392 -3.254756 0.0596022,-8.24439 -2.577536 0.2279583,-8.970442 -5.294544 -0.1680338,-8.847479 -4.105315 -0.001790941,-8.735665 -3.355449 0.2100756,-8.609524 -2.718292 0.3778698,-9.300697 -5.519197 0.01238048,-9.309335 -4.576228 0.2322291,-9.287096 -3.959267 0.4048339,-9.228362 -3.389019 0.5211644,2.410, 10
-2.450745 -7.461858 -0.8291473,-2.99708 -7.206932 -0.5059405,-3.46693 -6.740038 -0.3761996,-3.76929 -6.133674 -0.2422516,-3.980715 -5.569036 -0.1032563,-3.32946 -5.359741 -0.7447692,-3.595615 -4.464438 -0.6447282,-3.711639 -3.893888 -0.5251102,-3.778791 -3.392498 -0.4075424,-3.055698 -5.124796 -0.7990838,-3.26045 -4.067456 -0.7744188,-3.353004 -3.429744 -0.6629134,-3.396506 -2.897842 -0.5590026,-2.781695 -5.056255 -0.7905024,-2.91251 -4.082573 -0.7600516,-3.000315 -3.480325 -0.6506046,-3.057766 -2.985177 -0.5524952,-2.479107 -5.142045 -0.7389903,-2.510992 -4.362911 -0.6858292,-2.551332 -3.906333 -0.5962491,-2.583701 -3.503871 -0.5264118,-9.083058 -8.136427 -0.5281698,-8.462339 -7.879352 -0.4213681,-8.000398 -7.083244 -0.3068957,-7.744057 -6.328693 -0.1289978,-7.466554 -5.844668 0.04292315,-8.361061 -5.503599 -0.5223002,-8.209646 -4.436689 -0.3614003,-8.095997 -3.787431 -0.1833619,-7.991644 -3.211589 -0.04699886,-8.668518 -5.295296 -0.3689896,-8.521821 -4.047141 -0.219251,-8.385345 -3.263401 0.02629322,-8.262115 -2.590768 0.1927045,-8.981646 -5.320802 -0.1814043,-8.879045 -4.116483 -0.03773794,-8.764053 -3.371967 0.1710724,-8.632978 -2.74699 0.3357508,-9.312654 -5.545606 0.001650453,-9.331879 -4.588335 0.2113181,-9.305243 -3.958354 0.3848767,-9.242099 -3.384754 0.497291,2.510, 10
-2.422459 -7.455618 -0.8934975,-2.975337 -7.203552 -0.5651815,-3.440939 -6.722833 -0.4296527,-3.730099 -6.103832 -0.2981951,-3.94259 -5.529621 -0.1613407,-3.291306 -5.362166 -0.7746533,-3.551722 -4.461074 -0.6765353,-3.665162 -3.895925 -0.5703483,-3.732863 -3.404496 -0.4643635,-3.013941 -5.134717 -0.8314063,-3.217447 -4.080251 -0.7886564,-3.303177 -3.438896 -0.6767173,-3.338902 -2.897016 -0.5748331,-2.740006 -5.071214 -0.8268756,-2.880264 -4.09518 -0.7766093,-2.969032 -3.484727 -0.6580048,-3.026659 -2.971905 -0.5553423,-2.435426 -5.157653 -0.7815099,-2.478009 -4.380044 -0.7181445,-2.518008 -3.913753 -0.6185071,-2.545464 -3.497088 -0.5393869,-9.118544 -8.109362 -0.5401065,-8.49439 -7.836725 -0.4222806,-8.030122 -7.059156 -0.3012898,-7.773264 -6.315045 -0.1228627,-7.497828 -5.822814 0.0518657,-8.400894 -5.474027 -0.5120227,-8.251604 -4.394252 -0.3437709,-8.142984 -3.732458 -0.1721794,-8.045369 -3.152674 -0.04902941,-8.708411 -5.271797 -0.3681654,-8.557501 -4.027558 -0.2117994,-8.425083 -3.256494 0.01626939,-8.305674 -2.598909 0.1624913,-9.01806 -5.300024 -0.1875368,-8.915623 -4.102942 -0.03204387,-8.807509 -3.374034 0.1660202,-8.680508 -2.76151 0.3134674,-9.34539 -5.523557 -0.008979917,-9.366142 -4.575511 0.1992767,-9.341569 -3.963351 0.366228,-9.279724 -3.402184 0.4703065,2.610, 10
-2.420808 -7.48814 -0.9363665,-2.971105 -7.243762 -0.578473,-3.433234 -6.801149 -0.4343579,-3.727003 -6.201773 -0.297889,-3.919512 -5.606334 -0.1630886,-3.298649 -5.421383 -0.8095666,-3.56288 -4.518583 -0.7077492,-3.67625 -3.944368 -0.5818195,-3.74139 -3.449167 -0.4594847,-3.024165 -5.182672 -0.8873354,-3.229357 -4.134153 -0.859329,-3.321569 -3.497348 -0.737496,-3.366379 -2.962354 -0.6217198,-2.750867 -5.11056 -0.9016863,-2.88702 -4.146698 -0.8676252,-2.973454 -3.542175 -0.7507015,-3.031226 -3.04048 -0.6436512,-2.45152 -5.18971 -0.8718244,-2.489752 -4.42239 -0.8109131,-2.533063 -3.962752 -0.7100095,-2.570086 -3.550535 -0.6315385,-9.119184 -8.198278 -0.4692726,-8.490891 -7.938619 -0.3656248,-8.024076 -7.132631 -0.2618089,-7.77027 -6.369086 -0.09773856,-7.491176 -5.882173 0.06370986,-8.391843 -5.54701 -0.5049152,-8.237884 -4.476385 -0.3579546,-8.120533 -3.82991 -0.1946817,-8.013906 -3.267015 -0.07784283,-8.701355 -5.338287 -0.359767,-8.555987 -4.099378 -0.2333966,-8.419591 -3.332067 -0.01102522,-8.294814 -2.672165 0.1354054,-9.01035 -5.367304 -0.1764313,-8.910556 -4.178043 -0.04323018,-8.805238 -3.440836 0.1500582,-8.680579 -2.817586 0.2994253,-9.337639 -5.595967 0.007520199,-9.353342 -4.649312 0.2033542,-9.327641 -4.036334 0.3690693,-9.264297 -3.474501 0.4743311,2.710, 10
-2.420339 -7.511575 -0.9332967,-2.961625 -7.282257 -0.5971323,-3.429268 -6.811103 -0.4643936,-3.723614 -6.201921 -0.3362221,-3.931347 -5.641243 -0.2075531,-3.289114 -5.438245 -0.8195747,-3.550213 -4.545295 -0.7255293,-3.666584 -3.980007 -0.6150393,-3.735233 -3.488527 -0.5067692,-3.017148 -5.20347 -0.884274,-3.220995 -4.155037 -0.8523765,-3.309097 -3.510022 -0.7410991,-3.348454 -2.966414 -0.6359828,-2.746136 -5.133392 -0.8882384,-2.885403 -4.165683 -0.8459459,-2.972691 -3.5503 -0.7358159,-3.030901 -3.034557 -0.6346411,-2.4451 -5.212594 -0.8483981,-2.488218 -4.436681 -0.7926174,-2.526948 -3.971791 -0.7008601,-2.556151 -3.555613 -0.6254314,-9.124537 -8.213829 -0.5169757,-8.482775 -7.941507 -0.4293132,-8.018908 -7.14731 -0.3307429,-7.765355 -6.389995 -0.1718614,-7.486338 -5.910348 -0.01926377,-8.395986 -5.583505 -0.523315,-8.241081 -4.512256 -0.3662421,-8.115178 -3.865442 -0.1945945,-7.999993 -3.306921 -0.06674555,-8.706575 -5.369224 -0.3721626,-8.558944 -4.108558 -0.2283275,-8.4142 -3.334789 0.002081156,-8.285233 -2.681785 0.1549774,-9.017892 -5.386319 -0.1877423,-8.913982 -4.172758 -0.04514191,-8.795713 -3.435084 0.1549085,-8.659969 -2.816669 0.3086694,-9.345777 -5.601912 -0.007873654,-9.366809 -4.646517 0.1943858,-9.336762 -4.021904 0.3655021,-9.269131 -3.452781 0.4750273,2.810, 10
-2.441442 -7.517107 -0.9281572,-2.98221 -7.283969 -0.5769932,-3.443956 -6.80647 -0.4389517,-3.733098 -6.193002 -0.3060193,-3.944859 -5.619642 -0.1688758,-3.306486 -5.441449 -0.8062648,-3.566792 -4.542737 -0.7057163,-3.679256 -3.966805 -0.5885398,-3.741358 -3.464892 -0.4706042,-3.032049 -5.205979 -0.8755206,-3.236197 -4.157346 -0.8375014,-3.326269 -3.510468 -0.7149163,-3.36294 -2.961633 -0.601603,-2.758574 -5.136453 -0.8802921,-2.892992 -4.169522 -0.835161,-2.980916 -3.556453 -0.7126175,-3.036145 -3.03663 -0.6011776,-2.455203 -5.217214 -0.8426825,-2.496616 -4.448424 -0.7798112,-2.537332 -3.986549 -0.6777587,-2.566592 -3.568077 -0.5920563,-9.136927 -8.25679 -0.3958165,-8.508812 -7.978508 -0.3145563,-8.046389 -7.17445 -0.2082422,-7.793646 -6.418704 -0.03564933,-7.514884 -5.925568 0.1365818,-8.414649 -5.585083 -0.441918,-8.26679 -4.520548 -0.2955886,-8.143655 -3.879863 -0.127284,-8.027457 -3.325329 -0.0005805492,-8.722369 -5.375447 -0.278102,-8.571828 -4.131879 -0.1469404,-8.42844 -3.36755 0.08047685,-8.296525 -2.717854 0.2311052,-9.032364 -5.401246 -0.07722443,-8.921906 -4.195974 0.05720791,-8.803308 -3.458002 0.2558804,-8.666043 -2.836395 0.4090756,-9.361771 -5.629375 0.1210087,-9.380899 -4.671768 0.3169638,-9.354867 -4.048697 0.4830835,-9.291869 -3.473711 0.5921443,2.910, 10
-2.442863 -7.523046 -0.9470885,-2.991032 -7.283384 -0.5899335,-3.456291 -6.824201 -0.4523781,-3.753623 -6.225652 -0.3197946,-3.959131 -5.638323 -0.1784523,-3.325733 -5.458784 -0.8286686,-3.594589 -4.562496 -0.7235409,-3.708507 -3.98806 -0.5997436,-3.771849 -3.488721 -0.4780406,-3.050619 -5.221813 -0.9021845,-3.259655 -4.176213 -0.8669237,-3.356054 -3.541712 -0.7447694,-3.399275 -3.005792 -0.6342263,-2.777622 -5.150207 -0.9123982,-2.911235 -4.17892 -0.8707992,-3.001415 -3.575831 -0.7478961,-3.057661 -3.072042 -0.6386361,-2.478199 -5.22976 -0.8785431,-2.522112 -4.467073 -0.8076296,-2.569834 -4.006389 -0.6971697,-2.60758 -3.590724 -0.6109047,-9.168797 -8.269382 -0.4215584,-8.545853 -7.963527 -0.3355988,-8.089462 -7.176773 -0.2245629,-7.830416 -6.4339 -0.04465786,-7.553239 -5.944051 0.1328691,-8.456201 -5.597522 -0.4804845,-8.308357 -4.552141 -0.3468726,-8.178916 -3.936939 -0.183576,-8.058605 -3.40571 -0.0555377,-8.764816 -5.393291 -0.3215238,-8.6227 -4.151435 -0.205907,-8.476535 -3.394964 0.01425904,-8.341769 -2.767356 0.1620888,-9.074583 -5.423028 -0.1229081,-8.976295 -4.224171 -0.002721667,-8.852703 -3.491523 0.1935353,-8.709675 -2.87972 0.341848,-9.40169 -5.649013 0.07442886,-9.43119 -4.689027 0.2626888,-9.399271 -4.064468 0.4312738,-9.328955 -3.496655 0.5405838,3.010, 10
-2.444839 -7.503387 -0.9041843,-2.991726 -7.275911 -0.5611876,-3.444367 -6.80134 -0.4226397,-3.716877 -6.178339 -0.2866064,-3.932857 -5.595209 -0.1425091,-3.320459 -5.428754 -0.7882043,-3.576941 -4.550987 -0.6863032,-3.687256 -3.99822 -0.5766204,-3.752384 -3.517437 -0.469633,-3.043486 -5.187324 -0.8477879,-3.251473 -4.156214 -0.7944153,-3.340689 -3.527151 -0.6786298,-3.381081 -2.990829 -0.5810167,-2.769525 -5.119668 -0.8425317,-2.911387 -4.164991 -0.7771379,-3.001413 -3.56538 -0.6482754,-3.064732 -3.053417 -0.5432353,-2.463683 -5.208219 -0.7924671,-2.507167 -4.444557 -0.7078083,-2.548503 -3.984542 -0.5928788,-2.578933 -3.568214 -0.5046518,-9.211216 -8.239269 -0.4417629,-8.579893 -7.962722 -0.3470029,-8.109294 -7.158468 -0.2474029,-7.854251 -6.399777 -0.08440119,-7.578474 -5.903877 0.07934308,-8.476205 -5.585777 -0.4990076,-8.318838 -4.540634 -0.3652273,-8.207163 -3.905208 -0.2125763,-8.105796 -3.350501 -0.1045369,-8.78634 -5.3717 -0.3515509,-8.632313 -4.154594 -0.249518,-8.50148 -3.40984 -0.0429025,-8.381697 -2.776733 0.09230959,-9.098848 -5.390974 -0.1625239,-8.99373 -4.208473 -0.04318136,-8.887462 -3.496091 0.144363,-8.756493 -2.892034 0.2881299,-9.427707 -5.608612 0.02756214,-9.45068 -4.670622 0.2089153,-9.431915 -4.062488 0.3718559,-9.37083 -3.493598 0.4791937,3.110, 10
-2.408908 -7.525867 -0.9506405,-2.947375 -7.301559 -0.6286567,-3.411923 -6.809553 -0.5029,-3.697384 -6.186498 -0.3758932,-3.908401 -5.611406 -0.2389486,-3.288111 -5.464765 -0.8410192,-3.554359 -4.581283 -0.7337731,-3.67252 -4.021553 -0.6155579,-3.741304 -3.526832 -0.5001636,-3.01733 -5.226203 -0.8905543,-3.229371 -4.193479 -0.8398701,-3.324738 -3.563695 -0.7179305,-3.369903 -3.028068 -0.612272,-2.742854 -5.154598 -0.8758179,-2.887726 -4.199743 -0.8142807,-2.980779 -3.59901 -0.6878836,-3.0441 -3.092859 -0.5776907,-2.434523 -5.23748 -0.822303,-2.48022 -4.463754 -0.7391201,-2.525465 -4.004848 -0.6279362,-2.560946 -3.59703 -0.542437,-9.196701 -8.254004 -0.3834561,-8.562344 -7.984727 -0.2869878,-8.095 -7.177658 -0.1949234,-7.840684 -6.423029 -0.04759514,-7.562842 -5.93614 0.09893292,-8.460267 -5.595687 -0.4528378,-8.296055 -4.57313 -0.3137336,-8.171739 -3.967609 -0.1540428,-8.059169 -3.439247 -0.04713884,-8.763358 -5.370397 -0.3097416,-8.607549 -4.171955 -0.2068332,-8.4633 -3.440387 -0.001221746,-8.333646 -2.812129 0.1344101,-9.065072 -5.390724 -0.1224928,-8.963331 -4.221565 -0.001743168,-8.854437 -3.508578 0.1917467,-8.722867 -2.901262 0.3434104,-9.382391 -5.623178 0.06750792,-9.407185 -4.71968 0.2495736,-9.383718 -4.132879 0.4128617,-9.320399 -3.589692 0.5182844,3.210, 10
-2.391528 -7.501134 -0.9901381,-2.943566 -7.256887 -0.6426693,-3.40007 -6.812881 -0.4967182,-3.685402 -6.211456 -0.3543438,-3.882847 -5.618103 -0.2055639,-3.272554 -5.448731 -0.8844452,-3.533236 -4.566057 -0.7970164,-3.648842 -4.007339 -0.6847289,-3.716606 -3.5269 -0.5682349,-2.997716 -5.212022 -0.9544948,-3.206894 -4.177403 -0.9317081,-3.298655 -3.544099 -0.8205155,-3.340122 -3.009667 -0.7198287,-2.72289 -5.13886 -0.9582886,-2.865118 -4.187646 -0.9252927,-2.955451 -3.591074 -0.8118715,-3.014313 -3.089889 -0.713526,-2.418517 -5.211817 -0.917356,-2.467886 -4.448665 -0.8592836,-2.512985 -3.995192 -0.7612746,-2.545614 -3.591262 -0.6851701,-9.201525 -8.274904 -0.4181368,-8.558625 -7.997297 -0.3430549,-8.087205 -7.187206 -0.2588486,-7.828198 -6.43489 -0.1068465,-7.54777 -5.94934 0.04322326,-8.441194 -5.624397 -0.5164842,-8.28733 -4.593498 -0.393529,-8.163357 -3.980472 -0.2404323,-8.045284 -3.44924 -0.1314793,-8.75204 -5.403388 -0.3617964,-8.6064 -4.190476 -0.2690089,-8.466024 -3.453579 -0.06303081,-8.331656 -2.834409 0.07583353,-9.064 -5.422391 -0.1656184,-8.965096 -4.238272 -0.05023715,-8.850453 -3.524091 0.1413357,-8.708283 -2.92486 0.2892646,-9.393641 -5.642915 0.03067392,-9.420682 -4.712017 0.2105485,-9.393811 -4.107149 0.3728332,-9.322541 -3.551713 0.4787325,3.310, 10
-2.377087 -7.527095 -0.9702934,-2.91885 -7.293101 -0.6311668,-3.369396 -6.833734 -0.4810284,-3.642441 -6.213952 -0.3333808,-3.856472 -5.623327 -0.1785216,-3.244026 -5.464988 -0.8513583,-3.504808 -4.585998 -0.7473167,-3.619177 -4.033113 -0.6293918,-3.686181 -3.541762 -0.5145832,-2.968176 -5.228714 -0.9094462,-3.181066 -4.203854 -0.8521245,-3.267902 -3.580904 -0.7312288,-3.304502 -3.041234 -0.6292725,-2.693718 -5.162241 -0.9041707,-2.842446 -4.214716 -0.8382652,-2.931818 -3.628748 -0.7101183,-2.990521 -3.121473 -0.6043661,-2.388012 -5.246897 -0.8559039,-2.437207 -4.483631 -0.7738941,-2.481925 -4.03153 -0.6603047,-2.512061 -3.620544 -0.5729724,-9.177172 -8.287889 -0.3823513,-8.540254 -8.019489 -0.2748535,-8.062943 -7.222209 -0.1686103,-7.802655 -6.464464 -0.008883446,-7.531042 -5.964553 0.1520811,-8.432111 -5.627604 -0.423728,-8.27935 -4.591045 -0.2825101,-8.157802 -3.985296 -0.1318539,-8.039595 -3.462491 -0.02725664,-8.74435 -5.404485 -0.2884577,-8.597742 -4.190706 -0.1753532,-8.459693 -3.453931 0.03134039,-8.327181 -2.831207 0.1696306,-9.052957 -5.429441 -0.1112916,-8.953434 -4.248388 0.01290649,-8.845263 -3.537302 0.1975309,-8.708025 -2.939491 0.3445634,-9.377872 -5.661991 0.06963402,-9.396156 -4.746768 0.2489784,-9.364416 -4.153094 0.4095708,-9.28809 -3.606494 0.5128258,3.410, 10
-2.373531 -7.590221 -1.059577,-2.903744 -7.35116 -0.7074418,-3.338984 -6.901592 -0.5668346,-3.604078 -6.286298 -0.4364551,-3.78793 -5.683027 -0.3016394,-3.227932 -5.558457 -0.9383621,-3.492315 -4.674171 -0.824632,-3.605541 -4.101304 -0.6781181,-3.669849 -3.59291 -0.5372192,-2.955508 -5.31562 -1.008581,-3.158596 -4.283514 -0.9655193,-3.244709 -3.649828 -0.8236181,-3.283276 -3.103677 -0.6904465,-2.682711 -5.240501 -1.012847,-2.828084 -4.292602 -0.9624808,-2.912652 -3.697555 -0.8270546,-2.967032 -3.188195 -0.7049155,-2.380265 -5.312341 -0.9755682,-2.425406 -4.552547 -0.9045936,-2.466384 -4.102029 -0.7968172,-2.496386 -3.691605 -0.7093006,-9.134835 -8.300465 -0.4185265,-8.49933 -8.041157 -0.3148765,-8.02826 -7.239833 -0.2139453,-7.771931 -6.482013 -0.05984157,-7.493455 -5.985506 0.09381843,-8.392859 -5.64612 -0.4488797,-8.231658 -4.58875 -0.297889,-8.105494 -3.960738 -0.1387541,-7.989762 -3.419714 -0.03454253,-8.702073 -5.428002 -0.3106877,-8.554028 -4.189528 -0.1823325,-8.411538 -3.431642 0.03540468,-8.2809 -2.794698 0.176046,-9.007473 -5.455477 -0.1321097,-8.908646 -4.26201 -0.000941962,-8.799492 -3.537603 0.1950415,-8.66391 -2.928597 0.3507702,-9.328671 -5.68935 0.04666576,-9.342348 -4.768306 0.2369696,-9.307043 -4.170051 0.409475,-9.229225 -3.617593 0.522226,3.510, 10
-2.385902 -7.614595 -1.046509,-2.917596 -7.360137 -0.6847955,-3.342529 -6.90782 -0.5350556,-3.594448 -6.295053 -0.3995295,-3.774279 -5.704809 -0.2608803,-3.228957 -5.572115 -0.8926736,-3.488626 -4.696421 -0.7723857,-3.597611 -4.131895 -0.6343642,-3.658526 -3.6293 -0.5026517,-2.955158 -5.333906 -0.9623583,-3.156294 -4.307975 -0.9038538,-3.243756 -3.691045 -0.765696,-3.284449 -3.156674 -0.6398564,-2.682579 -5.26649 -0.9657921,-2.825462 -4.320767 -0.9004525,-2.91153 -3.731184 -0.7641758,-2.968969 -3.220926 -0.6434118,-2.380289 -5.351381 -0.9271491,-2.421384 -4.593416 -0.8415149,-2.463829 -4.138805 -0.728528,-2.495892 -3.718465 -0.6393453,-9.137591 -8.303699 -0.4070031,-8.499218 -8.027176 -0.3115321,-8.02382 -7.234216 -0.1987289,-7.759298 -6.486457 -0.02282333,-7.47983 -5.976243 0.1521788,-8.382988 -5.640487 -0.4435314,-8.224501 -4.571784 -0.2912585,-8.092438 -3.937997 -0.1299602,-7.969213 -3.39187 -0.02022368,-8.692285 -5.430038 -0.2931415,-8.542435 -4.196727 -0.1545729,-8.396546 -3.447319 0.06714818,-8.259081 -2.811403 0.2162476,-9.002611 -5.461244 -0.1005745,-8.899704 -4.264141 0.03850156,-8.78438 -3.54265 0.2406521,-8.641356 -2.93363 0.3991424,-9.330831 -5.691698 0.08875966,-9.347219 -4.754341 0.2853538,-9.313806 -4.144545 0.4615059,-9.236341 -3.577363 0.5800505,3.610, 10
-2.410683 -7.616746 -1.04926,-2.937806 -7.372287 -0.6824546,-3.364243 -6.910736 -0.5387189,-3.611654 -6.289303 -0.4157045,-3.784779 -5.694097 -0.2929597,-3.261433 -5.576203 -0.8880972,-3.518826 -4.696763 -0.7769955,-3.622384 -4.118757 -0.6467765,-3.670507 -3.616896 -0.5195365,-2.988938 -5.338953 -0.9705561,-3.189223 -4.3152 -0.9238369,-3.274062 -3.695175 -0.7940972,-3.305928 -3.16243 -0.6756998,-2.716785 -5.274625 -0.9882289,-2.861527 -4.336862 -0.9399827,-2.94488 -3.747694 -0.8127936,-2.992082 -3.244322 -0.7002972,-2.415977 -5.361905 -0.9626291,-2.463678 -4.612891 -0.8936449,-2.506959 -4.160911 -0.7848606,-2.535196 -3.741046 -0.6968118,-9.164445 -8.303518 -0.4398836,-8.531315 -8.029339 -0.3750691,-8.059227 -7.235216 -0.2744639,-7.797933 -6.486735 -0.104869,-7.523876 -5.976028 0.06563663,-8.421475 -5.653866 -0.5369706,-8.264334 -4.628166 -0.4024201,-8.128312 -4.019693 -0.235501,-8.000468 -3.497391 -0.1169571,-8.724083 -5.437185 -0.3704681,-8.566423 -4.221136 -0.2582638,-8.415617 -3.482304 -0.04359382,-8.274265 -2.863335 0.09943569,-9.03233 -5.450981 -0.1592445,-8.918594 -4.2628 -0.03863585,-8.792562 -3.548097 0.1570187,-8.641534 -2.951582 0.3113047,-9.361453 -5.662406 0.0481301,-9.378564 -4.718475 0.2284475,-9.347593 -4.103679 0.3904946,-9.275196 -3.53341 0.5004091,3.710, 10
-2.432816 -7.601751 -1.061571,-2.956884 -7.360874 -0.6775948,-3.378522 -6.901999 -0.5222338,-3.625124 -6.284094 -0.386791,-3.806124 -5.684426 -0.2492499,-3.286998 -5.565018 -0.9042182,-3.544786 -4.68222 -0.7924049,-3.644058 -4.104524 -0.6625559,-3.689813 -3.605654 -0.5369461,-3.014401 -5.328058 -0.9941308,-3.21298 -4.296622 -0.9521163,-3.293078 -3.680978 -0.8267058,-3.319833 -3.156814 -0.7151315,-2.743237 -5.260219 -1.015193,-2.879602 -4.313465 -0.9680063,-2.958149 -3.727195 -0.8413334,-3.004605 -3.227226 -0.7314922,-2.444972 -5.345172 -0.9906145,-2.487821 -4.592437 -0.920933,-2.530756 -4.144032 -0.813516,-2.560741 -3.732439 -0.7296554,-9.179993 -8.313841 -0.3825573,-8.543159 -8.039248 -0.3107638,-8.079618 -7.234722 -0.2086947,-7.823058 -6.475126 -0.03595591,-7.543241 -5.970463 0.1301004,-8.441007 -5.645927 -0.4699123,-8.298902 -4.62212 -0.3449746,-8.162881 -4.020393 -0.1874318,-8.028605 -3.504603 -0.07392153,-8.752843 -5.42889 -0.3149135,-8.616263 -4.214559 -0.2171824,-8.464787 -3.479188 -0.01174897,-8.314663 -2.870789 0.1259167,-9.064786 -5.448791 -0.1163736,-8.971868 -4.265632 -0.01608801,-8.846895 -3.557127 0.162897,-8.689517 -2.969297 0.3047962,-9.393235 -5.667269 0.0779115,-9.417824 -4.71487 0.2469847,-9.383698 -4.096992 0.4039434,-9.302565 -3.532142 0.5055457,3.810, 10
-2.473497 -7.587295 -1.055894,-3.001365 -7.324156 -0.6949471,-3.427896 -6.852149 -0.5565071,-3.680704 -6.23365 -0.4336509,-3.832864 -5.628414 -0.3082999,-3.321342 -5.533269 -0.9348485,-3.582455 -4.642119 -0.8414217,-3.681866 -4.061862 -0.7185743,-3.7288 -3.571018 -0.6002821,-3.045521 -5.308762 -1.022539,-3.245026 -4.268463 -1.002894,-3.327023 -3.644092 -0.8890312,-3.358976 -3.126929 -0.7838098,-2.776553 -5.247289 -1.047213,-2.911476 -4.290857 -1.011575,-2.989923 -3.702446 -0.8915953,-3.039646 -3.21571 -0.7887768,-2.48395 -5.336799 -1.023245,-2.525105 -4.576475 -0.9614044,-2.565441 -4.128601 -0.8666059,-2.59361 -3.728706 -0.7911886,-9.282308 -8.322294 -0.4720621,-8.655255 -8.027819 -0.394506,-8.197698 -7.232893 -0.2876448,-7.941458 -6.486078 -0.1102393,-7.659171 -5.991617 0.06661856,-8.561118 -5.657637 -0.5275802,-8.396121 -4.600933 -0.3969089,-8.275338 -3.964288 -0.2470328,-8.173548 -3.403664 -0.1372303,-8.874489 -5.461246 -0.3738782,-8.717869 -4.246356 -0.2696119,-8.579968 -3.506601 -0.06209496,-8.463154 -2.885708 0.06675398,-9.188715 -5.492001 -0.180367,-9.090171 -4.314151 -0.06592521,-8.976554 -3.603768 0.1143545,-8.847527 -3.009086 0.2491488,-9.515173 -5.709475 0.007634133,-9.533866 -4.770423 0.1929818,-9.502741 -4.155268 0.3603482,-9.435402 -3.578277 0.4625244,3.910, 10
-2.475596 -7.549812 -1.080054,-2.993218 -7.281309 -0.7068459,-3.41202 -6.818122 -0.5654421,-3.654697 -6.197141 -0.4424781,-3.788091 -5.589162 -0.3228816,-3.305586 -5.494373 -0.9577211,-3.559505 -4.610273 -0.8687699,-3.658668 -4.031425 -0.742746,-3.704878 -3.543396 -0.6201333,-3.034909 -5.275115 -1.057141,-3.225567 -4.238702 -1.039808,-3.30268 -3.621094 -0.921874,-3.330865 -3.101032 -0.8114873,-2.771068 -5.212868 -1.093844,-2.902699 -4.271019 -1.065158,-2.973323 -3.69395 -0.9481295,-3.017466 -3.212188 -0.84754,-2.484467 -5.298657 -1.078806,-2.52212 -4.549706 -1.022007,-2.553483 -4.112515 -0.9332327,-2.573874 -3.720664 -0.8619536,-9.365725 -8.344204 -0.4946926,-8.730508 -8.070139 -0.3991317,-8.268382 -7.265605 -0.3023417,-8.01139 -6.511688 -0.1434522,-7.726383 -6.046716 0.01598454,-8.623597 -5.701883 -0.5161518,-8.443131 -4.653671 -0.3687211,-8.314254 -4.012437 -0.2105137,-8.205005 -3.446777 -0.09773999,-8.942049 -5.492889 -0.3736032,-8.770663 -4.283073 -0.2572875,-8.629325 -3.536113 -0.04439875,-8.507286 -2.90548 0.09229308,-9.263389 -5.513799 -0.18941,-9.147506 -4.330495 -0.06621093,-9.033822 -3.621038 0.1127059,-8.903355 -3.029788 0.2521228,-9.599705 -5.71968 -0.0120343,-9.601356 -4.787048 0.1780727,-9.568116 -4.180499 0.3412576,-9.500615 -3.612768 0.4444355,4.010, 10
-2.517627 -7.573671 -1.116131,-3.029865 -7.296722 -0.7203624,-3.429037 -6.831125 -0.5538068,-3.659286 -6.209674 -0.4096736,-3.797945 -5.605356 -0.2647412,-3.338959 -5.534663 -0.9520872,-3.596104 -4.644773 -0.8358899,-3.68643 -4.064451 -0.6986805,-3.720087 -3.563932 -0.5658882,-3.074752 -5.309932 -1.048451,-3.268511 -4.269728 -0.9947001,-3.342771 -3.649838 -0.8592984,-3.366724 -3.112401 -0.7423264,-2.812226 -5.250591 -1.080932,-2.946429 -4.300493 -1.029464,-3.005177 -3.717638 -0.9004813,-3.036841 -3.220416 -0.7921442,-2.524518 -5.344633 -1.064818,-2.569665 -4.588605 -0.9864965,-2.603148 -4.147255 -0.8823985,-2.627383 -3.740491 -0.8041754,-9.411496 -8.38896 -0.4293173,-8.775417 -8.094 -0.3309717,-8.311824 -7.283514 -0.2257406,-8.052916 -6.534015 -0.05374545,-7.763941 -6.063125 0.1132709,-8.66936 -5.719722 -0.4504261,-8.493697 -4.67749 -0.3003771,-8.356891 -4.046407 -0.1297624,-8.239288 -3.487709 -0.007073611,-8.989149 -5.518535 -0.3090405,-8.836068 -4.307895 -0.1873547,-8.697515 -3.561998 0.03844476,-8.579253 -2.925083 0.1880854,-9.309574 -5.546862 -0.127732,-9.208197 -4.376002 -0.004583597,-9.096029 -3.665426 0.1920555,-8.9732 -3.071092 0.3391833,-9.642598 -5.762947 0.049189,-9.650369 -4.830455 0.2372891,-9.617606 -4.218308 0.4059998,-9.555817 -3.647105 0.5131984,4.110, 10
-2.562305 -7.581263 -1.101815,-3.066078 -7.309756 -0.7204195,-3.465914 -6.836085 -0.5705885,-3.690083 -6.213135 -0.4435534,-3.829122 -5.631359 -0.3149174,-3.379009 -5.537283 -0.949627,-3.629405 -4.667196 -0.8446247,-3.717431 -4.09769 -0.7220121,-3.748488 -3.606855 -0.5983344,-3.119425 -5.313024 -1.04374,-3.315339 -4.285369 -0.9844393,-3.388988 -3.668655 -0.8504184,-3.410427 -3.136758 -0.7381488,-2.860471 -5.251121 -1.077918,-2.995585 -4.314737 -1.024984,-3.053322 -3.746176 -0.9008668,-3.07999 -3.268531 -0.799161,-2.574892 -5.341104 -1.062736,-2.62472 -4.592965 -0.9869756,-2.659665 -4.162043 -0.8851202,-2.682289 -3.76786 -0.8068871,-9.433319 -8.406221 -0.4231497,-8.795128 -8.120672 -0.3398066,-8.32534 -7.299623 -0.2579059,-8.063457 -6.542131 -0.1132371,-7.777162 -6.069494 0.03301376,-8.689836 -5.738653 -0.4906064,-8.503961 -4.694206 -0.3492938,-8.373489 -4.046022 -0.1863845,-8.26599 -3.46994 -0.07128668,-9.003206 -5.533668 -0.3474278,-8.837545 -4.319519 -0.2461517,-8.699096 -3.561202 -0.02799106,-8.581494 -2.914958 0.1193809,-9.318593 -5.56199 -0.1619588,-9.207769 -4.382456 -0.04643378,-9.09983 -3.666198 0.144284,-8.976484 -3.066301 0.2881435,-9.648372 -5.779789 0.01794818,-9.659792 -4.847154 0.2037936,-9.636846 -4.237864 0.3652449,-9.581898 -3.663207 0.4659457,4.210, 10
-2.636967 -7.552457 -1.205012,-3.134705 -7.310652 -0.8013663,-3.537353 -6.853112 -0.6321055,-3.768515 -6.239754 -0.483692,-3.906 -5.647274 -0.3356972,-3.473 -5.546498 -1.048849,-3.721967 -4.679067 -0.9329715,-3.809125 -4.111312 -0.7942668,-3.84151 -3.617035 -0.6714058,-3.216574 -5.320295 -1.148998,-3.410016 -4.295322 -1.10122,-3.485961 -3.689131 -0.9792258,-3.511084 -3.165699 -0.875714,-2.960309 -5.258094 -1.183768,-3.09384 -4.323038 -1.131069,-3.155962 -3.754508 -1.00818,-3.191572 -3.268256 -0.9140528,-2.676408 -5.349025 -1.166014,-2.73068 -4.61412 -1.093587,-2.768223 -4.193122 -1.00398,-2.792053 -3.809413 -0.9398389,-9.40332 -8.450239 -0.3292246,-8.766848 -8.190447 -0.2186846,-8.297197 -7.35748 -0.1216347,-8.042272 -6.600963 0.02945042,-7.757977 -6.129116 0.1831301,-8.668088 -5.754472 -0.3385676,-8.479108 -4.699216 -0.1720304,-8.35256 -4.050464 0.001532972,-8.247081 -3.457891 0.1177258,-8.979621 -5.551591 -0.1969965,-8.816084 -4.329048 -0.06465369,-8.673806 -3.581879 0.1530194,-8.552866 -2.924227 0.29809,-9.288968 -5.581445 -0.009060889,-9.188502 -4.391633 0.1325067,-9.082285 -3.683914 0.3219306,-8.958769 -3.071922 0.4646158,-9.61149 -5.80653 0.1751011,-9.624939 -4.876165 0.3733294,-9.603076 -4.279632 0.531781,-9.549286 -3.709844 0.6275582,4.310, 10
-2.648825 -7.563829 -1.229018,-3.142115 -7.313463 -0.8499123,-3.541354 -6.827857 -0.7176008,-3.771551 -6.20456 -0.6061004,-3.918872 -5.636651 -0.4958546,-3.454564 -5.549524 -1.100396,-3.707411 -4.673221 -1.006074,-3.804329 -4.108858 -0.884436,-3.849407 -3.625265 -0.7726205,-3.202776 -5.331668 -1.204034,-3.392738 -4.296403 -1.161497,-3.465529 -3.682148 -1.040784,-3.487017 -3.155095 -0.9347254,-2.955688 -5.271608 -1.247193,-3.088318 -4.328382 -1.198399,-3.150084 -3.757233 -1.073716,-3.18292 -3.272998 -0.9746846,-2.683127 -5.361928 -1.242802,-2.733881 -4.622369 -1.174341,-2.768299 -4.196523 -1.086351,-2.785038 -3.812276 -1.025321,-9.390687 -8.446171 -0.2878235,-8.74647 -8.181011 -0.1887209,-8.278943 -7.348316 -0.09811851,-8.024541 -6.58719 0.05139476,-7.738382 -6.111661 0.204661,-8.653872 -5.734642 -0.3315777,-8.469965 -4.676628 -0.1818876,-8.347878 -4.024944 -0.01553151,-8.244079 -3.438571 0.09941319,-8.967373 -5.534187 -0.187952,-8.80617 -4.310796 -0.07581371,-8.665542 -3.566551 0.130336,-8.545566 -2.921841 0.2686303,-9.277573 -5.567558 0.003971368,-9.176991 -4.36967 0.1271111,-9.072172 -3.662797 0.3101917,-8.948149 -3.053277 0.451453,-9.600491 -5.797437 0.1940928,-9.616556 -4.866814 0.3784947,-9.593961 -4.266897 0.5350102,-9.536737 -3.694063 0.6364157,4.410, 10
-2.63964 -7.548391 -1.29965,-3.125292 -7.300357 -0.9245442,-3.521368 -6.844364 -0.7800575,-3.748116 -6.242687 -0.6543205,-3.878962 -5.686102 -0.5299317,-3.448061 -5.556045 -1.158655,-3.694612 -4.695321 -1.054914,-3.781778 -4.133545 -0.929697,-3.813635 -3.649248 -0.8187234,-3.204734 -5.340271 -1.250007,-3.394351 -4.322693 -1.195837,-3.462521 -3.721178 -1.069352,-3.47641 -3.193341 -0.9617833,-2.956435 -5.282796 -1.280983,-3.090514 -4.350982 -1.228283,-3.145708 -3.794267 -1.108272,-3.169722 -3.311302 -1.012086,-2.677063 -5.376049 -1.262948,-2.732746 -4.642139 -1.191366,-2.76628 -4.220777 -1.102052,-2.781058 -3.831222 -1.039384,-9.353148 -8.435411 -0.2593056,-8.713137 -8.177994 -0.1864012,-8.250379 -7.343647 -0.113549,-8.008727 -6.574567 0.02024531,-7.729577 -6.086143 0.1570046,-8.616875 -5.713809 -0.348456,-8.436696 -4.657215 -0.2134259,-8.314812 -4.009691 -0.05413988,-8.212861 -3.431171 0.05248129,-8.926278 -5.514726 -0.1935161,-8.767538 -4.295902 -0.1001112,-8.626036 -3.553396 0.0984661,-8.508291 -2.917474 0.228463,-9.235318 -5.550373 0.009730607,-9.139906 -4.356313 0.1219231,-9.033733 -3.649569 0.3046328,-8.908442 -3.046078 0.4476234,-9.559207 -5.785799 0.2097315,-9.580396 -4.863996 0.3878939,-9.558711 -4.266386 0.5439218,-9.501234 -3.695919 0.6411827,4.510, 10
-2.635816 -7.538748 -1.303976,-3.121229 -7.292987 -0.9117136,-3.516249 -6.814085 -0.7659826,-3.746177 -6.204484 -0.6427803,-3.88599 -5.640547 -0.5217255,-3.438287 -5.540266 -1.167732,-3.685848 -4.667913 -1.077493,-3.775941 -4.104048 -0.9649472,-3.812515 -3.623985 -0.8590588,-3.189837 -5.328682 -1.276625,-3.377789 -4.302757 -1.241507,-3.446024 -3.697488 -1.12887,-3.461245 -3.177304 -1.032603,-2.942894 -5.273042 -1.324022,-3.074373 -4.33398 -1.282984,-3.131222 -3.772354 -1.167456,-3.157751 -3.291497 -1.07624,-2.670091 -5.36552 -1.320844,-2.723614 -4.628036 -1.253353,-2.756469 -4.204147 -1.167406,-2.76955 -3.814861 -1.108327,-9.308044 -8.440041 -0.2373885,-8.65078 -8.195187 -0.1957092,-8.169872 -7.359798 -0.1466573,-7.916992 -6.589999 -0.03925413,-7.642076 -6.087104 0.07486972,-8.53053 -5.730665 -0.4284485,-8.351401 -4.713142 -0.3283349,-8.221683 -4.098285 -0.182717,-8.107785 -3.565575 -0.08034953,-8.82738 -5.520719 -0.2598827,-8.664944 -4.329237 -0.2050158,-8.514196 -3.602827 -0.008825392,-8.383654 -2.986217 0.1338577,-9.125622 -5.549299 -0.04041483,-9.025379 -4.375975 0.03551933,-8.905633 -3.681751 0.2139785,-8.766248 -3.093124 0.3700228,-9.444396 -5.779236 0.1822928,-9.458772 -4.867225 0.3427299,-9.423509 -4.274762 0.500566,-9.347413 -3.719411 0.60627,4.610, 10
-2.626679 -7.543412 -1.325873,-3.116303 -7.294967 -0.9202205,-3.513155 -6.832529 -0.7675791,-3.742632 -6.22087 -0.6464527,-3.869795 -5.644989 -0.532132,-3.423527 -5.5559 -1.138835,-3.679625 -4.685693 -1.042208,-3.772094 -4.119573 -0.9205634,-3.81144 -3.639843 -0.8089374,-3.172938 -5.338748 -1.257977,-3.361123 -4.311461 -1.207242,-3.42754 -3.706783 -1.087252,-3.444122 -3.187597 -0.9811507,-2.926082 -5.279739 -1.318601,-3.056239 -4.345043 -1.266298,-3.111518 -3.781175 -1.137595,-3.138899 -3.298919 -1.034124,-2.657413 -5.372038 -1.329534,-2.707614 -4.637147 -1.257,-2.739816 -4.217825 -1.16656,-2.756763 -3.834788 -1.10007,-9.266925 -8.423243 -0.3310527,-8.615337 -8.194654 -0.2870422,-8.140666 -7.359245 -0.2122792,-7.884708 -6.575389 -0.07375917,-7.59289 -6.063874 0.06387162,-8.508027 -5.748701 -0.4808819,-8.342813 -4.719543 -0.3697349,-8.200303 -4.118457 -0.221161,-8.063855 -3.593261 -0.1162616,-8.810647 -5.527048 -0.3153728,-8.671975 -4.307588 -0.23706,-8.520317 -3.58818 -0.05150336,-8.371394 -2.983527 0.07547963,-9.108343 -5.541337 -0.09986307,-9.027682 -4.347726 -0.01206613,-8.913625 -3.64977 0.1581247,-8.763119 -3.051883 0.2946683,-9.425204 -5.759717 0.1131313,-9.450705 -4.816673 0.260327,-9.414808 -4.206638 0.4095238,-9.329796 -3.634159 0.5007226,4.710, 10
-2.597411 -7.528475 -1.352156,-3.084606 -7.299417 -0.9624099,-3.479313 -6.82382 -0.8226344,-3.704296 -6.210378 -0.7095792,-3.845716 -5.644283 -0.603396,-3.404998 -5.553848 -1.193006,-3.650913 -4.690687 -1.090453,-3.741489 -4.114044 -0.9633815,-3.775194 -3.628225 -0.8482504,-3.151955 -5.333194 -1.300962,-3.344393 -4.3227 -1.256467,-3.412786 -3.707931 -1.139496,-3.42741 -3.186927 -1.04279,-2.899342 -5.270259 -1.345636,-3.036644 -4.349267 -1.29783,-3.096579 -3.779953 -1.180449,-3.127957 -3.295175 -1.084657,-2.620197 -5.357128 -1.3398,-2.668377 -4.630971 -1.273228,-2.696939 -4.210345 -1.18678,-2.707874 -3.832134 -1.12177,-9.260937 -8.338541 -0.4169917,-8.624616 -8.110617 -0.3581568,-8.15267 -7.290475 -0.2618594,-7.898196 -6.517463 -0.09740674,-7.611861 -5.994443 0.0692721,-8.516602 -5.689306 -0.5577581,-8.346704 -4.665441 -0.442129,-8.203815 -4.05277 -0.2845175,-8.069227 -3.525026 -0.1745405,-8.820503 -5.46481 -0.392295,-8.673025 -4.250022 -0.3093597,-8.517796 -3.522151 -0.117371,-8.369058 -2.915703 0.0125663,-9.122784 -5.470027 -0.1766127,-9.029838 -4.274021 -0.08841133,-8.902685 -3.575366 0.0758296,-8.742877 -2.98206 0.2103034,-9.443849 -5.670383 0.04108697,-9.465918 -4.716172 0.1899632,-9.42628 -4.107161 0.3369148,-9.336205 -3.530581 0.4317926,4.810, 10
-2.569577 -7.538427 -1.329463,-3.056499 -7.298259 -0.9583346,-3.44976 -6.825528 -0.8252901,-3.668042 -6.206051 -0.7127247,-3.793983 -5.647503 -0.6021336,-3.362743 -5.550727 -1.170555,-3.613972 -4.692829 -1.071599,-3.705694 -4.12844 -0.9492757,-3.743156 -3.650708 -0.8359315,-3.113095 -5.333962 -1.267201,-3.300123 -4.311583 -1.218448,-3.367817 -3.700639 -1.096821,-3.383467 -3.185887 -0.9917055,-2.867088 -5.275682 -1.304876,-2.995191 -4.337814 -1.249956,-3.054029 -3.775342 -1.121847,-3.08621 -3.29449 -1.017413,-2.595266 -5.369109 -1.296199,-2.636583 -4.631744 -1.220659,-2.665496 -4.209013 -1.123924,-2.680043 -3.824522 -1.051759,-9.313925 -8.236792 -0.5730236,-8.675663 -8.008179 -0.4760747,-8.192554 -7.228736 -0.3522829,-7.922959 -6.462143 -0.1636475,-7.646631 -5.928998 0.02887356,-8.54191 -5.639744 -0.6474446,-8.3699 -4.607767 -0.5198351,-8.234671 -3.981407 -0.363564,-8.110962 -3.432805 -0.2540644,-8.859127 -5.411191 -0.5033989,-8.693814 -4.209148 -0.4132104,-8.542094 -3.489294 -0.2190762,-8.400701 -2.881095 -0.08969057,-9.174434 -5.40517 -0.308088,-9.061876 -4.22141 -0.2185304,-8.931417 -3.531575 -0.0574469,-8.771618 -2.945069 0.07033527,-9.507863 -5.585292 -0.1120845,-9.510593 -4.632624 0.0378679,-9.462843 -4.026178 0.1839935,-9.366875 -3.453336 0.2791513,4.910, 10
-2.544882 -7.554246 -1.255005,-3.031118 -7.305061 -0.8299656,-3.425613 -6.821752 -0.6687277,-3.635473 -6.196775 -0.5355278,-3.765589 -5.603994 -0.399287,-3.381945 -5.551153 -1.122667,-3.624718 -4.733961 -1.015054,-3.717672 -4.179826 -0.8752075,-3.760396 -3.702462 -0.745299,-3.115224 -5.333768 -1.239793,-3.290207 -4.352148 -1.198679,-3.350754 -3.770769 -1.066738,-3.368008 -3.272991 -0.954091,-2.857866 -5.280111 -1.291121,-2.979912 -4.398347 -1.25162,-3.02693 -3.864665 -1.111836,-3.053613 -3.422252 -1.002485,-2.582303 -5.372423 -1.282476,-2.629963 -4.681053 -1.214588,-2.664073 -4.283195 -1.112043,-2.687901 -3.921058 -1.034774,-9.358216 -8.176033 -0.6225225,-8.706284 -7.964825 -0.5336365,-8.218782 -7.18848 -0.4275544,-7.952264 -6.429546 -0.2578563,-7.678293 -5.893154 -0.086775,-8.570074 -5.603879 -0.7098889,-8.386138 -4.607913 -0.5871581,-8.253613 -3.998374 -0.4447604,-8.134323 -3.46452 -0.349856,-8.880972 -5.368078 -0.5745196,-8.70542 -4.201009 -0.4989415,-8.555542 -3.49184 -0.3121274,-8.419865 -2.893589 -0.1846834,-9.193486 -5.361183 -0.387672,-9.06959 -4.215122 -0.3107309,-8.945843 -3.535401 -0.1569309,-8.795344 -2.964454 -0.02487212,-9.52452 -5.539217 -0.1996508,-9.512862 -4.620704 -0.0564934,-9.4555 -4.036077 0.08851665,-9.353097 -3.492025 0.186434,5.010, 10
-2.543707 -7.558876 -1.396693,-3.010062 -7.25668 -0.9198623,-3.389998 -6.726785 -0.7457686,-3.575024 -6.061524 -0.5861978,-3.62398 -5.423397 -0.4466904,-3.456695 -5.571817 -1.469526,-3.689566 -4.761162 -1.514265,-3.781322 -4.249975 -1.450301,-3.81879 -3.78742 -1.361575,-3.182194 -5.41057 -1.61937,-3.351686 -4.58752 -1.661495,-3.352947 -4.176712 -1.477318,-3.306231 -3.925895 -1.341596,-2.916387 -5.359289 -1.690078,-3.034706 -4.605694 -1.723064,-3.02165 -4.206274 -1.507598,-2.991217 -3.992544 -1.351588,-2.635038 -5.40666 -1.694554,-2.680546 -4.780336 -1.661448,-2.697906 -4.42551 -1.513673,-2.702276 -4.158554 -1.401386,-9.367203 -8.151703 -0.6765279,-8.716972 -7.949638 -0.5738006,-8.226568 -7.181891 -0.4559148,-7.95678 -6.415317 -0.2761635,-7.68627 -5.856526 -0.09212834,-8.572939 -5.597824 -0.7409906,-8.388186 -4.601508 -0.6128927,-8.256918 -4.00053 -0.4752083,-8.135345 -3.477035 -0.3859985,-8.885739 -5.360485 -0.6108378,-8.703883 -4.201288 -0.5343551,-8.553247 -3.502684 -0.3507665,-8.413172 -2.918899 -0.2270482,-9.199469 -5.357878 -0.4290542,-9.069315 -4.21902 -0.349185,-8.94408 -3.546672 -0.1910176,-8.788252 -2.984355 -0.05578005,-9.530356 -5.542241 -0.2455129,-9.513021 -4.628911 -0.09655499,-9.448859 -4.05199 0.05545378,-9.336589 -3.51275 0.1577104,5.110, 10
-2.994091 -8.314896 1.074111,-3.563756 -7.000342 1.042836,-3.816334 -5.907335 1.259858,-3.880199 -4.947671 1.584106,-3.855931 -4.277847 1.949203,-4.030738 -5.169737 1.307532,-4.040026 -3.825206 1.808631,-4.053553 -3.492604 2.094683,-4.116947 -3.493625 2.192105,-3.723581 -5.483399 1.521936,-3.645511 -4.347646 1.99442,-3.635428 -4.730832 2.126276,-3.753941 -5.140545 2.126499,-3.347136 -5.833635 1.757167,-3.1479 -4.99982 2.205373,-3.139952 -5.556613 2.124146,-3.296665 -6.06001 1.944752,-2.95822 -6.250272 1.964651,-2.726677 -5.393993 2.247611,-2.78495 -5.825344 2.151688,-2.949492 -6.334701 1.94345,-9.366713 -8.108105 -1.269139,-8.735925 -7.817511 -1.215532,-8.273932 -7.00231 -1.118762,-8.01097 -6.231405 -0.9417529,-7.76403 -5.588415 -0.7768659,-8.556709 -5.629989 -1.557262,-8.41642 -4.577393 -1.30776,-8.31154 -4.929652 -1.013567,-8.349169 -5.497447 -0.8755608,-8.847982 -5.499244 -1.415216,-8.684999 -4.279969 -1.115185,-8.548221 -4.794418 -0.7745012,-8.591002 -5.428493 -0.5995189,-9.148855 -5.484634 -1.212204,-9.016897 -4.334853 -0.9521675,-8.86715 -4.794197 -0.7172899,-8.899681 -5.434087 -0.6117172,-9.493319 -5.580291 -1.022931,-9.400805 -4.693583 -0.7966393,-9.232342 -4.896036 -0.6419525,-9.192814 -5.402938 -0.5729313,5.210,Left Hand Closed 2
-2.527075 -7.68283 -0.8712137,-3.096236 -7.04897 -0.6985734,-3.384628 -6.416914 -0.6349326,-3.435803 -5.652624 -0.5130865,-3.283045 -5.022145 -0.3854914,-3.477249 -5.46396 -1.115098,-3.731505 -4.556621 -1.005854,-3.841646 -4.053115 -0.9277661,-3.900723 -3.554977 -0.8502415,-3.184165 -5.380542 -1.067064,-3.186735 -4.729599 -0.6398063,-3.130151 -5.582536 -0.5026937,-3.11778 -6.207048 -0.5576906,-2.905508 -5.4195 -0.9686757,-2.896914 -4.86241 -0.5297492,-2.89773 -5.70439 -0.4268178,-2.902023 -6.26547 -0.5177864,-2.631699 -5.576572 -0.8625382,-2.652891 -5.00723 -0.554622,-2.705314 -5.50978 -0.4535668,-2.735411 -5.919102 -0.4768659,-9.414073 -8.205502 -1.732743,-8.79531 -7.821159 -1.623431,-8.365098 -7.046852 -1.432711,-8.194449 -6.18848 -1.131663,-8.156789 -5.386619 -0.8801103,-8.516346 -5.862319 -1.929174,-8.281996 -5.064003 -1.4803,-8.243384 -5.552297 -1.245247,-8.309108 -6.008474 -1.22805,-8.810877 -5.747291 -1.777234,-8.537339 -5.166902 -1.227983,-8.617793 -6.159808 -1.072216,-8.793389 -6.502011 -1.2171,-9.127887 -5.778372 -1.518092,-8.841712 -5.269861 -1.007946,-8.897963 -6.260534 -1.029994,-9.066638 -6.585578 -1.208602,-9.493664 -5.916911 -1.24735,-9.168854 -5.454021 -0.9622967,-9.150024 -6.141504 -0.9523864,-9.301031 -6.445549 -1.070783,5.310,Left Hand Closed 2
-2.564054 -7.610197 -1.206594,-3.081512 -7.054975 -0.9604868,-3.379292 -6.427721 -0.8565663,-3.453489 -5.647823 -0.7192855,-3.31794 -5.018188 -0.5961249,-3.50837 -5.509425 -1.355428,-3.767731 -4.615415 -1.2106,-3.889951 -4.081489 -1.114818,-3.949974 -3.534667 -1.020317,-3.217197 -5.401948 -1.336427,-3.212365 -4.761556 -0.8919935,-3.15634 -5.594297 -0.7112349,-3.143141 -6.210437 -0.7451304,-2.93982 -5.408809 -1.265361,-2.921586 -4.862606 -0.808309,-2.93287 -5.678281 -0.6678822,-2.94144 -6.236594 -0.7484217,-2.664581 -5.529201 -1.176392,-2.665938 -4.98727 -0.8552024,-2.716788 -5.488742 -0.7237814,-2.750054 -5.908675 -0.7385271,-9.458885 -8.231716 -1.779535,-8.850249 -7.854 -1.677857,-8.410317 -7.090927 -1.437132,-8.26065 -6.217093 -1.086118,-8.359596 -5.448223 -0.8175837,-8.611259 -5.87025 -1.934316,-8.330259 -5.202556 -1.527361,-8.382466 -5.883092 -1.421653,-8.522768 -6.247035 -1.52283,-8.888762 -5.77897 -1.761568,-8.576224 -5.327569 -1.211535,-8.662672 -6.303688 -1.159734,-8.836494 -6.455484 -1.381294,-9.179871 -5.817502 -1.487747,-8.868684 -5.408329 -1.01213,-8.931322 -6.378026 -1.085396,-9.1175 -6.567873 -1.284188,-9.51355 -5.941604 -1.192935,-9.192746 -5.549825 -0.9681973,-9.194162 -6.253099 -0.9785604,-9.365172 -6.480541 -1.099999,5.410,Left Hand Closed 1
-2.604154 -7.421335 -1.748782,-3.101559 -6.97239 -1.454005,-3.406544 -6.371688 -1.322386,-3.439148 -5.593956 -1.161111,-3.299028 -4.926635 -1.126012,-3.521955 -5.478323 -1.871641,-3.773761 -4.591474 -1.690439,-3.888153 -4.06491 -1.582525,-3.948364 -3.531634 -1.485597,-3.223166 -5.363056 -1.846855,-3.190472 -4.751684 -1.392667,-3.127794 -5.584612 -1.223181,-3.121893 -6.196523 -1.26675,-2.936982 -5.374761 -1.773603,-2.900258 -4.863294 -1.281168,-2.907012 -5.689058 -1.145209,-2.924584 -6.244698 -1.235885,-2.656834 -5.507419 -1.681455,-2.644076 -4.975139 -1.332724,-2.692519 -5.486076 -1.205774,-2.738936 -5.900127 -1.227788,-9.479928 -8.142818 -1.987689,-8.874214 -7.828205 -1.80406,-8.42322 -7.101352 -1.567496,-8.267215 -6.24984 -1.230147,-8.385462 -5.507297 -0.973334,-8.59723 -5.861194 -2.156577,-8.345631 -5.179784 -1.662236,-8.368081 -5.778944 -1.456574,-8.480783 -6.155551 -1.509571,-8.874617 -5.760249 -2.032918,-8.578644 -5.331653 -1.41743,-8.66677 -6.323375 -1.286104,-8.83865 -6.493692 -1.486917,-9.182749 -5.7901 -1.790899,-8.890698 -5.407485 -1.246649,-8.948369 -6.38624 -1.255667,-9.117214 -6.588723 -1.456751,-9.54334 -5.912553 -1.532428,-9.211987 -5.526454 -1.246799,-9.198706 -6.22453 -1.219721,-9.350471 -6.463905 -1.343546,5.510,Left Hand Closed 1
-2.604154 -7.421335 -1.628737,-3.101559 -6.97239 -1.333959,-3.406544 -6.371688 -1.202341,-3.439148 -5.593956 -1.041066,-3.268726 -4.965976 -0.8945777,-3.51171 -5.425163 -1.621551,-3.760398 -4.574399 -1.400022,-3.873447 -4.066352 -1.267672,-3.930946 -3.561094 -1.155349,-3.21163 -5.32162 -1.613011,-3.17057 -4.743566 -1.134365,-3.109571 -5.566234 -0.9640282,-3.098433 -6.174572 -0.99656,-2.92119 -5.354461 -1.558452,-2.884348 -4.888626 -1.054929,-2.889555 -5.713829 -0.9315166,-2.901423 -6.262786 -1.020208,-2.641421 -5.508529 -1.47979,-2.636804 -5.014261 -1.119605,-2.683653 -5.544621 -0.9993028,-2.729846 -5.955674 -1.018865,-9.503464 -8.128651 -2.012407,-8.900339 -7.820808 -1.838418,-8.431484 -7.108631 -1.600956,-8.273015 -6.24184 -1.263742,-8.445051 -5.546572 -1.032759,-8.63663 -5.852286 -2.188927,-8.353868 -5.266421 -1.703331,-8.409046 -5.929927 -1.560879,-8.542923 -6.240625 -1.667816,-8.909854 -5.750384 -2.056538,-8.58438 -5.380102 -1.423793,-8.703332 -6.381059 -1.374253,-8.884197 -6.457584 -1.662029,-9.217392 -5.780603 -1.804144,-8.898603 -5.483747 -1.24723,-8.989803 -6.458473 -1.290635,-9.17884 -6.550222 -1.52564,-9.570958 -5.889863 -1.529631,-9.217415 -5.610327 -1.259841,-9.243523 -6.32682 -1.25648,-9.430097 -6.469071 -1.402147,5.610,Left Hand Closed 1
-2.500927 -7.971761 -0.3659376,-3.07155 -7.279334 -0.2467292,-3.346871 -6.658367 -0.2024003,-3.435522 -6.013446 -0.0965597,-3.359357 -5.546876 0.0144369,-3.458036 -5.546112 -0.5082433,-3.726238 -4.440462 -0.3388189,-3.846125 -3.881275 -0.2140486,-3.94434 -3.453529 -0.1762151,-3.180984 -5.519398 -0.4604568,-3.184608 -4.799705 -0.08524475,-3.16094 -5.5156 0.04219347,-3.205893 -6.087478 0.0259679,-2.909148 -5.602582 -0.3691458,-2.872474 -4.968013 0.00198555,-2.924943 -5.651578 0.08588666,-3.01244 -6.151672 0.02737454,-2.634309 -5.807592 -0.3024295,-2.582065 -5.174736 -0.04658076,-2.667609 -5.620125 0.0152601,-2.772923 -6.013717 -0.01115161,-9.473493 -8.124094 -2.192381,-8.888513 -7.817314 -1.993339,-8.428505 -7.119891 -1.737328,-8.275826 -6.260292 -1.388417,-8.46441 -5.604252 -1.159291,-8.635603 -5.8796 -2.303961,-8.366334 -5.250193 -1.799781,-8.431244 -5.951526 -1.682068,-8.564358 -6.262367 -1.824982,-8.909615 -5.791158 -2.172419,-8.606078 -5.355186 -1.507586,-8.718696 -6.364223 -1.494336,-8.891822 -6.434824 -1.814702,-9.221976 -5.827498 -1.916032,-8.9254 -5.483869 -1.33381,-9.009604 -6.471823 -1.402957,-9.194157 -6.550626 -1.653226,-9.580914 -5.930461 -1.633063,-9.240051 -5.617565 -1.371672,-9.263239 -6.344257 -1.380799,-9.450106 -6.478837 -1.529523,5.710,Left Hand Closed 1
-2.456462 -7.872859 -0.09130377,-3.038336 -7.080156 0.1168167,-3.311997 -6.368974 0.1379779,-3.402318 -5.593172 0.197936,-3.287449 -4.971778 0.2567354,-3.439326 -5.448142 -0.461179,-3.695195 -4.5188 -0.4310877,-3.816009 -3.990682 -0.3858109,-3.884425 -3.462588 -0.3337651,-3.152215 -5.37002 -0.4692645,-3.166391 -4.6875 -0.1045213,-3.125254 -5.515985 0.08985116,-3.129932 -6.138953 0.07424116,-2.879299 -5.400915 -0.4280328,-2.880967 -4.792369 -0.04909752,-2.903533 -5.59687 0.1258213,-2.930266 -6.160947 0.06431425,-2.603258 -5.560346 -0.3747883,-2.604178 -5.009188 -0.1042345,-2.675421 -5.474293 0.0512204,-2.726552 -5.881649 0.06003864,-9.456205 -8.141512 -2.067695,-8.878523 -7.828209 -1.83763,-8.413563 -7.115634 -1.582283,-8.258507 -6.250192 -1.245014,-8.460487 -5.605167 -1.045402,-8.643019 -5.856524 -2.158012,-8.366239 -5.270195 -1.645174,-8.428694 -5.99947 -1.536083,-8.555559 -6.300979 -1.679036,-8.914279 -5.766875 -2.042853,-8.610527 -5.358289 -1.369735,-8.71535 -6.362653 -1.357969,-8.878337 -6.423917 -1.678087,-9.220277 -5.812379 -1.796334,-8.924937 -5.489297 -1.203856,-9.003801 -6.466667 -1.279783,-9.180206 -6.536346 -1.53812,-9.573001 -5.937034 -1.516497,-9.242254 -5.637351 -1.233652,-9.259214 -6.347303 -1.23111,-9.434192 -6.484234 -1.381592,5.810,Left Hand Closed 1
-2.486454 -7.664995 -1.022298,-3.003139 -7.052825 -0.7859849,-3.281071 -6.393159 -0.7030879,-3.37048 -5.623935 -0.5857636,-3.260691 -5.000576 -0.4809275,-3.418619 -5.494824 -1.214294,-3.688358 -4.563074 -1.10485,-3.805143 -4.016899 -1.009902,-3.850962 -3.467745 -0.9117492,-3.121093 -5.399989 -1.202583,-3.106215 -4.723126 -0.7942777,-3.064699 -5.522958 -0.569506,-3.067406 -6.120052 -0.5609905,-2.842331 -5.422601 -1.144372,-2.818345 -4.848892 -0.7255309,-2.848809 -5.625762 -0.541777,-2.874365 -6.167749 -0.6027203,-2.567331 -5.568147 -1.070927,-2.559225 -5.027911 -0.758205,-2.625712 -5.502347 -0.6017154,-2.671128 -5.913066 -0.5985123,-9.4483 -8.081095 -2.230032,-8.851066 -7.809395 -2.004063,-8.372014 -7.102229 -1.75025,-8.223512 -6.237898 -1.416869,-8.458635 -5.595501 -1.214615,-8.611447 -5.834628 -2.332248,-8.347985 -5.272308 -1.83484,-8.417274 -6.012382 -1.715043,-8.549793 -6.305706 -1.865504,-8.885941 -5.758811 -2.221576,-8.583979 -5.337652 -1.571578,-8.688549 -6.33478 -1.538875,-8.84675 -6.41602 -1.844163,-9.196662 -5.803585 -1.990447,-8.891327 -5.460949 -1.419071,-8.967306 -6.424722 -1.472145,-9.142748 -6.520622 -1.719207,-9.554239 -5.923086 -1.726551,-9.208671 -5.600465 -1.453848,-9.219675 -6.30093 -1.449214,-9.388996 -6.467154 -1.605556,5.910,Left Hand Closed 1
-2.515195 -7.512788 -1.276719,-3.021882 -6.990982 -1.042735,-3.300688 -6.364468 -0.9413369,-3.36917 -5.589666 -0.7975537,-3.252752 -4.950321 -0.6567725,-3.43955 -5.415457 -1.429169,-3.691465 -4.508158 -1.276348,-3.799734 -3.97503 -1.181538,-3.846252 -3.441183 -1.096268,-3.136795 -5.315894 -1.40012,-3.108191 -4.69473 -0.9591708,-3.060898 -5.519727 -0.7587589,-3.067654 -6.127019 -0.7650993,-2.847102 -5.342842 -1.327373,-2.81095 -4.84399 -0.873763,-2.836985 -5.663711 -0.729598,-2.868089 -6.214671 -0.8039761,-2.564806 -5.487131 -1.235959,-2.552328 -4.965349 -0.905526,-2.615857 -5.485402 -0.7788085,-2.670454 -5.907703 -0.7994469,-9.448928 -8.06905 -2.240612,-8.850324 -7.785635 -2.047046,-8.388872 -7.103792 -1.808017,-8.234512 -6.254322 -1.477246,-8.433809 -5.609025 -1.274171,-8.618176 -5.843008 -2.433831,-8.34041 -5.278507 -1.93475,-8.410199 -5.998429 -1.818521,-8.549187 -6.278986 -1.966854,-8.88238 -5.751821 -2.307257,-8.570379 -5.33234 -1.656898,-8.686625 -6.347545 -1.649624,-8.856285 -6.396257 -1.984888,-9.185687 -5.784748 -2.051839,-8.874709 -5.462417 -1.47307,-8.967589 -6.447944 -1.53568,-9.154465 -6.498718 -1.79677,-9.535933 -5.887577 -1.769967,-9.182609 -5.593996 -1.498278,-9.213112 -6.321466 -1.504852,-9.40303 -6.448146 -1.67088,6.010,Left Hand Closed 1
-2.515195 -7.512788 -1.276719,-3.021882 -6.990982 -1.042735,-3.300688 -6.364468 -0.9413369,-3.36917 -5.589666 -0.7975537,-3.252752 -4.950321 -0.6567725,-3.43955 -5.415457 -1.429169,-3.691465 -4.508158 -1.276348,-3.799734 -3.97503 -1.181538,-3.846252 -3.441183 -1.096268,-3.136795 -5.315894 -1.40012,-3.108191 -4.69473 -0.9591708,-3.060898 -5.519727 -0.7587589,-3.067654 -6.127019 -0.7650993,-2.847102 -5.342842 -1.327373,-2.81095 -4.84399 -0.873763,-2.836985 -5.663711 -0.729598,-2.868089 -6.214671 -0.8039761,-2.564806 -5.487131 -1.235959,-2.552328 -4.965349 -0.905526,-2.615857 -5.485402 -0.7788085,-2.670454 -5.907703 -0.7994469,-9.434511 -8.046412 -2.327158,-8.848424 -7.762993 -2.133146,-8.383539 -7.08299 -1.89537,-8.232598 -6.241231 -1.567784,-8.445584 -5.614147 -1.369402,-8.624895 -5.832441 -2.472099,-8.353005 -5.254501 -1.974142,-8.415912 -5.968654 -1.867645,-8.547397 -6.254881 -2.017104,-8.888824 -5.748664 -2.33723,-8.581115 -5.341863 -1.678169,-8.690516 -6.336839 -1.671476,-8.859267 -6.390714 -1.998645,-9.191464 -5.785147 -2.076681,-8.883152 -5.468444 -1.488567,-8.971838 -6.439313 -1.565057,-9.159383 -6.504209 -1.831963,-9.540683 -5.889949 -1.787911,-9.194961 -5.593439 -1.508939,-9.219108 -6.312374 -1.520109,-9.40446 -6.453477 -1.686092,6.110,Left Hand Closed 1
-2.515195 -7.512788 -1.276719,-3.021882 -6.990982 -1.042735,-3.300688 -6.364468 -0.9413369,-3.36917 -5.589666 -0.7975537,-3.252752 -4.950321 -0.6567725,-3.43955 -5.415457 -1.429169,-3.691465 -4.508158 -1.276348,-3.799734 -3.97503 -1.181538,-3.846252 -3.441183 -1.096268,-3.136795 -5.315894 -1.40012,-3.108191 -4.69473 -0.9591708,-3.060898 -5.519727 -0.7587589,-3.067654 -6.127019 -0.7650993,-2.847102 -5.342842 -1.327373,-2.81095 -4.84399 -0.873763,-2.836985 -5.663711 -0.729598,-2.868089 -6.214671 -0.8039761,-2.564806 -5.487131 -1.235959,-2.552328 -4.965349 -0.905526,-2.615857 -5.485402 -0.7788085,-2.670454 -5.907703 -0.7994469,-9.427317 -8.04487 -2.307793,-8.83525 -7.775441 -2.112314,-8.371435 -7.100959 -1.860691,-8.21958 -6.267854 -1.523839,-8.423449 -5.626171 -1.318726,-8.606593 -5.829395 -2.448729,-8.344673 -5.293719 -1.979743,-8.435919 -6.026678 -1.904813,-8.570127 -6.287983 -2.078994,-8.87385 -5.743274 -2.311823,-8.573349 -5.347736 -1.661136,-8.690668 -6.337278 -1.669584,-8.846215 -6.36729 -2.004029,-9.174183 -5.78596 -2.049681,-8.871447 -5.476228 -1.475595,-8.961738 -6.438692 -1.543844,-9.137332 -6.480707 -1.791918,-9.516243 -5.893327 -1.758427,-9.185724 -5.595649 -1.500227,-9.211936 -6.306505 -1.505322,-9.38977 -6.441638 -1.659873,6.210,Left Hand Closed 1
-2.515195 -7.512788 -1.276719,-3.021882 -6.990982 -1.042735,-3.300688 -6.364468 -0.9413369,-3.36917 -5.589666 -0.7975537,-3.252752 -4.950321 -0.6567725,-3.43955 -5.415457 -1.429169,-3.691465 -4.508158 -1.276348,-3.799734 -3.97503 -1.181538,-3.846252 -3.441183 -1.096268,-3.136795 -5.315894 -1.40012,-3.108191 -4.69473 -0.9591708,-3.060898 -5.519727 -0.7587589,-3.067654 -6.127019 -0.7650993,-2.847102 -5.342842 -1.327373,-2.81095 -4.84399 -0.873763,-2.836985 -5.663711 -0.729598,-2.868089 -6.214671 -0.8039761,-2.564806 -5.487131 -1.235959,-2.552328 -4.965349 -0.905526,-2.615857 -5.485402 -0.7788085,-2.670454 -5.907703 -0.7994469,-9.392192 -7.981683 -2.367779,-8.789509 -7.750812 -2.151118,-8.310474 -7.089126 -1.897212,-8.146997 -6.271261 -1.561842,-8.395267 -5.662568 -1.376535,-8.569802 -5.77676 -2.511321,-8.306867 -5.277872 -2.038567,-8.396427 -6.028421 -1.970872,-8.531648 -6.24772 -2.17451,-8.836324 -5.69836 -2.388371,-8.535131 -5.309608 -1.733513,-8.657817 -6.28652 -1.730717,-8.808193 -6.288433 -2.07363,-9.136394 -5.745616 -2.137563,-8.821128 -5.418458 -1.568471,-8.908852 -6.351233 -1.613493,-9.076309 -6.385194 -1.852461,-9.478849 -5.86289 -1.857158,-9.140819 -5.55098 -1.589119,-9.160449 -6.233194 -1.568741,-9.329773 -6.382689 -1.718694,6.310,Left Hand Closed 1
-2.515195 -7.512788 -1.276719,-3.021882 -6.990982 -1.042735,-3.300688 -6.364468 -0.9413369,-3.36917 -5.589666 -0.7975537,-3.252752 -4.950321 -0.6567725,-3.43955 -5.415457 -1.429169,-3.691465 -4.508158 -1.276348,-3.799734 -3.97503 -1.181538,-3.846252 -3.441183 -1.096268,-3.136795 -5.315894 -1.40012,-3.108191 -4.69473 -0.9591708,-3.060898 -5.519727 -0.7587589,-3.067654 -6.127019 -0.7650993,-2.847102 -5.342842 -1.327373,-2.81095 -4.84399 -0.873763,-2.836985 -5.663711 -0.729598,-2.868089 -6.214671 -0.8039761,-2.564806 -5.487131 -1.235959,-2.552328 -4.965349 -0.905526,-2.615857 -5.485402 -0.7788085,-2.670454 -5.907703 -0.7994469,-9.144654 -7.912199 -1.972026,-8.526099 -7.582979 -1.981568,-8.083742 -6.88745 -1.859588,-7.934319 -6.119915 -1.626574,-8.136735 -5.590328 -1.467763,-8.387497 -5.580997 -2.105318,-8.09826 -5.208354 -1.798006,-8.122561 -5.859447 -1.782258,-8.234306 -6.177774 -1.936296,-8.686732 -5.491895 -1.962491,-8.340904 -5.288799 -1.619434,-8.403515 -6.094674 -1.62104,-8.545325 -6.215044 -1.817179,-8.992858 -5.562591 -1.74178,-8.655984 -5.424182 -1.437073,-8.6906 -6.197746 -1.467887,-8.816963 -6.317541 -1.577522,-9.305701 -5.744537 -1.509559,-8.980595 -5.625185 -1.394223,-8.953344 -6.196935 -1.371544,-9.055185 -6.35173 -1.429003,6.410,Left Hand Closed 1
-2.515195 -7.512788 -1.276719,-3.021882 -6.990982 -1.042735,-3.300688 -6.364468 -0.9413369,-3.36917 -5.589666 -0.7975537,-3.252752 -4.950321 -0.6567725,-3.43955 -5.415457 -1.429169,-3.691465 -4.508158 -1.276348,-3.799734 -3.97503 -1.181538,-3.846252 -3.441183 -1.096268,-3.136795 -5.315894 -1.40012,-3.108191 -4.69473 -0.9591708,-3.060898 -5.519727 -0.7587589,-3.067654 -6.127019 -0.7650993,-2.847102 -5.342842 -1.327373,-2.81095 -4.84399 -0.873763,-2.836985 -5.663711 -0.729598,-2.868089 -6.214671 -0.8039761,-2.564806 -5.487131 -1.235959,-2.552328 -4.965349 -0.905526,-2.615857 -5.485402 -0.7788085,-2.670454 -5.907703 -0.7994469,-8.94892 -7.802227 -2.804808,-8.211671 -7.703295 -2.919449,-7.693377 -7.068702 -2.863291,-7.471528 -6.214608 -2.662116,-7.709162 -5.599887 -2.546501,-7.873904 -5.96037 -3.285943,-7.549639 -5.485336 -2.978953,-7.60979 -5.990514 -2.918132,-7.768405 -6.244241 -3.044553,-8.153968 -5.745699 -3.1056,-7.770737 -5.324125 -2.746873,-7.892789 -6.091308 -2.676717,-8.079202 -6.26515 -2.842694,-8.480703 -5.637334 -2.852931,-8.063639 -5.302552 -2.566306,-8.165819 -6.104404 -2.540259,-8.362218 -6.301006 -2.648628,-8.837573 -5.62066 -2.595634,-8.370881 -5.410553 -2.562883,-8.394153 -6.023856 -2.569932,-8.574135 -6.254102 -2.658891,6.510,Left Hand Closed 1
-2.515195 -7.512788 -1.276719,-3.021882 -6.990982 -1.042735,-3.300688 -6.364468 -0.9413369,-3.36917 -5.589666 -0.7975537,-3.252752 -4.950321 -0.6567725,-3.43955 -5.415457 -1.429169,-3.691465 -4.508158 -1.276348,-3.799734 -3.97503 -1.181538,-3.846252 -3.441183 -1.096268,-3.136795 -5.315894 -1.40012,-3.108191 -4.69473 -0.9591708,-3.060898 -5.519727 -0.7587589,-3.067654 -6.127019 -0.7650993,-2.847102 -5.342842 -1.327373,-2.81095 -4.84399 -0.873763,-2.836985 -5.663711 -0.729598,-2.868089 -6.214671 -0.8039761,-2.564806 -5.487131 -1.235959,-2.552328 -4.965349 -0.905526,-2.615857 -5.485402 -0.7788085,-2.670454 -5.907703 -0.7994469,-8.773267 -7.704583 -2.84291,-8.043943 -7.538632 -3.002461,-7.579772 -6.903665 -2.989476,-7.396688 -6.055924 -2.826432,-7.53686 -5.356422 -2.699672,-7.703017 -5.918809 -3.572318,-7.438468 -5.402277 -3.310075,-7.50308 -5.992666 -3.15062,-7.663011 -6.267988 -3.19709,-7.943315 -5.722375 -3.377099,-7.62334 -5.209228 -3.100086,-7.735139 -5.994035 -2.91715,-7.927957 -6.21652 -2.992485,-8.241198 -5.60613 -3.112468,-7.901582 -5.189624 -2.873626,-7.99551 -6.028293 -2.78595,-8.205282 -6.287321 -2.857058,-8.590398 -5.55381 -2.840113,-8.192416 -5.227918 -2.790159,-8.21337 -5.854599 -2.758039,-8.397063 -6.154731 -2.85326,6.610,Left Hand Closed 1
-2.515195 -7.512788 -1.276719,-3.021882 -6.990982 -1.042735,-3.300688 -6.364468 -0.9413369,-3.36917 -5.589666 -0.7975537,-3.252752 -4.950321 -0.6567725,-3.43955 -5.415457 -1.429169,-3.691465 -4.508158 -1.276348,-3.799734 -3.97503 -1.181538,-3.846252 -3.441183 -1.096268,-3.136795 -5.315894 -1.40012,-3.108191 -4.69473 -0.9591708,-3.060898 -5.519727 -0.7587589,-3.067654 -6.127019 -0.7650993,-2.847102 -5.342842 -1.327373,-2.81095 -4.84399 -0.873763,-2.836985 -5.663711 -0.729598,-2.868089 -6.214671 -0.8039761,-2.564806 -5.487131 -1.235959,-2.552328 -4.965349 -0.905526,-2.615857 -5.485402 -0.7788085,-2.670454 -5.907703 -0.7994469,-8.594332 -7.242603 -3.011227,-7.887989 -7.056213 -3.029888,-7.439528 -6.367622 -2.947232,-7.292433 -5.492115 -2.75073,-7.442562 -4.834257 -2.598339,-7.594971 -5.416824 -3.55992,-7.408509 -4.918144 -3.157677,-7.495956 -5.504304 -2.909456,-7.643013 -5.80624 -2.952851,-7.846027 -5.252119 -3.424734,-7.60349 -4.743036 -2.984243,-7.702044 -5.603832 -2.774859,-7.85003 -5.861467 -2.883003,-8.143265 -5.19712 -3.210403,-7.887531 -4.728595 -2.818747,-7.94503 -5.628576 -2.729795,-8.106061 -5.927568 -2.863751,-8.4943 -5.227956 -2.993027,-8.199761 -4.852939 -2.822044,-8.198714 -5.509189 -2.794377,-8.334723 -5.823408 -2.946189,6.710,Left Hand Closed 1
-2.515195 -7.512788 -1.276719,-3.021882 -6.990982 -1.042735,-3.300688 -6.364468 -0.9413369,-3.36917 -5.589666 -0.7975537,-3.252752 -4.950321 -0.6567725,-3.43955 -5.415457 -1.429169,-3.691465 -4.508158 -1.276348,-3.799734 -3.97503 -1.181538,-3.846252 -3.441183 -1.096268,-3.136795 -5.315894 -1.40012,-3.108191 -4.69473 -0.9591708,-3.060898 -5.519727 -0.7587589,-3.067654 -6.127019 -0.7650993,-2.847102 -5.342842 -1.327373,-2.81095 -4.84399 -0.873763,-2.836985 -5.663711 -0.729598,-2.868089 -6.214671 -0.8039761,-2.564806 -5.487131 -1.235959,-2.552328 -4.965349 -0.905526,-2.615857 -5.485402 -0.7788085,-2.670454 -5.907703 -0.7994469,-8.410585 -7.064549 -3.566131,-7.819281 -7.002967 -3.345704,-7.363864 -6.386976 -3.09647,-7.217554 -5.520776 -2.802223,-7.410046 -4.817474 -2.5897,-7.48813 -5.306568 -3.677335,-7.302549 -4.742537 -3.218312,-7.393904 -5.404737 -3.09517,-7.515475 -5.681158 -3.255878,-7.754209 -5.167511 -3.606479,-7.552821 -4.685945 -3.020336,-7.676147 -5.619056 -2.981265,-7.81231 -5.771872 -3.252033,-8.070817 -5.146783 -3.439181,-7.859381 -4.714269 -2.941866,-7.937602 -5.662826 -2.971058,-8.082798 -5.839757 -3.195668,-8.426666 -5.195452 -3.232402,-8.177274 -4.861957 -3.012664,-8.20606 -5.563447 -3.015563,-8.342449 -5.772323 -3.169839,6.810,Left Hand Closed 1
-2.977877 -7.891542 1.055769,-3.692212 -7.187965 1.331723,-4.127177 -6.335311 1.453559,-4.274399 -5.423511 1.606739,-4.231962 -4.69621 1.784148,-4.257458 -5.143087 0.7590234,-4.3855 -3.853951 1.130985,-4.403903 -3.650023 1.453784,-4.433008 -3.823743 1.548665,-3.880999 -5.09703 0.7495991,-3.927878 -4.372819 1.268496,-3.865098 -5.054588 1.578145,-3.875112 -5.54182 1.624805,-3.494038 -5.178268 0.8197268,-3.530268 -4.807674 1.30182,-3.539147 -5.537292 1.506387,-3.612345 -5.963687 1.483697,-3.119349 -5.351099 0.8897241,-3.17818 -4.926986 1.178751,-3.271033 -5.488058 1.26284,-3.373375 -5.874718 1.178653,-8.370225 -7.087322 -3.694966,-7.802752 -7.014196 -3.521649,-7.344788 -6.386102 -3.301873,-7.204461 -5.518319 -3.031959,-7.39242 -4.797767 -2.83612,-7.500538 -5.345758 -3.882456,-7.316172 -4.759536 -3.438207,-7.394426 -5.394859 -3.286819,-7.524054 -5.722367 -3.400721,-7.761016 -5.215097 -3.786177,-7.551281 -4.698191 -3.23782,-7.651425 -5.614496 -3.184853,-7.80512 -5.868669 -3.408777,-8.06976 -5.204697 -3.59692,-7.855257 -4.728073 -3.112361,-7.918918 -5.658608 -3.144235,-8.079762 -5.925353 -3.352361,-8.42093 -5.264167 -3.37518,-8.18099 -4.88948 -3.158594,-8.188772 -5.57756 -3.193603,-8.313048 -5.851082 -3.352958,6.910,Left Hand Closed 1
-2.937027 -7.997474 0.2556145,-3.629007 -7.354026 0.2447772,-4.034367 -6.570658 0.2317151,-4.121113 -5.730318 0.3046851,-3.951353 -5.124313 0.3500423,-4.035954 -5.483535 -0.1012122,-4.274792 -4.296289 0.1119107,-4.344852 -3.765543 0.2537526,-4.402853 -3.403167 0.2912241,-3.714017 -5.395706 0.03686315,-3.865328 -4.723251 0.4923869,-3.834751 -5.562716 0.6389755,-3.822944 -6.156261 0.6012188,-3.393854 -5.422739 0.2374698,-3.491704 -4.847045 0.6665064,-3.517244 -5.703767 0.7309898,-3.55019 -6.273038 0.65588,-3.049791 -5.546098 0.4087501,-3.145185 -4.92222 0.6929451,-3.221529 -5.463479 0.7776289,-3.275869 -5.891971 0.7560059,-8.341832 -7.132387 -3.658554,-7.804246 -7.083358 -3.429327,-7.354005 -6.475433 -3.180624,-7.203968 -5.621862 -2.881279,-7.377517 -4.883712 -2.666809,-7.488531 -5.372093 -3.804863,-7.301005 -4.791432 -3.29991,-7.386735 -5.453214 -3.142234,-7.51637 -5.771703 -3.271703,-7.741415 -5.245208 -3.719906,-7.537803 -4.73081 -3.090807,-7.653773 -5.692626 -3.067198,-7.802869 -5.891387 -3.360748,-8.052604 -5.238824 -3.527515,-7.837906 -4.78646 -2.978944,-7.915477 -5.744663 -3.014627,-8.075872 -5.947142 -3.248469,-8.405368 -5.295625 -3.300388,-8.151613 -4.960645 -3.047387,-8.171123 -5.664394 -3.075405,-8.309938 -5.88849 -3.250189,7.010,Left Hand Closed 1
-2.980169 -8.123018 -0.04701138,-3.633957 -7.587347 0.1676636,-4.069843 -6.890811 0.3181618,-4.19837 -6.02416 0.5051305,-4.002329 -5.380477 0.6395375,-4.070988 -5.718502 -0.2332156,-4.301619 -4.663043 -0.03851646,-4.396685 -4.107457 0.1256391,-4.451188 -3.605848 0.2243203,-3.757198 -5.605005 -0.1619734,-3.910933 -4.843945 0.303653,-3.922262 -5.694356 0.4938459,-3.905842 -6.280777 0.4829291,-3.440567 -5.61134 -0.01635523,-3.555008 -4.946799 0.405052,-3.604002 -5.796573 0.5140913,-3.591447 -6.373808 0.4606085,-3.103447 -5.72516 0.1499709,-3.215614 -5.05894 0.4443503,-3.310878 -5.572503 0.5895048,-3.328667 -6.047956 0.6319582,-8.321637 -7.215424 -3.64732,-7.785888 -7.162658 -3.404398,-7.3219 -6.549463 -3.148325,-7.183608 -5.677816 -2.85195,-7.394524 -4.942138 -2.682946,-7.478416 -5.44257 -3.773127,-7.282152 -4.854784 -3.275738,-7.379919 -5.528167 -3.176385,-7.503038 -5.824998 -3.352739,-7.738862 -5.318698 -3.682965,-7.532425 -4.784282 -3.035233,-7.653666 -5.74547 -3.059914,-7.792696 -5.900413 -3.392035,-8.059533 -5.322791 -3.482838,-7.834862 -4.868041 -2.918636,-7.915679 -5.824495 -2.977188,-8.075162 -5.988247 -3.216397,-8.42379 -5.390058 -3.242674,-8.158757 -5.060636 -2.993919,-8.17671 -5.765756 -3.022453,-8.319361 -5.962128 -3.187891,7.110,Left Hand Closed 1
-2.908041 -8.391485 -0.9122514,-3.442087 -8.171295 -0.3497565,-3.894543 -7.437162 -0.05451143,-3.974094 -6.629162 0.204491,-3.843847 -5.989721 0.38029,-3.820486 -6.179748 -0.4288792,-4.011482 -4.97265 -0.03426665,-4.098259 -4.27415 0.2728937,-4.153063 -3.65533 0.4750569,-3.460777 -6.109212 -0.4651095,-3.596167 -5.266092 0.2323856,-3.581533 -6.103537 0.4811628,-3.5494 -6.688245 0.466109,-3.106472 -6.166498 -0.4126462,-3.231491 -5.556201 0.2150712,-3.250813 -6.385364 0.3419811,-3.225473 -6.908041 0.2844244,-2.72504 -6.32745 -0.3203235,-2.848781 -5.714269 0.1020552,-2.899625 -6.29302 0.1958261,-2.888025 -6.723058 0.1559687,-8.301692 -7.688596 -3.127346,-7.798029 -7.603931 -2.7895,-7.331291 -6.937228 -2.494203,-7.201256 -6.063005 -2.184091,-7.460089 -5.431013 -2.046984,-7.546695 -5.711246 -3.141488,-7.368539 -5.131471 -2.578293,-7.423005 -5.81708 -2.51064,-7.514757 -6.073038 -2.691304,-7.821718 -5.611183 -3.065858,-7.635071 -5.144354 -2.294909,-7.707909 -6.147193 -2.362341,-7.822458 -6.176147 -2.777571,-8.14586 -5.664626 -2.855297,-7.954528 -5.29663 -2.193908,-7.988015 -6.291307 -2.305376,-8.123163 -6.33958 -2.612039,-8.511779 -5.786752 -2.593182,-8.269401 -5.491409 -2.288448,-8.252598 -6.215621 -2.318018,-8.385963 -6.343175 -2.488267,7.210,Left Hand Closed 1
-2.552415 -8.610838 -0.6775794,-3.05864 -8.392273 -0.2192017,-3.537387 -7.678258 0.08500206,-3.659651 -6.893005 0.3975011,-3.440002 -6.250019 0.6389245,-3.30478 -6.228837 -0.4310602,-3.498603 -5.041952 -0.1891643,-3.61761 -4.329106 0.0191437,-3.700752 -3.682618 0.1964109,-2.973282 -6.207716 -0.3826383,-3.119417 -5.342662 0.2050858,-3.167969 -6.189174 0.3539332,-3.163193 -6.843661 0.3082311,-2.643075 -6.328005 -0.2360727,-2.827386 -5.612899 0.3819139,-2.914241 -6.474571 0.5581957,-2.899332 -7.119521 0.5419546,-2.287108 -6.554557 -0.05697453,-2.456332 -5.852954 0.3378865,-2.575778 -6.413866 0.4570413,-2.582996 -6.911089 0.4761628,-8.2676 -7.871305 -2.646493,-7.772161 -7.705684 -2.302014,-7.319672 -7.005932 -1.986433,-7.203026 -6.109546 -1.642645,-7.48769 -5.476241 -1.446228,-7.560726 -5.719573 -2.709812,-7.383464 -5.130847 -2.122547,-7.428434 -5.891342 -1.988662,-7.525487 -6.164876 -2.145042,-7.844789 -5.640651 -2.628596,-7.654569 -5.098171 -1.871614,-7.717153 -6.165006 -1.906039,-7.842811 -6.23214 -2.315797,-8.18584 -5.713041 -2.405123,-7.982251 -5.25827 -1.754221,-8.005307 -6.298664 -1.8182,-8.154459 -6.377983 -2.109503,-8.565778 -5.85755 -2.127446,-8.292173 -5.479614 -1.830337,-8.2676 -6.222272 -1.849814,-8.417676 -6.374982 -2.037865,7.310,Left Hand Closed 1
-2.504915 -8.747244 -0.4991103,-2.992414 -8.417187 -0.1190922,-3.452292 -7.630733 0.1530395,-3.598358 -6.813079 0.4668206,-3.359598 -6.2457 0.7114623,-3.227362 -6.282721 -0.3833547,-3.413692 -5.132743 -0.120818,-3.540835 -4.407737 0.1026762,-3.618235 -3.715762 0.3025472,-2.898166 -6.277637 -0.3011262,-3.031469 -5.407206 0.3002188,-3.105709 -6.305698 0.4087268,-3.083106 -6.988452 0.2917075,-2.570001 -6.393371 -0.1250909,-2.712333 -5.601161 0.4766882,-2.836977 -6.491894 0.6175371,-2.817129 -7.154792 0.549405,-2.220062 -6.584972 0.09156996,-2.3632 -5.871026 0.4994265,-2.503589 -6.442585 0.624734,-2.504691 -6.959144 0.6252773,-8.184718 -7.918077 -2.533372,-7.699648 -7.710983 -2.169035,-7.268204 -7.000371 -1.829531,-7.157785 -6.139971 -1.452857,-7.44181 -5.527615 -1.226653,-7.543358 -5.691392 -2.511184,-7.340895 -5.095209 -1.914499,-7.401943 -5.917211 -1.784355,-7.512709 -6.225777 -1.938454,-7.838139 -5.643466 -2.439839,-7.638709 -5.111211 -1.693661,-7.700111 -6.186561 -1.726728,-7.836318 -6.260658 -2.11927,-8.17668 -5.736026 -2.222845,-7.969708 -5.31906 -1.585149,-7.980185 -6.34318 -1.648472,-8.122336 -6.422309 -1.916787,-8.543977 -5.892135 -1.954926,-8.277489 -5.533477 -1.67212,-8.241129 -6.250129 -1.676051,-8.383552 -6.389698 -1.847614,7.410,Left Hand Closed 1
-2.518619 -8.729292 -0.5243009,-3.007635 -8.322342 -0.1600759,-3.451624 -7.524803 0.102217,-3.593127 -6.717292 0.3866014,-3.352134 -6.174428 0.5862812,-3.235815 -6.27564 -0.4154125,-3.415176 -5.123538 -0.202763,-3.539305 -4.388804 -0.0162124,-3.607813 -3.684243 0.1882216,-2.925855 -6.267075 -0.355496,-3.047828 -5.405004 0.2095395,-3.130035 -6.24806 0.3306442,-3.128399 -6.911838 0.2495546,-2.611032 -6.364076 -0.1984486,-2.733308 -5.570835 0.3533445,-2.88037 -6.389627 0.4951096,-2.885722 -7.050808 0.445461,-2.269594 -6.55344 -0.00558424,-2.386152 -5.824306 0.3858652,-2.532411 -6.296448 0.5402818,-2.551432 -6.820979 0.5660201,-8.11146 -7.929796 -2.408701,-7.594501 -7.675138 -2.047873,-7.154209 -6.994052 -1.687932,-7.04419 -6.156517 -1.267513,-7.32649 -5.530609 -1.014563,-7.425682 -5.676523 -2.479758,-7.212499 -5.103393 -1.864238,-7.284269 -5.944898 -1.718254,-7.406534 -6.233346 -1.873949,-7.720388 -5.624425 -2.394213,-7.492621 -5.113159 -1.635789,-7.565228 -6.191119 -1.636229,-7.716454 -6.231939 -2.018,-8.058392 -5.696642 -2.158946,-7.81657 -5.305254 -1.518672,-7.837609 -6.336435 -1.557541,-7.99385 -6.393249 -1.821037,-8.428455 -5.82761 -1.875071,-8.130664 -5.481824 -1.601008,-8.102231 -6.201742 -1.599597,-8.263783 -6.333103 -1.787868,7.510,Left Hand Closed 1
-2.550569 -8.673128 -0.6948268,-3.034462 -8.263186 -0.3492677,-3.470245 -7.482973 -0.09434628,-3.620008 -6.692551 0.1784887,-3.387104 -6.184985 0.3709736,-3.27066 -6.268463 -0.5880961,-3.461832 -5.104763 -0.3802774,-3.590829 -4.362064 -0.2110737,-3.660931 -3.655749 -0.02652514,-2.962209 -6.261048 -0.527264,-3.079567 -5.390935 0.01978338,-3.160967 -6.191631 0.1334258,-3.163597 -6.84826 0.04938388,-2.651622 -6.351736 -0.3766557,-2.772633 -5.585466 0.1654381,-2.915511 -6.360447 0.3083769,-2.92245 -7.006628 0.257751,-2.318017 -6.529106 -0.1905951,-2.425112 -5.814563 0.1938591,-2.564084 -6.263927 0.3461074,-2.584746 -6.782427 0.3711249,-8.092323 -7.963953 -2.434597,-7.588999 -7.708063 -2.061198,-7.153492 -7.031383 -1.706617,-7.033042 -6.170748 -1.305159,-7.307952 -5.530956 -1.064812,-7.415804 -5.716354 -2.443892,-7.207794 -5.093816 -1.8341,-7.259727 -5.882562 -1.719704,-7.368106 -6.161176 -1.88974,-7.707021 -5.66595 -2.370078,-7.494243 -5.150815 -1.598203,-7.555322 -6.213573 -1.619789,-7.691875 -6.229345 -2.015728,-8.036234 -5.754655 -2.148044,-7.824436 -5.3628 -1.483997,-7.834823 -6.387105 -1.546542,-7.976654 -6.411832 -1.83181,-8.397979 -5.90672 -1.873728,-8.129477 -5.563163 -1.575948,-8.096277 -6.282875 -1.575387,-8.241599 -6.381406 -1.755576,7.610,Left Hand Closed 1
-2.642486 -8.562807 -0.8298516,-3.157108 -8.195423 -0.467467,-3.607397 -7.452753 -0.2220007,-3.762042 -6.659267 0.033656,-3.504905 -6.119747 0.1992778,-3.414103 -6.225312 -0.7665305,-3.615032 -5.125713 -0.5572807,-3.735863 -4.412887 -0.4060427,-3.803821 -3.718922 -0.2437953,-3.120183 -6.198883 -0.7217778,-3.256125 -5.301366 -0.1614587,-3.336668 -6.102865 -0.04321861,-3.333187 -6.732644 -0.1401229,-2.821079 -6.27047 -0.5788561,-2.94776 -5.50737 -0.01822168,-3.084831 -6.332521 0.1479833,-3.08326 -6.976891 0.09672201,-2.501181 -6.44046 -0.3981628,-2.620001 -5.76007 -0.01993006,-2.759756 -6.226377 0.141021,-2.776091 -6.738235 0.1662244,-8.212995 -8.145519 -2.281017,-7.69325 -7.819497 -1.977769,-7.262546 -7.129783 -1.654908,-7.13438 -6.295187 -1.283746,-7.388289 -5.728658 -1.049091,-7.512833 -5.882139 -2.277409,-7.318374 -5.299158 -1.770826,-7.356447 -6.017192 -1.701526,-7.455505 -6.284713 -1.848073,-7.792598 -5.811127 -2.163985,-7.577376 -5.350268 -1.448103,-7.613484 -6.336814 -1.458786,-7.732553 -6.373319 -1.790619,-8.097048 -5.903774 -1.924177,-7.893682 -5.530393 -1.328815,-7.89587 -6.496698 -1.421592,-8.033321 -6.533044 -1.684576,-8.437299 -6.086259 -1.634606,-8.200661 -5.717571 -1.351909,-8.167009 -6.404855 -1.345154,-8.303391 -6.523428 -1.481547,7.710,Left Hand Closed 1
-2.666749 -8.519886 -0.8794757,-3.153931 -8.119303 -0.5341973,-3.59517 -7.409917 -0.2832265,-3.767134 -6.647113 -0.006109715,-3.553857 -6.087003 0.1803926,-3.414694 -6.1881 -0.8037663,-3.61132 -5.095645 -0.6161194,-3.737589 -4.412126 -0.460067,-3.809787 -3.752396 -0.2967786,-3.121207 -6.167028 -0.7484068,-3.25058 -5.324016 -0.2105395,-3.302902 -6.153341 -0.0956288,-3.286806 -6.810994 -0.1718825,-2.819195 -6.247991 -0.6075683,-2.944978 -5.476478 -0.08521819,-3.061082 -6.291772 0.05974507,-3.053578 -6.944 0.01292449,-2.490251 -6.420379 -0.4335545,-2.606772 -5.721655 -0.06973809,-2.727276 -6.191448 0.08116621,-2.731724 -6.69644 0.1035256,-8.236559 -8.061201 -2.316093,-7.707129 -7.769804 -2.019962,-7.276278 -7.076955 -1.704309,-7.161279 -6.214699 -1.324063,-7.437711 -5.638279 -1.058784,-7.53849 -5.795209 -2.378074,-7.357277 -5.266122 -1.879152,-7.381247 -6.019454 -1.759392,-7.473129 -6.297451 -1.896019,-7.821774 -5.733325 -2.280551,-7.610699 -5.26642 -1.616041,-7.642518 -6.256362 -1.583886,-7.756215 -6.309609 -1.892469,-8.132789 -5.82787 -2.055922,-7.930899 -5.452962 -1.506625,-7.922894 -6.408384 -1.536297,-8.049942 -6.456691 -1.75576,-8.474862 -6.006348 -1.788595,-8.229277 -5.663219 -1.530093,-8.191663 -6.355049 -1.505782,-8.322493 -6.475519 -1.634672,7.810,Left Hand Closed 1
-2.679605 -8.390915 -1.058393,-3.178505 -8.026354 -0.7088972,-3.612696 -7.302017 -0.4693801,-3.772028 -6.536807 -0.2218885,-3.555151 -6.004133 -0.06187278,-3.447048 -6.128746 -0.9663405,-3.656221 -5.030006 -0.7669337,-3.793475 -4.338525 -0.6049011,-3.871467 -3.66361 -0.4314045,-3.154734 -6.094895 -0.9188123,-3.279662 -5.240943 -0.3834621,-3.334639 -6.060552 -0.2836478,-3.313656 -6.682563 -0.3761438,-2.854128 -6.168811 -0.7863194,-2.97352 -5.374725 -0.2635817,-3.097334 -6.181352 -0.1256446,-3.084524 -6.803349 -0.1789426,-2.53013 -6.338521 -0.6198531,-2.653277 -5.645813 -0.2552937,-2.780518 -6.11856 -0.1035631,-2.781999 -6.616165 -0.07777023,-8.270041 -7.908908 -2.529136,-7.759423 -7.672739 -2.201153,-7.331218 -6.977721 -1.883291,-7.221211 -6.104748 -1.508175,-7.488004 -5.485365 -1.25772,-7.574486 -5.700159 -2.588257,-7.364926 -5.153169 -2.026635,-7.4196 -5.954174 -1.888975,-7.534656 -6.229614 -2.038624,-7.858243 -5.642143 -2.507759,-7.644145 -5.115079 -1.80819,-7.695446 -6.157455 -1.792829,-7.824691 -6.220464 -2.136328,-8.179484 -5.727516 -2.292814,-7.969945 -5.315686 -1.694386,-7.968925 -6.318042 -1.720572,-8.105898 -6.377992 -1.965109,-8.528453 -5.88535 -2.034686,-8.256653 -5.524109 -1.755394,-8.225926 -6.248714 -1.741527,-8.37143 -6.37642 -1.908387,7.910,Left Hand Closed 1
-2.733232 -8.307573 -1.010862,-3.222809 -7.970993 -0.6793617,-3.663698 -7.243751 -0.4483962,-3.821005 -6.469541 -0.2096848,-3.606901 -5.928062 -0.0617466,-3.510084 -6.049144 -0.9542488,-3.725217 -4.985862 -0.7567239,-3.862678 -4.306884 -0.6132052,-3.944151 -3.646826 -0.4565974,-3.214485 -5.997465 -0.8981066,-3.350115 -5.126715 -0.3804323,-3.399803 -5.934683 -0.2903185,-3.372034 -6.575672 -0.3849294,-2.914876 -6.062044 -0.7540554,-3.044052 -5.310272 -0.2262537,-3.152994 -6.139659 -0.08878571,-3.125344 -6.783161 -0.1482368,-2.590608 -6.223588 -0.5762267,-2.740496 -5.573141 -0.2158368,-2.855232 -6.071024 -0.07756132,-2.837646 -6.577474 -0.05996215,-8.252666 -7.856552 -2.566286,-7.755313 -7.621425 -2.227197,-7.330109 -6.949005 -1.890724,-7.21235 -6.084449 -1.488693,-7.466336 -5.444166 -1.204382,-7.561344 -5.670086 -2.639255,-7.339195 -5.103246 -2.033797,-7.410537 -5.903183 -1.896999,-7.537717 -6.171136 -2.064782,-7.844955 -5.599712 -2.56187,-7.616119 -5.058275 -1.809229,-7.685302 -6.131263 -1.819557,-7.830167 -6.170579 -2.21171,-8.169574 -5.667446 -2.339462,-7.940341 -5.278158 -1.693688,-7.961403 -6.312 -1.740088,-8.114858 -6.337506 -2.017123,-8.52284 -5.799171 -2.073428,-8.230571 -5.469003 -1.781639,-8.218056 -6.21053 -1.77728,-8.385883 -6.310109 -1.960993,8.010,Left Hand Closed 1
-2.755136 -8.248289 -1.168058,-3.246216 -7.923882 -0.8058721,-3.689045 -7.232257 -0.5592217,-3.849372 -6.477458 -0.2916319,-3.644271 -5.930223 -0.1080475,-3.527831 -6.027489 -1.07058,-3.744953 -4.972289 -0.8746325,-3.88324 -4.319309 -0.7138826,-3.971799 -3.686462 -0.5452501,-3.229649 -5.985015 -1.01614,-3.368042 -5.180333 -0.4671521,-3.406822 -6.025177 -0.3573073,-3.377388 -6.669727 -0.4460825,-2.925572 -6.057889 -0.8749027,-3.062797 -5.281709 -0.3441203,-3.172894 -6.103439 -0.2092606,-3.153374 -6.735703 -0.2695949,-2.600178 -6.225133 -0.6972568,-2.745818 -5.571727 -0.3230937,-2.873975 -6.063426 -0.172923,-2.873759 -6.550486 -0.1506537,-8.247724 -7.800643 -2.494728,-7.732288 -7.545604 -2.161865,-7.298428 -6.876249 -1.818405,-7.189201 -6.008829 -1.412337,-7.473769 -5.360507 -1.141124,-7.568993 -5.586292 -2.556419,-7.32951 -5.04583 -1.948858,-7.406229 -5.855548 -1.814293,-7.539387 -6.133424 -1.986272,-7.852593 -5.521044 -2.464957,-7.608899 -5.018445 -1.719365,-7.683026 -6.102445 -1.740482,-7.837284 -6.169275 -2.129604,-8.179616 -5.602817 -2.230536,-7.925 -5.238389 -1.580058,-7.95591 -6.285093 -1.626032,-8.123986 -6.352357 -1.905818,-8.539366 -5.745533 -1.953899,-8.224413 -5.413948 -1.657785,-8.208126 -6.16386 -1.65903,-8.380977 -6.30231 -1.848182,8.110,Left Hand Closed 1
-2.756531 -8.208286 -1.279444,-3.245056 -7.898283 -0.8876682,-3.690773 -7.209511 -0.6377558,-3.851412 -6.447481 -0.3805684,-3.637074 -5.895713 -0.2089432,-3.5325 -6.025737 -1.165478,-3.751898 -4.949285 -0.9833422,-3.893114 -4.276794 -0.8413845,-3.980368 -3.6321 -0.686619,-3.237148 -5.978185 -1.138445,-3.372319 -5.158765 -0.5990231,-3.416308 -5.980027 -0.4863593,-3.392174 -6.621231 -0.5765178,-2.939065 -6.043172 -1.026265,-3.068752 -5.259693 -0.4991395,-3.182547 -6.058322 -0.3480017,-3.16643 -6.691456 -0.403955,-2.618124 -6.19778 -0.8756846,-2.752017 -5.521732 -0.4993052,-2.877391 -5.985115 -0.3330338,-2.879338 -6.479965 -0.3059903,-8.256414 -7.782129 -2.523802,-7.749037 -7.527896 -2.199152,-7.310288 -6.8434 -1.865471,-7.200269 -5.961652 -1.465791,-7.469113 -5.309576 -1.188651,-7.566163 -5.571306 -2.590459,-7.345094 -4.969935 -1.994797,-7.414851 -5.766216 -1.88553,-7.537747 -6.037036 -2.087043,-7.853771 -5.512142 -2.504319,-7.619448 -4.98904 -1.75854,-7.693457 -6.070318 -1.791901,-7.844723 -6.113117 -2.202704,-8.184049 -5.593324 -2.275767,-7.936806 -5.209341 -1.621763,-7.968183 -6.247533 -1.671833,-8.133052 -6.297941 -1.958249,-8.551088 -5.730753 -2.009558,-8.244012 -5.36418 -1.711483,-8.227796 -6.11625 -1.713083,-8.398111 -6.253436 -1.908439,8.210,Left Hand Closed 1
