TiagoOliveira98/HandTracking/DataLogging/JointData/Logs(1642687109)_LEC_Calculator.csv
WRIST,THUMB_CMC,THUMB_MCP,THUMB_IP,THUMB_TIP,INDEX_FINGER_MCP,INDEX_FINGER_PIP,INDEX_FINGER_DIP,INDEX_FINGER_TIP,MIDDLE_FINGER_MCP,MIDDLE_FINGER_PIP,MIDDLE_FINGER_DIP,MIDDLE_FINGER_TIP,RING_FINGER_MCP,RING_FINGER_PIP,RING_FINGER_DIP,RING_FINGER_TIP,PINKY_MCP,PINKY_PIP,PINKY_DIP,PINKY_TIP,WRIST2,THUMB_CMC2,THUMB_MCP2,THUMB_IP2,THUMB_TIP2,INDEX_FINGER_MCP2,INDEX_FINGER_PIP2,INDEX_FINGER_DIP2,INDEX_FINGER_TIP2,MIDDLE_FINGER_MCP2,MIDDLE_FINGER_PIP2,MIDDLE_FINGER_DIP2,MIDDLE_FINGER_TIP2,RING_FINGER_MCP2,RING_FINGER_PIP2,RING_FINGER_DIP2,RING_FINGER_TIP2,PINKY_MCP2,PINKY_PIP2,PINKY_DIP2,PINKY_TIP2,Timestamp,Event
10 0 0,10 7.47 0,10 7.47 0,10 7.47 0,10 7.47 0,10 7.47 0,10 7.47 0,10 7.47 0,10 7.47 0,10 7.47 0,10 7.47 0,10 7.47 0,10 7.47 0,10 7.47 0,10 7.47 0,10 7.47 0,10 7.47 0,10 7.47 0,10 7.47 0,10 7.47 0,10 7.47 0,10 0 0,10 7.47 0,10 7.47 0,10 7.47 0,10 7.47 0,10 7.47 0,10 7.47 0,10 7.47 0,10 7.47 0,10 7.47 0,10 7.47 0,10 7.47 0,10 7.47 0,10 7.47 0,10 7.47 0,10 7.47 0,10 7.47 0,10 7.47 0,10 7.47 0,10 7.47 0,10 7.47 0,0.010,
2 0 -9.472713,2 0 -9.472713,2 0 -9.472713,2 0 -9.472713,2 0 -9.472713,2 0 -9.472713,2 0 -9.472713,2 0 -9.472713,2 0 -9.472713,2 0 -9.472713,2 0 -9.472713,2 0 -9.472713,2 0 -9.472713,2 0 -9.472713,2 0 -9.472713,2 0 -9.472713,2 0 -9.472713,2 0 -9.472713,2 0 -9.472713,2 0 -9.472713,2 0 -9.472713,2 0 -9.040104,2 0 -9.040104,2 0 -9.040104,2 0 -9.040104,2 0 -9.040104,2 0 -9.040104,2 0 -9.040104,2 0 -9.040104,2 0 -9.040104,2 0 -9.040104,2 0 -9.040104,2 0 -9.040104,2 0 -9.040104,2 0 -9.040104,2 0 -9.040104,2 0 -9.040104,2 0 -9.040104,2 0 -9.040104,2 0 -9.040104,2 0 -9.040104,2 0 -9.040104,0.110,
2 0 -9.472713,2 0 -9.472713,2 0 -9.472713,2 0 -9.472713,2 0 -9.472713,2 0 -9.472713,2 0 -9.472713,2 0 -9.472713,2 0 -9.472713,2 0 -9.472713,2 0 -9.472713,2 0 -9.472713,2 0 -9.472713,2 0 -9.472713,2 0 -9.472713,2 0 -9.472713,2 0 -9.472713,2 0 -9.472713,2 0 -9.472713,2 0 -9.472713,2 0 -9.472713,2 0 -9.040104,2 0 -9.040104,2 0 -9.040104,2 0 -9.040104,2 0 -9.040104,2 0 -9.040104,2 0 -9.040104,2 0 -9.040104,2 0 -9.040104,2 0 -9.040104,2 0 -9.040104,2 0 -9.040104,2 0 -9.040104,2 0 -9.040104,2 0 -9.040104,2 0 -9.040104,2 0 -9.040104,2 0 -9.040104,2 0 -9.040104,2 0 -9.040104,2 0 -9.040104,0.210,
2 0 -9.472713,2 0 -9.472713,2 0 -9.472713,2 0 -9.472713,2 0 -9.472713,2 0 -9.472713,2 0 -9.472713,2 0 -9.472713,2 0 -9.472713,2 0 -9.472713,2 0 -9.472713,2 0 -9.472713,2 0 -9.472713,2 0 -9.472713,2 0 -9.472713,2 0 -9.472713,2 0 -9.472713,2 0 -9.472713,2 0 -9.472713,2 0 -9.472713,2 0 -9.472713,2 0 -9.040104,2 0 -9.040104,2 0 -9.040104,2 0 -9.040104,2 0 -9.040104,2 0 -9.040104,2 0 -9.040104,2 0 -9.040104,2 0 -9.040104,2 0 -9.040104,2 0 -9.040104,2 0 -9.040104,2 0 -9.040104,2 0 -9.040104,2 0 -9.040104,2 0 -9.040104,2 0 -9.040104,2 0 -9.040104,2 0 -9.040104,2 0 -9.040104,2 0 -9.040104,0.310,
2 0 -9.472713,2 0 -9.472713,2 0 -9.472713,2 0 -9.472713,2 0 -9.472713,2 0 -9.472713,2 0 -9.472713,2 0 -9.472713,2 0 -9.472713,2 0 -9.472713,2 0 -9.472713,2 0 -9.472713,2 0 -9.472713,2 0 -9.472713,2 0 -9.472713,2 0 -9.472713,2 0 -9.472713,2 0 -9.472713,2 0 -9.472713,2 0 -9.472713,2 0 -9.472713,2 0 -9.040104,2 0 -9.040104,2 0 -9.040104,2 0 -9.040104,2 0 -9.040104,2 0 -9.040104,2 0 -9.040104,2 0 -9.040104,2 0 -9.040104,2 0 -9.040104,2 0 -9.040104,2 0 -9.040104,2 0 -9.040104,2 0 -9.040104,2 0 -9.040104,2 0 -9.040104,2 0 -9.040104,2 0 -9.040104,2 0 -9.040104,2 0 -9.040104,2 0 -9.040104,0.410,
2 0 -9.472713,2 0 -9.472713,2 0 -9.472713,2 0 -9.472713,2 0 -9.472713,2 0 -9.472713,2 0 -9.472713,2 0 -9.472713,2 0 -9.472713,2 0 -9.472713,2 0 -9.472713,2 0 -9.472713,2 0 -9.472713,2 0 -9.472713,2 0 -9.472713,2 0 -9.472713,2 0 -9.472713,2 0 -9.472713,2 0 -9.472713,2 0 -9.472713,2 0 -9.472713,2 0 -9.040104,2 0 -9.040104,2 0 -9.040104,2 0 -9.040104,2 0 -9.040104,2 0 -9.040104,2 0 -9.040104,2 0 -9.040104,2 0 -9.040104,2 0 -9.040104,2 0 -9.040104,2 0 -9.040104,2 0 -9.040104,2 0 -9.040104,2 0 -9.040104,2 0 -9.040104,2 0 -9.040104,2 0 -9.040104,2 0 -9.040104,2 0 -9.040104,2 0 -9.040104,0.510,
2 0 -9.472713,2 0 -9.472713,2 0 -9.472713,2 0 -9.472713,2 0 -9.472713,2 0 -9.472713,2 0 -9.472713,2 0 -9.472713,2 0 -9.472713,2 0 -9.472713,2 0 -9.472713,2 0 -9.472713,2 0 -9.472713,2 0 -9.472713,2 0 -9.472713,2 0 -9.472713,2 0 -9.472713,2 0 -9.472713,2 0 -9.472713,2 0 -9.472713,2 0 -9.472713,2 0 -9.040104,2 0 -9.040104,2 0 -9.040104,2 0 -9.040104,2 0 -9.040104,2 0 -9.040104,2 0 -9.040104,2 0 -9.040104,2 0 -9.040104,2 0 -9.040104,2 0 -9.040104,2 0 -9.040104,2 0 -9.040104,2 0 -9.040104,2 0 -9.040104,2 0 -9.040104,2 0 -9.040104,2 0 -9.040104,2 0 -9.040104,2 0 -9.040104,2 0 -9.040104,0.610,
2 0 -9.472713,2 0 -9.472713,2 0 -9.472713,2 0 -9.472713,2 0 -9.472713,2 0 -9.472713,2 0 -9.472713,2 0 -9.472713,2 0 -9.472713,2 0 -9.472713,2 0 -9.472713,2 0 -9.472713,2 0 -9.472713,2 0 -9.472713,2 0 -9.472713,2 0 -9.472713,2 0 -9.472713,2 0 -9.472713,2 0 -9.472713,2 0 -9.472713,2 0 -9.472713,2 0 -9.040104,2 0 -9.040104,2 0 -9.040104,2 0 -9.040104,2 0 -9.040104,2 0 -9.040104,2 0 -9.040104,2 0 -9.040104,2 0 -9.040104,2 0 -9.040104,2 0 -9.040104,2 0 -9.040104,2 0 -9.040104,2 0 -9.040104,2 0 -9.040104,2 0 -9.040104,2 0 -9.040104,2 0 -9.040104,2 0 -9.040104,2 0 -9.040104,2 0 -9.040104,0.710,
2 0 -9.472713,2 0 -9.472713,2 0 -9.472713,2 0 -9.472713,2 0 -9.472713,2 0 -9.472713,2 0 -9.472713,2 0 -9.472713,2 0 -9.472713,2 0 -9.472713,2 0 -9.472713,2 0 -9.472713,2 0 -9.472713,2 0 -9.472713,2 0 -9.472713,2 0 -9.472713,2 0 -9.472713,2 0 -9.472713,2 0 -9.472713,2 0 -9.472713,2 0 -9.472713,2 0 -9.040104,2 0 -9.040104,2 0 -9.040104,2 0 -9.040104,2 0 -9.040104,2 0 -9.040104,2 0 -9.040104,2 0 -9.040104,2 0 -9.040104,2 0 -9.040104,2 0 -9.040104,2 0 -9.040104,2 0 -9.040104,2 0 -9.040104,2 0 -9.040104,2 0 -9.040104,2 0 -9.040104,2 0 -9.040104,2 0 -9.040104,2 0 -9.040104,2 0 -9.040104,0.810,
2 0 -9.472713,2 0 -9.472713,2 0 -9.472713,2 0 -9.472713,2 0 -9.472713,2 0 -9.472713,2 0 -9.472713,2 0 -9.472713,2 0 -9.472713,2 0 -9.472713,2 0 -9.472713,2 0 -9.472713,2 0 -9.472713,2 0 -9.472713,2 0 -9.472713,2 0 -9.472713,2 0 -9.472713,2 0 -9.472713,2 0 -9.472713,2 0 -9.472713,2 0 -9.472713,2 0 -9.040104,2 0 -9.040104,2 0 -9.040104,2 0 -9.040104,2 0 -9.040104,2 0 -9.040104,2 0 -9.040104,2 0 -9.040104,2 0 -9.040104,2 0 -9.040104,2 0 -9.040104,2 0 -9.040104,2 0 -9.040104,2 0 -9.040104,2 0 -9.040104,2 0 -9.040104,2 0 -9.040104,2 0 -9.040104,2 0 -9.040104,2 0 -9.040104,2 0 -9.040104,0.910,
2 0 -9.472713,2 0 -9.472713,2 0 -9.472713,2 0 -9.472713,2 0 -9.472713,2 0 -9.472713,2 0 -9.472713,2 0 -9.472713,2 0 -9.472713,2 0 -9.472713,2 0 -9.472713,2 0 -9.472713,2 0 -9.472713,2 0 -9.472713,2 0 -9.472713,2 0 -9.472713,2 0 -9.472713,2 0 -9.472713,2 0 -9.472713,2 0 -9.472713,2 0 -9.472713,2 0 -9.040104,2 0 -9.040104,2 0 -9.040104,2 0 -9.040104,2 0 -9.040104,2 0 -9.040104,2 0 -9.040104,2 0 -9.040104,2 0 -9.040104,2 0 -9.040104,2 0 -9.040104,2 0 -9.040104,2 0 -9.040104,2 0 -9.040104,2 0 -9.040104,2 0 -9.040104,2 0 -9.040104,2 0 -9.040104,2 0 -9.040104,2 0 -9.040104,2 0 -9.040104,1.010,
-3.774667 -15.52848 -0.4611633,-4.38135 -14.93011 -0.286225,-4.818684 -14.35452 -0.03214461,-5.09642 -13.84123 0.281612,-5.340241 -13.24699 0.6047757,-4.443207 -13.05849 -0.1880382,-4.515095 -12.19693 0.1270152,-4.614689 -11.68918 0.4078788,-4.769274 -11.26363 0.6155119,-4.134192 -13.01643 -0.02579153,-4.183804 -12.18777 0.3964846,-4.308384 -11.75224 0.7912005,-4.460283 -11.47636 1.060779,-3.809938 -13.15984 0.1502261,-3.854702 -12.36412 0.5022024,-3.963871 -12.00737 0.8320154,-4.110446 -11.83512 1.072133,-3.471249 -13.4603 0.3360008,-3.407299 -12.71636 0.6169531,-3.444456 -12.44987 0.8457855,-3.535751 -12.37203 1.008494,-9.067286 -14.65988 -0.2800415,-8.472643 -14.21274 -0.06615806,-8.061866 -13.51313 0.1727041,-7.812798 -12.98251 0.4495537,-7.493407 -12.31229 0.7378788,-8.410018 -12.20661 0.1252967,-8.261451 -11.27896 0.5214338,-8.131434 -10.70819 0.8692391,-8.012896 -10.25927 1.156528,-8.703456 -12.25808 0.3219804,-8.602998 -11.24 0.7873776,-8.467716 -10.64483 1.258375,-8.316181 -10.22075 1.610444,-8.990747 -12.5071 0.5574437,-8.974252 -11.54422 0.9813482,-8.836863 -11.00481 1.417741,-8.677567 -10.65176 1.751801,-9.275728 -12.90103 0.7868304,-9.329633 -12.19208 1.192432,-9.272772 -11.77543 1.523711,-9.173165 -11.50207 1.771107,1.110,
-3.516249 -13.80433 0.5518935,-4.222681 -13.32306 0.6688411,-4.746687 -12.60053 0.9068392,-5.038027 -11.99754 1.216623,-5.248151 -11.36024 1.538385,-4.445526 -11.13454 0.8170522,-4.556171 -10.18379 1.127848,-4.687469 -9.609526 1.404226,-4.847458 -9.06019 1.619617,-4.119564 -11.04981 1.053469,-4.197153 -10.108 1.490326,-4.345543 -9.545134 1.836848,-4.500632 -9.047449 2.099825,-3.794281 -11.19832 1.314395,-3.831594 -10.33657 1.708928,-3.945868 -9.842249 2.009065,-4.091637 -9.467825 2.235615,-3.467449 -11.53572 1.588127,-3.405037 -10.81346 1.92575,-3.472248 -10.42456 2.123267,-3.582893 -10.13423 2.273015,-9.140936 -13.30228 0.9424415,-8.556348 -12.83528 1.000771,-8.083125 -11.91499 1.15537,-7.77676 -11.20473 1.374005,-7.505145 -10.56056 1.552271,-8.42464 -10.50927 1.180651,-8.242367 -9.160395 1.38988,-8.142264 -8.47113 1.495281,-8.061675 -7.92181 1.585455,-8.721534 -10.51622 1.384731,-8.563785 -9.095091 1.693333,-8.483317 -8.395014 1.872367,-8.391222 -7.847145 1.980801,-9.015326 -10.76224 1.602129,-8.952617 -9.502977 1.903999,-8.862568 -8.842499 2.098184,-8.708246 -8.324924 2.228296,-9.315861 -11.21327 1.80954,-9.384706 -10.38122 2.135716,-9.347161 -9.864124 2.311069,-9.241122 -9.423285 2.400187,1.210,
-3.50316 -11.75242 -0.2481983,-4.123705 -11.51632 0.01828837,-4.60644 -10.88639 0.1503932,-4.859644 -10.26442 0.3192837,-5.107044 -9.681488 0.5346864,-4.335592 -9.313326 -0.3715164,-4.503531 -8.423294 -0.3216401,-4.647454 -7.883609 -0.2224652,-4.787371 -7.38312 -0.1090205,-3.996019 -9.164875 -0.3366422,-4.098366 -8.177317 -0.2673115,-4.201541 -7.561071 -0.1262543,-4.296652 -7.097269 -0.02470158,-3.676083 -9.20488 -0.2327343,-3.730991 -8.270527 -0.1462983,-3.81508 -7.713146 0.02125138,-3.903303 -7.3318 0.1600141,-3.352711 -9.405603 -0.08167136,-3.340641 -8.658684 0.04596823,-3.386353 -8.195568 0.2028184,-3.451702 -7.873733 0.3094934,-9.216352 -11.85308 1.232805,-8.515258 -11.49566 1.346703,-8.018508 -10.58428 1.462677,-7.748908 -9.848244 1.631097,-7.541038 -9.245049 1.713321,-8.396336 -9.05872 1.353615,-8.209021 -7.788536 1.540077,-8.076693 -7.207152 1.643184,-7.954214 -6.790106 1.742535,-8.70499 -8.976049 1.506471,-8.570359 -7.52445 1.681802,-8.460238 -6.899541 1.819489,-8.36492 -6.425677 1.877076,-8.998087 -9.158436 1.692318,-8.957937 -7.812664 1.919498,-8.877503 -7.195093 2.100598,-8.742666 -6.637764 2.225769,-9.305558 -9.583097 1.881939,-9.384933 -8.647198 2.156484,-9.377965 -8.116264 2.346241,-9.309959 -7.573072 2.44606,1.310,
-3.375372 -10.9297 0.3385701,-4.028229 -10.45808 0.4315458,-4.505434 -9.766623 0.5465961,-4.763471 -9.150627 0.7439848,-5.025116 -8.595715 0.9925469,-4.264923 -8.34059 0.2706776,-4.467525 -7.483631 0.3970744,-4.61925 -6.901035 0.570896,-4.768962 -6.337366 0.7013786,-3.961628 -8.189184 0.4030972,-4.123621 -7.298303 0.5227139,-4.271322 -6.719285 0.650045,-4.385465 -6.211047 0.7076505,-3.66155 -8.217581 0.5902992,-3.739792 -7.303986 0.7083611,-3.847581 -6.757539 0.8220978,-3.974369 -6.282265 0.9062213,-3.349211 -8.407845 0.8094255,-3.363723 -7.656803 0.9551583,-3.442637 -7.187639 1.067391,-3.559498 -6.750938 1.126048,-9.103696 -10.56429 0.4832225,-8.494792 -10.36459 0.630784,-8.044318 -9.551788 0.7225966,-7.795847 -8.835403 0.8710647,-7.573975 -8.29221 0.9076933,-8.414075 -8.022087 0.4025219,-8.229996 -6.920231 0.4669699,-8.116272 -6.386808 0.5440121,-8.044203 -6.011705 0.6573643,-8.718745 -7.870895 0.4844455,-8.590524 -6.498073 0.5025405,-8.497663 -5.893903 0.5904577,-8.42289 -5.429942 0.6216826,-9.001939 -7.963404 0.6215033,-8.944892 -6.716335 0.6864935,-8.878125 -6.139308 0.7546246,-8.770014 -5.639067 0.8291115,-9.305183 -8.261509 0.7647697,-9.372973 -7.337091 0.8765252,-9.362307 -6.905504 0.943277,-9.304828 -6.519611 0.9458387,1.410,
-3.34902 -9.723747 0.4203107,-4.007611 -9.411741 0.6227785,-4.541346 -8.776123 0.7362706,-4.838585 -8.099535 0.8421309,-4.985199 -7.551666 0.8469962,-4.300858 -7.167858 0.4536737,-4.578833 -6.058093 0.5539862,-4.735394 -5.650674 0.6330562,-4.848778 -5.424534 0.6559374,-3.993492 -6.971961 0.4505841,-4.224224 -5.767454 0.4998369,-4.408091 -5.315986 0.4978464,-4.533579 -5.063583 0.4790537,-3.685513 -6.959457 0.5031316,-3.83127 -5.894144 0.543027,-3.986609 -5.447423 0.5266031,-4.128334 -5.200887 0.5302905,-3.360355 -7.10939 0.5943441,-3.396955 -6.311414 0.6243898,-3.525197 -5.934762 0.6549659,-3.675009 -5.713676 0.6732816,-9.183357 -10.19195 0.9542876,-8.576466 -9.7197 0.9835614,-8.112345 -8.934462 1.100652,-7.846219 -8.257572 1.295631,-7.614905 -7.728853 1.513474,-8.449563 -7.514637 0.8557848,-8.300695 -6.560606 0.9719619,-8.205397 -5.962783 1.119093,-8.111995 -5.444455 1.227674,-8.747511 -7.371178 1.033523,-8.638943 -6.231081 1.107318,-8.552602 -5.523519 1.267816,-8.463109 -4.878129 1.380056,-9.039452 -7.42881 1.233062,-9.009498 -6.365196 1.318475,-8.948213 -5.709728 1.470851,-8.85302 -5.117368 1.567821,-9.332937 -7.663559 1.442246,-9.408648 -6.867115 1.534989,-9.426028 -6.330394 1.630928,-9.401811 -5.810702 1.701178,1.510,
-3.328136 -9.141146 0.09832563,-3.955107 -8.748276 0.1470224,-4.459173 -8.168476 0.2060655,-4.765796 -7.553264 0.3573118,-4.988588 -7.023889 0.5433194,-4.282036 -6.706612 -0.1279965,-4.514276 -5.830589 -0.07487033,-4.673203 -5.329586 0.008357882,-4.811508 -4.880268 0.07191096,-4.005268 -6.493606 0.003474802,-4.184525 -5.510526 0.03091518,-4.343735 -4.949289 0.1359616,-4.479378 -4.48567 0.1974159,-3.726671 -6.4685 0.1947292,-3.837796 -5.533573 0.239849,-3.971273 -5.03334 0.3046262,-4.11112 -4.620878 0.3621956,-3.424677 -6.620403 0.4263281,-3.461263 -5.885965 0.5014015,-3.546897 -5.447326 0.5779227,-3.658869 -5.047821 0.6332458,-9.227861 -9.535456 0.6402708,-8.646182 -9.155636 0.7067165,-8.196836 -8.399031 0.8120276,-7.941976 -7.715292 0.9797085,-7.695112 -7.239654 1.154855,-8.508301 -6.959877 0.5803553,-8.394597 -6.008013 0.6913857,-8.31738 -5.433744 0.8250072,-8.237427 -4.937086 0.9236554,-8.802599 -6.803818 0.7180075,-8.714543 -5.664924 0.7831486,-8.634563 -4.963943 0.9367493,-8.553644 -4.3285 1.045076,-9.093743 -6.84805 0.8769938,-9.06477 -5.774335 0.9565679,-8.996399 -5.12709 1.098906,-8.906266 -4.554937 1.19952,-9.391815 -7.06749 1.047688,-9.455429 -6.277473 1.135571,-9.464965 -5.757549 1.224372,-9.444939 -5.252373 1.291835,1.610,
-3.355374 -8.849762 -0.1202967,-3.954228 -8.533667 -0.02520749,-4.459599 -7.942787 0.034205,-4.768597 -7.311216 0.1710234,-4.991392 -6.780303 0.3346405,-4.287092 -6.494262 -0.3030146,-4.525585 -5.631743 -0.2606211,-4.67923 -5.140444 -0.2029347,-4.818676 -4.718851 -0.1610253,-4.013414 -6.261895 -0.2151101,-4.213877 -5.290628 -0.2146703,-4.374828 -4.739904 -0.1334492,-4.515028 -4.277883 -0.07987899,-3.735678 -6.22667 -0.06791374,-3.865634 -5.299016 -0.04711635,-4.001325 -4.800275 0.005341262,-4.144753 -4.378738 0.06085938,-3.434439 -6.366394 0.1213166,-3.490028 -5.631423 0.1758284,-3.573771 -5.196363 0.2426764,-3.679495 -4.795067 0.2983598,-9.257269 -9.313438 0.3844379,-8.669261 -8.985786 0.5310847,-8.192257 -8.270863 0.6476978,-7.926682 -7.591843 0.8111479,-7.70363 -7.137159 0.9730931,-8.529472 -6.830732 0.3903119,-8.410662 -5.843509 0.4985467,-8.335451 -5.269127 0.6285872,-8.261959 -4.77942 0.7243049,-8.828508 -6.656698 0.47115,-8.726521 -5.514783 0.530521,-8.646465 -4.831598 0.6852324,-8.566918 -4.202352 0.8192003,-9.121751 -6.686201 0.5840374,-9.063826 -5.615531 0.6595783,-8.989943 -4.971851 0.8021634,-8.899575 -4.405517 0.9147678,-9.427908 -6.883986 0.7137513,-9.48245 -6.080764 0.8017347,-9.491701 -5.566156 0.8872231,-9.471075 -5.078306 0.9591889,1.710,
-3.38348 -8.44372 -0.612215,-3.954329 -8.218868 -0.4074475,-4.469102 -7.697181 -0.3075077,-4.803538 -7.103925 -0.1573929,-5.021689 -6.570343 0.003527582,-4.31377 -6.23961 -0.7150943,-4.574762 -5.393505 -0.6517244,-4.733126 -4.924221 -0.5996765,-4.873171 -4.534931 -0.5758367,-4.040034 -6.000217 -0.6894956,-4.264734 -4.99877 -0.6928614,-4.429952 -4.454109 -0.6320001,-4.571529 -4.003555 -0.5970692,-3.764391 -5.947893 -0.6016221,-3.902748 -5.012457 -0.5826318,-4.033716 -4.504997 -0.5276903,-4.168034 -4.100946 -0.4748479,-3.468191 -6.05861 -0.4655539,-3.539209 -5.308929 -0.426062,-3.622493 -4.880321 -0.3564285,-3.724304 -4.537587 -0.3000522,-9.242246 -9.00057 0.1264676,-8.673472 -8.708712 0.2881603,-8.2168 -8.033411 0.4244082,-7.952791 -7.370895 0.6093142,-7.718702 -6.931211 0.796154,-8.560693 -6.600429 0.1796563,-8.416601 -5.627428 0.3130036,-8.338079 -5.03797 0.465011,-8.27637 -4.529216 0.5729899,-8.855742 -6.414329 0.2682252,-8.741932 -5.250966 0.3527061,-8.662153 -4.546928 0.5391761,-8.596764 -3.923815 0.679225,-9.148107 -6.450442 0.3899782,-9.081183 -5.357159 0.4938643,-9.024207 -4.699371 0.6615605,-8.964688 -4.123525 0.7878011,-9.456007 -6.664885 0.5254188,-9.514664 -5.837669 0.6552064,-9.538307 -5.304723 0.7832749,-9.540809 -4.795991 0.8752781,1.810,
-3.351161 -8.368267 -0.8472171,-3.919993 -8.162203 -0.6404245,-4.424967 -7.675294 -0.5405831,-4.757629 -7.092071 -0.401102,-4.982893 -6.562862 -0.2594738,-4.273613 -6.239214 -0.924036,-4.529078 -5.390535 -0.869248,-4.69005 -4.90246 -0.814852,-4.835142 -4.496458 -0.7728575,-4.005379 -5.99316 -0.9035429,-4.231359 -5.011371 -0.902016,-4.398396 -4.459899 -0.8242533,-4.540291 -4.015926 -0.7675831,-3.732346 -5.931868 -0.8199287,-3.891581 -5.008935 -0.7901174,-4.039436 -4.487346 -0.7103718,-4.186085 -4.07036 -0.6340777,-3.432621 -6.030296 -0.6945659,-3.51079 -5.28314 -0.6459815,-3.599293 -4.844602 -0.5632975,-3.701342 -4.48594 -0.4923932,-9.23387 -9.026247 0.2075133,-8.673217 -8.722658 0.3794356,-8.221558 -8.039824 0.5155545,-7.968955 -7.370874 0.6991192,-7.71948 -6.937892 0.8873054,-8.565079 -6.595033 0.2627985,-8.429063 -5.615623 0.3878946,-8.343705 -5.014175 0.5401486,-8.274075 -4.497195 0.6569686,-8.864977 -6.414344 0.3550766,-8.745545 -5.261199 0.433479,-8.667466 -4.56117 0.6229228,-8.604962 -3.941422 0.7721497,-9.163233 -6.457136 0.4836675,-9.077101 -5.364921 0.5855886,-9.013438 -4.70231 0.7607084,-8.947989 -4.124954 0.9016294,-9.478966 -6.678705 0.6283556,-9.534852 -5.841106 0.7652152,-9.554162 -5.308168 0.8997232,-9.551797 -4.789245 1.008627,1.910,
-3.320499 -8.289883 -0.972789,-3.880297 -8.074427 -0.8076671,-4.365022 -7.595194 -0.7269983,-4.675736 -7.013664 -0.6006953,-4.907784 -6.496292 -0.4636503,-4.222293 -6.188826 -1.090572,-4.470222 -5.35979 -1.035863,-4.622639 -4.868733 -0.9775199,-4.758287 -4.442407 -0.928501,-3.953104 -5.94625 -1.037115,-4.170129 -4.984191 -1.011603,-4.336866 -4.440672 -0.9151709,-4.475639 -4.000494 -0.8395468,-3.672548 -5.889699 -0.9250785,-3.82062 -4.99243 -0.8700812,-3.966573 -4.495489 -0.7643199,-4.107088 -4.095274 -0.6714342,-3.36808 -5.991691 -0.7728424,-3.435379 -5.284322 -0.6993059,-3.527278 -4.864595 -0.6014833,-3.635734 -4.510814 -0.5207078,-9.253492 -9.086206 0.2068933,-8.680384 -8.791063 0.3854442,-8.223371 -8.120192 0.5040797,-7.964814 -7.456847 0.6714396,-7.729427 -7.024875 0.8275005,-8.552794 -6.654729 0.2432948,-8.402893 -5.670109 0.3658764,-8.309953 -5.08221 0.5211067,-8.239156 -4.578153 0.6421403,-8.852182 -6.47759 0.3209219,-8.730994 -5.320537 0.3989968,-8.651361 -4.611335 0.6014915,-8.594158 -3.982335 0.7586949,-9.150347 -6.520929 0.4332061,-9.061829 -5.434274 0.532491,-8.996878 -4.763942 0.7168108,-8.931955 -4.191297 0.8671502,-9.463778 -6.734755 0.5636585,-9.508835 -5.896859 0.698325,-9.5228 -5.359313 0.8361293,-9.515125 -4.839502 0.9451587,2.010,
-3.253883 -8.180279 -1.036048,-3.802774 -7.976398 -0.8271753,-4.284647 -7.466804 -0.7445375,-4.586866 -6.879847 -0.6171156,-4.839193 -6.401317 -0.4689823,-4.152493 -6.089458 -1.121739,-4.407008 -5.28889 -1.039645,-4.565929 -4.803129 -0.9780794,-4.707209 -4.370952 -0.9302473,-3.879391 -5.853154 -1.089914,-4.095743 -4.925716 -1.047241,-4.260386 -4.399534 -0.9556908,-4.396314 -3.95622 -0.8933979,-3.599258 -5.800361 -0.9914958,-3.745703 -4.928277 -0.9248422,-3.889591 -4.436569 -0.8212991,-4.029325 -4.029552 -0.7338723,-3.293602 -5.908133 -0.8522359,-3.368206 -5.205997 -0.7735717,-3.46176 -4.789396 -0.6691468,-3.568731 -4.431785 -0.5922229,-9.241314 -9.037149 0.1346807,-8.660448 -8.749207 0.3176134,-8.195073 -8.087265 0.4548893,-7.929597 -7.42623 0.6326737,-7.678007 -6.996418 0.810849,-8.520331 -6.639575 0.2226736,-8.362864 -5.634592 0.3699028,-8.25978 -5.037645 0.5281009,-8.172512 -4.520817 0.6430054,-8.815149 -6.456928 0.3115489,-8.68392 -5.295273 0.4191111,-8.595778 -4.591722 0.6223795,-8.517203 -3.967321 0.779409,-9.108849 -6.496892 0.4365816,-9.010691 -5.397221 0.557454,-8.939614 -4.727732 0.7540932,-8.860309 -4.146402 0.9083407,-9.422964 -6.708104 0.5785037,-9.456084 -5.874485 0.7269518,-9.468466 -5.34386 0.8736973,-9.455676 -4.831975 0.989783,2.110,
-3.180537 -8.011286 -1.156808,-3.721111 -7.806531 -0.9892032,-4.175743 -7.289039 -0.9335483,-4.447041 -6.678861 -0.8314533,-4.70801 -6.210063 -0.722314,-4.059286 -5.956266 -1.275576,-4.309731 -5.176574 -1.212599,-4.466536 -4.713058 -1.178403,-4.60675 -4.309476 -1.152985,-3.794239 -5.71724 -1.230311,-4.011889 -4.818078 -1.180749,-4.17905 -4.315036 -1.095568,-4.320015 -3.903272 -1.037716,-3.520437 -5.657726 -1.121347,-3.663535 -4.80207 -1.050248,-3.804579 -4.3235 -0.9498984,-3.946651 -3.927431 -0.863562,-3.218737 -5.757404 -0.9768136,-3.286383 -5.063056 -0.8983568,-3.376225 -4.650997 -0.8017805,-3.486318 -4.292747 -0.7293559,-9.170468 -8.899107 0.05744292,-8.589312 -8.620726 0.2062225,-8.121825 -7.947631 0.3354475,-7.848822 -7.298374 0.5100772,-7.590525 -6.872981 0.6920173,-8.444003 -6.527397 0.1395125,-8.269195 -5.534779 0.2979984,-8.154409 -4.961183 0.4607288,-8.065589 -4.460813 0.5717812,-8.73579 -6.344171 0.2547418,-8.581438 -5.193674 0.379355,-8.471548 -4.489879 0.5853906,-8.379043 -3.877741 0.743332,-9.031956 -6.38921 0.4033499,-8.915131 -5.287769 0.5550579,-8.821718 -4.603051 0.764179,-8.724222 -4.013685 0.9228965,-9.353393 -6.605714 0.5650611,-9.371252 -5.763216 0.7362254,-9.369172 -5.217471 0.8947415,-9.340899 -4.690193 1.014745,2.210,
-3.114904 -7.999616 -1.293835,-3.653696 -7.772899 -1.098212,-4.118864 -7.282269 -1.010367,-4.407472 -6.697744 -0.8770907,-4.669124 -6.226826 -0.7227288,-4.003131 -5.980588 -1.339689,-4.25868 -5.196807 -1.234157,-4.419137 -4.729976 -1.156798,-4.559875 -4.309808 -1.09248,-3.738278 -5.747645 -1.29704,-3.95447 -4.84844 -1.232692,-4.121183 -4.327178 -1.11929,-4.266336 -3.87984 -1.028243,-3.463602 -5.695768 -1.193082,-3.602415 -4.846891 -1.116276,-3.739781 -4.357749 -0.9894892,-3.877947 -3.962011 -0.8841624,-3.160352 -5.799697 -1.056533,-3.231706 -5.098218 -0.9649248,-3.328192 -4.679414 -0.8443359,-3.442764 -4.326997 -0.7573122,-9.133545 -8.869745 0.1051738,-8.556845 -8.579731 0.2603867,-8.096825 -7.907907 0.3927785,-7.832747 -7.253946 0.5702307,-7.573013 -6.836501 0.7511325,-8.419209 -6.483945 0.1947429,-8.247923 -5.501173 0.3481164,-8.138626 -4.925058 0.5091588,-8.048842 -4.416908 0.6234809,-8.712611 -6.298473 0.2997351,-8.565959 -5.159297 0.4083927,-8.465371 -4.462808 0.6117131,-8.380195 -3.850219 0.7715959,-9.007197 -6.338315 0.4385717,-8.895301 -5.246593 0.5690678,-8.807009 -4.575979 0.7644718,-8.714504 -3.996994 0.9157884,-9.326124 -6.551956 0.5883393,-9.345539 -5.712202 0.7437865,-9.342499 -5.181312 0.8914786,-9.316921 -4.665207 1.006796,2.310,
-3.006851 -7.922298 -1.453448,-3.527229 -7.726997 -1.244112,-3.984277 -7.285724 -1.144804,-4.281876 -6.73263 -1.004299,-4.531698 -6.25173 -0.8486645,-3.876397 -5.963212 -1.474203,-4.149155 -5.186341 -1.379724,-4.309609 -4.719947 -1.298912,-4.440865 -4.28966 -1.220565,-3.62018 -5.714869 -1.445267,-3.837713 -4.829788 -1.399568,-3.995624 -4.316996 -1.301138,-4.119253 -3.891216 -1.228339,-3.352856 -5.651503 -1.358689,-3.487734 -4.816153 -1.297415,-3.619372 -4.338209 -1.178889,-3.742468 -3.945553 -1.079869,-3.057795 -5.74648 -1.237287,-3.115088 -5.063032 -1.156574,-3.200445 -4.659545 -1.046052,-3.296803 -4.318388 -0.9673438,-9.072567 -8.827265 0.200835,-8.502348 -8.512299 0.3354759,-8.053153 -7.818354 0.4567937,-7.801618 -7.161833 0.6269307,-7.547244 -6.731484 0.7997091,-8.383682 -6.402704 0.249905,-8.211472 -5.439984 0.4107676,-8.096642 -4.872627 0.5794996,-8.006153 -4.371053 0.6972895,-8.672424 -6.22339 0.3735062,-8.525753 -5.101276 0.4924398,-8.417307 -4.406604 0.7049953,-8.330462 -3.806821 0.8612648,-8.965206 -6.267635 0.5350789,-8.855151 -5.184587 0.6774766,-8.761045 -4.508075 0.8900832,-8.663003 -3.93645 1.052308,-9.285423 -6.486104 0.706749,-9.295748 -5.645528 0.8815101,-9.2775 -5.099216 1.045074,-9.234246 -4.581666 1.169284,2.410,
-2.975423 -7.884534 -1.454349,-3.491447 -7.697307 -1.196983,-3.94524 -7.250133 -1.077031,-4.234434 -6.685813 -0.9207541,-4.474871 -6.176149 -0.7551536,-3.844448 -5.91337 -1.42026,-4.111637 -5.124794 -1.324242,-4.268522 -4.652437 -1.238274,-4.397509 -4.223328 -1.151309,-3.577494 -5.674573 -1.417093,-3.788181 -4.786924 -1.379103,-3.94356 -4.275501 -1.284177,-4.065866 -3.865365 -1.214609,-3.306103 -5.623703 -1.352221,-3.433706 -4.788698 -1.29362,-3.562525 -4.313065 -1.177265,-3.683741 -3.927362 -1.080932,-3.0103 -5.727325 -1.247788,-3.064074 -5.048595 -1.166951,-3.145396 -4.64825 -1.059212,-3.234261 -4.306451 -0.9855065,-9.075985 -8.858038 0.4283722,-8.495155 -8.510937 0.5336747,-8.035241 -7.806072 0.6210647,-7.780456 -7.133583 0.7727119,-7.520636 -6.653638 0.9192306,-8.352913 -6.360749 0.3141378,-8.187717 -5.448678 0.4066553,-8.077389 -4.917181 0.5284302,-7.973688 -4.44473 0.6035739,-8.646647 -6.187232 0.4318847,-8.509798 -5.180784 0.4602894,-8.398756 -4.597946 0.6355799,-8.292099 -4.097699 0.7699167,-8.935265 -6.221619 0.5980709,-8.830872 -5.229965 0.6639084,-8.745134 -4.63709 0.8577802,-8.635519 -4.144147 1.003792,-9.248405 -6.428821 0.7739091,-9.25264 -5.65353 0.8971882,-9.215348 -5.157262 1.031682,-9.136369 -4.694055 1.13913,2.510,
-2.895479 -7.81651 -1.551079,-3.411417 -7.625343 -1.280371,-3.872377 -7.174698 -1.163298,-4.148086 -6.608093 -1.018242,-4.359311 -6.091045 -0.8723904,-3.779007 -5.864093 -1.546759,-4.036209 -5.100542 -1.452328,-4.182167 -4.635946 -1.362615,-4.299112 -4.219718 -1.279192,-3.505665 -5.637186 -1.557097,-3.706913 -4.793161 -1.543908,-3.84674 -4.296966 -1.444121,-3.958456 -3.906484 -1.360893,-3.226918 -5.595224 -1.507012,-3.352656 -4.824333 -1.46293,-3.467302 -4.389144 -1.3328,-3.579508 -4.066072 -1.227841,-2.923399 -5.692155 -1.412582,-2.981674 -5.053968 -1.333529,-3.055499 -4.699857 -1.216174,-3.141266 -4.42126 -1.135834,-9.027699 -8.866634 -0.0708131,-8.477679 -8.522968 0.1741326,-8.03001 -7.804975 0.321865,-7.807974 -7.100095 0.4958903,-7.731148 -6.533035 0.6110136,-8.264942 -6.480467 -0.1772404,-8.072755 -5.538192 0.07504094,-7.94065 -4.98192 0.3249744,-7.83683 -4.484542 0.512519,-8.551927 -6.348844 -0.09444374,-8.388623 -5.21266 0.3174849,-8.307776 -5.796453 0.6858092,-8.352017 -6.387713 0.8366456,-8.849989 -6.36404 0.03832088,-8.747978 -5.335525 0.4177117,-8.642799 -5.891098 0.6830398,-8.660872 -6.479919 0.7405473,-9.201355 -6.504501 0.1867839,-9.151917 -5.68049 0.5471314,-9.027649 -5.893308 0.747713,-8.995291 -6.367258 0.8095068,2.610,
-2.882131 -7.759716 -1.701118,-3.400845 -7.597076 -1.418047,-3.851547 -7.111026 -1.311331,-4.112335 -6.508636 -1.175921,-4.334642 -6.005111 -1.048136,-3.741805 -5.827188 -1.72388,-3.978907 -5.07076 -1.653181,-4.113733 -4.601518 -1.569012,-4.225649 -4.183546 -1.492527,-3.464451 -5.617834 -1.756705,-3.646832 -4.796073 -1.77748,-3.776772 -4.327697 -1.687277,-3.888968 -3.999197 -1.61192,-3.185044 -5.584507 -1.724234,-3.297701 -4.841976 -1.707683,-3.409319 -4.437427 -1.58247,-3.525764 -4.182331 -1.480639,-2.88681 -5.685708 -1.646647,-2.934937 -5.08533 -1.585568,-3.010412 -4.786003 -1.480655,-3.097184 -4.597114 -1.410735,-8.972269 -8.707172 -0.4745672,-8.47042 -8.418766 -0.1582016,-8.020555 -7.760919 0.07293057,-7.830867 -7.025983 0.3215117,-7.950821 -6.471794 0.506111,-8.213008 -6.445906 -0.4996126,-8.009223 -5.534824 -0.2019803,-7.873803 -5.0159 0.08027095,-7.76866 -4.561912 0.2836286,-8.500032 -6.306623 -0.4235542,-8.321596 -5.326852 0.06996971,-8.286283 -6.038293 0.4231862,-8.361662 -6.64739 0.5262469,-8.806957 -6.31396 -0.2753213,-8.681783 -5.403135 0.1291238,-8.615011 -6.068527 0.3462111,-8.658946 -6.640007 0.3624755,-9.162616 -6.458436 -0.1018441,-9.100839 -5.714162 0.2118989,-8.990817 -6.045982 0.3748121,-8.97139 -6.531469 0.4162111,2.710,
-2.847994 -7.759675 -1.702042,-3.366737 -7.600326 -1.39439,-3.81105 -7.109651 -1.289142,-4.06151 -6.517202 -1.150542,-4.272639 -5.940853 -1.014504,-3.697522 -5.815285 -1.832306,-3.921503 -5.048775 -1.820879,-4.045485 -4.564085 -1.752169,-4.145435 -4.133768 -1.667482,-3.420355 -5.620469 -1.859885,-3.572059 -4.810764 -1.89868,-3.696251 -4.350866 -1.765902,-3.799105 -4.111445 -1.654908,-3.138493 -5.597391 -1.822123,-3.219687 -4.87745 -1.79564,-3.310328 -4.522053 -1.568366,-3.40428 -4.440118 -1.39598,-2.834634 -5.686563 -1.737624,-2.882003 -5.083419 -1.636072,-2.96638 -4.876852 -1.458462,-3.056568 -4.915636 -1.329192,-8.948538 -8.540136 -0.7126583,-8.467335 -8.329536 -0.3580108,-8.023985 -7.71174 -0.07399821,-7.840985 -7.016164 0.2271591,-7.976201 -6.486298 0.4593153,-8.192098 -6.356752 -0.660758,-7.983826 -5.446944 -0.3437153,-7.83821 -4.908878 -0.02446717,-7.730375 -4.454648 0.2060821,-8.486658 -6.209766 -0.5861471,-8.310759 -5.212348 -0.04827434,-8.258916 -5.893854 0.3374484,-8.317189 -6.527679 0.4541918,-8.797804 -6.209781 -0.4444906,-8.681876 -5.288887 -0.04154915,-8.606761 -5.914308 0.1933641,-8.635566 -6.495645 0.2262223,-9.154088 -6.348407 -0.2773347,-9.099977 -5.604829 0.04692525,-8.983088 -5.907817 0.2168044,-8.951765 -6.396255 0.2594548,2.810,
-2.824609 -7.794071 -1.759541,-3.348547 -7.650812 -1.480656,-3.791166 -7.143165 -1.397997,-4.037465 -6.549839 -1.273672,-4.213867 -5.973047 -1.157482,-3.664958 -5.870681 -1.974378,-3.889885 -5.113575 -1.999414,-4.022804 -4.642774 -1.950219,-4.126169 -4.210673 -1.868977,-3.380501 -5.674053 -1.988798,-3.521049 -4.893075 -2.050819,-3.628275 -4.467578 -1.9245,-3.697194 -4.285984 -1.811297,-3.101883 -5.655082 -1.934624,-3.178946 -4.954975 -1.917318,-3.254488 -4.648714 -1.661062,-3.316031 -4.634655 -1.462324,-2.799589 -5.747526 -1.833701,-2.844832 -5.172587 -1.743753,-2.924201 -4.984118 -1.535693,-3.001102 -5.030686 -1.363263,-8.936405 -8.456022 -0.889687,-8.45223 -8.281561 -0.485086,-8.001743 -7.688169 -0.1969461,-7.81234 -7.01274 0.09020156,-7.927557 -6.457016 0.3092307,-8.173839 -6.315449 -0.8140926,-7.966725 -5.433553 -0.4999762,-7.822284 -4.875085 -0.1731315,-7.707385 -4.388406 0.0746662,-8.466977 -6.178536 -0.7679166,-8.297306 -5.176374 -0.2187213,-8.242998 -5.81581 0.1898333,-8.291358 -6.430168 0.3248006,-8.781431 -6.182891 -0.6468291,-8.66479 -5.23875 -0.199162,-8.576464 -5.833236 0.09224212,-8.588266 -6.412929 0.1471908,-9.14358 -6.315046 -0.4984767,-9.092857 -5.584651 -0.1360314,-8.96498 -5.862911 0.08440137,-8.920042 -6.345047 0.1571516,2.910,
-2.876781 -7.766866 -2.199321,-3.366685 -7.654134 -1.888521,-3.78566 -7.129337 -1.737304,-4.01614 -6.494565 -1.5735,-4.16704 -5.895151 -1.423677,-3.717109 -5.943742 -2.269505,-3.926533 -5.179111 -2.169304,-4.068675 -4.663664 -2.009946,-4.169901 -4.233684 -1.843919,-3.430531 -5.765111 -2.265133,-3.569571 -4.872575 -1.984697,-3.615399 -4.847398 -1.643795,-3.572948 -5.14014 -1.461707,-3.145711 -5.734155 -2.207655,-3.23494 -4.923906 -1.946259,-3.288088 -4.964374 -1.590998,-3.283801 -5.310888 -1.400218,-2.829805 -5.821363 -2.1064,-2.881663 -5.197889 -1.859506,-2.972089 -5.192246 -1.5777,-3.006975 -5.479622 -1.388576,-8.923872 -8.474512 -0.9493338,-8.439734 -8.275963 -0.5464572,-8.003439 -7.666047 -0.2664583,-7.818053 -6.986997 0.0150277,-7.938583 -6.446105 0.2336574,-8.187261 -6.342588 -0.9047928,-7.973165 -5.482445 -0.5919905,-7.833354 -4.91535 -0.2855541,-7.7314 -4.395227 -0.05895293,-8.469734 -6.209718 -0.8620912,-8.291827 -5.298835 -0.3016233,-8.25031 -5.978076 0.07835114,-8.308955 -6.58071 0.1759464,-8.779169 -6.210916 -0.7387323,-8.649436 -5.336734 -0.2591308,-8.576591 -5.974203 0.009178519,-8.60105 -6.554018 0.02707076,-9.138342 -6.342035 -0.5885252,-9.077555 -5.636361 -0.2198202,-8.959735 -5.937118 -0.01469874,-8.923919 -6.422721 0.03901988,3.010,
-2.92885 -7.755022 -2.437317,-3.402538 -7.577287 -2.109839,-3.783976 -6.996379 -1.941834,-3.992117 -6.344543 -1.76009,-4.150755 -5.727048 -1.597096,-3.775648 -5.980693 -2.411422,-3.976917 -5.221675 -2.280198,-4.104933 -4.665868 -2.144252,-4.21199 -4.14354 -2.010265,-3.49343 -5.826738 -2.38249,-3.603668 -4.975042 -1.923336,-3.595519 -5.50217 -1.650514,-3.553942 -6.064571 -1.590863,-3.203264 -5.814543 -2.306467,-3.273914 -5.062654 -1.873899,-3.306719 -5.685464 -1.649192,-3.283192 -6.255523 -1.622107,-2.885523 -5.905948 -2.194551,-2.948586 -5.334085 -1.870705,-3.028007 -5.686588 -1.701212,-3.037352 -6.113887 -1.661885,-8.918309 -8.444523 -1.083697,-8.436387 -8.244524 -0.6804033,-8.007165 -7.641813 -0.4026684,-7.821632 -6.959252 -0.1219093,-7.954708 -6.41588 0.0940764,-8.203509 -6.33949 -1.048212,-7.986683 -5.485423 -0.7395803,-7.850431 -4.925781 -0.4312955,-7.758824 -4.407979 -0.2062867,-8.487301 -6.213901 -1.00785,-8.320747 -5.330724 -0.4318705,-8.280847 -6.044848 -0.06351244,-8.333672 -6.660913 0.0173794,-8.796824 -6.218976 -0.8819279,-8.679392 -5.365802 -0.3871693,-8.606254 -6.048044 -0.1366891,-8.624308 -6.642701 -0.1408574,-9.1507 -6.352203 -0.7319161,-9.098713 -5.650861 -0.3551404,-8.980426 -5.984564 -0.1714896,-8.936139 -6.478912 -0.1434041,3.110,
-2.958621 -7.675951 -2.760166,-3.414238 -7.519249 -2.414521,-3.800396 -6.953557 -2.234252,-4.001919 -6.302679 -2.042095,-4.05529 -5.675979 -1.884463,-3.768105 -5.982876 -2.590947,-3.980154 -5.215864 -2.353278,-4.116082 -4.679979 -2.164306,-4.217411 -4.172184 -1.988381,-3.480701 -5.839355 -2.581618,-3.566745 -5.112154 -2.078018,-3.506074 -5.793565 -1.913074,-3.434769 -6.352382 -1.922919,-3.178925 -5.832256 -2.509957,-3.238621 -5.25204 -2.018129,-3.238907 -5.982072 -1.919221,-3.199321 -6.520226 -1.973646,-2.866073 -5.934303 -2.40342,-2.927193 -5.437608 -2.05334,-2.983289 -5.917601 -1.977757,-2.99289 -6.35346 -2.013925,-8.935114 -8.401342 -1.237269,-8.446798 -8.215872 -0.8363199,-8.016094 -7.606645 -0.5713787,-7.836027 -6.93086 -0.3014844,-7.979051 -6.398469 -0.1015993,-8.239637 -6.325965 -1.213645,-8.024844 -5.464744 -0.9120327,-7.883657 -4.887695 -0.6089824,-7.786766 -4.363731 -0.3867151,-8.523355 -6.211397 -1.171539,-8.355584 -5.331851 -0.6031025,-8.307132 -6.016137 -0.233559,-8.351972 -6.628511 -0.1489556,-8.83046 -6.221225 -1.041076,-8.705909 -5.366937 -0.545094,-8.626978 -6.027494 -0.2865257,-8.644289 -6.627492 -0.2837026,-9.178638 -6.35231 -0.8900629,-9.119561 -5.640913 -0.5122846,-8.997999 -5.95675 -0.3209758,-8.954677 -6.452823 -0.2897627,3.210,
-2.961742 -7.621097 -2.925972,-3.407623 -7.480834 -2.573803,-3.794869 -6.900751 -2.416042,-3.984127 -6.235656 -2.246022,-4.02883 -5.636365 -2.109336,-3.755759 -5.959922 -2.742119,-3.969191 -5.180982 -2.505137,-4.098988 -4.636619 -2.324937,-4.193277 -4.138653 -2.144745,-3.468855 -5.830492 -2.740048,-3.557772 -5.182401 -2.250759,-3.491997 -5.873077 -2.102015,-3.418989 -6.447505 -2.114373,-3.167281 -5.824923 -2.673573,-3.233845 -5.354126 -2.161568,-3.224396 -6.093976 -2.068987,-3.181303 -6.640295 -2.119884,-2.857959 -5.918005 -2.575881,-2.929106 -5.485796 -2.194505,-2.975944 -5.991308 -2.121291,-2.984496 -6.432232 -2.15686,-8.941129 -8.39344 -1.259114,-8.459663 -8.211279 -0.8347946,-8.037887 -7.618888 -0.5539649,-7.852626 -6.956194 -0.2749258,-7.971296 -6.412576 -0.06362391,-8.257793 -6.321376 -1.187612,-8.043722 -5.456619 -0.8752421,-7.903146 -4.882589 -0.5745881,-7.807709 -4.361015 -0.3596979,-8.541139 -6.209064 -1.156862,-8.374064 -5.316201 -0.5786287,-8.323818 -6.003937 -0.2085149,-8.365699 -6.619339 -0.1300989,-8.848851 -6.219686 -1.038431,-8.723749 -5.364585 -0.5274149,-8.647968 -6.042234 -0.260572,-8.666422 -6.654056 -0.2615452,-9.197222 -6.346138 -0.9001395,-9.136517 -5.625059 -0.5145738,-9.016151 -5.952314 -0.3269601,-8.975657 -6.453856 -0.3034678,3.310,
-2.964348 -7.621114 -2.781149,-3.362473 -7.530249 -2.337739,-3.74502 -6.946418 -2.140164,-3.910597 -6.264753 -1.95506,-3.911404 -5.659585 -1.796921,-3.68993 -5.919694 -2.360372,-3.899678 -5.159828 -2.030707,-4.019491 -4.617502 -1.780682,-4.109436 -4.11432 -1.558493,-3.391923 -5.800494 -2.385345,-3.444374 -5.342723 -1.822829,-3.370701 -6.126462 -1.691372,-3.31743 -6.728612 -1.713305,-3.08623 -5.811426 -2.354354,-3.139915 -5.515842 -1.757642,-3.115936 -6.304864 -1.697619,-3.087501 -6.843333 -1.778307,-2.784747 -5.916567 -2.293393,-2.841408 -5.554033 -1.851264,-2.875838 -6.122411 -1.810049,-2.897402 -6.564386 -1.857623,-8.983581 -8.431328 -1.252476,-8.509666 -8.256653 -0.8255763,-8.078489 -7.660823 -0.5384331,-7.886838 -7.018836 -0.2559874,-8.003547 -6.489372 -0.04540062,-8.302431 -6.348938 -1.14547,-8.091892 -5.477863 -0.831913,-7.949915 -4.895218 -0.5434659,-7.849891 -4.368097 -0.3348047,-8.583785 -6.247087 -1.112198,-8.413895 -5.350267 -0.5320488,-8.36423 -6.026706 -0.1725039,-8.409299 -6.633052 -0.1078923,-8.891142 -6.268883 -0.9932284,-8.770515 -5.416627 -0.4853517,-8.695007 -6.089433 -0.2126112,-8.716163 -6.688632 -0.2076586,-9.241997 -6.40464 -0.8533878,-9.180261 -5.690376 -0.4728811,-9.062584 -6.025314 -0.2735297,-9.026349 -6.516271 -0.2373037,3.410,
-2.969499 -7.644966 -2.736613,-3.362282 -7.546262 -2.283926,-3.733044 -6.966445 -2.086833,-3.883283 -6.291759 -1.910342,-3.902246 -5.690696 -1.750287,-3.683317 -5.940225 -2.287497,-3.879921 -5.185493 -1.959683,-3.990212 -4.639747 -1.710477,-4.080055 -4.131354 -1.487701,-3.38271 -5.813952 -2.312653,-3.432723 -5.427831 -1.742805,-3.356078 -6.2283 -1.613624,-3.307137 -6.830621 -1.628496,-3.073725 -5.821826 -2.286308,-3.135362 -5.586177 -1.673869,-3.108429 -6.382737 -1.610216,-3.083109 -6.916518 -1.685123,-2.769995 -5.92139 -2.229445,-2.828681 -5.594923 -1.767327,-2.864882 -6.168571 -1.721421,-2.891279 -6.598076 -1.761878,-8.998106 -8.441402 -1.264416,-8.517799 -8.264738 -0.8425256,-8.079217 -7.681448 -0.5631223,-7.884784 -7.038442 -0.2902842,-8.008909 -6.497491 -0.09347141,-8.314631 -6.364017 -1.156126,-8.100093 -5.492286 -0.8423433,-7.961794 -4.913417 -0.5528715,-7.862951 -4.390707 -0.3461419,-8.595296 -6.261144 -1.124972,-8.426172 -5.37277 -0.5471711,-8.382201 -6.059379 -0.1820242,-8.428925 -6.674614 -0.1124829,-8.900938 -6.28231 -1.009431,-8.779939 -5.446417 -0.5061345,-8.709993 -6.130357 -0.2288792,-8.731377 -6.733366 -0.2235161,-9.248873 -6.418939 -0.8733977,-9.184654 -5.723261 -0.4952355,-9.071072 -6.07666 -0.2939429,-9.035633 -6.572196 -0.2588251,3.510,
-2.995814 -7.717212 -2.603867,-3.37736 -7.61325 -2.142876,-3.748232 -7.048131 -1.910012,-3.890413 -6.406034 -1.707201,-3.875845 -5.825808 -1.517041,-3.706023 -5.984256 -2.105587,-3.8976 -5.25146 -1.73691,-3.996855 -4.729616 -1.469385,-4.080879 -4.248001 -1.255114,-3.391869 -5.855674 -2.126177,-3.43079 -5.565494 -1.535326,-3.364271 -6.390293 -1.414191,-3.328085 -6.998561 -1.43544,-3.074189 -5.884727 -2.097338,-3.13016 -5.723525 -1.482917,-3.113852 -6.518157 -1.430492,-3.101459 -7.032017 -1.505872,-2.765945 -6.014445 -2.038268,-2.814998 -5.736146 -1.578449,-2.859383 -6.31026 -1.53928,-2.896174 -6.716241 -1.571455,-8.972994 -8.481304 -1.293426,-8.495756 -8.29549 -0.8795604,-8.06009 -7.704411 -0.6045728,-7.864921 -7.070413 -0.3360373,-7.993696 -6.555813 -0.1386505,-8.299032 -6.402445 -1.192331,-8.080678 -5.525712 -0.8667708,-7.943069 -4.944618 -0.5751047,-7.84486 -4.416515 -0.3704973,-8.580642 -6.307476 -1.155519,-8.411906 -5.422873 -0.5719269,-8.371272 -6.124282 -0.2213948,-8.420339 -6.73998 -0.1713476,-8.8871 -6.335292 -1.032836,-8.766434 -5.50921 -0.5275929,-8.698712 -6.202705 -0.2633475,-8.722993 -6.800081 -0.2730656,-9.235917 -6.483399 -0.8883865,-9.171402 -5.787261 -0.5167942,-9.059481 -6.151091 -0.3258954,-9.0298 -6.647386 -0.2990406,3.610,
-3.020783 -7.841964 -2.446974,-3.406563 -7.707244 -2.026271,-3.783297 -7.144418 -1.808048,-3.923086 -6.529728 -1.60922,-3.919622 -5.97028 -1.415228,-3.730862 -6.065116 -1.972653,-3.951576 -5.37578 -1.601648,-4.060581 -4.885979 -1.328157,-4.147462 -4.423858 -1.110844,-3.414602 -5.931455 -1.97466,-3.47139 -5.716882 -1.400971,-3.408823 -6.541326 -1.279935,-3.362916 -7.145107 -1.285966,-3.092331 -5.970195 -1.931514,-3.163405 -5.869915 -1.337856,-3.149613 -6.642759 -1.29115,-3.133025 -7.144378 -1.357924,-2.776244 -6.111379 -1.86191,-2.839561 -5.860499 -1.423337,-2.892813 -6.424692 -1.394759,-2.934924 -6.817159 -1.424287,-8.956268 -8.487574 -1.323497,-8.478433 -8.313513 -0.9280596,-8.035547 -7.72319 -0.6682502,-7.839175 -7.089715 -0.4151959,-7.962044 -6.566774 -0.2355289,-8.285547 -6.424036 -1.21994,-8.064142 -5.546328 -0.8997683,-7.923882 -4.967454 -0.6091124,-7.824497 -4.44835 -0.3988003,-8.561543 -6.323219 -1.180865,-8.390517 -5.438653 -0.6110074,-8.348758 -6.139961 -0.2682307,-8.398184 -6.759603 -0.2157854,-8.864381 -6.347731 -1.057891,-8.7445 -5.526543 -0.571436,-8.677208 -6.217712 -0.3195672,-8.700205 -6.809307 -0.3280541,-9.20851 -6.493853 -0.9147049,-9.143865 -5.809444 -0.5449609,-9.035949 -6.177206 -0.3563374,-9.005555 -6.669464 -0.3287558,3.710,
-3.02237 -7.916267 -2.190782,-3.419241 -7.777048 -1.821421,-3.801018 -7.207774 -1.614805,-3.937406 -6.6092 -1.412978,-3.952635 -6.070858 -1.201265,-3.749582 -6.079093 -1.775411,-3.983168 -5.454515 -1.41434,-4.100479 -4.992088 -1.144001,-4.201591 -4.537712 -0.9294406,-3.433624 -5.925333 -1.749771,-3.519547 -5.837766 -1.197991,-3.451424 -6.66522 -1.074235,-3.400336 -7.244325 -1.068229,-3.108431 -5.964918 -1.680941,-3.202636 -5.982223 -1.115014,-3.180628 -6.757602 -1.084275,-3.161724 -7.251801 -1.141627,-2.783758 -6.116479 -1.58655,-2.873688 -5.960302 -1.173573,-2.928443 -6.543725 -1.155359,-2.97046 -6.934513 -1.176341,-8.951355 -8.487103 -1.371533,-8.467445 -8.309288 -0.9835836,-8.024405 -7.727851 -0.7291862,-7.825358 -7.09532 -0.4792706,-7.949972 -6.573745 -0.3048714,-8.273194 -6.439229 -1.279818,-8.049712 -5.5599 -0.9620585,-7.907377 -4.976676 -0.6698768,-7.806977 -4.455237 -0.4613535,-8.55183 -6.337057 -1.237641,-8.374778 -5.443633 -0.667837,-8.326634 -6.140481 -0.322283,-8.37218 -6.760637 -0.2676795,-8.855739 -6.358512 -1.11308,-8.731971 -5.532703 -0.6273359,-8.659853 -6.222527 -0.3791085,-8.681694 -6.816627 -0.3882011,-9.199909 -6.498474 -0.9694561,-9.134887 -5.803474 -0.6025876,-9.01985 -6.164712 -0.4201863,-8.986851 -6.660168 -0.3980696,3.810,
-2.998982 -8.048344 -1.697195,-3.436619 -7.895576 -1.437763,-3.846275 -7.352798 -1.220397,-4.007962 -6.768577 -0.9853706,-4.022335 -6.258962 -0.7276448,-3.795179 -6.196747 -1.26335,-4.073497 -5.672626 -0.8549853,-4.226423 -5.284427 -0.5369802,-4.368347 -4.912712 -0.3168207,-3.478899 -5.939958 -1.188894,-3.616748 -6.162824 -0.6591754,-3.502982 -6.977903 -0.5348622,-3.418846 -7.504154 -0.5276827,-3.146496 -5.942916 -1.086365,-3.262897 -6.306781 -0.5997467,-3.201093 -7.04132 -0.5799562,-3.169861 -7.493616 -0.6161264,-2.814657 -6.08902 -0.956681,-2.926524 -6.290243 -0.6373538,-2.963095 -6.886624 -0.6318213,-3.002306 -7.25737 -0.6501017,-8.955691 -8.496342 -1.36932,-8.480261 -8.334215 -0.9578342,-8.033825 -7.758055 -0.6890333,-7.830685 -7.130598 -0.4318711,-7.947818 -6.597142 -0.2538935,-8.276162 -6.454498 -1.245905,-8.054044 -5.578646 -0.9321427,-7.913242 -5.008291 -0.6464172,-7.813559 -4.495893 -0.4355624,-8.553581 -6.347831 -1.210373,-8.376251 -5.465153 -0.634928,-8.335381 -6.178749 -0.2874974,-8.383271 -6.800716 -0.2313776,-8.859897 -6.369575 -1.090753,-8.732284 -5.560091 -0.5972226,-8.664694 -6.258757 -0.3398036,-8.68598 -6.851867 -0.3423103,-9.207092 -6.511157 -0.9516836,-9.137554 -5.832882 -0.5689447,-9.027116 -6.204292 -0.3793425,-8.99278 -6.696376 -0.3520356,3.910,
-2.977714 -8.014133 -1.593615,-3.40917 -7.915033 -1.310886,-3.820395 -7.37908 -1.048373,-3.986961 -6.799359 -0.7765365,-3.959839 -6.307666 -0.4931514,-3.792681 -6.224523 -1.014343,-4.052439 -5.718144 -0.5531681,-4.206331 -5.335872 -0.223489,-4.35325 -4.962017 0.005152822,-3.469126 -5.918991 -0.9336933,-3.560011 -6.259196 -0.3721782,-3.449547 -7.062632 -0.2671106,-3.379107 -7.526418 -0.2654977,-3.121513 -5.907979 -0.8279572,-3.194992 -6.407205 -0.3446963,-3.142334 -7.113323 -0.3792789,-3.122545 -7.490631 -0.4422699,-2.786967 -6.050122 -0.6847639,-2.85469 -6.411403 -0.3888621,-2.890125 -7.013212 -0.4114537,-2.937197 -7.329053 -0.4379208,-8.968572 -8.538078 -1.369415,-8.496265 -8.377041 -0.9670602,-8.043468 -7.779885 -0.7085639,-7.840497 -7.143291 -0.46162,-7.969724 -6.615507 -0.2984397,-8.292946 -6.489833 -1.275732,-8.070518 -5.611366 -0.9623195,-7.931221 -5.040564 -0.6839908,-7.830745 -4.528732 -0.4800308,-8.568551 -6.387265 -1.239582,-8.388304 -5.503626 -0.6685843,-8.348361 -6.203214 -0.3258104,-8.396034 -6.819662 -0.278762,-8.873139 -6.412422 -1.116778,-8.742746 -5.597608 -0.6308272,-8.677717 -6.285882 -0.3773617,-8.700315 -6.876607 -0.3856917,-9.219775 -6.560403 -0.9752145,-9.147707 -5.88441 -0.6003413,-9.037694 -6.251359 -0.4087965,-9.00468 -6.742349 -0.3787512,4.010,
-2.967705 -7.977381 -1.531735,-3.394089 -7.914371 -1.213823,-3.801954 -7.410434 -0.9225386,-3.964871 -6.848037 -0.631695,-3.945365 -6.351316 -0.3335665,-3.78044 -6.208713 -0.8723227,-4.023304 -5.728866 -0.3851883,-4.176557 -5.347795 -0.04000056,-4.320793 -4.966913 0.1932092,-3.455652 -5.88396 -0.8064623,-3.52401 -6.298269 -0.2433792,-3.419349 -7.083805 -0.1574616,-3.354643 -7.511852 -0.1629467,-3.104174 -5.870334 -0.709088,-3.15814 -6.431844 -0.2288977,-3.115801 -7.114086 -0.2826761,-3.106506 -7.459389 -0.352622,-2.767098 -6.007426 -0.5723525,-2.817886 -6.408655 -0.2862364,-2.86146 -7.003717 -0.3217177,-2.918664 -7.306901 -0.3564165,-8.973596 -8.552402 -1.347408,-8.505414 -8.379461 -0.9653524,-8.062469 -7.787258 -0.7100121,-7.861302 -7.152415 -0.4648117,-7.981578 -6.634704 -0.2954571,-8.298841 -6.497803 -1.249387,-8.079612 -5.633276 -0.9285046,-7.942999 -5.062265 -0.6481873,-7.844294 -4.550109 -0.4477754,-8.575244 -6.395355 -1.20985,-8.412012 -5.515562 -0.6505159,-8.375338 -6.213373 -0.3138577,-8.418089 -6.821487 -0.2666795,-8.880563 -6.421555 -1.08731,-8.766835 -5.618557 -0.6139827,-8.69952 -6.302006 -0.3700055,-8.716299 -6.881134 -0.3806492,-9.228163 -6.568285 -0.9465774,-9.167015 -5.896304 -0.5832463,-9.058845 -6.267436 -0.4031603,-9.023639 -6.754209 -0.3785464,4.110,
-2.773665 -8.143934 0.200505,-3.48466 -8.041428 0.5895933,-3.976919 -7.53848 0.9530634,-4.247389 -7.083125 1.332503,-4.270796 -6.702397 1.770899,-3.776595 -6.024381 1.242075,-4.054502 -5.470207 1.943728,-4.163836 -5.413154 2.235842,-4.212035 -5.514172 2.295627,-3.389002 -5.681341 1.292634,-3.453773 -6.51598 1.999687,-3.349951 -7.293741 1.992934,-3.285774 -7.637119 1.940384,-3.012087 -5.72509 1.406401,-3.081805 -6.615108 2.068619,-3.011711 -7.304547 1.992647,-2.964752 -7.638165 1.910022,-2.661532 -5.939142 1.557573,-2.764132 -6.40469 1.928839,-2.806989 -7.019128 1.910396,-2.851297 -7.367229 1.839755,-9.033756 -8.593838 -1.366841,-8.563515 -8.421469 -0.9730089,-8.11741 -7.837789 -0.7132145,-7.914213 -7.20961 -0.464322,-8.03988 -6.678142 -0.2985419,-8.360815 -6.546207 -1.265335,-8.138142 -5.675998 -0.9569119,-7.998904 -5.110284 -0.6829787,-7.898102 -4.604464 -0.4814515,-8.634387 -6.442758 -1.227155,-8.45976 -5.554214 -0.6665678,-8.421889 -6.250009 -0.3290114,-8.468252 -6.867166 -0.2803633,-8.937733 -6.471624 -1.106583,-8.815649 -5.656791 -0.6341004,-8.749274 -6.340528 -0.3852649,-8.768621 -6.926845 -0.3923048,-9.283668 -6.626333 -0.9660401,-9.220691 -5.95091 -0.6011753,-9.111482 -6.317817 -0.4136609,-9.075183 -6.80838 -0.3801741,4.210,
-2.854825 -8.073137 -0.6108611,-3.329575 -7.91538 -0.2323361,-3.720051 -7.416633 0.1612896,-3.844894 -6.859973 0.5347704,-3.76759 -6.353849 0.9297606,-3.65445 -6.110217 0.2390847,-3.863205 -5.723854 0.7956926,-4.011044 -5.409248 1.136855,-4.155428 -5.082992 1.353633,-3.292543 -5.747447 0.2884764,-3.344051 -6.45203 0.9135891,-3.267139 -7.259753 0.9415917,-3.217867 -7.614728 0.8895825,-2.915294 -5.778497 0.3797139,-2.959855 -6.590458 0.8993027,-2.949438 -7.264432 0.7844276,-2.944507 -7.535186 0.6830901,-2.568396 -5.980283 0.5180101,-2.599699 -6.542664 0.8045909,-2.676473 -7.119489 0.7461214,-2.73894 -7.335302 0.7093459,-9.045259 -8.604134 -1.401295,-8.572125 -8.438591 -1.021906,-8.125176 -7.849344 -0.7726582,-7.923622 -7.214907 -0.5341973,-8.053226 -6.694274 -0.3737248,-8.367262 -6.565248 -1.325736,-8.149696 -5.688713 -1.015015,-8.015789 -5.121431 -0.7374791,-7.920289 -4.611881 -0.5389116,-8.644257 -6.462057 -1.28393,-8.474094 -5.563009 -0.7195695,-8.433898 -6.267474 -0.3827657,-8.477331 -6.888096 -0.3412815,-8.950324 -6.490564 -1.16097,-8.831264 -5.668879 -0.6850043,-8.76337 -6.356145 -0.4379165,-8.780244 -6.943824 -0.4512872,-9.298368 -6.641964 -1.01935,-9.236766 -5.961368 -0.6552358,-9.125381 -6.329504 -0.4714611,-9.087155 -6.821152 -0.4450061,4.310,
-2.722058 -8.187431 0.3868805,-3.456186 -8.010277 0.8902707,-3.928912 -7.498044 1.297102,-4.168451 -6.998632 1.707132,-4.171156 -6.592728 2.178401,-3.68047 -5.96594 1.568298,-3.931219 -5.418846 2.350388,-4.014877 -5.495922 2.681306,-4.019186 -5.742017 2.76174,-3.266319 -5.697245 1.585026,-3.269002 -6.314091 2.387388,-3.219555 -7.190938 2.391652,-3.210007 -7.639924 2.314414,-2.872838 -5.780155 1.677486,-2.905214 -6.426322 2.441644,-2.882936 -7.216653 2.364509,-2.871771 -7.652256 2.254789,-2.511785 -6.031662 1.81163,-2.59126 -6.260837 2.257423,-2.66214 -6.909984 2.251836,-2.731031 -7.322938 2.184716,-9.063018 -8.625896 -1.378186,-8.593403 -8.446781 -0.9928318,-8.153642 -7.861076 -0.7372291,-7.952739 -7.243048 -0.4856063,-8.077696 -6.728174 -0.3168023,-8.404515 -6.571957 -1.297241,-8.189706 -5.696268 -0.9847299,-8.046664 -5.137429 -0.702203,-7.941173 -4.641729 -0.4976439,-8.679391 -6.474403 -1.252207,-8.508019 -5.582597 -0.6768427,-8.46472 -6.302667 -0.3386763,-8.507295 -6.918889 -0.3035579,-8.983889 -6.508094 -1.125428,-8.865685 -5.682736 -0.64445,-8.793929 -6.378303 -0.4013918,-8.810129 -6.962444 -0.4222308,-9.329958 -6.667017 -0.9786346,-9.274435 -5.985155 -0.6149519,-9.158294 -6.349103 -0.4334244,-9.117146 -6.835344 -0.4125813,4.410,
-2.822365 -8.114157 -0.1922304,-3.29661 -7.962552 0.2471469,-3.721028 -7.442144 0.6920162,-3.85966 -6.891313 1.098877,-3.752697 -6.373498 1.488956,-3.621752 -6.102415 0.8097663,-3.822263 -5.805476 1.459769,-3.975577 -5.522279 1.856902,-4.117037 -5.168546 2.098549,-3.236469 -5.706508 0.8377615,-3.310127 -6.561569 1.511349,-3.253868 -7.386637 1.502179,-3.200254 -7.686206 1.42432,-2.836143 -5.750862 0.9224291,-2.891392 -6.688055 1.470559,-2.914137 -7.366264 1.291413,-2.916615 -7.566972 1.146909,-2.478013 -5.984724 1.058943,-2.522084 -6.657152 1.353635,-2.630637 -7.250397 1.239404,-2.708039 -7.433382 1.172302,-9.071304 -8.607647 -1.40089,-8.592653 -8.429609 -1.017163,-8.152499 -7.842893 -0.7683358,-7.958114 -7.208261 -0.5232116,-8.08084 -6.686742 -0.358343,-8.407551 -6.561349 -1.330291,-8.196648 -5.686033 -1.018068,-8.059052 -5.125226 -0.7313966,-7.956713 -4.62498 -0.5264065,-8.685269 -6.462507 -1.287135,-8.51787 -5.569211 -0.7117093,-8.477064 -6.278022 -0.3632901,-8.518008 -6.904333 -0.3143677,-8.990627 -6.491731 -1.161514,-8.87504 -5.683772 -0.6781199,-8.808233 -6.378638 -0.4210463,-8.822299 -6.973221 -0.4290037,-9.336671 -6.646213 -1.018258,-9.282277 -5.975656 -0.6444412,-9.170278 -6.347863 -0.4515542,-9.127961 -6.844789 -0.4217492,4.510,
-2.752107 -8.040493 -0.03502129,-3.460147 -8.050011 0.637444,-3.975944 -7.71104 1.129044,-4.273941 -7.480594 1.591011,-4.346752 -7.283226 2.098951,-3.716784 -6.051443 1.406453,-3.946833 -5.461872 2.303472,-4.011898 -5.552791 2.751659,-3.993014 -5.848039 2.906173,-3.283728 -5.786396 1.34519,-3.299526 -6.342456 2.279658,-3.196472 -7.281011 2.273365,-3.141893 -7.819902 2.154263,-2.882203 -5.864773 1.386562,-2.9244 -6.40463 2.260871,-2.863459 -7.253356 2.190906,-2.83371 -7.789407 2.017398,-2.500494 -6.092931 1.470001,-2.563334 -6.170988 2.028178,-2.605544 -6.874536 2.047008,-2.663588 -7.374994 1.959659,-9.070046 -8.603472 -1.424499,-8.59036 -8.433491 -1.036238,-8.147092 -7.84878 -0.7861999,-7.951334 -7.219158 -0.5437043,-8.082568 -6.697895 -0.3812239,-8.403351 -6.565419 -1.349323,-8.19573 -5.687863 -1.037133,-8.058998 -5.130033 -0.7500631,-7.952633 -4.635677 -0.5410011,-8.682174 -6.465754 -1.306551,-8.514262 -5.578334 -0.7349632,-8.47517 -6.294056 -0.3935473,-8.515347 -6.913572 -0.3499737,-8.987035 -6.496943 -1.179397,-8.871011 -5.685749 -0.700762,-8.805449 -6.381706 -0.4545894,-8.820225 -6.966316 -0.4679792,-9.3318 -6.654544 -1.031621,-9.275402 -5.984188 -0.670873,-9.166368 -6.359477 -0.4866188,-9.128262 -6.850675 -0.4586317,4.610,
-2.800936 -8.180326 -0.1029453,-3.276316 -8.03775 0.3864812,-3.715361 -7.556308 0.8587808,-3.840188 -7.036254 1.280095,-3.704685 -6.525321 1.694328,-3.609053 -6.190473 0.9855796,-3.79673 -5.9109 1.665871,-3.939453 -5.642833 2.082847,-4.077805 -5.301557 2.325994,-3.214671 -5.777955 1.002745,-3.271709 -6.638107 1.703188,-3.210751 -7.472395 1.71282,-3.164398 -7.803369 1.642278,-2.805799 -5.805627 1.081514,-2.842607 -6.73183 1.672481,-2.862058 -7.433119 1.501805,-2.870856 -7.688377 1.343721,-2.432914 -6.03433 1.215649,-2.458472 -6.66422 1.556836,-2.563589 -7.276693 1.46196,-2.649196 -7.522125 1.397098,-9.06759 -8.640707 -1.421009,-8.592297 -8.466606 -1.045886,-8.150691 -7.869352 -0.8022876,-7.953879 -7.236085 -0.5637351,-8.081204 -6.721345 -0.4027094,-8.410185 -6.598392 -1.344407,-8.200262 -5.709216 -1.026346,-8.059531 -5.149873 -0.7409709,-7.953434 -4.656131 -0.5374519,-8.687201 -6.500988 -1.296828,-8.518187 -5.595729 -0.7170411,-8.472463 -6.307271 -0.3783679,-8.509863 -6.930826 -0.3394417,-8.991617 -6.531378 -1.167167,-8.8726 -5.701355 -0.6783925,-8.801942 -6.390304 -0.4342707,-8.816396 -6.982302 -0.4557973,-9.335988 -6.685797 -1.021007,-9.279055 -5.997121 -0.6479768,-9.164066 -6.360929 -0.4652731,-9.123266 -6.855205 -0.4443083,4.710,
-2.730729 -8.1138 0.1861284,-3.377483 -8.151367 0.8422138,-3.861729 -7.81335 1.372667,-4.14854 -7.50676 1.868039,-4.184689 -7.201139 2.373813,-3.666849 -6.163761 1.687009,-3.94955 -5.537021 2.581334,-4.05142 -5.548856 3.004672,-4.06937 -5.809362 3.155932,-3.2493 -5.818487 1.62712,-3.280249 -6.665399 2.473605,-3.153349 -7.516587 2.396682,-3.088125 -7.916617 2.271147,-2.847322 -5.86782 1.675338,-2.890626 -6.679591 2.448909,-2.81468 -7.431137 2.324823,-2.787922 -7.815835 2.188771,-2.470616 -6.068511 1.780014,-2.520589 -6.336761 2.251114,-2.557101 -7.006755 2.249864,-2.6263 -7.425663 2.195821,-9.073439 -8.659021 -1.393901,-8.59696 -8.481819 -1.022957,-8.152708 -7.877933 -0.781576,-7.957302 -7.248359 -0.5456963,-8.085154 -6.734613 -0.3856634,-8.413243 -6.607059 -1.318399,-8.203438 -5.727064 -1.004031,-8.06343 -5.164325 -0.7206401,-7.955998 -4.668617 -0.5138909,-8.690662 -6.512002 -1.267232,-8.52177 -5.620462 -0.6986478,-8.47465 -6.322311 -0.3561966,-8.511692 -6.940805 -0.3078799,-8.995038 -6.546623 -1.134493,-8.875629 -5.728084 -0.6564737,-8.803919 -6.410906 -0.4109032,-8.817485 -6.998395 -0.4228625,-9.34038 -6.705141 -0.9834415,-9.280133 -6.030506 -0.6181378,-9.165955 -6.391243 -0.4339121,-9.126483 -6.878924 -0.4045132,4.810,
-2.712102 -8.21596 -0.2915633,-3.238012 -8.170628 0.1516777,-3.662285 -7.726182 0.6125612,-3.820826 -7.183104 1.047468,-3.726746 -6.691631 1.474377,-3.579435 -6.259599 0.6765258,-3.822543 -5.806297 1.317473,-3.957291 -5.635807 1.710773,-4.062254 -5.549955 1.929099,-3.202705 -5.845369 0.7183112,-3.253542 -6.742986 1.382476,-3.180285 -7.548513 1.385843,-3.147556 -7.825607 1.352908,-2.80846 -5.879933 0.8226504,-2.858657 -6.870759 1.377996,-2.851114 -7.509323 1.299336,-2.864922 -7.718306 1.243833,-2.452752 -6.093237 0.9878818,-2.470745 -6.739881 1.282143,-2.533275 -7.292252 1.251219,-2.596982 -7.504884 1.277145,-9.077053 -8.666245 -1.397515,-8.605944 -8.483112 -1.007658,-8.164042 -7.894403 -0.7573012,-7.964681 -7.273252 -0.5146893,-8.078905 -6.750106 -0.3544654,-8.422503 -6.618567 -1.3007,-8.209052 -5.730789 -0.9967572,-8.066125 -5.167477 -0.7241336,-7.958755 -4.669871 -0.5244762,-8.697523 -6.520557 -1.256905,-8.521654 -5.61993 -0.6808156,-8.470605 -6.33406 -0.3392439,-8.507419 -6.963523 -0.292683,-9.001754 -6.551922 -1.131268,-8.876614 -5.719351 -0.6471531,-8.801193 -6.412916 -0.3988951,-8.814469 -7.009754 -0.4108809,-9.347591 -6.705823 -0.9871778,-9.284472 -6.019512 -0.6182754,-9.166054 -6.380352 -0.4336224,-9.12418 -6.871412 -0.4048721,4.910,
-2.772709 -8.238865 0.08651256,-3.232046 -8.078123 0.6169333,-3.687675 -7.692731 1.163497,-3.845209 -7.272233 1.635501,-3.715897 -6.758819 2.117966,-3.633123 -6.226963 1.236628,-3.818498 -6.118856 1.952143,-3.946768 -5.865804 2.375789,-4.057412 -5.473201 2.667819,-3.223446 -5.79429 1.217762,-3.306591 -6.83636 1.892948,-3.24854 -7.713493 1.829628,-3.174404 -7.981103 1.756943,-2.789883 -5.843635 1.28948,-2.843686 -6.969755 1.826125,-2.905157 -7.682664 1.556921,-2.919182 -7.801282 1.36684,-2.399978 -6.11531 1.411969,-2.46821 -6.981155 1.674903,-2.603453 -7.611713 1.492771,-2.672747 -7.704748 1.395716,-9.067887 -8.651842 -1.4096,-8.596442 -8.474545 -1.026767,-8.157748 -7.880872 -0.775841,-7.963796 -7.261411 -0.5279539,-8.088704 -6.748878 -0.3597887,-8.41767 -6.60303 -1.323688,-8.210752 -5.727615 -1.010348,-8.069333 -5.17139 -0.726415,-7.959251 -4.68151 -0.5209333,-8.694366 -6.508243 -1.274949,-8.526511 -5.614522 -0.6943787,-8.477486 -6.322435 -0.3431343,-8.510421 -6.948247 -0.2894183,-8.999977 -6.544232 -1.144376,-8.880757 -5.721105 -0.6562188,-8.805498 -6.413654 -0.3997238,-8.815591 -7.011774 -0.4063778,-9.346607 -6.70491 -0.9966079,-9.287788 -6.033859 -0.6223316,-9.170626 -6.397838 -0.4296429,-9.126308 -6.889364 -0.3970695,5.010,
-2.77445 -8.274607 0.143947,-3.255532 -8.08646 0.6758381,-3.700182 -7.70581 1.232549,-3.856333 -7.337131 1.724219,-3.736731 -6.822193 2.207975,-3.653818 -6.229082 1.296908,-3.842014 -6.171909 2.016381,-3.988621 -5.935796 2.42627,-4.112346 -5.542822 2.695932,-3.23773 -5.818988 1.285777,-3.338911 -6.879941 1.991209,-3.300037 -7.753129 1.916882,-3.227259 -7.982846 1.825292,-2.79669 -5.886738 1.368242,-2.855085 -6.983481 1.923431,-2.934381 -7.713991 1.617316,-2.952391 -7.822893 1.395787,-2.398952 -6.182571 1.502161,-2.478131 -6.962945 1.778883,-2.624706 -7.597957 1.582937,-2.693929 -7.709953 1.462312,-9.065232 -8.653595 -1.403013,-8.59765 -8.479794 -1.016248,-8.1572 -7.88183 -0.7643676,-7.961721 -7.258913 -0.5181219,-8.090609 -6.746574 -0.3516589,-8.414827 -6.603906 -1.309841,-8.210691 -5.726545 -0.997231,-8.069193 -5.171804 -0.716311,-7.958123 -4.685995 -0.5133834,-8.693536 -6.508001 -1.264584,-8.528272 -5.605876 -0.6845387,-8.474721 -6.313719 -0.3396199,-8.504512 -6.93947 -0.2928944,-9.001455 -6.546134 -1.137274,-8.885124 -5.714218 -0.6492406,-8.807796 -6.406181 -0.3990136,-8.817708 -7.001077 -0.4123242,-9.349168 -6.710084 -0.9938982,-9.296701 -6.027257 -0.6236154,-9.17672 -6.382923 -0.4378484,-9.130895 -6.867982 -0.4122065,5.110,
-2.810063 -8.316196 0.1789152,-3.30302 -8.099861 0.6846584,-3.755236 -7.690217 1.233472,-3.902744 -7.30901 1.710788,-3.72998 -6.83835 2.169514,-3.676261 -6.275698 1.362128,-3.863004 -6.208145 2.067663,-4.012756 -5.96762 2.470104,-4.146981 -5.567539 2.741428,-3.263182 -5.859844 1.347021,-3.380537 -7.003477 2.012127,-3.326614 -7.847307 1.900227,-3.241376 -8.035221 1.800364,-2.828792 -5.922946 1.421123,-2.898092 -7.104146 1.945846,-2.965951 -7.779392 1.634873,-2.974756 -7.844362 1.424561,-2.440962 -6.211789 1.540557,-2.520416 -7.061463 1.782769,-2.658207 -7.666629 1.574405,-2.719719 -7.738775 1.462499,-9.07768 -8.653938 -1.409939,-8.601839 -8.478769 -1.029351,-8.161446 -7.882796 -0.7827634,-7.964973 -7.259382 -0.5405017,-8.086243 -6.739822 -0.3792208,-8.419253 -6.610425 -1.329,-8.210999 -5.739016 -1.02035,-8.068161 -5.179599 -0.7353336,-7.954358 -4.686331 -0.5252562,-8.69507 -6.511777 -1.279514,-8.525177 -5.619791 -0.7098276,-8.477007 -6.317763 -0.3599385,-8.510271 -6.938428 -0.3014966,-9.000492 -6.543587 -1.148506,-8.880987 -5.721895 -0.6690413,-8.807532 -6.410079 -0.4134832,-8.817857 -7.006244 -0.4159524,-9.346865 -6.701281 -0.9995446,-9.289856 -6.027856 -0.6302353,-9.173002 -6.389931 -0.4378581,-9.129291 -6.88459 -0.4013067,5.210,
-2.821293 -8.320423 0.2389627,-3.317903 -8.113487 0.7371705,-3.775019 -7.742801 1.306286,-3.93613 -7.396905 1.810724,-3.768781 -6.93288 2.3087,-3.705803 -6.276935 1.435305,-3.896422 -6.245502 2.147338,-4.04909 -6.029983 2.544032,-4.182863 -5.660114 2.806819,-3.2903 -5.861203 1.435079,-3.398171 -6.995847 2.116286,-3.34795 -7.858985 2.002538,-3.26209 -8.091341 1.897177,-2.849257 -5.930114 1.52238,-2.911279 -7.089761 2.059192,-2.980435 -7.78922 1.750607,-2.988252 -7.904615 1.534691,-2.453591 -6.23232 1.653506,-2.533661 -7.056148 1.909269,-2.676629 -7.666622 1.701687,-2.743838 -7.770448 1.586833,-9.075443 -8.653627 -1.407188,-8.601071 -8.486126 -1.00956,-8.157404 -7.897489 -0.7471378,-7.961116 -7.270427 -0.4939928,-8.091034 -6.752153 -0.3252708,-8.411641 -6.607835 -1.30189,-8.207898 -5.728153 -0.986737,-8.067006 -5.175304 -0.702037,-7.956774 -4.693296 -0.4937355,-8.691597 -6.511836 -1.262028,-8.527412 -5.622901 -0.679707,-8.484646 -6.329183 -0.3342706,-8.519943 -6.947305 -0.2889677,-8.998608 -6.546791 -1.139337,-8.884746 -5.728368 -0.6549316,-8.813645 -6.416193 -0.4055908,-8.823747 -7.004798 -0.4171991,-9.345117 -6.708148 -0.9981033,-9.291465 -6.03391 -0.6291493,-9.177561 -6.399442 -0.4414813,-9.135375 -6.889462 -0.4141908,5.310,
-2.850028 -8.358833 0.212891,-3.348209 -8.135006 0.7041296,-3.799792 -7.748672 1.258126,-3.962109 -7.3962 1.75078,-3.800492 -6.937469 2.234076,-3.731108 -6.312333 1.381947,-3.928017 -6.245449 2.076591,-4.090181 -6.009689 2.473244,-4.238013 -5.62825 2.737164,-3.317924 -5.895287 1.382988,-3.430325 -7.03094 2.047407,-3.368742 -7.885044 1.946491,-3.280291 -8.121103 1.851804,-2.882454 -5.955646 1.466413,-2.940771 -7.114278 1.987304,-2.998545 -7.8084 1.693548,-3.007786 -7.925922 1.495044,-2.490147 -6.247585 1.594021,-2.562433 -7.039485 1.842947,-2.693449 -7.660329 1.64932,-2.756933 -7.782815 1.542929,-9.078115 -8.67111 -1.380934,-8.607686 -8.504427 -0.9920028,-8.163757 -7.905382 -0.7348002,-7.967943 -7.272201 -0.4821167,-8.09973 -6.75594 -0.3130398,-8.413616 -6.619087 -1.304346,-8.205996 -5.744113 -0.993573,-8.065148 -5.185012 -0.7147836,-7.956968 -4.692661 -0.511448,-8.69043 -6.520984 -1.258129,-8.52012 -5.618927 -0.6818682,-8.472812 -6.318428 -0.3421606,-8.510532 -6.939126 -0.3002845,-8.997083 -6.557962 -1.127018,-8.87723 -5.72157 -0.6394139,-8.806021 -6.41102 -0.3888499,-8.822038 -7.004044 -0.4026751,-9.34488 -6.7219 -0.9793776,-9.288576 -6.042068 -0.6089356,-9.175217 -6.403606 -0.4203407,-9.13622 -6.889895 -0.3905709,5.410,
-2.884748 -8.337008 0.220123,-3.376886 -8.141045 0.7143438,-3.840151 -7.765899 1.276903,-4.003345 -7.413763 1.773414,-3.839338 -6.951816 2.268289,-3.784157 -6.326268 1.405943,-3.969124 -6.28414 2.105701,-4.122538 -6.056354 2.522054,-4.265573 -5.673135 2.804491,-3.378904 -5.882001 1.402217,-3.474726 -7.063425 2.046157,-3.414821 -7.90735 1.920711,-3.32757 -8.118553 1.823667,-2.944 -5.923597 1.484924,-2.986958 -7.146921 1.996854,-3.046057 -7.834072 1.681207,-3.053366 -7.918853 1.475313,-2.550844 -6.193849 1.610523,-2.607493 -7.046882 1.847915,-2.730826 -7.661656 1.623642,-2.79331 -7.74607 1.506885,-9.080296 -8.670069 -1.431219,-8.606917 -8.497721 -1.061981,-8.163519 -7.902685 -0.8235559,-7.968099 -7.268945 -0.5924796,-8.097341 -6.752912 -0.4456246,-8.42421 -6.628841 -1.366889,-8.215933 -5.747749 -1.075653,-8.075834 -5.185812 -0.8106684,-7.971389 -4.689537 -0.6129567,-8.700806 -6.532444 -1.320172,-8.534535 -5.623292 -0.7629914,-8.486483 -6.325105 -0.431266,-8.524669 -6.952486 -0.387743,-9.007292 -6.566286 -1.192915,-8.890347 -5.732521 -0.7219338,-8.817759 -6.422087 -0.4790806,-8.832344 -7.018638 -0.4914819,-9.353896 -6.725229 -1.049646,-9.2995 -6.043046 -0.6883924,-9.181927 -6.403287 -0.5072056,-9.138487 -6.893157 -0.4814616,5.510,
-2.925222 -8.394268 0.3573945,-3.426479 -8.163662 0.8563363,-3.887911 -7.788906 1.422248,-4.055843 -7.453025 1.929223,-3.902225 -6.992425 2.444649,-3.821004 -6.323123 1.529788,-4.012127 -6.28426 2.244932,-4.17358 -6.071351 2.665506,-4.319641 -5.708843 2.947176,-3.407959 -5.888291 1.529713,-3.513544 -7.068038 2.197938,-3.458256 -7.931343 2.09551,-3.369926 -8.166224 2.000549,-2.967609 -5.944236 1.616519,-3.022398 -7.160676 2.151546,-3.092323 -7.86516 1.855097,-3.103004 -7.97775 1.658823,-2.56984 -6.236179 1.745702,-2.642087 -7.056836 1.995969,-2.777472 -7.676698 1.787968,-2.843027 -7.786861 1.676252,-9.081754 -8.65325 -1.406192,-8.610721 -8.491346 -1.006138,-8.165382 -7.90167 -0.7467462,-7.968442 -7.276203 -0.4950107,-8.107929 -6.761952 -0.3275298,-8.42372 -6.608766 -1.314284,-8.217258 -5.733284 -1.005848,-8.076377 -5.181109 -0.7282228,-7.965994 -4.695249 -0.5261084,-8.701196 -6.512069 -1.274354,-8.533523 -5.61877 -0.6586415,-8.488321 -6.319961 -0.3113031,-8.522024 -6.941352 -0.2544822,-9.005156 -6.550391 -1.113877,-8.891662 -5.730748 -0.6292207,-8.819352 -6.422386 -0.3735776,-8.828265 -7.016437 -0.374548,-9.353365 -6.714649 -0.9715309,-9.300147 -6.044931 -0.597429,-9.185837 -6.414328 -0.4054558,-9.140701 -6.905216 -0.369405,5.610,
-2.926131 -8.423008 0.6530287,-3.44049 -8.178755 1.150059,-3.914447 -7.780961 1.738454,-4.073525 -7.435203 2.257999,-3.894024 -6.969549 2.791244,-3.838936 -6.30548 1.864781,-4.02339 -6.301919 2.585641,-4.174689 -6.088457 3.012378,-4.317589 -5.710018 3.307523,-3.41449 -5.840818 1.862579,-3.524042 -7.113088 2.51855,-3.476881 -7.983072 2.382129,-3.396136 -8.186543 2.287874,-2.966251 -5.898782 1.954058,-3.028297 -7.211326 2.473879,-3.101213 -7.904146 2.123069,-3.114891 -7.958562 1.901631,-2.568013 -6.203732 2.089015,-2.646265 -7.117187 2.31754,-2.778917 -7.72904 2.055483,-2.838809 -7.776021 1.922031,-9.074811 -8.657909 -1.411859,-8.606181 -8.49188 -1.014947,-8.163765 -7.905614 -0.7481577,-7.97019 -7.28577 -0.4902486,-8.104523 -6.77406 -0.3147991,-8.41669 -6.611043 -1.309654,-8.211858 -5.731624 -1.002646,-8.073597 -5.178491 -0.7276322,-7.967094 -4.693124 -0.5238016,-8.696116 -6.516649 -1.265507,-8.528529 -5.624313 -0.6770275,-8.486176 -6.335403 -0.3327895,-8.525307 -6.962472 -0.2876513,-9.003579 -6.553463 -1.138461,-8.887386 -5.725286 -0.6513375,-8.817992 -6.417917 -0.4000823,-8.832632 -7.013629 -0.4121518,-9.35116 -6.715272 -0.9918349,-9.297112 -6.035038 -0.6214007,-9.182651 -6.396322 -0.431997,-9.141875 -6.885042 -0.4035803,5.710,
-2.922187 -8.415855 0.5567838,-3.439815 -8.193428 1.055733,-3.915797 -7.800325 1.6302,-4.079781 -7.446458 2.140269,-3.903816 -6.976983 2.655465,-3.845366 -6.323944 1.771195,-4.038287 -6.307941 2.518836,-4.188511 -6.100475 2.959415,-4.324243 -5.72531 3.256237,-3.420887 -5.86787 1.769104,-3.539003 -7.098174 2.442573,-3.488441 -7.973747 2.310054,-3.401224 -8.181177 2.204305,-2.969867 -5.928737 1.859962,-3.038366 -7.198165 2.411444,-3.113863 -7.911367 2.076162,-3.120213 -7.984731 1.856161,-2.565484 -6.23579 1.995355,-2.650622 -7.119092 2.254165,-2.78952 -7.740508 2.019624,-2.848059 -7.807334 1.897424,-9.075256 -8.672073 -1.368428,-8.609547 -8.501793 -0.9650027,-8.164298 -7.904888 -0.6975814,-7.968704 -7.284151 -0.440048,-8.11159 -6.779021 -0.2652633,-8.419709 -6.608949 -1.259059,-8.214275 -5.733848 -0.9478685,-8.075592 -5.184354 -0.672644,-7.968026 -4.705358 -0.4691215,-8.699375 -6.518039 -1.217083,-8.536413 -5.634696 -0.6240925,-8.494864 -6.34361 -0.2752507,-8.533072 -6.972658 -0.2270222,-9.007203 -6.557942 -1.0917,-8.892351 -5.730131 -0.5991862,-8.820719 -6.418993 -0.3416618,-8.832251 -7.017659 -0.3517491,-9.355327 -6.723615 -0.9460323,-9.301967 -6.04618 -0.5722869,-9.186899 -6.402709 -0.3750935,-9.142998 -6.890639 -0.3413926,5.810,
-2.926079 -8.475119 0.7200671,-3.449533 -8.238441 1.210983,-3.93268 -7.839086 1.798796,-4.091236 -7.493639 2.320279,-3.902646 -7.034732 2.843864,-3.846556 -6.351871 1.96529,-4.028666 -6.372865 2.697406,-4.173824 -6.175392 3.123143,-4.30418 -5.813625 3.408834,-3.411572 -5.891909 1.973632,-3.525444 -7.173503 2.636435,-3.481611 -8.046133 2.468896,-3.402573 -8.219957 2.345227,-2.955698 -5.977944 2.073324,-3.022217 -7.256996 2.614984,-3.100204 -7.954836 2.238247,-3.105495 -7.996437 1.994967,-2.547047 -6.310333 2.223922,-2.628133 -7.112306 2.471597,-2.76637 -7.698171 2.206952,-2.816164 -7.749795 2.067424,-9.086988 -8.698818 -1.380939,-8.613812 -8.519228 -0.9918525,-8.165939 -7.926217 -0.7297552,-7.966304 -7.303649 -0.4759238,-8.110329 -6.795687 -0.3045067,-8.421545 -6.642961 -1.282307,-8.215314 -5.764042 -0.9757244,-8.077628 -5.212642 -0.7035438,-7.970678 -4.730479 -0.5030733,-8.699456 -6.549955 -1.23751,-8.532393 -5.653167 -0.6583912,-8.487419 -6.349164 -0.3131273,-8.522568 -6.976619 -0.260524,-9.004963 -6.588775 -1.111095,-8.88806 -5.756686 -0.6293683,-8.818047 -6.437115 -0.3740073,-8.830416 -7.037862 -0.3815629,-9.351838 -6.754859 -0.9657125,-9.299186 -6.074616 -0.6010153,-9.184023 -6.420984 -0.4062545,-9.140007 -6.909038 -0.3699603,5.910,
-2.881353 -8.470369 0.200908,-3.398533 -8.309963 0.6797488,-3.88813 -7.913845 1.229176,-4.026081 -7.538085 1.725066,-3.809195 -7.104597 2.236976,-3.770627 -6.497381 1.423037,-3.939108 -6.383123 2.171509,-4.08127 -6.196456 2.604498,-4.217989 -5.938343 2.8786,-3.339705 -6.047305 1.448837,-3.426407 -7.180664 2.14118,-3.374205 -8.02685 2.028105,-3.314998 -8.307858 1.909438,-2.88407 -6.103908 1.567031,-2.945582 -7.287196 2.081159,-2.990082 -7.975841 1.780723,-2.997324 -8.113291 1.589085,-2.472946 -6.385702 1.735481,-2.541724 -7.173501 1.968158,-2.651902 -7.754683 1.763697,-2.709166 -7.869071 1.675846,-9.089745 -8.704847 -1.393492,-8.620385 -8.531179 -1.00536,-8.172291 -7.949031 -0.7447589,-7.974068 -7.327848 -0.4955696,-8.118828 -6.819383 -0.3339642,-8.427348 -6.655788 -1.292447,-8.222624 -5.777767 -0.9824188,-8.085278 -5.231493 -0.7091917,-7.979477 -4.754535 -0.5086071,-8.707134 -6.558866 -1.248254,-8.540834 -5.668815 -0.6654373,-8.499473 -6.381105 -0.326764,-8.540955 -7.005449 -0.2830977,-9.01493 -6.595015 -1.122139,-8.898614 -5.771694 -0.6437585,-8.827015 -6.46077 -0.3999435,-8.841486 -7.049105 -0.4141856,-9.364525 -6.757686 -0.9759573,-9.307081 -6.079584 -0.6138642,-9.191137 -6.441704 -0.4258801,-9.14948 -6.927585 -0.3958913,6.010,
-2.879653 -8.525225 0.3426033,-3.397282 -8.315067 0.8417506,-3.871774 -7.913936 1.400628,-4.016861 -7.546087 1.90575,-3.806547 -7.110957 2.426316,-3.738918 -6.486919 1.581083,-3.913887 -6.386718 2.32031,-4.055963 -6.208833 2.764013,-4.181758 -5.954336 3.044412,-3.312462 -6.053056 1.593415,-3.397911 -7.192968 2.26987,-3.360855 -8.046724 2.17051,-3.301576 -8.347694 2.070072,-2.864851 -6.127512 1.690679,-2.917544 -7.293166 2.222064,-2.972956 -7.997301 1.947925,-2.977398 -8.169121 1.765926,-2.466518 -6.430809 1.839213,-2.511511 -7.144031 2.101748,-2.624402 -7.737075 1.918884,-2.681281 -7.898448 1.828866,-9.091107 -8.706549 -1.392331,-8.618746 -8.527367 -1.006306,-8.174012 -7.943899 -0.7382944,-7.975636 -7.323507 -0.4760429,-8.117187 -6.821899 -0.2981343,-8.425732 -6.651989 -1.29185,-8.221022 -5.774512 -0.9787189,-8.083291 -5.226192 -0.7040688,-7.977308 -4.744951 -0.504513,-8.704767 -6.561246 -1.242022,-8.533543 -5.674813 -0.6510944,-8.492297 -6.38049 -0.3115528,-8.534287 -6.997611 -0.269124,-9.011952 -6.601152 -1.110617,-8.89253 -5.779613 -0.6268472,-8.823211 -6.468994 -0.3814415,-8.840156 -7.058479 -0.3984581,-9.360482 -6.769653 -0.9592835,-9.303802 -6.096347 -0.5979916,-9.188085 -6.453116 -0.411723,-9.147726 -6.934104 -0.384487,6.110,
-2.849505 -8.561357 0.7473111,-3.381617 -8.311417 1.229115,-3.859594 -7.915372 1.82433,-4.005065 -7.565756 2.352885,-3.762975 -7.138603 2.887839,-3.713999 -6.429607 2.033344,-3.868927 -6.414556 2.784327,-4.001455 -6.247924 3.217873,-4.116315 -5.94697 3.508337,-3.270047 -5.979916 2.045298,-3.358704 -7.232606 2.707119,-3.355861 -8.089285 2.54421,-3.301609 -8.323139 2.431771,-2.80715 -6.075311 2.146374,-2.87094 -7.381216 2.673877,-2.973274 -8.062948 2.318342,-2.987183 -8.146883 2.094876,-2.401852 -6.416831 2.297355,-2.475078 -7.263952 2.518076,-2.621144 -7.830377 2.251966,-2.675813 -7.903126 2.114478,-9.07298 -8.707911 -1.391945,-8.602256 -8.530598 -1.001905,-8.156939 -7.941949 -0.7333325,-7.961458 -7.326709 -0.4715,-8.106917 -6.829574 -0.2933873,-8.414845 -6.649766 -1.283837,-8.207134 -5.774498 -0.9659044,-8.068459 -5.226726 -0.6863739,-7.961023 -4.748558 -0.4817941,-8.694883 -6.561641 -1.233143,-8.521684 -5.679183 -0.6365039,-8.4774 -6.387302 -0.2943736,-8.516445 -7.010483 -0.248569,-9.001405 -6.603229 -1.098535,-8.880934 -5.782045 -0.612494,-8.81024 -6.473165 -0.3642701,-8.825498 -7.067902 -0.3775223,-9.349003 -6.773253 -0.9434737,-9.291304 -6.102798 -0.5802395,-9.175381 -6.460532 -0.3891397,-9.134184 -6.94339 -0.3568101,6.210,
-2.856786 -8.554783 0.5700796,-3.378599 -8.319727 1.064872,-3.84496 -7.904401 1.653229,-3.97153 -7.54446 2.179943,-3.733952 -7.151226 2.735302,-3.723541 -6.458057 1.824595,-3.871616 -6.363891 2.59269,-3.98881 -6.209308 3.036312,-4.079779 -5.989103 3.318959,-3.269862 -6.017929 1.84537,-3.309524 -7.10077 2.545152,-3.304588 -7.958059 2.456397,-3.271629 -8.272512 2.37931,-2.800809 -6.097698 1.954532,-2.831266 -7.300357 2.500964,-2.924439 -8.005043 2.214523,-2.955606 -8.153572 2.021664,-2.391033 -6.424891 2.11434,-2.424379 -7.224208 2.35319,-2.563098 -7.824667 2.141072,-2.637633 -7.944152 2.032653,-9.070414 -8.707481 -1.388119,-8.595648 -8.531874 -1.002739,-8.145282 -7.942604 -0.7422622,-7.949351 -7.320318 -0.4897637,-8.104058 -6.824957 -0.3218762,-8.407206 -6.650413 -1.292223,-8.199609 -5.775888 -0.9840628,-8.061044 -5.225656 -0.7083189,-7.952428 -4.748065 -0.5015059,-8.687775 -6.559862 -1.244213,-8.519549 -5.675968 -0.6626931,-8.479775 -6.363254 -0.3108974,-8.518408 -6.98607 -0.2505567,-8.993953 -6.599828 -1.114521,-8.876359 -5.780082 -0.6339352,-8.810146 -6.461097 -0.3747978,-8.825345 -7.059897 -0.3777958,-9.340862 -6.767449 -0.9659019,-9.286202 -6.10106 -0.5959902,-9.174927 -6.460639 -0.3987178,-9.133953 -6.951502 -0.3616023,6.310,
-2.867782 -8.61466 0.8569143,-3.401052 -8.319256 1.380078,-3.869455 -7.881264 1.980241,-3.993109 -7.522316 2.50772,-3.736877 -7.132715 3.058079,-3.716854 -6.418941 2.159275,-3.869434 -6.366771 2.944813,-3.985861 -6.217285 3.395662,-4.075123 -5.978451 3.684336,-3.253741 -5.997223 2.164443,-3.309119 -7.130512 2.876406,-3.31165 -8.00757 2.769316,-3.277423 -8.322752 2.681041,-2.778885 -6.101659 2.262339,-2.827106 -7.328596 2.832855,-2.935533 -8.048214 2.532216,-2.969854 -8.212595 2.322287,-2.369599 -6.460691 2.412214,-2.42062 -7.238981 2.680909,-2.573475 -7.843203 2.460508,-2.652868 -7.987831 2.335499,-9.063864 -8.717989 -1.393978,-8.593277 -8.547657 -1.001512,-8.142609 -7.958326 -0.7322922,-7.943503 -7.339355 -0.4700864,-8.090406 -6.830315 -0.2929099,-8.397359 -6.666292 -1.285035,-8.18988 -5.789249 -0.9744948,-8.051913 -5.238923 -0.7029977,-7.944422 -4.759512 -0.5004306,-8.67528 -6.574045 -1.23728,-8.500203 -5.683795 -0.6440214,-8.458094 -6.377716 -0.2975297,-8.499121 -7.00114 -0.2466544,-8.982079 -6.613605 -1.106434,-8.858942 -5.7814 -0.6173364,-8.789725 -6.46216 -0.3623432,-8.805187 -7.060798 -0.3722928,-9.330654 -6.780535 -0.9561298,-9.273985 -6.10482 -0.5850775,-9.158171 -6.450056 -0.3866398,-9.115284 -6.934769 -0.3493669,6.410,
-2.892604 -8.556423 0.7489552,-3.41227 -8.278881 1.305107,-3.877917 -7.89615 1.918547,-4.015076 -7.558383 2.453235,-3.766736 -7.159016 3.015112,-3.747341 -6.386 2.07853,-3.903402 -6.34641 2.881651,-4.017015 -6.210586 3.322554,-4.107448 -5.981145 3.587115,-3.289612 -5.982955 2.071046,-3.35124 -7.071275 2.806662,-3.359974 -7.956398 2.720164,-3.325513 -8.289928 2.644999,-2.817319 -6.094572 2.155643,-2.854166 -7.291572 2.77063,-2.971567 -8.030861 2.491466,-3.00782 -8.22633 2.277094,-2.403006 -6.462728 2.291954,-2.435666 -7.195133 2.613373,-2.586444 -7.809681 2.434756,-2.659415 -7.984241 2.319326,-9.053178 -8.715353 -1.403054,-8.584707 -8.544207 -1.009031,-8.136744 -7.956872 -0.7399916,-7.937126 -7.33518 -0.4773093,-8.082423 -6.823616 -0.3031518,-8.394075 -6.662703 -1.310216,-8.185822 -5.786579 -1.003976,-8.046401 -5.236854 -0.7344602,-7.938434 -4.754513 -0.5344391,-8.670725 -6.571823 -1.262627,-8.491489 -5.682905 -0.6711034,-8.446585 -6.383245 -0.3317385,-8.487477 -7.00624 -0.2888718,-8.976027 -6.610992 -1.131261,-8.848825 -5.783473 -0.6440499,-8.778187 -6.473699 -0.3955009,-8.794846 -7.07151 -0.4126517,-9.323911 -6.775936 -0.9799634,-9.259677 -6.101126 -0.6102231,-9.143761 -6.458227 -0.4176477,-9.103853 -6.946324 -0.3857443,6.510,
-2.898833 -8.539547 0.9153396,-3.437161 -8.245094 1.47116,-3.917154 -7.860296 2.11233,-4.067249 -7.550697 2.678494,-3.823839 -7.129899 3.253748,-3.813711 -6.384576 2.27585,-3.974453 -6.364267 3.067372,-4.093049 -6.200309 3.498809,-4.198803 -5.901758 3.781555,-3.360214 -5.940689 2.272352,-3.456357 -7.191041 2.988443,-3.45773 -8.075434 2.824892,-3.409952 -8.324457 2.718734,-2.884278 -6.048971 2.368383,-2.937045 -7.340243 2.953706,-3.054842 -8.049709 2.579531,-3.080538 -8.156265 2.32639,-2.460037 -6.423305 2.513629,-2.511271 -7.194311 2.831195,-2.664301 -7.791637 2.593498,-2.727174 -7.907772 2.448065,-9.055835 -8.701799 -1.417915,-8.587112 -8.530687 -1.019628,-8.135852 -7.953534 -0.7486499,-7.932988 -7.33416 -0.4855053,-8.082678 -6.828309 -0.3103446,-8.391919 -6.656391 -1.316951,-8.184001 -5.781862 -1.011023,-8.045423 -5.242382 -0.742632,-7.938385 -4.76865 -0.5463365,-8.669095 -6.563676 -1.272588,-8.493966 -5.676939 -0.6827783,-8.453945 -6.381505 -0.3426185,-8.49754 -7.004272 -0.2997758,-8.975107 -6.602187 -1.144909,-8.851313 -5.783554 -0.657297,-8.782182 -6.474134 -0.4035769,-8.799914 -7.071107 -0.4182516,-9.324159 -6.765363 -0.9982048,-9.26125 -6.097545 -0.6334503,-9.146166 -6.460761 -0.4420795,-9.106826 -6.948362 -0.4122391,6.610,
-2.977884 -8.582596 1.166494,-3.520645 -8.269886 1.72538,-4.00576 -7.868038 2.365324,-4.150668 -7.544556 2.93364,-3.912514 -7.119989 3.514541,-3.895489 -6.340719 2.517293,-4.045185 -6.353008 3.313128,-4.180452 -6.196559 3.764537,-4.307119 -5.891617 4.065318,-3.438805 -5.896104 2.511786,-3.546688 -7.171674 3.236307,-3.544456 -8.090408 3.083864,-3.486959 -8.345072 2.979069,-2.958625 -6.005569 2.612628,-3.015656 -7.28366 3.215319,-3.123924 -8.021601 2.844061,-3.141455 -8.139118 2.585922,-2.526861 -6.378185 2.761756,-2.584296 -7.100776 3.078458,-2.732406 -7.711032 2.830858,-2.791734 -7.837759 2.676702,-9.043957 -8.720167 -1.395914,-8.576029 -8.552839 -1.001025,-8.12785 -7.960689 -0.7346054,-7.930491 -7.342096 -0.47526,-8.075756 -6.828594 -0.3046103,-8.383965 -6.667641 -1.298962,-8.17866 -5.789966 -0.9907714,-8.037999 -5.242914 -0.720348,-7.927464 -4.767498 -0.5187759,-8.661835 -6.574681 -1.25263,-8.487251 -5.672934 -0.6673059,-8.442115 -6.367076 -0.3245319,-8.480815 -6.991629 -0.2758793,-8.967695 -6.615346 -1.122216,-8.844297 -5.780503 -0.6354765,-8.774401 -6.463573 -0.3830582,-8.791957 -7.060716 -0.3946713,-9.315287 -6.783878 -0.973116,-9.257626 -6.10279 -0.60451,-9.141091 -6.450568 -0.4118156,-9.100032 -6.936783 -0.3802683,6.710,
-3.050426 -8.573292 1.096499,-3.59007 -8.301497 1.644404,-4.074503 -7.908364 2.285925,-4.248455 -7.558992 2.863707,-4.051456 -7.076252 3.428752,-3.997959 -6.334735 2.386484,-4.171515 -6.363383 3.179132,-4.327974 -6.201732 3.600964,-4.472618 -5.868908 3.872279,-3.538038 -5.889323 2.391353,-3.665575 -7.206686 3.1163,-3.655178 -8.088757 2.940491,-3.600735 -8.227938 2.812269,-3.059076 -5.997227 2.502528,-3.14089 -7.322343 3.113159,-3.251038 -8.042444 2.731568,-3.276016 -8.070791 2.473511,-2.633087 -6.365535 2.666824,-2.713395 -7.183334 2.959172,-2.873777 -7.79252 2.702331,-2.947073 -7.856992 2.552729,-9.046898 -8.71018 -1.446676,-8.578817 -8.541018 -1.06149,-8.127171 -7.954374 -0.794761,-7.92791 -7.329246 -0.5341781,-8.082479 -6.818622 -0.3614759,-8.387602 -6.667419 -1.36236,-8.18196 -5.78899 -1.057228,-8.042008 -5.245759 -0.790166,-7.933538 -4.773006 -0.5940122,-8.665689 -6.578822 -1.310725,-8.489842 -5.680966 -0.7279411,-8.443603 -6.373743 -0.389834,-8.485269 -6.995059 -0.3430886,-8.972372 -6.618616 -1.176351,-8.846542 -5.792238 -0.6927791,-8.774737 -6.476767 -0.4448234,-8.793952 -7.07275 -0.4595977,-9.321404 -6.78157 -1.023983,-9.258217 -6.106552 -0.6607212,-9.142108 -6.469378 -0.473949,-9.103725 -6.95959 -0.4440171,6.810,
-3.077686 -8.566612 1.244716,-3.621922 -8.269148 1.751442,-4.108713 -7.870093 2.384155,-4.268354 -7.541237 2.952813,-4.070297 -7.08328 3.526671,-4.012885 -6.31108 2.562811,-4.191582 -6.335813 3.35611,-4.343792 -6.17839 3.801013,-4.480583 -5.866621 4.09612,-3.554569 -5.851789 2.578114,-3.696394 -7.233039 3.260035,-3.67803 -8.136553 3.067391,-3.608597 -8.318068 2.944106,-3.07981 -5.962903 2.694259,-3.16656 -7.359592 3.265353,-3.264848 -8.086777 2.873491,-3.278246 -8.141878 2.618625,-2.660556 -6.337717 2.856919,-2.74181 -7.209526 3.112613,-2.890646 -7.819415 2.827892,-2.953964 -7.883655 2.673674,-9.049862 -8.704231 -1.444896,-8.583753 -8.543507 -1.057209,-8.129937 -7.957967 -0.789296,-7.927702 -7.33841 -0.5280625,-8.083481 -6.831728 -0.3568954,-8.389017 -6.66426 -1.347468,-8.182282 -5.783 -1.047224,-8.042536 -5.236303 -0.7868834,-7.933314 -4.759878 -0.593137,-8.668259 -6.573129 -1.298108,-8.493028 -5.674192 -0.7117984,-8.446994 -6.372081 -0.3742347,-8.486099 -7.000364 -0.3306973,-8.976545 -6.611406 -1.166896,-8.852341 -5.779268 -0.6811541,-8.780047 -6.465082 -0.4318585,-8.796542 -7.066661 -0.4496129,-9.326483 -6.775267 -1.018521,-9.264689 -6.094906 -0.651607,-9.147437 -6.452735 -0.463899,-9.106849 -6.940961 -0.4378997,6.910,
-3.128939 -8.523409 1.109444,-3.662926 -8.254147 1.631089,-4.137671 -7.878517 2.25455,-4.297686 -7.561855 2.804656,-4.111206 -7.09066 3.360909,-4.053539 -6.329264 2.446043,-4.228617 -6.295995 3.226103,-4.368336 -6.144136 3.663182,-4.489723 -5.855004 3.956205,-3.590984 -5.853658 2.450958,-3.679017 -7.204092 3.1291,-3.679403 -8.078518 2.967526,-3.633396 -8.262192 2.867602,-3.113118 -5.953699 2.547054,-3.159041 -7.355366 3.105805,-3.275517 -8.043982 2.741562,-3.304423 -8.090584 2.506564,-2.6895 -6.318686 2.694812,-2.740698 -7.234928 2.939047,-2.89446 -7.831041 2.668562,-2.962192 -7.880637 2.517016,-9.067962 -8.709105 -1.422578,-8.600812 -8.544312 -1.02082,-8.149706 -7.95885 -0.75069,-7.947551 -7.334869 -0.4922381,-8.091701 -6.825773 -0.3224972,-8.403157 -6.666337 -1.307427,-8.197934 -5.782251 -0.9960447,-8.060349 -5.244658 -0.731373,-7.955024 -4.779224 -0.538902,-8.683313 -6.572737 -1.266217,-8.518803 -5.676437 -0.6693083,-8.474864 -6.371312 -0.3241144,-8.511852 -6.997806 -0.2758627,-8.991382 -6.610151 -1.142253,-8.876847 -5.78362 -0.6464282,-8.804216 -6.464507 -0.3931508,-8.815629 -7.064512 -0.4074684,-9.341198 -6.773915 -1.00124,-9.284909 -6.096312 -0.6251875,-9.167652 -6.451676 -0.4321315,-9.123469 -6.938688 -0.4021794,7.010,
-3.133688 -8.511354 0.9615579,-3.667217 -8.261013 1.477003,-4.147859 -7.874195 2.072058,-4.308578 -7.543041 2.603001,-4.107176 -7.091178 3.145635,-4.017015 -6.315116 2.25506,-4.198949 -6.26214 3.025593,-4.348984 -6.106249 3.485639,-4.480223 -5.847003 3.791168,-3.558624 -5.861314 2.259167,-3.662336 -7.159139 2.933528,-3.656543 -8.047203 2.811603,-3.6106 -8.29561 2.720814,-3.088904 -5.95779 2.355563,-3.153192 -7.300632 2.910647,-3.24896 -8.013866 2.603519,-3.274994 -8.130964 2.40838,-2.67214 -6.304742 2.502382,-2.734615 -7.165905 2.742086,-2.874659 -7.782444 2.51127,-2.941978 -7.893709 2.390249,-9.081795 -8.71497 -1.434514,-8.615596 -8.543999 -1.038404,-8.169338 -7.960941 -0.7692419,-7.968643 -7.336507 -0.5087207,-8.119619 -6.834505 -0.3352274,-8.424557 -6.67192 -1.331166,-8.218927 -5.778333 -1.024605,-8.078102 -5.233984 -0.7661225,-7.971862 -4.763479 -0.5788884,-8.702604 -6.58039 -1.288284,-8.540465 -5.680882 -0.6953263,-8.49791 -6.381627 -0.3573468,-8.53902 -7.012502 -0.3148944,-9.00819 -6.617116 -1.162503,-8.896345 -5.784278 -0.6737018,-8.822965 -6.462978 -0.4225558,-8.836515 -7.062269 -0.4398084,-9.355535 -6.777872 -1.01935,-9.301465 -6.08661 -0.6487231,-9.184156 -6.433602 -0.458213,-9.141078 -6.920874 -0.4305044,7.110,
-3.018469 -8.389685 0.855098,-3.539484 -8.098204 1.271938,-4.032637 -7.651392 1.850457,-4.198961 -7.267631 2.405595,-4.014668 -6.825489 2.960538,-3.891008 -6.17871 2.061642,-4.055639 -6.130746 2.787853,-4.196832 -5.926323 3.194566,-4.319553 -5.632728 3.450391,-3.451396 -5.756319 2.113782,-3.556541 -6.993446 2.767966,-3.517342 -7.877712 2.568237,-3.452763 -8.070572 2.420355,-2.995507 -5.886076 2.253047,-3.057655 -7.040582 2.744224,-3.128572 -7.716941 2.341697,-3.137133 -7.777013 2.094447,-2.595212 -6.241947 2.444083,-2.646081 -6.964333 2.650088,-2.789876 -7.523369 2.402213,-2.863921 -7.598791 2.284059,-9.1345 -8.784571 -1.337751,-8.659774 -8.592499 -0.9606367,-8.20986 -7.995207 -0.6998655,-8.018891 -7.368857 -0.4478232,-8.178361 -6.873676 -0.2764851,-8.474627 -6.709474 -1.236578,-8.28183 -5.813439 -0.9259912,-8.152667 -5.269573 -0.6603258,-8.052998 -4.802486 -0.4669005,-8.757707 -6.622018 -1.183284,-8.605146 -5.725917 -0.6012924,-8.561959 -6.429006 -0.2588391,-8.598949 -7.05747 -0.2081263,-9.065872 -6.667074 -1.050257,-8.957973 -5.841604 -0.5675507,-8.88277 -6.520383 -0.3084522,-8.892609 -7.118837 -0.3132201,-9.414724 -6.837608 -0.8980391,-9.361865 -6.155081 -0.5337594,-9.242379 -6.504728 -0.3377323,-9.195713 -6.990648 -0.3001908,7.210,
-2.986423 -8.338314 0.8325644,-3.478632 -8.084934 1.323359,-3.949341 -7.622819 1.887653,-4.134941 -7.204251 2.400905,-3.999722 -6.717151 2.929217,-3.815855 -6.074478 1.96264,-4.014168 -5.977638 2.648654,-4.158957 -5.704631 3.033722,-4.282173 -5.319513 3.288549,-3.378105 -5.653139 1.974925,-3.516058 -6.835908 2.658539,-3.487518 -7.721194 2.559732,-3.423837 -7.930174 2.456967,-2.942456 -5.765331 2.073186,-3.037871 -6.981007 2.580107,-3.114902 -7.678741 2.255349,-3.124089 -7.732502 2.050123,-2.567335 -6.110151 2.226559,-2.63999 -7.002946 2.447166,-2.790261 -7.621093 2.239906,-2.859302 -7.668302 2.135143,-9.129778 -8.845465 -1.289056,-8.654566 -8.638992 -0.9043678,-8.209439 -8.028101 -0.639933,-8.028025 -7.393421 -0.3874138,-8.18976 -6.909357 -0.2119515,-8.481864 -6.751098 -1.169775,-8.291582 -5.864524 -0.8518696,-8.169047 -5.314477 -0.5807136,-8.072559 -4.836705 -0.3809062,-8.768482 -6.667144 -1.120849,-8.620652 -5.801868 -0.5309002,-8.578157 -6.509408 -0.1890095,-8.61377 -7.134885 -0.1432952,-9.0764 -6.715061 -0.9916198,-8.973686 -5.90716 -0.5126745,-8.900868 -6.585893 -0.2640508,-8.908403 -7.178134 -0.2762107,-9.424224 -6.892955 -0.8384792,-9.379246 -6.222925 -0.4778725,-9.260391 -6.561374 -0.2790264,-9.211873 -7.043242 -0.2405308,7.310,
-3.005085 -8.290884 0.4694926,-3.487426 -8.034439 0.9740837,-3.950383 -7.556537 1.510473,-4.136942 -7.122465 1.987688,-4.004361 -6.672044 2.470417,-3.791538 -6.061355 1.570857,-4.003738 -5.927984 2.226371,-4.153837 -5.657857 2.591961,-4.284598 -5.289983 2.844509,-3.366867 -5.696378 1.567703,-3.52765 -6.774555 2.234739,-3.487925 -7.615411 2.166254,-3.412153 -7.849506 2.0915,-2.946082 -5.818079 1.647059,-3.064325 -6.951909 2.154512,-3.127191 -7.618637 1.893097,-3.127424 -7.713048 1.728804,-2.582397 -6.147968 1.77667,-2.675859 -6.971582 2.012495,-2.820216 -7.569172 1.851122,-2.886508 -7.652421 1.773584,-9.138973 -8.845739 -1.322805,-8.656862 -8.653307 -0.934144,-8.20256 -8.053215 -0.6767188,-8.013412 -7.421658 -0.4253943,-8.174644 -6.930597 -0.2570835,-8.471381 -6.767524 -1.230877,-8.276921 -5.886747 -0.9077532,-8.148763 -5.338064 -0.6320289,-8.045287 -4.855266 -0.4362162,-8.75766 -6.678708 -1.182026,-8.600937 -5.810871 -0.5789921,-8.560187 -6.529699 -0.2295769,-8.599236 -7.149414 -0.1886305,-9.066914 -6.723016 -1.049097,-8.956575 -5.919139 -0.5536273,-8.884349 -6.615846 -0.3039867,-8.896356 -7.202909 -0.3216573,-9.417933 -6.89411 -0.8926306,-9.363855 -6.232574 -0.5260754,-9.243761 -6.588331 -0.3262658,-9.198256 -7.066835 -0.2933611,7.410,
-3.083923 -8.049547 -0.887724,-3.532742 -7.940799 -0.5426037,-3.972582 -7.40587 -0.2178556,-4.176045 -6.907999 0.0821768,-4.228962 -6.481452 0.4173867,-3.850321 -6.027269 -0.152495,-4.071901 -5.699813 0.3516634,-4.222361 -5.353522 0.6924051,-4.36438 -5.025878 0.9198375,-3.493954 -5.769397 -0.08266729,-3.634884 -6.2805 0.515522,-3.573233 -7.118856 0.5931022,-3.490557 -7.619909 0.5921899,-3.115334 -5.859212 0.03515226,-3.223038 -6.486219 0.5248984,-3.214821 -7.221263 0.4334151,-3.195673 -7.603599 0.361115,-2.754996 -6.119239 0.1843673,-2.845851 -6.543643 0.4984624,-2.93234 -7.17543 0.4472681,-2.995657 -7.485118 0.4161123,-9.110994 -8.856245 -1.271333,-8.634757 -8.661963 -0.9083822,-8.192215 -8.038332 -0.6653142,-8.00194 -7.415595 -0.4196642,-8.118037 -6.90635 -0.2472011,-8.448413 -6.772316 -1.190413,-8.246818 -5.907131 -0.8579439,-8.10577 -5.363653 -0.5520632,-7.98814 -4.887079 -0.328526,-8.729789 -6.674589 -1.124435,-8.565549 -5.779944 -0.541634,-8.509646 -6.488843 -0.1868749,-8.536359 -7.109569 -0.1232433,-9.04005 -6.717247 -0.9767813,-8.921467 -5.897612 -0.4874056,-8.840215 -6.588135 -0.2336226,-8.847223 -7.181665 -0.2328299,-9.392632 -6.890899 -0.8123521,-9.334477 -6.226791 -0.4378106,-9.210597 -6.585217 -0.2418879,-9.162826 -7.07191 -0.1998829,7.510,
-3.21016 -7.922466 -1.704724,-3.673256 -7.83716 -1.452881,-4.121164 -7.206892 -1.239125,-4.310755 -6.646091 -1.017884,-4.419874 -6.198093 -0.7860779,-3.966326 -6.017243 -1.266234,-4.223047 -5.510512 -0.8135272,-4.41062 -5.048414 -0.4570589,-4.607915 -4.658676 -0.1883246,-3.620253 -5.811908 -1.154703,-3.879166 -5.905262 -0.5177017,-3.841906 -6.748897 -0.392529,-3.759453 -7.32541 -0.4142135,-3.254891 -5.859976 -0.996604,-3.500567 -6.070641 -0.4131281,-3.491406 -6.857072 -0.396633,-3.45137 -7.351352 -0.4589598,-2.889451 -6.063832 -0.817709,-3.093465 -6.133178 -0.4465762,-3.181958 -6.753921 -0.4812286,-3.212698 -7.179515 -0.5462383,-9.085019 -8.789478 -1.243829,-8.598509 -8.580599 -0.8971024,-8.170901 -7.938623 -0.6722707,-8.001197 -7.30744 -0.4255255,-8.069869 -6.751081 -0.2488683,-8.378879 -6.727523 -1.215077,-8.150153 -5.869328 -0.8836485,-7.985146 -5.315142 -0.5604793,-7.852057 -4.802104 -0.3297438,-8.660936 -6.605094 -1.143734,-8.469261 -5.688192 -0.5828335,-8.403481 -6.401083 -0.2252663,-8.493766 -7.031606 -0.08777201,-9.01699 -6.688838 -0.945202,-8.882332 -5.866281 -0.4548289,-8.7923 -6.541097 -0.2022526,-8.803247 -7.13033 -0.1854014,-9.368914 -6.863733 -0.7881325,-9.304744 -6.203092 -0.3978447,-9.170355 -6.552306 -0.1973159,-9.117004 -7.046833 -0.1394471,7.610,
-3.258326 -7.916804 -1.72165,-3.707573 -7.834308 -1.484591,-4.154275 -7.212907 -1.276438,-4.346731 -6.656847 -1.049567,-4.471952 -6.197014 -0.8207159,-4.024058 -5.987394 -1.383282,-4.288521 -5.447573 -0.971742,-4.479372 -5.001505 -0.6580877,-4.681011 -4.587984 -0.4222398,-3.685522 -5.795463 -1.251864,-3.954079 -5.807234 -0.6028954,-3.922312 -6.66939 -0.4689114,-3.836657 -7.21808 -0.4954362,-3.331781 -5.851404 -1.077784,-3.581951 -6.030811 -0.4725757,-3.57431 -6.84024 -0.4415123,-3.519053 -7.308615 -0.505262,-2.979128 -6.058276 -0.8798136,-3.20071 -6.08925 -0.4899358,-3.284711 -6.712953 -0.5011826,-3.29401 -7.117162 -0.5514255,-9.070673 -8.725809 -1.197115,-8.58125 -8.530764 -0.8383958,-8.154217 -7.884527 -0.6105921,-7.98163 -7.250938 -0.3658704,-8.059177 -6.705913 -0.1904256,-8.365085 -6.645355 -1.157384,-8.136227 -5.799654 -0.8263636,-7.967855 -5.249422 -0.5096371,-7.833014 -4.738044 -0.2848421,-8.646482 -6.528059 -1.091861,-8.453749 -5.635725 -0.526667,-8.392029 -6.369249 -0.1797192,-8.431808 -6.992216 -0.1152989,-8.961698 -6.56475 -0.9400212,-8.814977 -5.742774 -0.4384428,-8.72959 -6.465885 -0.2042765,-8.746227 -7.062816 -0.2077843,-9.324292 -6.738107 -0.7689344,-9.252554 -6.069107 -0.376724,-9.111793 -6.442277 -0.1956289,-9.057354 -6.938789 -0.1574149,7.710,
-3.303437 -7.899673 -2.131605,-3.756276 -7.790304 -1.882626,-4.220442 -7.139231 -1.729007,-4.428628 -6.568447 -1.550472,-4.530565 -6.081928 -1.381314,-4.098756 -6.031732 -1.923728,-4.371735 -5.410046 -1.533076,-4.565958 -4.920091 -1.228532,-4.763871 -4.487039 -0.9931953,-3.77911 -5.884442 -1.798981,-4.051725 -5.685309 -1.142104,-4.026516 -6.536207 -0.9931434,-3.941122 -7.162176 -1.025454,-3.439972 -5.920238 -1.621081,-3.691966 -5.90281 -0.9817725,-3.687891 -6.722667 -0.9331913,-3.621957 -7.249399 -1.01409,-3.088327 -6.076076 -1.419919,-3.327442 -5.96746 -0.9710449,-3.409367 -6.563565 -0.9487417,-3.401911 -6.999336 -0.9939756,-9.053555 -8.595951 -1.256288,-8.571731 -8.388578 -0.8637971,-8.147189 -7.781188 -0.5897834,-7.964415 -7.141384 -0.2990595,-8.086182 -6.60807 -0.08469033,-8.353112 -6.522016 -1.201357,-8.115965 -5.66659 -0.8552229,-7.948405 -5.120969 -0.5373952,-7.822806 -4.612255 -0.3164245,-8.633992 -6.415157 -1.13908,-8.440841 -5.544422 -0.5338,-8.395939 -6.309776 -0.2115296,-8.44626 -6.920359 -0.1858124,-8.947649 -6.453281 -0.9814085,-8.804652 -5.635452 -0.4550099,-8.726934 -6.375432 -0.231552,-8.75132 -6.963043 -0.2622982,-9.305875 -6.628049 -0.8038913,-9.232917 -5.956096 -0.4099491,-9.10011 -6.348709 -0.2326639,-9.053864 -6.844823 -0.2079344,7.810,
-3.318145 -7.888262 -2.283099,-3.764467 -7.770467 -2.033633,-4.219839 -7.127524 -1.885254,-4.434399 -6.569717 -1.706294,-4.546913 -6.096134 -1.536382,-4.121315 -6.052557 -2.105022,-4.401115 -5.400474 -1.719062,-4.597653 -4.896201 -1.423574,-4.789955 -4.453617 -1.190647,-3.809997 -5.917295 -1.980285,-4.07681 -5.648765 -1.317153,-4.050499 -6.50328 -1.176594,-3.963906 -7.130137 -1.226025,-3.475768 -5.947776 -1.799667,-3.719744 -5.850297 -1.157421,-3.714808 -6.682186 -1.115301,-3.642514 -7.211963 -1.207559,-3.124208 -6.088464 -1.596025,-3.355314 -5.934015 -1.139619,-3.431826 -6.535167 -1.113973,-3.416471 -6.966352 -1.162671,-9.050374 -8.487757 -1.231436,-8.566586 -8.271944 -0.866946,-8.137836 -7.655397 -0.5866323,-7.954591 -7.030787 -0.2875952,-8.095607 -6.540388 -0.05622435,-8.329353 -6.416694 -1.148277,-8.084014 -5.559246 -0.7969729,-7.925071 -5.011902 -0.4833616,-7.811727 -4.494661 -0.2587211,-8.618107 -6.305594 -1.06199,-8.422486 -5.44458 -0.4532188,-8.389791 -6.222937 -0.1438996,-8.449528 -6.835984 -0.1271673,-8.937012 -6.334888 -0.8864976,-8.79784 -5.50107 -0.3814238,-8.722257 -6.244224 -0.1851907,-8.749099 -6.833538 -0.2306733,-9.29911 -6.51334 -0.6903656,-9.22756 -5.829809 -0.3215148,-9.099253 -6.244843 -0.1684241,-9.059921 -6.755722 -0.1579653,7.910,
-3.306078 -7.900182 -2.218707,-3.749851 -7.789654 -1.951433,-4.200863 -7.135097 -1.806444,-4.405726 -6.547501 -1.637542,-4.514036 -6.053232 -1.463167,-4.099108 -6.045654 -2.017001,-4.391098 -5.408817 -1.634629,-4.586822 -4.899997 -1.345958,-4.776283 -4.442909 -1.117383,-3.785179 -5.908787 -1.904076,-4.051613 -5.67431 -1.245392,-4.021437 -6.53626 -1.08638,-3.94265 -7.16182 -1.116364,-3.451832 -5.938583 -1.738767,-3.695706 -5.888735 -1.091718,-3.684378 -6.727754 -1.045671,-3.612079 -7.267632 -1.13262,-3.103981 -6.079265 -1.546745,-3.342688 -5.961659 -1.092471,-3.41691 -6.568216 -1.072751,-3.403803 -6.999265 -1.127819,-9.039777 -8.331596 -1.104581,-8.549728 -8.105438 -0.7189017,-8.126586 -7.503339 -0.4386997,-7.951728 -6.863582 -0.1421243,-8.104902 -6.374967 0.08535075,-8.32242 -6.220595 -1.06116,-8.085536 -5.383642 -0.696928,-7.932046 -4.855608 -0.3665862,-7.822428 -4.353712 -0.1428226,-8.613037 -6.107755 -0.9914521,-8.427763 -5.272779 -0.3567055,-8.404398 -6.090505 -0.04283893,-8.467611 -6.693988 -0.05344939,-8.934977 -6.140502 -0.8223947,-8.811426 -5.324609 -0.3007311,-8.740145 -6.099675 -0.09940553,-8.772378 -6.675718 -0.1626394,-9.30131 -6.32565 -0.6304126,-9.241609 -5.661272 -0.2690821,-9.117141 -6.10228 -0.1171984,-9.08309 -6.603395 -0.1225864,8.010,
-3.275854 -7.914793 -2.244911,-3.71759 -7.806131 -1.953339,-4.168684 -7.146608 -1.798255,-4.370441 -6.553973 -1.627908,-4.467125 -6.054551 -1.458477,-4.072212 -6.078683 -1.985358,-4.356623 -5.438183 -1.595529,-4.54636 -4.924279 -1.300466,-4.730272 -4.460219 -1.063587,-3.755936 -5.938673 -1.887576,-4.011485 -5.696375 -1.231065,-3.980227 -6.539518 -1.071574,-3.901077 -7.170992 -1.096983,-3.420225 -5.970655 -1.736366,-3.649727 -5.926923 -1.09601,-3.637148 -6.752252 -1.047721,-3.567884 -7.293449 -1.128523,-3.073397 -6.120183 -1.557004,-3.300913 -6.006171 -1.104406,-3.371426 -6.607172 -1.080009,-3.35813 -7.037277 -1.126983,-9.037025 -8.195038 -0.9844494,-8.552827 -7.981432 -0.5706899,-8.12385 -7.395488 -0.2575675,-7.943571 -6.773633 0.06232345,-8.090607 -6.289121 0.319507,-8.298919 -6.059064 -0.854732,-8.064125 -5.247074 -0.4419826,-7.908633 -4.742219 -0.08865827,-7.787821 -4.257448 0.145105,-8.595526 -5.944927 -0.786355,-8.415527 -5.147619 -0.1071026,-8.399386 -5.976006 0.2253622,-8.463289 -6.565101 0.2173609,-8.925605 -5.984079 -0.6160208,-8.805614 -5.212252 -0.06620133,-8.741795 -5.988737 0.1443616,-8.77807 -6.544007 0.08227813,-9.302794 -6.182968 -0.4230331,-9.244576 -5.556715 -0.04633343,-9.124611 -6.018476 0.1107671,-9.094316 -6.504146 0.1014436,8.110,
-3.249495 -7.915805 -2.289201,-3.681461 -7.80708 -1.951234,-4.132513 -7.157405 -1.769733,-4.340508 -6.567371 -1.585162,-4.427549 -6.065801 -1.40488,-4.044483 -6.096153 -1.960509,-4.320278 -5.44948 -1.535414,-4.504105 -4.926298 -1.216531,-4.680084 -4.451474 -0.9661989,-3.729016 -5.963504 -1.877242,-3.973164 -5.696657 -1.189239,-3.937746 -6.558685 -1.040277,-3.857662 -7.186067 -1.085549,-3.391347 -6.006803 -1.736091,-3.61098 -5.927667 -1.061206,-3.598387 -6.765811 -1.027444,-3.528944 -7.300648 -1.131468,-3.045739 -6.164075 -1.562598,-3.256599 -6.031976 -1.084495,-3.329968 -6.631292 -1.064911,-3.320772 -7.049999 -1.118729,-9.024128 -8.098991 -0.8846816,-8.526536 -7.908195 -0.475917,-8.064607 -7.298192 -0.1766234,-7.891514 -6.640707 0.1302205,-8.103672 -6.201669 0.3677944,-8.258791 -5.946785 -0.8017709,-8.028265 -5.16641 -0.3675438,-7.88322 -4.689541 0.006317198,-7.761744 -4.212184 0.2504408,-8.569175 -5.81965 -0.7212312,-8.39863 -5.090658 -0.002685666,-8.389378 -5.957072 0.3408021,-8.44768 -6.543565 0.3270853,-8.910583 -5.856363 -0.5325499,-8.795257 -5.151536 0.04302287,-8.738149 -5.960586 0.2406187,-8.769569 -6.506227 0.1560795,-9.299522 -6.062006 -0.3145528,-9.243567 -5.485647 0.08160055,-9.11746 -5.970193 0.2400877,-9.076559 -6.445652 0.2179172,8.210,
-3.206596 -7.894083 -2.301715,-3.639994 -7.799316 -1.990587,-4.093452 -7.15419 -1.812203,-4.304795 -6.561156 -1.625387,-4.401883 -6.054979 -1.444747,-3.99011 -6.076854 -2.00841,-4.273292 -5.438509 -1.605801,-4.461731 -4.918542 -1.296866,-4.645504 -4.442976 -1.052501,-3.679262 -5.938266 -1.917168,-3.936878 -5.716522 -1.249145,-3.901697 -6.570152 -1.100016,-3.821764 -7.183832 -1.13752,-3.3477 -5.970203 -1.771165,-3.583683 -5.924305 -1.124201,-3.571677 -6.749011 -1.085166,-3.503431 -7.272755 -1.17486,-3.006314 -6.114065 -1.595688,-3.234008 -6.017364 -1.142198,-3.304694 -6.622621 -1.121421,-3.29221 -7.04574 -1.170121,-8.987701 -7.944512 -0.9153416,-8.486906 -7.792602 -0.4495302,-8.003112 -7.148221 -0.1562972,-7.835634 -6.457519 0.1237742,-8.103163 -6.09517 0.3166457,-8.231958 -5.803352 -0.8127556,-8.013298 -5.026999 -0.3389313,-7.886601 -4.573358 0.03322685,-7.78016 -4.093408 0.2564546,-8.553831 -5.669147 -0.7635492,-8.426195 -5.003019 -0.003645062,-8.433493 -5.895208 0.3129729,-8.481419 -6.476696 0.2531902,-8.904142 -5.695508 -0.5938025,-8.812378 -5.046851 0.03370452,-8.76046 -5.898036 0.2108784,-8.779411 -6.451911 0.07236898,-9.294349 -5.890819 -0.3870432,-9.241293 -5.328193 0.04552233,-9.118044 -5.857152 0.1986096,-9.073289 -6.344255 0.1359924,8.310,
