TiagoOliveira98/HandTracking/DataLogging/JointData/Logs(1642642809)_caPs_Calculator.csv
WRIST,THUMB_CMC,THUMB_MCP,THUMB_IP,THUMB_TIP,INDEX_FINGER_MCP,INDEX_FINGER_PIP,INDEX_FINGER_DIP,INDEX_FINGER_TIP,MIDDLE_FINGER_MCP,MIDDLE_FINGER_PIP,MIDDLE_FINGER_DIP,MIDDLE_FINGER_TIP,RING_FINGER_MCP,RING_FINGER_PIP,RING_FINGER_DIP,RING_FINGER_TIP,PINKY_MCP,PINKY_PIP,PINKY_DIP,PINKY_TIP,WRIST2,THUMB_CMC2,THUMB_MCP2,THUMB_IP2,THUMB_TIP2,INDEX_FINGER_MCP2,INDEX_FINGER_PIP2,INDEX_FINGER_DIP2,INDEX_FINGER_TIP2,MIDDLE_FINGER_MCP2,MIDDLE_FINGER_PIP2,MIDDLE_FINGER_DIP2,MIDDLE_FINGER_TIP2,RING_FINGER_MCP2,RING_FINGER_PIP2,RING_FINGER_DIP2,RING_FINGER_TIP2,PINKY_MCP2,PINKY_PIP2,PINKY_DIP2,PINKY_TIP2,Timestamp,Event
10 0 0,10 7.47 0,10 7.47 0,10 7.47 0,10 7.47 0,10 7.47 0,10 7.47 0,10 7.47 0,10 7.47 0,10 7.47 0,10 7.47 0,10 7.47 0,10 7.47 0,10 7.47 0,10 7.47 0,10 7.47 0,10 7.47 0,10 7.47 0,10 7.47 0,10 7.47 0,10 7.47 0,10 0 0,10 7.47 0,10 7.47 0,10 7.47 0,10 7.47 0,10 7.47 0,10 7.47 0,10 7.47 0,10 7.47 0,10 7.47 0,10 7.47 0,10 7.47 0,10 7.47 0,10 7.47 0,10 7.47 0,10 7.47 0,10 7.47 0,10 7.47 0,10 7.47 0,10 7.47 0,10 7.47 0,0.010,
2 0 -10.42541,2 0 -10.42541,2 0 -10.42541,2 0 -10.42541,2 0 -10.42541,2 0 -10.42541,2 0 -10.42541,2 0 -10.42541,2 0 -10.42541,2 0 -10.42541,2 0 -10.42541,2 0 -10.42541,2 0 -10.42541,2 0 -10.42541,2 0 -10.42541,2 0 -10.42541,2 0 -10.42541,2 0 -10.42541,2 0 -10.42541,2 0 -10.42541,2 0 -10.42541,2 0 -10.29614,2 0 -10.29614,2 0 -10.29614,2 0 -10.29614,2 0 -10.29614,2 0 -10.29614,2 0 -10.29614,2 0 -10.29614,2 0 -10.29614,2 0 -10.29614,2 0 -10.29614,2 0 -10.29614,2 0 -10.29614,2 0 -10.29614,2 0 -10.29614,2 0 -10.29614,2 0 -10.29614,2 0 -10.29614,2 0 -10.29614,2 0 -10.29614,2 0 -10.29614,0.110,
2 0 -10.42541,2 0 -10.42541,2 0 -10.42541,2 0 -10.42541,2 0 -10.42541,2 0 -10.42541,2 0 -10.42541,2 0 -10.42541,2 0 -10.42541,2 0 -10.42541,2 0 -10.42541,2 0 -10.42541,2 0 -10.42541,2 0 -10.42541,2 0 -10.42541,2 0 -10.42541,2 0 -10.42541,2 0 -10.42541,2 0 -10.42541,2 0 -10.42541,2 0 -10.42541,2 0 -10.29614,2 0 -10.29614,2 0 -10.29614,2 0 -10.29614,2 0 -10.29614,2 0 -10.29614,2 0 -10.29614,2 0 -10.29614,2 0 -10.29614,2 0 -10.29614,2 0 -10.29614,2 0 -10.29614,2 0 -10.29614,2 0 -10.29614,2 0 -10.29614,2 0 -10.29614,2 0 -10.29614,2 0 -10.29614,2 0 -10.29614,2 0 -10.29614,2 0 -10.29614,0.210,
2 0 -10.42541,2 0 -10.42541,2 0 -10.42541,2 0 -10.42541,2 0 -10.42541,2 0 -10.42541,2 0 -10.42541,2 0 -10.42541,2 0 -10.42541,2 0 -10.42541,2 0 -10.42541,2 0 -10.42541,2 0 -10.42541,2 0 -10.42541,2 0 -10.42541,2 0 -10.42541,2 0 -10.42541,2 0 -10.42541,2 0 -10.42541,2 0 -10.42541,2 0 -10.42541,2 0 -10.29614,2 0 -10.29614,2 0 -10.29614,2 0 -10.29614,2 0 -10.29614,2 0 -10.29614,2 0 -10.29614,2 0 -10.29614,2 0 -10.29614,2 0 -10.29614,2 0 -10.29614,2 0 -10.29614,2 0 -10.29614,2 0 -10.29614,2 0 -10.29614,2 0 -10.29614,2 0 -10.29614,2 0 -10.29614,2 0 -10.29614,2 0 -10.29614,2 0 -10.29614,0.310,
2 0 -10.42541,2 0 -10.42541,2 0 -10.42541,2 0 -10.42541,2 0 -10.42541,2 0 -10.42541,2 0 -10.42541,2 0 -10.42541,2 0 -10.42541,2 0 -10.42541,2 0 -10.42541,2 0 -10.42541,2 0 -10.42541,2 0 -10.42541,2 0 -10.42541,2 0 -10.42541,2 0 -10.42541,2 0 -10.42541,2 0 -10.42541,2 0 -10.42541,2 0 -10.42541,2 0 -10.29614,2 0 -10.29614,2 0 -10.29614,2 0 -10.29614,2 0 -10.29614,2 0 -10.29614,2 0 -10.29614,2 0 -10.29614,2 0 -10.29614,2 0 -10.29614,2 0 -10.29614,2 0 -10.29614,2 0 -10.29614,2 0 -10.29614,2 0 -10.29614,2 0 -10.29614,2 0 -10.29614,2 0 -10.29614,2 0 -10.29614,2 0 -10.29614,2 0 -10.29614,0.410,
2 0 -10.42541,2 0 -10.42541,2 0 -10.42541,2 0 -10.42541,2 0 -10.42541,2 0 -10.42541,2 0 -10.42541,2 0 -10.42541,2 0 -10.42541,2 0 -10.42541,2 0 -10.42541,2 0 -10.42541,2 0 -10.42541,2 0 -10.42541,2 0 -10.42541,2 0 -10.42541,2 0 -10.42541,2 0 -10.42541,2 0 -10.42541,2 0 -10.42541,2 0 -10.42541,2 0 -10.29614,2 0 -10.29614,2 0 -10.29614,2 0 -10.29614,2 0 -10.29614,2 0 -10.29614,2 0 -10.29614,2 0 -10.29614,2 0 -10.29614,2 0 -10.29614,2 0 -10.29614,2 0 -10.29614,2 0 -10.29614,2 0 -10.29614,2 0 -10.29614,2 0 -10.29614,2 0 -10.29614,2 0 -10.29614,2 0 -10.29614,2 0 -10.29614,2 0 -10.29614,0.510,
2 0 -10.42541,2 0 -10.42541,2 0 -10.42541,2 0 -10.42541,2 0 -10.42541,2 0 -10.42541,2 0 -10.42541,2 0 -10.42541,2 0 -10.42541,2 0 -10.42541,2 0 -10.42541,2 0 -10.42541,2 0 -10.42541,2 0 -10.42541,2 0 -10.42541,2 0 -10.42541,2 0 -10.42541,2 0 -10.42541,2 0 -10.42541,2 0 -10.42541,2 0 -10.42541,2 0 -10.29614,2 0 -10.29614,2 0 -10.29614,2 0 -10.29614,2 0 -10.29614,2 0 -10.29614,2 0 -10.29614,2 0 -10.29614,2 0 -10.29614,2 0 -10.29614,2 0 -10.29614,2 0 -10.29614,2 0 -10.29614,2 0 -10.29614,2 0 -10.29614,2 0 -10.29614,2 0 -10.29614,2 0 -10.29614,2 0 -10.29614,2 0 -10.29614,2 0 -10.29614,0.610,
2 0 -10.42541,2 0 -10.42541,2 0 -10.42541,2 0 -10.42541,2 0 -10.42541,2 0 -10.42541,2 0 -10.42541,2 0 -10.42541,2 0 -10.42541,2 0 -10.42541,2 0 -10.42541,2 0 -10.42541,2 0 -10.42541,2 0 -10.42541,2 0 -10.42541,2 0 -10.42541,2 0 -10.42541,2 0 -10.42541,2 0 -10.42541,2 0 -10.42541,2 0 -10.42541,2 0 -10.29614,2 0 -10.29614,2 0 -10.29614,2 0 -10.29614,2 0 -10.29614,2 0 -10.29614,2 0 -10.29614,2 0 -10.29614,2 0 -10.29614,2 0 -10.29614,2 0 -10.29614,2 0 -10.29614,2 0 -10.29614,2 0 -10.29614,2 0 -10.29614,2 0 -10.29614,2 0 -10.29614,2 0 -10.29614,2 0 -10.29614,2 0 -10.29614,2 0 -10.29614,0.710,
2 0 -10.42541,2 0 -10.42541,2 0 -10.42541,2 0 -10.42541,2 0 -10.42541,2 0 -10.42541,2 0 -10.42541,2 0 -10.42541,2 0 -10.42541,2 0 -10.42541,2 0 -10.42541,2 0 -10.42541,2 0 -10.42541,2 0 -10.42541,2 0 -10.42541,2 0 -10.42541,2 0 -10.42541,2 0 -10.42541,2 0 -10.42541,2 0 -10.42541,2 0 -10.42541,2 0 -10.29614,2 0 -10.29614,2 0 -10.29614,2 0 -10.29614,2 0 -10.29614,2 0 -10.29614,2 0 -10.29614,2 0 -10.29614,2 0 -10.29614,2 0 -10.29614,2 0 -10.29614,2 0 -10.29614,2 0 -10.29614,2 0 -10.29614,2 0 -10.29614,2 0 -10.29614,2 0 -10.29614,2 0 -10.29614,2 0 -10.29614,2 0 -10.29614,2 0 -10.29614,0.810,
2 0 -10.42541,2 0 -10.42541,2 0 -10.42541,2 0 -10.42541,2 0 -10.42541,2 0 -10.42541,2 0 -10.42541,2 0 -10.42541,2 0 -10.42541,2 0 -10.42541,2 0 -10.42541,2 0 -10.42541,2 0 -10.42541,2 0 -10.42541,2 0 -10.42541,2 0 -10.42541,2 0 -10.42541,2 0 -10.42541,2 0 -10.42541,2 0 -10.42541,2 0 -10.42541,2 0 -10.29614,2 0 -10.29614,2 0 -10.29614,2 0 -10.29614,2 0 -10.29614,2 0 -10.29614,2 0 -10.29614,2 0 -10.29614,2 0 -10.29614,2 0 -10.29614,2 0 -10.29614,2 0 -10.29614,2 0 -10.29614,2 0 -10.29614,2 0 -10.29614,2 0 -10.29614,2 0 -10.29614,2 0 -10.29614,2 0 -10.29614,2 0 -10.29614,2 0 -10.29614,0.910,
2 0 -10.42541,2 0 -10.42541,2 0 -10.42541,2 0 -10.42541,2 0 -10.42541,2 0 -10.42541,2 0 -10.42541,2 0 -10.42541,2 0 -10.42541,2 0 -10.42541,2 0 -10.42541,2 0 -10.42541,2 0 -10.42541,2 0 -10.42541,2 0 -10.42541,2 0 -10.42541,2 0 -10.42541,2 0 -10.42541,2 0 -10.42541,2 0 -10.42541,2 0 -10.42541,2 0 -10.29614,2 0 -10.29614,2 0 -10.29614,2 0 -10.29614,2 0 -10.29614,2 0 -10.29614,2 0 -10.29614,2 0 -10.29614,2 0 -10.29614,2 0 -10.29614,2 0 -10.29614,2 0 -10.29614,2 0 -10.29614,2 0 -10.29614,2 0 -10.29614,2 0 -10.29614,2 0 -10.29614,2 0 -10.29614,2 0 -10.29614,2 0 -10.29614,2 0 -10.29614,1.010,
2 0 -10.42541,2 0 -10.42541,2 0 -10.42541,2 0 -10.42541,2 0 -10.42541,2 0 -10.42541,2 0 -10.42541,2 0 -10.42541,2 0 -10.42541,2 0 -10.42541,2 0 -10.42541,2 0 -10.42541,2 0 -10.42541,2 0 -10.42541,2 0 -10.42541,2 0 -10.42541,2 0 -10.42541,2 0 -10.42541,2 0 -10.42541,2 0 -10.42541,2 0 -10.42541,2 0 -10.29614,2 0 -10.29614,2 0 -10.29614,2 0 -10.29614,2 0 -10.29614,2 0 -10.29614,2 0 -10.29614,2 0 -10.29614,2 0 -10.29614,2 0 -10.29614,2 0 -10.29614,2 0 -10.29614,2 0 -10.29614,2 0 -10.29614,2 0 -10.29614,2 0 -10.29614,2 0 -10.29614,2 0 -10.29614,2 0 -10.29614,2 0 -10.29614,2 0 -10.29614,1.110,
-1.814775 -13.35421 0.506795,-2.622736 -13.19397 0.9342511,-3.198994 -12.30273 1.080394,-3.490047 -11.34388 1.200644,-3.740256 -10.5002 1.308389,-2.844401 -10.52195 0.4382417,-3.031843 -9.426334 0.3978977,-3.181013 -8.802822 0.4070836,-3.318166 -8.304348 0.4343483,-2.418116 -10.29916 0.2661975,-2.576701 -9.1245 0.1068042,-2.729777 -8.559715 0.05803469,-2.844046 -8.225515 0.02987522,-2.022743 -10.33017 0.1656154,-2.140155 -9.243128 0.08536738,-2.279856 -8.711744 0.09773818,-2.386146 -8.411324 0.1273286,-1.649359 -10.55965 0.1376135,-1.708772 -9.686644 0.12803,-1.802977 -9.232176 0.1736435,-1.880198 -8.93351 0.1814778,2 0 -10.29614,2 0 -10.29614,2 0 -10.29614,2 0 -10.29614,2 0 -10.29614,2 0 -10.29614,2 0 -10.29614,2 0 -10.29614,2 0 -10.29614,2 0 -10.29614,2 0 -10.29614,2 0 -10.29614,2 0 -10.29614,2 0 -10.29614,2 0 -10.29614,2 0 -10.29614,2 0 -10.29614,2 0 -10.29614,2 0 -10.29614,2 0 -10.29614,2 0 -10.29614,1.210,
-2.191875 -11.8227 0.3516175,-3.010141 -11.36952 0.5654524,-3.529879 -10.49022 0.7222566,-3.802803 -9.540443 0.9373277,-4.079885 -8.642384 1.179477,-3.147669 -8.974785 0.4709161,-3.415207 -7.729476 0.6837372,-3.596113 -7.014509 0.8553557,-3.752855 -6.320392 0.99937,-2.771987 -8.808165 0.5880809,-2.976494 -7.525445 0.8826601,-3.157806 -6.704298 1.166644,-3.282511 -5.955522 1.394093,-2.406971 -8.838461 0.754054,-2.533689 -7.598321 1.034679,-2.718279 -6.78696 1.343435,-2.858789 -6.055725 1.587779,-2.029161 -9.118956 0.9460803,-2.061239 -8.084759 1.256269,-2.150878 -7.404907 1.562713,-2.224214 -6.766988 1.799232,2 0 -10.29614,2 0 -10.29614,2 0 -10.29614,2 0 -10.29614,2 0 -10.29614,2 0 -10.29614,2 0 -10.29614,2 0 -10.29614,2 0 -10.29614,2 0 -10.29614,2 0 -10.29614,2 0 -10.29614,2 0 -10.29614,2 0 -10.29614,2 0 -10.29614,2 0 -10.29614,2 0 -10.29614,2 0 -10.29614,2 0 -10.29614,2 0 -10.29614,2 0 -10.29614,1.310,
-2.204728 -9.742842 2.514798,-3.121506 -8.990143 2.546279,-3.692463 -7.933546 2.699649,-3.944511 -6.866477 2.901332,-4.134005 -5.977829 3.135291,-3.367854 -6.334835 2.760651,-3.620477 -4.881358 3.018668,-3.731911 -4.148809 3.183854,-3.782801 -3.516915 3.209583,-2.945891 -6.143241 2.915972,-3.12573 -4.586755 3.180407,-3.245004 -3.819684 3.304661,-3.298538 -3.156271 3.376939,-2.554207 -6.175945 3.090371,-2.674802 -4.686839 3.351198,-2.79762 -3.919713 3.458088,-2.883238 -3.269279 3.511693,-2.153381 -6.427462 3.272893,-2.18939 -5.317937 3.438742,-2.278664 -4.650482 3.459047,-2.368369 -4.015842 3.435191,2 0 -10.29614,2 0 -10.29614,2 0 -10.29614,2 0 -10.29614,2 0 -10.29614,2 0 -10.29614,2 0 -10.29614,2 0 -10.29614,2 0 -10.29614,2 0 -10.29614,2 0 -10.29614,2 0 -10.29614,2 0 -10.29614,2 0 -10.29614,2 0 -10.29614,2 0 -10.29614,2 0 -10.29614,2 0 -10.29614,2 0 -10.29614,2 0 -10.29614,2 0 -10.29614,1.410,
-2.263627 -7.799987 -0.06308856,-3.003937 -7.524429 0.4081558,-3.583112 -6.875245 0.6883667,-3.942431 -6.14442 0.9475456,-4.10693 -5.499202 1.153495,-3.270555 -5.11518 0.371102,-3.52755 -3.865193 0.6239933,-3.635553 -3.372846 0.8471991,-3.681957 -3.00267 1.011981,-2.860139 -4.927925 0.3361464,-3.052109 -3.524671 0.4647456,-3.15863 -3.004872 0.5884796,-3.163219 -2.66216 0.7207959,-2.478894 -4.96285 0.3519986,-2.614365 -3.655053 0.5177583,-2.717051 -3.046148 0.6180993,-2.747849 -2.599073 0.7370548,-2.090281 -5.212574 0.4343486,-2.136965 -4.249137 0.5941114,-2.20224 -3.701829 0.6702439,-2.216233 -3.215173 0.7592355,2 0 -10.29614,2 0 -10.29614,2 0 -10.29614,2 0 -10.29614,2 0 -10.29614,2 0 -10.29614,2 0 -10.29614,2 0 -10.29614,2 0 -10.29614,2 0 -10.29614,2 0 -10.29614,2 0 -10.29614,2 0 -10.29614,2 0 -10.29614,2 0 -10.29614,2 0 -10.29614,2 0 -10.29614,2 0 -10.29614,2 0 -10.29614,2 0 -10.29614,2 0 -10.29614,1.510,
-2.147521 -7.440835 -0.04808921,-2.809294 -7.050446 0.1996637,-3.366875 -6.3732 0.3348005,-3.694862 -5.626202 0.5306961,-3.883955 -4.974233 0.7358828,-3.062403 -4.732759 -0.1622243,-3.307101 -3.670591 -0.07779045,-3.446765 -3.062614 0.01426976,-3.5442 -2.526569 0.08936246,-2.728037 -4.534153 -0.1074684,-2.929096 -3.302094 -0.08510083,-3.047788 -2.601573 0.01588071,-3.121373 -1.997293 0.09518884,-2.396279 -4.546625 0.02920853,-2.512462 -3.401577 0.09701408,-2.612819 -2.737304 0.2114943,-2.702854 -2.15368 0.321188,-2.033895 -4.745998 0.2203353,-2.055243 -3.829447 0.2959338,-2.090678 -3.302648 0.4004947,-2.133945 -2.81481 0.485777,-8.414982 -8.199257 1.270614,-7.635712 -7.76789 1.266978,-7.078471 -6.923945 1.357861,-6.766018 -6.143943 1.56425,-6.42552 -5.573526 1.816896,-7.403975 -5.177167 0.9625771,-7.204848 -3.980026 1.073356,-7.062092 -3.347105 1.208306,-6.92792 -2.798795 1.30026,-7.730537 -4.967178 1.203818,-7.528443 -3.604146 1.255289,-7.390639 -2.803368 1.431303,-7.255687 -2.073632 1.545886,-8.051584 -4.959584 1.481706,-7.888714 -3.687919 1.571031,-7.790443 -2.920705 1.729528,-7.663438 -2.251135 1.827193,-8.402015 -5.153045 1.775575,-8.369156 -4.114759 1.908719,-8.332494 -3.459957 1.966788,-8.255237 -2.850561 1.999326,1.610,
-2.086752 -7.276586 -0.2683336,-2.743597 -6.925507 -0.02669002,-3.28668 -6.285802 0.09164044,-3.596037 -5.550212 0.2528564,-3.822361 -4.916976 0.4320805,-3.030018 -4.661093 -0.2956842,-3.286184 -3.6122 -0.1952422,-3.425688 -2.999382 -0.104071,-3.518817 -2.45562 -0.02432588,-2.694441 -4.439189 -0.2561269,-2.891826 -3.231365 -0.1961166,-2.995061 -2.518178 -0.08764082,-3.045362 -1.920848 -0.003877729,-2.362329 -4.423942 -0.1464336,-2.476982 -3.314232 -0.07033843,-2.571053 -2.648053 0.05092311,-2.642486 -2.085121 0.1625955,-2.003468 -4.595151 0.009362519,-2.016529 -3.715023 0.09201056,-2.050382 -3.186764 0.2002838,-2.085824 -2.706594 0.293632,-8.448149 -7.752229 0.5973864,-7.709001 -7.445535 0.6283699,-7.192101 -6.649089 0.7071456,-6.874503 -5.880685 0.8919346,-6.533594 -5.318847 1.095108,-7.506682 -4.946288 0.2663344,-7.306141 -3.785893 0.3443813,-7.156455 -3.123019 0.4715998,-7.019142 -2.554229 0.5539699,-7.812757 -4.708349 0.4638187,-7.611071 -3.336126 0.508215,-7.45294 -2.521049 0.6778901,-7.307417 -1.805156 0.7852864,-8.132591 -4.680212 0.7145655,-7.985168 -3.362891 0.7961095,-7.852884 -2.586816 0.9706233,-7.700766 -1.92559 1.084619,-8.491186 -4.848955 0.9745901,-8.499103 -3.801073 1.12431,-8.45813 -3.124815 1.252944,-8.382887 -2.504065 1.323627,1.710,
-2.092532 -7.244438 -0.3805745,-2.74682 -6.881038 -0.1552333,-3.301682 -6.260442 -0.03841886,-3.618487 -5.560337 0.1221759,-3.813808 -4.948507 0.2895491,-3.034031 -4.6632 -0.4048513,-3.289749 -3.625955 -0.2913024,-3.420591 -3.023956 -0.1930089,-3.511625 -2.47615 -0.1058064,-2.701063 -4.440223 -0.3471033,-2.893778 -3.247011 -0.2720046,-2.990367 -2.533216 -0.1442831,-3.051111 -1.927408 -0.04798064,-2.369114 -4.431002 -0.2241488,-2.480523 -3.324182 -0.1268699,-2.566918 -2.651846 0.006640792,-2.646446 -2.086499 0.1238823,-2.009496 -4.612926 -0.06046566,-2.008816 -3.727283 0.04672748,-2.034164 -3.197731 0.1608988,-2.077428 -2.722764 0.2540162,-8.464304 -7.543478 0.3891984,-7.732032 -7.260967 0.4285424,-7.209389 -6.49247 0.5216952,-6.888783 -5.742457 0.7202063,-6.559541 -5.187778 0.9480686,-7.522936 -4.799602 0.1127634,-7.327732 -3.651411 0.2064326,-7.185063 -2.99265 0.3452002,-7.05026 -2.434886 0.4410001,-7.824831 -4.559534 0.3057664,-7.619554 -3.21025 0.3662017,-7.45772 -2.402138 0.5443061,-7.309925 -1.693915 0.6665291,-8.145023 -4.533435 0.5449306,-7.99798 -3.23806 0.6400571,-7.856388 -2.463054 0.8244423,-7.696613 -1.810173 0.9503399,-8.507351 -4.706279 0.7942232,-8.516061 -3.66575 0.957215,-8.474685 -2.986663 1.093326,-8.398892 -2.364864 1.171142,1.810,
-2.172712 -7.182498 -0.5532168,-2.814901 -6.864778 -0.2968877,-3.361383 -6.270786 -0.1677537,-3.667465 -5.571903 -0.005513906,-3.842972 -4.933406 0.1536102,-3.090572 -4.65782 -0.5393929,-3.341459 -3.644441 -0.4223645,-3.466274 -3.043239 -0.324168,-3.547344 -2.498955 -0.23373,-2.758728 -4.424355 -0.493475,-2.94892 -3.259238 -0.4097905,-3.044412 -2.547359 -0.280749,-3.097355 -1.951272 -0.1801959,-2.431015 -4.412991 -0.3791772,-2.543395 -3.31947 -0.2738594,-2.632463 -2.642458 -0.1412651,-2.706697 -2.074111 -0.02403879,-2.076322 -4.597768 -0.225488,-2.071539 -3.71356 -0.1078786,-2.095243 -3.177861 0.0128051,-2.132451 -2.696812 0.1127711,-8.472549 -7.115875 0.1172558,-7.777194 -6.868257 0.2326583,-7.240269 -6.121453 0.3656905,-6.919662 -5.391967 0.5962076,-6.636417 -4.843097 0.8553475,-7.554233 -4.455333 -0.07390106,-7.370051 -3.353759 0.03610932,-7.230914 -2.723662 0.1897191,-7.096602 -2.184474 0.3018298,-7.864166 -4.20379 0.08486645,-7.664946 -2.931689 0.1511913,-7.508532 -2.170808 0.3265941,-7.361894 -1.502771 0.4436194,-8.183352 -4.14697 0.2978236,-8.03801 -2.902602 0.3901295,-7.900904 -2.168958 0.5806044,-7.742469 -1.556998 0.7217338,-8.538635 -4.2742 0.5319457,-8.554669 -3.237731 0.6784885,-8.52996 -2.551889 0.8187355,-8.46405 -1.925151 0.9100229,1.910,
-2.217446 -7.166198 -0.6336079,-2.866019 -6.842246 -0.4097557,-3.406755 -6.244567 -0.2937526,-3.705996 -5.551521 -0.1425196,-3.892785 -4.933952 0.008488417,-3.125521 -4.664748 -0.6440071,-3.374653 -3.668268 -0.5293897,-3.498997 -3.085069 -0.4417239,-3.585344 -2.562525 -0.3669156,-2.795729 -4.429617 -0.5874756,-2.983433 -3.270787 -0.4965389,-3.08489 -2.561567 -0.3708236,-3.151363 -1.967122 -0.2719568,-2.468733 -4.420763 -0.4634875,-2.577278 -3.317582 -0.3510509,-2.668813 -2.639111 -0.2235996,-2.748603 -2.071206 -0.1148884,-2.1133 -4.611487 -0.3064352,-2.1022 -3.732382 -0.1909911,-2.124575 -3.196369 -0.07472074,-2.162019 -2.711738 0.0175944,-8.431513 -6.94804 0.03646235,-7.750204 -6.72964 0.1867028,-7.230027 -5.959728 0.3222547,-6.933019 -5.204702 0.54467,-6.657876 -4.661719 0.7847787,-7.556207 -4.311407 -0.1069776,-7.37337 -3.218903 0.006793244,-7.238037 -2.60591 0.1725558,-7.104576 -2.08055 0.2858419,-7.8771 -4.048488 0.02817101,-7.691701 -2.768098 0.08792005,-7.538983 -2.001462 0.272169,-7.392397 -1.348498 0.4005817,-8.197636 -3.993755 0.215949,-8.063366 -2.738349 0.2892409,-7.925812 -2.012552 0.4769249,-7.768669 -1.419059 0.6224836,-8.548893 -4.125329 0.4307671,-8.559273 -3.093382 0.5534248,-8.523207 -2.42529 0.6932572,-8.446001 -1.818536 0.7827592,2.010,
-2.271249 -7.2014 -0.7851509,-2.917717 -6.916721 -0.5562117,-3.454435 -6.312418 -0.4509232,-3.754586 -5.629049 -0.3104777,-3.949116 -5.011601 -0.1705221,-3.187414 -4.744703 -0.8138748,-3.433407 -3.758127 -0.6908413,-3.562289 -3.160706 -0.5831638,-3.648134 -2.623014 -0.4929039,-2.858268 -4.510808 -0.7547809,-3.04791 -3.36798 -0.6655293,-3.154837 -2.655647 -0.5375136,-3.223145 -2.059623 -0.4398523,-2.531241 -4.499047 -0.6232847,-2.639458 -3.408782 -0.5077996,-2.73105 -2.723318 -0.373439,-2.806196 -2.146136 -0.260336,-2.179531 -4.678306 -0.459275,-2.176073 -3.803752 -0.3389172,-2.204418 -3.265657 -0.2168237,-2.244425 -2.78246 -0.1265973,-8.344119 -6.967355 -0.06362371,-7.653194 -6.757482 0.1391883,-7.14686 -6.018737 0.2986162,-6.861564 -5.265104 0.527711,-6.592999 -4.695611 0.769097,-7.511816 -4.329067 -0.1118459,-7.332494 -3.210747 0.02988601,-7.200496 -2.566316 0.1930655,-7.080063 -2.028767 0.2903616,-7.833869 -4.089319 -0.008879635,-7.645382 -2.759187 0.08900045,-7.493907 -1.973826 0.2817962,-7.365005 -1.3199 0.4141033,-8.153742 -4.083624 0.1460541,-8.036826 -2.803528 0.272763,-7.934472 -2.036453 0.468168,-7.815625 -1.402818 0.6097024,-8.496999 -4.283282 0.323779,-8.511896 -3.233882 0.4918475,-8.477039 -2.555699 0.6448838,-8.398736 -1.935741 0.7333123,2.110,
-2.222364 -7.189083 -0.9317815,-2.860926 -6.910306 -0.6770105,-3.40279 -6.353979 -0.5548825,-3.717989 -5.680883 -0.4062756,-3.902258 -5.07108 -0.262233,-3.159992 -4.786739 -0.9144474,-3.425684 -3.791068 -0.8111551,-3.556508 -3.202241 -0.7150838,-3.637808 -2.677426 -0.6265274,-2.836995 -4.547908 -0.8830014,-3.03723 -3.406099 -0.8162262,-3.134339 -2.697883 -0.6938587,-3.182063 -2.109237 -0.5938175,-2.514349 -4.523672 -0.7816678,-2.637479 -3.453878 -0.6904152,-2.73107 -2.785079 -0.5576544,-2.801893 -2.227525 -0.4411786,-2.165102 -4.678109 -0.645902,-2.168773 -3.816058 -0.5469207,-2.196425 -3.294425 -0.4268976,-2.230864 -2.825368 -0.3291321,-8.333218 -7.144023 0.1821673,-7.650887 -6.95309 0.3167913,-7.152264 -6.160795 0.4357541,-6.874123 -5.382512 0.6401968,-6.595914 -4.836822 0.8428513,-7.499051 -4.434331 0.06407596,-7.322253 -3.331322 0.1853222,-7.191792 -2.683076 0.3385463,-7.074178 -2.132369 0.4495434,-7.826411 -4.19367 0.2070997,-7.637379 -2.886446 0.2718842,-7.481057 -2.083631 0.4691641,-7.354858 -1.410026 0.6128203,-8.150387 -4.196338 0.3965483,-8.031763 -2.913379 0.506549,-7.934623 -2.116642 0.7085631,-7.823689 -1.448923 0.8678856,-8.502926 -4.424894 0.6031258,-8.532412 -3.324362 0.7731646,-8.510476 -2.614763 0.9339383,-8.44601 -1.972661 1.027547,2.210,
-2.178708 -7.185034 -0.8953982,-2.810619 -6.922044 -0.6397091,-3.34182 -6.331436 -0.5344903,-3.645683 -5.634042 -0.3996835,-3.839375 -5.047145 -0.2655993,-3.099895 -4.764459 -0.9142629,-3.348135 -3.765225 -0.8441087,-3.480631 -3.178587 -0.7598512,-3.567299 -2.668396 -0.6785664,-2.776937 -4.528955 -0.8991705,-2.969162 -3.382803 -0.8829231,-3.069264 -2.676055 -0.7929769,-3.118855 -2.101455 -0.7182085,-2.455312 -4.50325 -0.8184335,-2.573872 -3.453151 -0.7746543,-2.668815 -2.79358 -0.6682575,-2.739911 -2.254662 -0.5740283,-2.10763 -4.655676 -0.6913813,-2.111485 -3.811061 -0.6293538,-2.136053 -3.295269 -0.5365459,-2.163575 -2.834313 -0.449112,-8.367447 -7.180551 0.1413975,-7.684208 -6.917341 0.297084,-7.186187 -6.167125 0.4418298,-6.912593 -5.43132 0.6703122,-6.631371 -4.885951 0.9101493,-7.539232 -4.473178 0.05879985,-7.355559 -3.379411 0.1862725,-7.215543 -2.751726 0.3529016,-7.090051 -2.221111 0.4623767,-7.861046 -4.242463 0.202631,-7.687952 -2.931259 0.2763898,-7.54292 -2.135705 0.4780783,-7.417625 -1.475664 0.6191111,-8.185494 -4.243075 0.3938153,-8.060706 -2.98434 0.5064979,-7.943188 -2.215413 0.714458,-7.805019 -1.584124 0.8692871,-8.538797 -4.445716 0.6020764,-8.552729 -3.413394 0.7750754,-8.515303 -2.750296 0.9353182,-8.431437 -2.148702 1.033378,2.310,
-2.149754 -7.18745 -0.8994815,-2.773482 -6.900527 -0.6235207,-3.301125 -6.332254 -0.4967372,-3.602988 -5.637937 -0.3480421,-3.778372 -5.032657 -0.2001827,-3.062243 -4.763265 -0.888347,-3.300337 -3.762445 -0.8026315,-3.419769 -3.176004 -0.7082413,-3.495306 -2.665084 -0.6232331,-2.738375 -4.530458 -0.8816521,-2.92549 -3.377277 -0.8562294,-3.014724 -2.674292 -0.7592556,-3.05177 -2.096096 -0.6816536,-2.417777 -4.5097 -0.8102179,-2.534074 -3.45536 -0.7565105,-2.621311 -2.8058 -0.6513389,-2.682405 -2.270524 -0.5632001,-2.069072 -4.667511 -0.6908649,-2.070575 -3.82538 -0.6230472,-2.092315 -3.320664 -0.5322366,-2.115376 -2.868108 -0.4505325,-8.390745 -7.176723 0.06951243,-7.71118 -6.950922 0.2081687,-7.211655 -6.194017 0.3447205,-6.929437 -5.450253 0.566847,-6.644017 -4.90908 0.8006657,-7.566595 -4.4972 -0.0353808,-7.376691 -3.40205 0.09247997,-7.235617 -2.777059 0.2562654,-7.11281 -2.244976 0.3635329,-7.885365 -4.259005 0.1141381,-7.698803 -2.951198 0.1840594,-7.545918 -2.162242 0.3799965,-7.417404 -1.497975 0.5142581,-8.20695 -4.25135 0.3123317,-8.082911 -2.988624 0.4271669,-7.971084 -2.212903 0.6354028,-7.840515 -1.560521 0.7884203,-8.55663 -4.448009 0.5282956,-8.562675 -3.417146 0.703499,-8.52333 -2.751228 0.8661384,-8.438867 -2.134629 0.9598616,2.410,
-2.079804 -7.159034 -0.9983165,-2.707973 -6.870376 -0.7320838,-3.233376 -6.332275 -0.6124461,-3.530787 -5.639289 -0.4773855,-3.68029 -5.031328 -0.3508935,-2.994547 -4.7716 -0.9882679,-3.246679 -3.76812 -0.9105281,-3.363169 -3.167843 -0.8169838,-3.428294 -2.653138 -0.7271488,-2.667288 -4.530705 -0.9889929,-2.855734 -3.367676 -0.9755871,-2.940013 -2.660359 -0.8759713,-2.970895 -2.089687 -0.7931811,-2.345986 -4.502274 -0.9257171,-2.461783 -3.440275 -0.8898457,-2.544178 -2.789279 -0.7870353,-2.601049 -2.261889 -0.6987749,-1.999824 -4.653733 -0.8206839,-1.992422 -3.812639 -0.7656785,-2.007524 -3.313163 -0.6854223,-2.026243 -2.867041 -0.6131679,-8.420045 -7.172996 0.03860723,-7.740742 -6.947114 0.2065202,-7.234513 -6.180118 0.3553614,-6.950555 -5.435151 0.5915377,-6.669639 -4.904533 0.8407382,-7.583395 -4.511663 -0.02561101,-7.392106 -3.426304 0.1302025,-7.251175 -2.800674 0.3127409,-7.128716 -2.260939 0.4286341,-7.90567 -4.266582 0.1188517,-7.721375 -2.972 0.2143398,-7.574435 -2.175806 0.4279206,-7.448125 -1.500888 0.5759848,-8.235502 -4.2514 0.3118068,-8.100222 -2.986987 0.4479457,-7.983678 -2.214744 0.6660474,-7.849579 -1.571691 0.8264165,-8.598856 -4.437379 0.5265344,-8.597212 -3.396387 0.7162549,-8.559363 -2.723474 0.8868259,-8.479858 -2.104519 0.9910409,2.510,
-2.069113 -7.178348 -0.9301627,-2.682683 -6.887069 -0.6851786,-3.206572 -6.339983 -0.5718873,-3.501035 -5.654312 -0.435626,-3.648359 -5.050159 -0.3020956,-2.96587 -4.768985 -0.9487905,-3.220314 -3.789695 -0.8629564,-3.335952 -3.200676 -0.7567979,-3.40161 -2.682884 -0.6582928,-2.640944 -4.526636 -0.9306567,-2.818679 -3.386852 -0.9082264,-2.896791 -2.690814 -0.7937323,-2.927416 -2.120074 -0.6986119,-2.319132 -4.502044 -0.8496133,-2.425434 -3.456922 -0.8087115,-2.503918 -2.814796 -0.6986965,-2.562302 -2.289981 -0.6001161,-1.971975 -4.662716 -0.7268767,-1.953979 -3.838017 -0.6683478,-1.966808 -3.340362 -0.5853668,-1.988291 -2.893293 -0.5086445,-8.430097 -7.176691 -0.008930825,-7.750251 -6.930622 0.1600913,-7.248026 -6.183722 0.3073058,-6.965672 -5.444679 0.5368017,-6.68697 -4.913555 0.7740674,-7.605817 -4.51771 -0.03991025,-7.410286 -3.424465 0.1251008,-7.269727 -2.795087 0.3054521,-7.152394 -2.251413 0.4201792,-7.931697 -4.282161 0.09808205,-7.745031 -2.979943 0.2059196,-7.59638 -2.186302 0.4229848,-7.468735 -1.510322 0.5734192,-8.260812 -4.276441 0.2841802,-8.137334 -3.014544 0.4314696,-8.032316 -2.235925 0.6510144,-7.909933 -1.578881 0.8073716,-8.617167 -4.471803 0.4875731,-8.621446 -3.442768 0.6844185,-8.583927 -2.773918 0.8536751,-8.503726 -2.155455 0.949701,2.610,
-2.057552 -7.171529 -0.9638355,-2.669735 -6.887716 -0.6815042,-3.190863 -6.343585 -0.5511144,-3.483376 -5.655005 -0.4093306,-3.632517 -5.049653 -0.2734321,-2.953658 -4.768718 -0.9281491,-3.209679 -3.782261 -0.8364551,-3.320414 -3.189687 -0.7302349,-3.378608 -2.672991 -0.6323875,-2.627865 -4.52954 -0.9310545,-2.806437 -3.386673 -0.8989324,-2.880365 -2.68981 -0.7795892,-2.90232 -2.117698 -0.6832402,-2.306999 -4.510378 -0.8692759,-2.414728 -3.46124 -0.8184198,-2.492227 -2.824329 -0.7001787,-2.545652 -2.300271 -0.5961429,-1.961524 -4.677661 -0.7663553,-1.947148 -3.852518 -0.6979069,-1.963826 -3.3563 -0.602512,-1.985372 -2.908496 -0.519159,-8.43586 -7.176706 -0.02372208,-7.758446 -6.936697 0.1378261,-7.26102 -6.172306 0.2803869,-6.974902 -5.421698 0.5056325,-6.702066 -4.883802 0.741097,-7.626053 -4.517866 -0.07446159,-7.43452 -3.41777 0.09519121,-7.288794 -2.796671 0.2805656,-7.167452 -2.252428 0.3949717,-7.949793 -4.283729 0.06448511,-7.763832 -2.973274 0.1717149,-7.610511 -2.183807 0.383709,-7.479135 -1.514249 0.5260309,-8.276073 -4.278746 0.252061,-8.157661 -2.998317 0.4034353,-8.054306 -2.21409 0.6309294,-7.93189 -1.552847 0.7910182,-8.628239 -4.478103 0.4569688,-8.632097 -3.431856 0.6553549,-8.591796 -2.754626 0.82972,-8.509002 -2.129922 0.9262043,2.710,
-2.055834 -7.18597 -0.994541,-2.669731 -6.877536 -0.7259595,-3.184278 -6.326422 -0.5934944,-3.467405 -5.633109 -0.4448368,-3.610935 -5.019657 -0.3013114,-2.940921 -4.781896 -0.9549237,-3.190781 -3.794151 -0.8404527,-3.305077 -3.193007 -0.7172978,-3.371763 -2.658164 -0.6035458,-2.614651 -4.550828 -0.9417283,-2.783834 -3.41581 -0.8801773,-2.856764 -2.720877 -0.7483913,-2.88575 -2.147183 -0.6395721,-2.295618 -4.532445 -0.8618041,-2.396337 -3.481985 -0.7877584,-2.475921 -2.841271 -0.6621997,-2.535623 -2.307231 -0.5501935,-1.954792 -4.698297 -0.7438573,-1.934068 -3.859522 -0.6545146,-1.951298 -3.350174 -0.5528826,-1.976997 -2.885199 -0.4652171,-8.461694 -7.175516 -0.04187682,-7.782021 -6.935995 0.1551826,-7.279673 -6.167354 0.3056633,-7.000906 -5.399477 0.5347338,-6.727608 -4.845676 0.7615964,-7.646493 -4.524193 -0.05526416,-7.454336 -3.4339 0.1122184,-7.313663 -2.79951 0.2916377,-7.193612 -2.238371 0.3992054,-7.980284 -4.28738 0.05821755,-7.81221 -2.966744 0.1528591,-7.678635 -2.176625 0.3610334,-7.562978 -1.512281 0.5043759,-8.308445 -4.281312 0.223266,-8.20411 -2.996834 0.3510678,-8.108943 -2.223793 0.5763098,-7.99028 -1.575206 0.7437025,-8.659217 -4.474887 0.4074876,-8.661369 -3.446764 0.5909584,-8.617159 -2.793661 0.7622135,-8.528743 -2.19678 0.8627128,2.810,
-2.052159 -7.159124 -1.032615,-2.664833 -6.854642 -0.7460246,-3.173664 -6.308156 -0.6072924,-3.451174 -5.609095 -0.4545469,-3.591042 -4.981784 -0.3073977,-2.938057 -4.767648 -0.9715397,-3.189491 -3.791599 -0.8659225,-3.303356 -3.19944 -0.7476484,-3.368538 -2.673655 -0.6320328,-2.609251 -4.534933 -0.9718617,-2.778584 -3.414042 -0.9177194,-2.850497 -2.732404 -0.7892807,-2.876224 -2.164756 -0.678494,-2.290923 -4.515254 -0.9051611,-2.390775 -3.484765 -0.8394343,-2.466762 -2.859409 -0.7173187,-2.521303 -2.335419 -0.6027113,-1.951014 -4.678076 -0.7995364,-1.933408 -3.853194 -0.7160662,-1.951937 -3.356489 -0.6176407,-1.978221 -2.903245 -0.5275319,-8.471364 -7.168472 -0.04068702,-7.788725 -6.915307 0.1528832,-7.293396 -6.154518 0.3056366,-7.017867 -5.390226 0.5375496,-6.742705 -4.840543 0.7672685,-7.665813 -4.514722 -0.05798338,-7.479448 -3.422557 0.1046797,-7.341976 -2.795372 0.2838861,-7.224895 -2.243822 0.3897248,-8.000142 -4.278164 0.05496886,-7.838876 -2.959814 0.1440776,-7.708082 -2.18078 0.3502325,-7.595759 -1.528553 0.4932531,-8.32721 -4.26868 0.2201604,-8.23001 -2.986869 0.3457976,-8.135921 -2.228226 0.566679,-8.021312 -1.595657 0.7301376,-8.675035 -4.457363 0.4036058,-8.680153 -3.43753 0.5809207,-8.640042 -2.789304 0.7468285,-8.558742 -2.19416 0.8443466,2.910,
-2.045182 -7.129449 -1.084793,-2.641114 -6.841293 -0.7630423,-3.137707 -6.291519 -0.607711,-3.408634 -5.589588 -0.439835,-3.532115 -4.944604 -0.2754354,-2.914326 -4.747416 -1.044855,-3.158428 -3.774393 -0.9343815,-3.267702 -3.182011 -0.7971095,-3.326897 -2.662058 -0.6746757,-2.589205 -4.517107 -1.061848,-2.752776 -3.403501 -1.031098,-2.821997 -2.723812 -0.9013119,-2.84422 -2.162698 -0.7967041,-2.272276 -4.508864 -1.006245,-2.364705 -3.493861 -0.9559877,-2.439171 -2.875269 -0.831604,-2.490381 -2.360384 -0.7205977,-1.933992 -4.685377 -0.9054437,-1.916054 -3.887332 -0.8305141,-1.93505 -3.402757 -0.732098,-1.958354 -2.960174 -0.645828,-8.483726 -7.153177 -0.002284138,-7.808667 -6.899878 0.2219087,-7.305578 -6.153789 0.3879679,-7.031413 -5.388567 0.6232978,-6.769597 -4.82482 0.8509722,-7.679536 -4.484928 0.0390697,-7.491179 -3.404029 0.2008179,-7.358293 -2.767899 0.3786632,-7.244298 -2.202675 0.4863752,-8.019663 -4.252376 0.1377259,-7.860364 -2.944755 0.2430683,-7.73156 -2.157806 0.4654131,-7.622421 -1.498607 0.6221205,-8.354885 -4.253213 0.2907774,-8.248264 -2.980677 0.415514,-8.144771 -2.232592 0.6394655,-8.021017 -1.611045 0.8092345,-8.710183 -4.452343 0.4631876,-8.715679 -3.450447 0.6349159,-8.67313 -2.811596 0.804902,-8.587146 -2.214962 0.9092486,3.010,
-1.991175 -7.191013 -1.096308,-2.568065 -6.871127 -0.7604768,-3.032091 -6.265663 -0.6245616,-3.273417 -5.528334 -0.4783663,-3.420351 -4.877758 -0.3280849,-2.851518 -4.795323 -1.090207,-3.09071 -3.842934 -1.000178,-3.198912 -3.23987 -0.8597933,-3.254526 -2.703619 -0.7303662,-2.527309 -4.580612 -1.135968,-2.686759 -3.509876 -1.144014,-2.754355 -2.848094 -1.026559,-2.768128 -2.294949 -0.926573,-2.211571 -4.566995 -1.108882,-2.302235 -3.590312 -1.096979,-2.36366 -2.994281 -0.9652005,-2.400825 -2.498196 -0.8543087,-1.8777 -4.72521 -1.028174,-1.873099 -3.955025 -0.9905595,-1.889739 -3.493757 -0.9001455,-1.903357 -3.072411 -0.8195823,-8.507099 -7.212335 0.07363543,-7.837731 -6.95638 0.2780532,-7.332456 -6.208766 0.4364852,-7.059628 -5.444383 0.6706685,-6.806051 -4.877561 0.8924062,-7.70786 -4.522048 0.06841812,-7.526714 -3.455604 0.2113081,-7.397797 -2.831792 0.3842146,-7.285982 -2.279699 0.4920244,-8.048074 -4.287195 0.1753737,-7.89589 -2.990398 0.257723,-7.76847 -2.204423 0.4752649,-7.663101 -1.553785 0.6284991,-8.383492 -4.289817 0.3325903,-8.280581 -3.03522 0.4419266,-8.174748 -2.288725 0.6627151,-8.049698 -1.67767 0.8303817,-8.737867 -4.495803 0.5081313,-8.746289 -3.4948 0.6766681,-8.69522 -2.853858 0.8481621,-8.60007 -2.260922 0.9509567,3.110,
-1.966102 -7.218537 -1.093248,-2.534783 -6.896972 -0.7289956,-2.992787 -6.282433 -0.5766777,-3.216254 -5.530792 -0.4165179,-3.339718 -4.866561 -0.2618128,-2.819472 -4.801044 -1.07694,-3.041791 -3.863319 -0.9854797,-3.15094 -3.267266 -0.8419681,-3.216291 -2.735298 -0.7160135,-2.4879 -4.604518 -1.142611,-2.633026 -3.570119 -1.167658,-2.700437 -2.943998 -1.058905,-2.726508 -2.42838 -0.9633065,-2.17084 -4.604179 -1.134687,-2.247026 -3.659087 -1.137783,-2.304932 -3.100566 -1.009778,-2.348392 -2.638105 -0.9013299,-1.84341 -4.771135 -1.065014,-1.838031 -4.02954 -1.035876,-1.853957 -3.587669 -0.9507607,-1.87269 -3.179153 -0.8769692,-8.557572 -7.216424 0.001365696,-7.87436 -6.9402 0.2078998,-7.365603 -6.208267 0.3746696,-7.089317 -5.442073 0.6149207,-6.828866 -4.863281 0.8364543,-7.742088 -4.550343 0.02202368,-7.557081 -3.476607 0.1733002,-7.42535 -2.850123 0.3437359,-7.313699 -2.294798 0.4486676,-8.082219 -4.315597 0.1230494,-7.926241 -3.01931 0.2134625,-7.800368 -2.243415 0.4304198,-7.694148 -1.592163 0.5917433,-8.417706 -4.311836 0.2743764,-8.311898 -3.056177 0.3854087,-8.206616 -2.311741 0.6097491,-8.079787 -1.696047 0.7818816,-8.772813 -4.504461 0.4421463,-8.780338 -3.508901 0.6067855,-8.731795 -2.869648 0.7859966,-8.638105 -2.267302 0.9001129,3.210,
-1.833408 -7.24018 -1.45167,-2.396084 -6.926714 -0.9874049,-2.810618 -6.279974 -0.7365152,-3.008366 -5.528425 -0.4954649,-3.101683 -4.850688 -0.2522659,-2.682484 -4.892322 -1.316929,-2.894541 -3.990032 -1.192511,-2.987846 -3.411464 -0.9590753,-3.028679 -2.899143 -0.7387443,-2.341858 -4.728981 -1.36408,-2.464943 -3.735775 -1.117909,-2.473768 -3.507476 -0.7450402,-2.421323 -3.638982 -0.494515,-2.027382 -4.723646 -1.345432,-2.103857 -3.785336 -1.12547,-2.121895 -3.565516 -0.7807381,-2.120914 -3.705336 -0.5516874,-1.697688 -4.843589 -1.271486,-1.702043 -4.090739 -1.082014,-1.735759 -3.885492 -0.8646979,-1.757508 -3.945997 -0.7056401,-8.669791 -7.217322 -0.1102659,-7.980726 -6.944717 0.1070167,-7.47324 -6.215747 0.2874618,-7.193916 -5.445131 0.5443894,-6.945928 -4.848562 0.7919759,-7.836146 -4.586261 -0.1003165,-7.673118 -3.4803 0.05675781,-7.552383 -2.831831 0.2365845,-7.44658 -2.255698 0.3503829,-8.173425 -4.351673 -0.007959008,-8.020654 -3.028788 0.09275633,-7.899592 -2.241425 0.2980435,-7.794931 -1.577617 0.4465036,-8.509562 -4.352602 0.1381499,-8.402019 -3.073392 0.2543744,-8.290823 -2.323364 0.456759,-8.164882 -1.709674 0.6093402,-8.868295 -4.5543 0.2974102,-8.876889 -3.560433 0.4636105,-8.83471 -2.906451 0.6335812,-8.755076 -2.304054 0.7405459,3.310,
-1.829133 -7.196516 -1.705099,-2.352906 -6.874725 -1.119007,-2.726301 -6.281244 -0.7923926,-2.888162 -5.50727 -0.5216014,-2.907365 -4.791663 -0.273991,-2.689902 -4.952249 -1.306022,-2.832211 -4.015373 -1.069875,-2.871549 -3.420993 -0.7931308,-2.892389 -2.871862 -0.5608817,-2.332973 -4.778648 -1.378458,-2.35168 -3.748622 -0.8217219,-2.268936 -4.327088 -0.4610298,-2.226441 -4.940866 -0.3235825,-1.999208 -4.783683 -1.394731,-1.975346 -3.922451 -0.8536207,-1.934402 -4.631691 -0.5984372,-1.92276 -5.255962 -0.5915047,-1.666041 -4.9385 -1.358024,-1.614912 -4.209718 -0.9439744,-1.645161 -4.605218 -0.7658169,-1.676395 -5.091643 -0.7425722,-8.710353 -7.23599 -0.1141917,-8.019233 -6.967101 0.1054216,-7.498283 -6.240523 0.2655065,-7.2068 -5.467736 0.4986362,-6.96712 -4.873255 0.7254034,-7.869529 -4.608314 -0.122065,-7.699801 -3.517192 0.024928,-7.581576 -2.868076 0.1988544,-7.477514 -2.296316 0.3038444,-8.212713 -4.370765 -0.04282594,-8.063507 -3.049752 0.04187532,-7.95043 -2.267653 0.2455082,-7.855703 -1.617395 0.3914126,-8.548742 -4.36378 0.0877254,-8.446672 -3.091444 0.1960461,-8.347286 -2.346187 0.3964134,-8.233406 -1.740777 0.5452296,-8.904085 -4.557148 0.2334187,-8.909244 -3.566562 0.3908764,-8.867408 -2.920863 0.5497348,-8.788503 -2.330937 0.6473607,3.410,
-1.773278 -7.360995 -2.313254,-2.233695 -6.984375 -1.820393,-2.592481 -6.293086 -1.601289,-2.698721 -5.517322 -1.39104,-2.597032 -4.850226 -1.217092,-2.47647 -5.145481 -1.964162,-2.599221 -4.208189 -1.623731,-2.627848 -3.685643 -1.377091,-2.634799 -3.238601 -1.16469,-2.140127 -5.091051 -2.024576,-2.060452 -4.472894 -1.418905,-2.018733 -5.311946 -1.237778,-2.047312 -5.983464 -1.245202,-1.823051 -5.179045 -2.01391,-1.7574 -4.736816 -1.364063,-1.776641 -5.58044 -1.295281,-1.84248 -6.185419 -1.390282,-1.535342 -5.390789 -1.970147,-1.465974 -4.866731 -1.477033,-1.517959 -5.409985 -1.369121,-1.604992 -5.839042 -1.393942,-8.697138 -7.283168 -0.09449358,-8.014441 -7.030901 0.139339,-7.497228 -6.318044 0.3075535,-7.200724 -5.551934 0.548049,-6.960265 -4.945054 0.7793182,-7.872637 -4.652717 -0.08416437,-7.69506 -3.548987 0.07595851,-7.572497 -2.883084 0.2556873,-7.463492 -2.295697 0.3629009,-8.217886 -4.409556 -0.006778836,-8.061437 -3.080876 0.1085742,-7.943707 -2.273635 0.3349617,-7.84716 -1.605409 0.4963201,-8.55901 -4.400465 0.1182285,-8.448692 -3.107025 0.2476003,-8.341334 -2.346363 0.4636046,-8.218781 -1.729096 0.6205703,-8.921878 -4.593202 0.2614073,-8.92188 -3.592747 0.4331017,-8.874626 -2.936666 0.6006278,-8.789381 -2.328098 0.7021388,3.510,
-1.744303 -7.424453 -2.53928,-2.195354 -7.02182 -2.042637,-2.527947 -6.300725 -1.849018,-2.604056 -5.506645 -1.67239,-2.491216 -4.853305 -1.525723,-2.404225 -5.239878 -2.188714,-2.489742 -4.293774 -1.834133,-2.484986 -3.755495 -1.589411,-2.455554 -3.297605 -1.388146,-2.069507 -5.212112 -2.264712,-1.965173 -4.66173 -1.653506,-1.939199 -5.507097 -1.478328,-1.984538 -6.152874 -1.493096,-1.754964 -5.308955 -2.27329,-1.676162 -4.900032 -1.624151,-1.713943 -5.734295 -1.583649,-1.79589 -6.321896 -1.70653,-1.47273 -5.518226 -2.246458,-1.400672 -5.036163 -1.747947,-1.460641 -5.576342 -1.659033,-1.551705 -5.996481 -1.710508,-8.677297 -7.299793 -0.07619977,-7.995324 -7.046833 0.16657,-7.477992 -6.330431 0.3421004,-7.190292 -5.560297 0.5839835,-6.951614 -4.948174 0.8137276,-7.851445 -4.664337 -0.02919151,-7.671326 -3.542858 0.1514062,-7.549552 -2.865487 0.3404739,-7.441584 -2.262554 0.4527957,-8.198996 -4.422014 0.04660448,-8.044569 -3.090951 0.1873931,-7.925693 -2.278255 0.4225838,-7.82674 -1.594603 0.5928197,-8.543945 -4.415588 0.1694383,-8.434278 -3.126356 0.3151886,-8.329035 -2.36795 0.5316364,-8.206691 -1.748388 0.6884278,-8.910267 -4.610174 0.3108695,-8.910442 -3.613633 0.4926322,-8.863434 -2.963529 0.6576928,-8.7772 -2.360056 0.7557604,3.610,
-1.734277 -7.362249 -2.604486,-2.144124 -7.01822 -2.001256,-2.422913 -6.229299 -1.758952,-2.417957 -5.426437 -1.561575,-2.30253 -4.809023 -1.372595,-2.309805 -5.1802 -2.0356,-2.327751 -4.236655 -1.58737,-2.276041 -3.665004 -1.28506,-2.190022 -3.172903 -1.044616,-1.954203 -5.184946 -2.153306,-1.800078 -4.729796 -1.472189,-1.8112 -5.607392 -1.297242,-1.889525 -6.242687 -1.330075,-1.621971 -5.307657 -2.199608,-1.500424 -4.9778 -1.517801,-1.577491 -5.819387 -1.502698,-1.687293 -6.366598 -1.653451,-1.329741 -5.534683 -2.198461,-1.200474 -5.097562 -1.663077,-1.283879 -5.686496 -1.605907,-1.402719 -6.097321 -1.699772,-8.653297 -7.268563 -0.05835329,-7.966985 -7.017505 0.1622279,-7.446721 -6.295313 0.3338944,-7.157732 -5.517 0.5751979,-6.915806 -4.90068 0.8067167,-7.827122 -4.629249 -0.03051532,-7.646999 -3.510482 0.1301055,-7.522861 -2.843793 0.3063853,-7.41192 -2.252864 0.4103328,-8.174496 -4.385232 0.05330598,-8.015628 -3.05645 0.175411,-7.892905 -2.25186 0.3950968,-7.787416 -1.582078 0.5528688,-8.518129 -4.376529 0.1851953,-8.402601 -3.086562 0.3112394,-8.289947 -2.329905 0.520336,-8.15715 -1.719062 0.6770082,-8.881007 -4.56428 0.3324015,-8.881909 -3.556947 0.5012816,-8.833478 -2.907877 0.6672495,-8.742699 -2.312257 0.7658026,3.710,
-1.707484 -7.300664 -2.57677,-2.112314 -6.97944 -1.953431,-2.395529 -6.190478 -1.693468,-2.388084 -5.38587 -1.479205,-2.229149 -4.779392 -1.284803,-2.23489 -5.091603 -1.962954,-2.248419 -4.156068 -1.479188,-2.179734 -3.581474 -1.150735,-2.072857 -3.070886 -0.8932482,-1.873219 -5.118649 -2.087827,-1.712159 -4.735218 -1.372006,-1.737223 -5.635746 -1.21268,-1.83197 -6.264152 -1.269323,-1.541667 -5.268049 -2.133842,-1.420558 -4.990018 -1.431005,-1.515945 -5.833939 -1.431467,-1.644195 -6.372777 -1.599152,-1.253896 -5.518608 -2.130733,-1.122774 -5.11869 -1.584822,-1.220938 -5.711973 -1.5357,-1.356665 -6.113436 -1.647413,-8.657187 -7.258484 -0.028219,-7.964199 -7.015184 0.1984127,-7.437568 -6.297941 0.3684353,-7.148043 -5.517785 0.6080277,-6.905939 -4.903446 0.8399878,-7.813867 -4.617174 -0.01709369,-7.631741 -3.512191 0.1302134,-7.510142 -2.839567 0.2995142,-7.403022 -2.247638 0.3972468,-8.164739 -4.367844 0.05868272,-8.00469 -3.055464 0.1619719,-7.886598 -2.25575 0.3800638,-7.786446 -1.59272 0.5379186,-8.512674 -4.352046 0.1855471,-8.388953 -3.077677 0.2951104,-8.278753 -2.329787 0.5004016,-8.148704 -1.727044 0.6526252,-8.881609 -4.532655 0.3279029,-8.873359 -3.531372 0.4841648,-8.823933 -2.888786 0.6433201,-8.733226 -2.295073 0.7403067,3.810,
-1.60533 -7.126189 -2.444233,-1.992041 -6.765687 -1.736487,-2.241716 -5.967874 -1.407437,-2.171697 -5.196441 -1.135777,-1.983963 -4.593149 -0.8819518,-2.038793 -4.853557 -1.724564,-1.979582 -4.003229 -1.220242,-1.866099 -3.471169 -0.8892537,-1.727652 -2.970972 -0.6234658,-1.655416 -4.924436 -1.853384,-1.474864 -4.644638 -1.060713,-1.558911 -5.582323 -0.8772087,-1.687142 -6.193089 -0.9374017,-1.311707 -5.127132 -1.897599,-1.160723 -4.917675 -1.159942,-1.310764 -5.774468 -1.182203,-1.464823 -6.295687 -1.372437,-1.018344 -5.427457 -1.882365,-0.8559108 -5.067962 -1.330506,-0.9998159 -5.655585 -1.308661,-1.154051 -6.043796 -1.436575,-8.653697 -7.254526 -0.04162477,-7.968086 -6.983461 0.1599183,-7.448017 -6.271932 0.3165695,-7.153323 -5.504911 0.5534334,-6.910684 -4.904268 0.7836438,-7.819396 -4.606397 -0.07012367,-7.639079 -3.503665 0.06527593,-7.515047 -2.842798 0.2316758,-7.40206 -2.258838 0.336366,-8.163909 -4.366655 0.01841796,-8.00037 -3.062049 0.1072671,-7.870793 -2.267808 0.3259204,-7.759084 -1.613033 0.4878105,-8.506943 -4.357172 0.157654,-8.388916 -3.085044 0.2603629,-8.275263 -2.331379 0.4707973,-8.141116 -1.726911 0.6306514,-8.870448 -4.547326 0.3101581,-8.875472 -3.549047 0.4664574,-8.823959 -2.898559 0.6343476,-8.727809 -2.299618 0.7384647,3.910,
-1.562776 -7.01582 -2.441654,-1.944465 -6.671134 -1.725513,-2.18006 -5.9081 -1.36629,-2.09543 -5.139299 -1.066432,-1.880709 -4.509475 -0.7901117,-1.955807 -4.748977 -1.702271,-1.879252 -3.925119 -1.174729,-1.755905 -3.406072 -0.8363866,-1.602277 -2.916816 -0.5715777,-1.573444 -4.819845 -1.824954,-1.382453 -4.587562 -1.011421,-1.488724 -5.567216 -0.8465734,-1.624766 -6.16797 -0.9278247,-1.228121 -5.030204 -1.860081,-1.056485 -4.844223 -1.100468,-1.232969 -5.744514 -1.136071,-1.394544 -6.262722 -1.340574,-0.9349394 -5.343658 -1.835551,-0.7611113 -5.001003 -1.271569,-0.9255371 -5.610187 -1.270726,-1.089719 -5.9985 -1.41963,-8.657221 -7.257289 -0.03789787,-7.971107 -7.016279 0.1538604,-7.454573 -6.29268 0.3072755,-7.160746 -5.514862 0.5420647,-6.908774 -4.917903 0.7733224,-7.818299 -4.614734 -0.07045533,-7.642101 -3.507659 0.06620569,-7.518464 -2.849668 0.2301713,-7.405726 -2.266893 0.3268759,-8.166143 -4.368639 0.02587573,-8.005161 -3.047425 0.1177073,-7.87617 -2.247634 0.3286468,-7.767733 -1.592942 0.4798485,-8.511832 -4.357169 0.1698758,-8.393351 -3.06637 0.2766064,-8.275573 -2.312015 0.4852639,-8.141459 -1.707441 0.645061,-8.876379 -4.549469 0.3277599,-8.873338 -3.543393 0.4863975,-8.81534 -2.894426 0.6527829,-8.714542 -2.296922 0.7547997,4.010,
-1.458137 -6.837326 -2.27688,-1.834596 -6.503789 -1.520963,-2.078256 -5.743646 -1.128392,-1.95862 -4.978254 -0.8155313,-1.662189 -4.360277 -0.5203577,-1.852332 -4.565479 -1.470307,-1.753731 -3.801232 -0.899328,-1.603014 -3.295199 -0.5463299,-1.42604 -2.816607 -0.26467,-1.455858 -4.60917 -1.602292,-1.245792 -4.454084 -0.7791185,-1.362198 -5.440019 -0.6256936,-1.515222 -6.096551 -0.6969559,-1.094541 -4.8162 -1.637284,-0.9084363 -4.712533 -0.8380075,-1.096581 -5.63098 -0.8906707,-1.276677 -6.185457 -1.114227,-0.7909222 -5.132318 -1.616675,-0.6084752 -4.901239 -0.9867306,-0.7899489 -5.54639 -0.9865272,-0.9785004 -5.955487 -1.138318,-8.669463 -7.272224 -0.02404101,-7.984351 -7.00415 0.1791474,-7.465858 -6.280744 0.3403281,-7.168242 -5.515141 0.5781736,-6.918117 -4.921506 0.8070956,-7.835329 -4.615999 -0.01683745,-7.651931 -3.512364 0.1314825,-7.524445 -2.854623 0.3049444,-7.41138 -2.268621 0.4110074,-8.18149 -4.38006 0.07593057,-8.020716 -3.058391 0.1827207,-7.893153 -2.261778 0.4056413,-7.786872 -1.608986 0.5662829,-8.523609 -4.376081 0.2169649,-8.41469 -3.086429 0.3402761,-8.300269 -2.328136 0.5612189,-8.169121 -1.72033 0.7255809,-8.884525 -4.572267 0.3689632,-8.890948 -3.570457 0.5402141,-8.83574 -2.917816 0.7139058,-8.737953 -2.316576 0.8194265,4.110,
-1.369446 -6.647267 -1.993014,-1.761995 -6.348934 -1.239828,-2.019798 -5.616367 -0.7999218,-1.912302 -4.89971 -0.4382818,-1.573496 -4.375127 -0.07678747,-1.691114 -4.374221 -1.078461,-1.610225 -3.696282 -0.4633675,-1.470101 -3.187034 -0.07989705,-1.301623 -2.687213 0.2244062,-1.287866 -4.372311 -1.204406,-1.120791 -4.392017 -0.3914891,-1.279228 -5.361708 -0.2670734,-1.44808 -6.000942 -0.354108,-0.9259515 -4.585901 -1.226274,-0.7813201 -4.643194 -0.4604142,-1.000264 -5.540779 -0.5503479,-1.198824 -6.074662 -0.786217,-0.634943 -4.920017 -1.186632,-0.4797697 -4.859406 -0.5970613,-0.703927 -5.525526 -0.6190845,-0.929903 -5.918722 -0.7668684,-8.656191 -7.278494 0.002879576,-7.976643 -7.009094 0.2028338,-7.46394 -6.283667 0.3726799,-7.173194 -5.506993 0.6223153,-6.919661 -4.904361 0.8725433,-7.833794 -4.618543 -0.004964766,-7.656046 -3.513551 0.1497709,-7.529552 -2.852498 0.3223733,-7.416358 -2.271888 0.4238466,-8.182744 -4.375718 0.08983219,-8.019265 -3.058175 0.1969406,-7.891878 -2.256069 0.4117275,-7.782715 -1.596569 0.5656481,-8.529563 -4.365885 0.2324456,-8.410576 -3.082501 0.3504444,-8.295115 -2.321779 0.5540936,-8.161162 -1.710119 0.7070628,-8.897824 -4.554206 0.3890871,-8.895186 -3.545767 0.5554067,-8.84034 -2.890975 0.7184511,-8.742655 -2.287023 0.8197006,4.210,
-1.322117 -6.542279 -1.927165,-1.72641 -6.248893 -1.144006,-1.97091 -5.549323 -0.6827687,-1.844569 -4.860128 -0.3038532,-1.511074 -4.302228 0.08114803,-1.621018 -4.282508 -0.9847323,-1.548895 -3.649544 -0.359182,-1.402716 -3.161035 0.01885796,-1.225881 -2.650337 0.3188218,-1.202204 -4.255014 -1.12151,-1.07759 -4.352184 -0.2869703,-1.245125 -5.324497 -0.1628621,-1.412895 -5.95261 -0.2708566,-0.8293085 -4.470571 -1.144354,-0.7237325 -4.611351 -0.3506939,-0.9478464 -5.517318 -0.4397886,-1.147143 -6.042442 -0.6907084,-0.5383816 -4.809889 -1.103889,-0.4244881 -4.807379 -0.5077143,-0.6628923 -5.469394 -0.534947,-0.9008269 -5.86304 -0.7059904,-8.678714 -7.294502 -0.03590578,-7.999023 -7.026958 0.1881258,-7.477234 -6.304345 0.3647629,-7.182956 -5.533201 0.6115346,-6.928563 -4.929095 0.8497567,-7.845 -4.645544 0.01521454,-7.660669 -3.526147 0.1931023,-7.530018 -2.8507 0.3850872,-7.415247 -2.24601 0.502854,-8.194099 -4.406818 0.1025852,-8.037163 -3.075639 0.2357973,-7.910756 -2.25904 0.473815,-7.80478 -1.579914 0.6461164,-8.540627 -4.401879 0.237285,-8.429063 -3.113999 0.3758973,-8.316791 -2.348663 0.5962524,-8.189714 -1.730495 0.7585205,-8.908822 -4.592968 0.3859607,-8.907715 -3.581584 0.5679949,-8.855628 -2.920558 0.7417585,-8.766657 -2.309391 0.84563,4.310,
-1.292085 -6.451907 -1.887251,-1.691059 -6.144013 -1.043403,-1.936738 -5.453181 -0.5404077,-1.790765 -4.81448 -0.1421489,-1.435282 -4.273808 0.2602123,-1.599392 -4.181066 -0.8654546,-1.542565 -3.579438 -0.1851903,-1.384523 -3.131118 0.2243398,-1.197101 -2.638679 0.5428342,-1.162468 -4.175586 -1.019874,-1.046231 -4.297315 -0.1133634,-1.201606 -5.283124 0.03349078,-1.361382 -5.91323 -0.0706408,-0.7786059 -4.417832 -1.052234,-0.6760988 -4.589377 -0.1997801,-0.9002399 -5.505851 -0.2759652,-1.097812 -6.035808 -0.5340863,-0.4825344 -4.776971 -1.028185,-0.3772564 -4.819774 -0.3835295,-0.62047 -5.495927 -0.4007362,-0.8545918 -5.888071 -0.5734912,-8.694148 -7.274445 -0.08638425,-8.006922 -7.013851 0.1301074,-7.486266 -6.306726 0.300879,-7.185434 -5.540045 0.5428153,-6.937814 -4.940389 0.7794788,-7.848917 -4.648511 -0.06283976,-7.663141 -3.533039 0.1084595,-7.537506 -2.864202 0.2932648,-7.427309 -2.273513 0.4043399,-8.194779 -4.402688 0.02377119,-8.028957 -3.076582 0.148401,-7.901865 -2.264378 0.3787653,-7.794156 -1.591143 0.5412683,-8.541312 -4.393287 0.1555843,-8.422969 -3.108038 0.2908926,-8.307892 -2.343644 0.5028784,-8.177696 -1.727725 0.6562545,-8.91091 -4.582824 0.3020929,-8.909062 -3.582999 0.4824783,-8.85832 -2.918933 0.6514432,-8.769607 -2.305688 0.7512326,4.410,
-1.188613 -6.400425 -1.505499,-1.61192 -6.115132 -0.5249695,-1.86953 -5.468388 0.01760209,-1.694521 -4.897857 0.4161799,-1.337851 -4.353087 0.8046038,-1.549412 -4.084978 -0.3472699,-1.481468 -3.55074 0.3869857,-1.32502 -3.10699 0.8375204,-1.130553 -2.559341 1.188271,-1.083884 -4.037005 -0.5576726,-0.997529 -4.272336 0.4235251,-1.133883 -5.279637 0.5831482,-1.283544 -5.897296 0.4881563,-0.6808295 -4.262737 -0.6232136,-0.5987358 -4.534911 0.2830522,-0.8189249 -5.465438 0.2126378,-1.027322 -6.012583 -0.04522634,-0.3794928 -4.629879 -0.6252937,-0.308753 -4.775781 0.06431377,-0.5584154 -5.460468 0.05083919,-0.804718 -5.873516 -0.1119415,-8.701689 -7.254716 -0.1028306,-8.015642 -6.998262 0.1055387,-7.494861 -6.298307 0.2780394,-7.201684 -5.544004 0.5275214,-6.951781 -4.956426 0.7735443,-7.857332 -4.627801 -0.06814793,-7.676391 -3.507692 0.1029605,-7.546885 -2.840193 0.2897296,-7.433908 -2.254244 0.3984847,-8.205436 -4.387924 0.02502729,-8.046378 -3.0467 0.1504841,-7.922891 -2.228916 0.377204,-7.821347 -1.55386 0.5362515,-8.55152 -4.382272 0.1636038,-8.434791 -3.086401 0.2969917,-8.323478 -2.314825 0.5122099,-8.200141 -1.691301 0.6694407,-8.919559 -4.57665 0.3149358,-8.914999 -3.570237 0.4851803,-8.865653 -2.910686 0.6551982,-8.780095 -2.304999 0.7599587,4.510,
-1.153185 -6.303973 -1.690725,-1.589661 -6.026395 -0.6989102,-1.820906 -5.405048 -0.1415365,-1.620245 -4.859685 0.271345,-1.255146 -4.307481 0.6805282,-1.512356 -4.041974 -0.5265902,-1.44834 -3.428218 0.2911031,-1.281722 -2.983279 0.7822886,-1.065832 -2.458525 1.144418,-1.041704 -3.99874 -0.7409142,-0.9333181 -4.18892 0.2927544,-1.089572 -5.208974 0.4222994,-1.260828 -5.765632 0.2680104,-0.6284418 -4.223734 -0.807754,-0.5224295 -4.449505 0.1595049,-0.7837877 -5.412084 0.05433524,-1.017495 -5.922357 -0.2630523,-0.3158245 -4.580968 -0.8061323,-0.2277355 -4.667902 -0.09924781,-0.5004001 -5.368167 -0.1545749,-0.7660303 -5.75929 -0.3820314,-8.699834 -7.270812 -0.03099491,-8.016642 -7.007699 0.1889021,-7.49747 -6.298019 0.3652502,-7.199103 -5.537391 0.6170073,-6.949424 -4.935131 0.8639579,-7.857646 -4.620211 0.0004620813,-7.680937 -3.50686 0.1683732,-7.556346 -2.835891 0.3520112,-7.446287 -2.248701 0.4554661,-8.207205 -4.382284 0.09039986,-8.050815 -3.038545 0.2103118,-7.92761 -2.220296 0.4299219,-7.825521 -1.551459 0.580291,-8.55485 -4.384223 0.2250591,-8.442378 -3.078207 0.354746,-8.33296 -2.301094 0.5649881,-8.210512 -1.6757 0.7168027,-8.924674 -4.588851 0.3760086,-8.914852 -3.556807 0.5586541,-8.865114 -2.898334 0.7252483,-8.778044 -2.291536 0.8257296,4.610,
-1.094789 -6.238988 -1.462997,-1.535846 -5.950609 -0.5122662,-1.776569 -5.348626 0.05702889,-1.568005 -4.841835 0.4969896,-1.205289 -4.296736 0.9213822,-1.457611 -3.912834 -0.3234131,-1.393927 -3.329416 0.4601768,-1.237065 -2.901188 0.9118836,-1.038133 -2.367981 1.250171,-0.9812908 -3.865444 -0.508447,-0.8787766 -4.093734 0.5259613,-1.051149 -5.126009 0.6608317,-1.235213 -5.683984 0.5114377,-0.5632668 -4.101308 -0.54478,-0.4672685 -4.367342 0.3892279,-0.7328472 -5.327251 0.2684128,-0.9676447 -5.822071 -0.04410982,-0.2483444 -4.485235 -0.5178562,-0.1753879 -4.600217 0.1579207,-0.4584751 -5.292905 0.08791757,-0.7235198 -5.679071 -0.1442302,-8.706925 -7.257061 -0.07977772,-8.012687 -6.992494 0.1349416,-7.496643 -6.28843 0.3079945,-7.199319 -5.522487 0.5542505,-6.941294 -4.921314 0.7964326,-7.856299 -4.627807 -0.04997855,-7.671942 -3.503207 0.1255229,-7.546422 -2.830944 0.3094616,-7.438179 -2.240304 0.4124153,-8.203757 -4.384391 0.03919525,-8.03924 -3.037102 0.1641417,-7.912494 -2.22203 0.3895524,-7.806954 -1.550839 0.5464596,-8.55113 -4.374561 0.1728995,-8.437771 -3.068971 0.3100435,-8.325003 -2.297142 0.5240811,-8.197923 -1.672398 0.6782585,-8.919303 -4.561849 0.3212643,-8.916322 -3.546827 0.5049725,-8.86216 -2.884276 0.6744162,-8.769426 -2.275514 0.7759907,4.710,
-1.02691 -6.158831 -1.270303,-1.464398 -5.926961 -0.2785398,-1.731509 -5.329277 0.2918655,-1.52846 -4.765428 0.7231542,-1.163081 -4.152158 1.148365,-1.467337 -3.872222 -0.04841053,-1.412234 -3.294929 0.7617172,-1.250369 -2.861331 1.246953,-1.04595 -2.341174 1.607077,-0.9942198 -3.746051 -0.2604809,-0.8684349 -4.002677 0.7842971,-0.9672689 -5.066458 0.9275233,-1.117699 -5.707588 0.7846371,-0.5674424 -3.920342 -0.331315,-0.4549074 -4.254333 0.6442239,-0.6594787 -5.261411 0.5645032,-0.8765688 -5.83518 0.2677469,-0.2434907 -4.250491 -0.3382626,-0.1505709 -4.396018 0.3926598,-0.3839865 -5.160673 0.3651593,-0.6363802 -5.630331 0.1692436,-8.690228 -7.242501 -0.01323578,-8.004004 -6.979289 0.2049188,-7.481399 -6.257032 0.3806586,-7.185293 -5.48698 0.6278161,-6.933073 -4.887568 0.8736824,-7.844314 -4.591079 0.02660665,-7.660078 -3.471019 0.1953006,-7.535582 -2.797429 0.3812082,-7.427181 -2.20413 0.4891886,-8.192847 -4.34995 0.1153491,-8.033403 -3.010342 0.2342177,-7.910495 -2.193054 0.4574693,-7.807236 -1.517783 0.6180725,-8.540139 -4.347793 0.2517696,-8.425101 -3.04877 0.3785609,-8.311954 -2.276566 0.5892022,-8.184641 -1.652168 0.7460926,-8.909216 -4.542611 0.4017012,-8.906132 -3.530281 0.5751346,-8.856581 -2.864185 0.7435076,-8.770205 -2.252443 0.8460042,4.810,
-1.043485 -6.152586 -1.317081,-1.482832 -5.878686 -0.332545,-1.706281 -5.253797 0.2437471,-1.466097 -4.764307 0.6833882,-1.085722 -4.193456 1.119973,-1.437243 -3.828118 -0.1177086,-1.359208 -3.289837 0.7449567,-1.199392 -2.860471 1.260559,-0.9979153 -2.317483 1.634233,-0.9490604 -3.747798 -0.326853,-0.7837009 -4.033153 0.760175,-0.9358544 -5.104816 0.8948839,-1.119654 -5.705198 0.7230949,-0.5203829 -3.963726 -0.3894981,-0.3848467 -4.303599 0.6004438,-0.6536083 -5.293239 0.454198,-0.8959475 -5.80158 0.09822118,-0.2132998 -4.324892 -0.3806335,-0.103282 -4.481225 0.3285038,-0.3665123 -5.206324 0.245904,-0.6274867 -5.605888 -0.009172916,-8.683343 -7.223423 -0.05166195,-7.996778 -6.952896 0.1608579,-7.479169 -6.23997 0.3421361,-7.188498 -5.469856 0.5979533,-6.933008 -4.874457 0.8550415,-7.842081 -4.577405 0.003949929,-7.658478 -3.455353 0.1828215,-7.53089 -2.790836 0.3718423,-7.4201 -2.203672 0.4826009,-8.191842 -4.342216 0.1018357,-8.024648 -2.993681 0.2330953,-7.89415 -2.181402 0.4583247,-7.785358 -1.512838 0.619296,-8.538983 -4.34191 0.2486844,-8.42317 -3.028221 0.3884166,-8.308733 -2.2536 0.6113409,-8.180225 -1.624816 0.7767667,-8.906241 -4.53783 0.4060104,-8.900737 -3.511705 0.5883989,-8.84886 -2.84656 0.7625899,-8.757926 -2.233551 0.8712066,4.910,
-0.9303193 -6.059572 -1.159751,-1.343708 -5.786108 -0.1392148,-1.588276 -5.21228 0.4562244,-1.342282 -4.715768 0.9009173,-0.962676 -4.179958 1.396514,-1.305955 -3.69885 0.08084774,-1.242937 -3.141216 0.8772781,-1.072344 -2.718117 1.355066,-0.8577447 -2.232155 1.699083,-0.8273745 -3.609521 -0.1623258,-0.6632566 -3.900678 0.8986523,-0.7539053 -4.863939 1.172018,-0.8910756 -5.456042 1.142345,-0.4119878 -3.801831 -0.2771163,-0.2788706 -4.237787 0.6686078,-0.5017376 -5.192115 0.6749252,-0.7173557 -5.743862 0.4398934,-0.1045823 -4.142871 -0.3300786,-0.005410671 -4.38408 0.3432903,-0.2282019 -5.117401 0.3164504,-0.4542475 -5.532368 0.131439,-8.692789 -7.222847 0.05328835,-8.011662 -6.944169 0.2679538,-7.490094 -6.225284 0.4434693,-7.195148 -5.455972 0.6910246,-6.942546 -4.863914 0.9307141,-7.856263 -4.544359 0.09432571,-7.665844 -3.425565 0.2517369,-7.534653 -2.751389 0.4336066,-7.420281 -2.158314 0.545542,-8.203789 -4.309726 0.1857635,-8.035573 -2.969782 0.2930961,-7.903824 -2.159125 0.5081035,-7.794074 -1.493027 0.6651272,-8.552034 -4.316604 0.3267172,-8.433155 -3.020937 0.4466774,-8.320889 -2.251693 0.6544248,-8.194707 -1.626844 0.8079547,-8.921421 -4.525985 0.4787855,-8.921067 -3.511675 0.6521723,-8.87331 -2.845204 0.8217399,-8.786827 -2.230585 0.9236198,5.010,
-0.8959804 -6.02329 -0.7638456,-1.319171 -5.724698 0.3151436,-1.546414 -5.152478 0.9521472,-1.277198 -4.696517 1.4214,-0.8795791 -4.14505 1.933987,-1.228303 -3.547073 0.5276836,-1.182714 -3.075158 1.37086,-1.016233 -2.689735 1.873571,-0.8058558 -2.202651 2.228407,-0.7300711 -3.473482 0.2805909,-0.5855541 -3.83782 1.408634,-0.6987014 -4.801324 1.698508,-0.8494229 -5.358284 1.678933,-0.2998705 -3.7138 0.1725035,-0.1926098 -4.243464 1.170738,-0.4577188 -5.194427 1.164682,-0.690793 -5.705863 0.9102952,0.004509449 -4.130407 0.1333778,0.06794882 -4.49974 0.8503227,-0.1950464 -5.220994 0.8072338,-0.4443598 -5.594612 0.5988706,-8.697017 -7.2359 0.05092534,-8.009895 -6.950542 0.2683582,-7.487688 -6.227359 0.4431767,-7.192688 -5.453554 0.6887899,-6.940642 -4.858581 0.9258133,-7.862201 -4.554204 0.1049153,-7.672997 -3.422173 0.2707439,-7.543551 -2.7467 0.4500309,-7.431545 -2.149641 0.5571333,-8.207923 -4.323967 0.1932038,-8.040081 -2.974334 0.3103077,-7.911649 -2.163707 0.5218629,-7.805838 -1.497449 0.6706744,-8.553159 -4.333723 0.3293995,-8.437674 -3.023237 0.4625258,-8.329635 -2.24798 0.6722651,-8.205792 -1.617632 0.8228004,-8.918559 -4.545063 0.4770228,-8.91995 -3.526043 0.6544265,-8.874054 -2.858589 0.8256608,-8.787955 -2.243035 0.9269851,5.110,
-0.751935 -5.879335 -1.206091,-1.157287 -5.641828 -0.1621594,-1.404244 -5.082344 0.4752604,-1.162856 -4.58451 0.9348201,-0.7839661 -4.030399 1.430498,-1.113345 -3.550677 0.1072841,-1.053711 -2.930625 0.8133401,-0.8708529 -2.510657 1.283764,-0.6342731 -2.108662 1.661065,-0.646214 -3.475882 -0.1333562,-0.4285412 -3.600749 0.8657233,-0.3692327 -4.313198 1.259398,-0.38449 -4.866162 1.393146,-0.2340379 -3.66427 -0.2790685,-0.0775032 -4.114011 0.6469114,-0.2652154 -5.025969 0.7398208,-0.4696302 -5.659875 0.5913101,0.07234192 -4.008617 -0.353111,0.1615582 -4.331329 0.3565209,-0.06910372 -5.047414 0.3709681,-0.3134518 -5.493503 0.2447876,-8.706628 -7.23225 0.06086953,-8.015361 -6.943683 0.2775166,-7.494837 -6.221298 0.4532489,-7.205009 -5.447486 0.7006971,-6.952464 -4.850793 0.9395475,-7.856848 -4.546247 0.120856,-7.67822 -3.41714 0.2934204,-7.551334 -2.751298 0.4712035,-7.440239 -2.165317 0.5700315,-8.207221 -4.31952 0.2100901,-8.048097 -2.960399 0.332316,-7.923931 -2.152826 0.5413606,-7.821043 -1.489645 0.6889963,-8.55536 -4.33324 0.3484975,-8.447644 -3.011119 0.484814,-8.338621 -2.237366 0.7005209,-8.216005 -1.612378 0.8579323,-8.922681 -4.545864 0.496778,-8.922355 -3.530418 0.6745546,-8.875525 -2.864529 0.8457791,-8.790359 -2.253777 0.9511061,5.210,
-0.6389952 -5.772048 -0.9835554,-1.040376 -5.540273 0.06764436,-1.27961 -4.983739 0.7444892,-1.02086 -4.560346 1.223959,-0.6168642 -4.051211 1.757198,-0.9663639 -3.473897 0.4882021,-0.8894405 -2.931161 1.297704,-0.6930614 -2.523822 1.837872,-0.4442983 -2.152199 2.2225,-0.4939499 -3.371646 0.2388462,-0.2413297 -3.553504 1.261374,-0.1770535 -4.277446 1.661874,-0.1810994 -4.88824 1.80538,-0.08077049 -3.563499 0.07788682,0.09421015 -4.090108 0.9929782,-0.09399128 -4.933662 1.049593,-0.2781072 -5.528173 0.8726493,0.2168193 -3.933947 -0.003061473,0.3066268 -4.332019 0.6826487,0.08258915 -5.012764 0.6750803,-0.1353016 -5.424957 0.5191315,-8.708049 -7.233224 0.09584509,-8.017384 -6.949314 0.3176177,-7.500078 -6.211605 0.495395,-7.214654 -5.43172 0.7466242,-6.952943 -4.839147 0.9908981,-7.864532 -4.536492 0.1364351,-7.686386 -3.40852 0.3093708,-7.556165 -2.74202 0.4962254,-7.440893 -2.15754 0.6031568,-8.216562 -4.308081 0.2258755,-8.063266 -2.952135 0.3400659,-7.94088 -2.149317 0.5501508,-7.821436 -1.504595 0.6381884,-8.555686 -4.303121 0.3481853,-8.447399 -3.000998 0.4641764,-8.34085 -2.235745 0.6719316,-8.220217 -1.611484 0.8221615,-8.923191 -4.505367 0.5041939,-8.9236 -3.492408 0.6696117,-8.882099 -2.831355 0.8312487,-8.801141 -2.21945 0.930539,5.310,
-0.5952826 -5.720155 -0.6548011,-1.032429 -5.533563 0.4942681,-1.254161 -5.033756 1.19726,-0.9790401 -4.638755 1.696111,-0.5668631 -4.076328 2.247152,-0.9223089 -3.416452 0.9618378,-0.820334 -2.946746 1.823657,-0.6182041 -2.60159 2.358357,-0.3693705 -2.216771 2.740875,-0.4268227 -3.259745 0.6530813,-0.1610508 -3.826581 1.705832,-0.207871 -4.826631 1.937624,-0.3232493 -5.482389 1.932519,0.001847744 -3.46776 0.4829066,0.1653781 -4.121002 1.408711,-0.03933144 -5.007255 1.379166,-0.2354336 -5.496506 1.150713,0.3125424 -3.815229 0.3918567,0.4263206 -4.161439 1.065291,0.1984973 -4.880321 1.036335,-0.0124445 -5.268421 0.8785167,-8.686365 -7.216133 0.07874398,-8.001919 -6.928495 0.3052593,-7.487906 -6.19548 0.4925117,-7.202838 -5.429742 0.7505707,-6.946399 -4.832693 1.004005,-7.864969 -4.51578 0.1625783,-7.681312 -3.377894 0.3580705,-7.550732 -2.70989 0.5512922,-7.440131 -2.120948 0.6644682,-8.211593 -4.295835 0.2586661,-8.047644 -2.935432 0.4020324,-7.921793 -2.123485 0.6248105,-7.820334 -1.451545 0.77979,-8.557498 -4.31384 0.4053466,-8.446075 -2.991321 0.561147,-8.338824 -2.214225 0.7794535,-8.22004 -1.577116 0.9366084,-8.923985 -4.53353 0.5630163,-8.921869 -3.509114 0.752764,-8.88024 -2.840302 0.9246599,-8.803239 -2.217908 1.030396,5.410,
-0.4889092 -5.839807 -0.1211743,-0.9206772 -5.599792 0.989056,-1.191934 -5.113401 1.721573,-0.949914 -4.876146 2.237109,-0.4774833 -4.50839 2.790749,-0.8062811 -3.431579 1.558375,-0.7333422 -3.114186 2.494315,-0.5511684 -2.84114 3.056997,-0.3183031 -2.443277 3.442346,-0.2710023 -3.25536 1.272043,-0.1129179 -3.916891 2.329691,-0.2440853 -4.899501 2.500942,-0.3998532 -5.358303 2.457494,0.1849451 -3.521078 1.145159,0.3067226 -4.187072 2.046993,0.0557723 -4.987695 1.940537,-0.156167 -5.242439 1.658798,0.5063419 -3.960144 1.082858,0.5918741 -4.348018 1.703395,0.3194599 -4.94968 1.632578,0.09339094 -5.142091 1.4139,-8.65666 -7.22657 0.136237,-7.968574 -6.952983 0.3476931,-7.450835 -6.213378 0.518448,-7.16531 -5.442577 0.7604273,-6.917265 -4.846811 0.9964021,-7.831588 -4.513542 0.1696723,-7.65073 -3.370645 0.3413236,-7.519741 -2.687294 0.5299077,-7.406399 -2.089424 0.6382232,-8.18055 -4.287162 0.2663872,-8.0224 -2.922096 0.3937667,-7.89246 -2.108392 0.6175436,-7.781987 -1.437581 0.7735215,-8.52618 -4.299873 0.4127068,-8.417963 -2.980018 0.5480375,-8.312832 -2.203905 0.7623378,-8.189209 -1.570608 0.9159611,-8.889123 -4.513982 0.5727339,-8.894325 -3.488727 0.7476156,-8.854834 -2.817997 0.9123687,-8.774887 -2.199262 1.007931,5.510,
-0.3709021 -5.872367 -0.166153,-0.8023453 -5.641233 0.9524431,-1.077556 -5.138674 1.703419,-0.8199282 -4.868848 2.259218,-0.3852262 -4.484332 2.857104,-0.723402 -3.446411 1.482994,-0.6352062 -3.057908 2.450282,-0.4506912 -2.770148 2.984698,-0.2358413 -2.455189 3.336228,-0.1870527 -3.293981 1.21621,0.001922607 -3.751121 2.366847,-0.09002018 -4.682713 2.662255,-0.2185535 -5.178615 2.726216,0.2827711 -3.500015 1.090697,0.4307971 -4.160079 2.086336,0.2001987 -5.017221 2.028375,-0.01229143 -5.333396 1.773321,0.6270013 -3.910166 1.034066,0.7652388 -4.174024 1.70642,0.527864 -4.795585 1.680214,0.3102746 -5.036214 1.501859,-8.631081 -7.211204 0.1883258,-7.940656 -6.951171 0.4462768,-7.420412 -6.206106 0.6282983,-7.136911 -5.423463 0.8703996,-6.887401 -4.814455 1.102624,-7.806982 -4.490972 0.2613972,-7.606092 -3.371774 0.4379204,-7.468669 -2.699387 0.6153109,-7.35263 -2.110048 0.7134362,-8.153871 -4.257797 0.3380113,-7.984149 -2.909474 0.4691536,-7.855857 -2.106002 0.6865728,-7.745555 -1.435598 0.8361567,-8.497615 -4.267649 0.4725203,-8.382318 -2.95765 0.6143137,-8.281028 -2.193183 0.8269659,-8.158203 -1.559745 0.9835805,-8.859231 -4.476427 0.6239775,-8.862383 -3.468906 0.7967614,-8.83082 -2.813006 0.9657281,-8.757257 -2.198143 1.063105,5.610,
-0.2473068 -6.039249 0.5630682,-0.6886435 -5.714157 1.556833,-1.015528 -5.214237 2.343937,-0.8084798 -4.904644 2.941227,-0.3304157 -4.555215 3.525903,-0.6792893 -3.524247 2.362985,-0.6285944 -3.240145 3.392389,-0.5070124 -2.907098 3.967556,-0.3363905 -2.533018 4.346007,-0.1184235 -3.330717 2.14576,0.1000905 -3.916309 3.231632,-0.03059864 -4.797372 3.438821,-0.1908584 -5.177312 3.503984,0.3775024 -3.552931 2.056832,0.5834188 -4.263633 2.956908,0.3237076 -5.067823 2.742118,0.09455776 -5.257516 2.425489,0.7560635 -4.023595 2.02856,0.9432092 -4.315467 2.61816,0.6742787 -4.888914 2.534823,0.4324431 -5.03612 2.353036,-8.611021 -7.219034 0.2287927,-7.921159 -6.942179 0.45317,-7.405333 -6.193017 0.6222224,-7.121853 -5.406801 0.8568897,-6.870372 -4.81813 1.075522,-7.796135 -4.487121 0.2834432,-7.586035 -3.368304 0.4535673,-7.441874 -2.697999 0.6343057,-7.32422 -2.098884 0.7403365,-8.144203 -4.252143 0.3758284,-7.971661 -2.895622 0.4939157,-7.831686 -2.088633 0.7142576,-7.716238 -1.413513 0.8659119,-8.488153 -4.264514 0.5224288,-8.386293 -2.951063 0.6545997,-8.283145 -2.173086 0.8736875,-8.164098 -1.528668 1.037466,-8.844042 -4.478374 0.6822692,-8.85126 -3.455047 0.8552404,-8.807362 -2.796437 1.03017,-8.723447 -2.186689 1.13137,5.710,
-0.2854185 -6.043225 0.283482,-0.7305951 -5.725843 1.326824,-1.030199 -5.22537 2.138413,-0.856164 -4.898482 2.749017,-0.393548 -4.592569 3.280027,-0.7446561 -3.609492 2.184119,-0.6687288 -3.293621 3.168928,-0.5521822 -2.933048 3.690175,-0.389184 -2.503143 4.03125,-0.1742077 -3.489604 1.965199,0.08176756 -3.90513 3.01899,-0.06948471 -4.809637 3.094444,-0.2571106 -5.178384 3.053843,0.3317242 -3.729272 1.876289,0.5900598 -4.17664 2.821479,0.3136659 -4.966582 2.616249,0.06230545 -5.197538 2.298081,0.7149153 -4.17637 1.850891,0.9451876 -4.146475 2.505486,0.6782312 -4.603168 2.509247,0.4102416 -4.782891 2.375704,-8.606449 -7.221105 0.2310533,-7.916014 -6.928556 0.4507388,-7.404468 -6.183332 0.6257566,-7.118489 -5.403842 0.8675253,-6.857287 -4.820785 1.09232,-7.784595 -4.48372 0.3062382,-7.578231 -3.344793 0.484039,-7.436533 -2.66577 0.672435,-7.320264 -2.059505 0.7838412,-8.136162 -4.255539 0.4047553,-7.972156 -2.889059 0.5369442,-7.835949 -2.075934 0.7668688,-7.722907 -1.397104 0.9242235,-8.483446 -4.268571 0.5532041,-8.385161 -2.946304 0.696858,-8.281156 -2.167048 0.9203193,-8.158822 -1.524322 1.079404,-8.844937 -4.47719 0.7142397,-8.851164 -3.444869 0.8978635,-8.805116 -2.785112 1.071619,-8.718545 -2.172852 1.16726,5.810,
-0.2684622 -6.026528 -0.1579623,-0.7076063 -5.636607 0.850335,-0.9997931 -5.193115 1.690788,-0.8011041 -4.904619 2.285256,-0.3389602 -4.632503 2.7123,-0.7983761 -3.867801 1.882167,-0.7297592 -3.631128 2.878432,-0.6543574 -3.151053 3.328813,-0.5370545 -2.473835 3.659099,-0.2069488 -3.759136 1.702397,0.05080605 -3.780409 2.768684,-0.07611942 -4.141719 2.845947,-0.242054 -4.229597 2.879356,0.3134274 -3.91097 1.619165,0.5966072 -4.089729 2.532165,0.3015041 -4.720738 2.187701,0.04599667 -4.867233 1.803323,0.7102342 -4.294631 1.621516,0.9426804 -4.06537 2.265444,0.6674404 -4.404809 2.20916,0.4009285 -4.579124 2.067109,-8.611768 -7.240503 0.2952224,-7.913984 -6.970357 0.5266869,-7.399057 -6.232231 0.7139505,-7.117266 -5.45091 0.9660941,-6.863035 -4.855096 1.197299,-7.786617 -4.490266 0.3693539,-7.578675 -3.358451 0.5430599,-7.433277 -2.688466 0.7278825,-7.312752 -2.096305 0.8333153,-8.13797 -4.256935 0.4694636,-7.969688 -2.886928 0.594058,-7.827677 -2.083324 0.8147916,-7.710383 -1.418182 0.9644696,-8.486003 -4.275143 0.6231396,-8.385249 -2.944206 0.7607849,-8.27724 -2.159439 0.9869722,-8.152228 -1.509241 1.15099,-8.847063 -4.495617 0.7925886,-8.855426 -3.455865 0.9668186,-8.805864 -2.791837 1.142093,-8.715965 -2.178894 1.244334,5.910,
-0.1442599 -6.208154 1.019672,-0.5770903 -5.820198 2.01611,-0.8785973 -5.316911 2.83087,-0.6249771 -4.877521 3.419889,-0.1785183 -4.499233 3.980343,-0.7144513 -3.59409 2.815269,-0.7263989 -3.211255 3.744927,-0.6159992 -2.772875 4.230143,-0.459198 -2.298538 4.576726,-0.1493587 -3.349851 2.608027,0.05332518 -3.462715 3.661095,0.07521439 -3.752653 3.995249,0.0283289 -3.899526 4.234289,0.3574796 -3.414524 2.488636,0.547473 -3.920857 3.38737,0.3056707 -4.739755 3.151289,0.0726161 -5.055009 2.822029,0.7742043 -3.797619 2.449116,0.9393625 -3.905564 3.072694,0.714365 -4.438115 3.010664,0.4739876 -4.686571 2.84055,-8.607107 -7.2524 0.3571163,-7.917779 -6.959805 0.5885513,-7.404016 -6.218244 0.7789675,-7.118217 -5.442695 1.037535,-6.85442 -4.844705 1.283787,-7.782727 -4.482314 0.441047,-7.576532 -3.359464 0.6184963,-7.433286 -2.687614 0.8058348,-7.313496 -2.096796 0.9147742,-8.133796 -4.251583 0.5438309,-7.96092 -2.896006 0.671581,-7.819933 -2.092404 0.8931869,-7.705067 -1.431062 1.040665,-8.482058 -4.270074 0.6987083,-8.376363 -2.946929 0.8473227,-8.269354 -2.158569 1.081561,-8.143923 -1.508541 1.244258,-8.844956 -4.493398 0.8677229,-8.857712 -3.456992 1.060936,-8.812751 -2.782416 1.244094,-8.725135 -2.153608 1.348726,6.010,
-0.08583546 -5.828487 0.1467194,-0.5363989 -5.669137 1.31348,-0.8494153 -5.247617 2.216089,-0.5870628 -4.984723 2.862148,-0.1086578 -4.67809 3.444972,-0.6584496 -3.631254 2.185908,-0.6196556 -3.138032 3.213344,-0.4712968 -2.680087 3.738629,-0.2618723 -2.087064 4.111307,-0.08924484 -3.37963 1.915243,0.1934528 -3.617424 3.140976,0.1725268 -4.369233 3.380622,0.06764984 -4.627896 3.464994,0.4283128 -3.440903 1.770779,0.6609106 -3.928806 2.700879,0.4310045 -4.725133 2.345525,0.1999106 -4.854444 1.930372,0.8240843 -3.726366 1.713389,1.021532 -3.875384 2.267968,0.8084531 -4.413494 2.101139,0.5859594 -4.536888 1.85097,-8.630395 -7.264475 0.357521,-7.937971 -6.944256 0.5590034,-7.4271 -6.197994 0.7473973,-7.139665 -5.422822 1.01354,-6.868306 -4.828438 1.27926,-7.808398 -4.487642 0.4221353,-7.629251 -3.343917 0.601128,-7.483483 -2.686306 0.8030934,-7.352087 -2.106717 0.9282023,-8.158819 -4.26342 0.5468391,-8.003412 -2.892065 0.6839877,-7.861877 -2.065145 0.9192004,-7.73985 -1.383814 1.084834,-8.50774 -4.286433 0.7208791,-8.396324 -2.945285 0.8670568,-8.27428 -2.145448 1.102964,-8.130445 -1.488963 1.270181,-8.878162 -4.517301 0.9066168,-8.887693 -3.462985 1.100892,-8.83812 -2.775209 1.286128,-8.745528 -2.137224 1.397114,6.110,
-0.2995911 -6.049564 0.1054189,-0.7281184 -5.868401 1.214818,-0.9710999 -5.391559 2.031005,-0.6641645 -5.166868 2.607919,-0.1981726 -4.877841 3.153424,-0.7962546 -3.772413 2.065065,-0.7013226 -3.293017 2.916241,-0.5735302 -2.798426 3.478271,-0.4152546 -2.328246 3.909829,-0.2319164 -3.579062 1.821515,0.02060127 -3.466633 2.845845,0.07038736 -4.134676 3.191524,0.009422302 -4.707248 3.380312,0.2568693 -3.727237 1.643867,0.4911442 -4.030643 2.521245,0.3132901 -4.811843 2.439326,0.1199274 -5.178251 2.247089,0.6485376 -4.07864 1.550461,0.863986 -4.156185 2.139203,0.6684189 -4.706927 2.138911,0.4540935 -4.948253 2.013234,-8.768649 -7.353689 0.3496447,-8.069032 -7.044147 0.5737777,-7.541142 -6.296882 0.7552054,-7.250226 -5.505281 1.011468,-6.989069 -4.901133 1.256675,-7.90724 -4.587215 0.3668755,-7.735564 -3.43974 0.5174192,-7.60822 -2.768918 0.6960215,-7.494952 -2.180812 0.8046077,-8.260735 -4.356954 0.4602688,-8.106293 -2.969129 0.5523803,-7.985378 -2.151641 0.7486976,-7.885847 -1.477639 0.8802737,-8.60597 -4.372941 0.5999665,-8.509139 -3.037977 0.7073908,-8.418454 -2.242552 0.9067425,-8.314054 -1.585227 1.04466,-8.966516 -4.597156 0.7556609,-8.974707 -3.546106 0.9138905,-8.929685 -2.87507 1.07436,-8.853609 -2.270279 1.16162,6.210,
-0.3927741 -6.188856 -0.05091619,-0.8428788 -6.053077 1.078285,-1.071966 -5.743648 1.88542,-0.8231897 -5.641319 2.474597,-0.4245257 -5.308153 3.051714,-0.8984766 -4.023878 1.932734,-0.773571 -3.56252 2.751253,-0.6703587 -3.057236 3.31652,-0.5422487 -2.569582 3.768329,-0.3345175 -3.774276 1.667573,-0.08815956 -4.260574 2.67417,-0.1324434 -4.920068 2.997813,-0.2247648 -5.351154 3.174929,0.1677027 -4.019193 1.474604,0.3711176 -4.68584 2.267018,0.1603003 -5.256485 2.232032,-0.02041245 -5.437812 2.113808,0.5612564 -4.39939 1.38664,0.7528195 -4.807043 1.914861,0.5464892 -5.271513 1.969745,0.3658361 -5.377035 1.909963,-8.82507 -7.423934 0.3914825,-8.128022 -7.11822 0.5959947,-7.59831 -6.344182 0.7669904,-7.308626 -5.546595 1.020693,-7.037264 -4.940475 1.276399,-7.949135 -4.647433 0.3944384,-7.780317 -3.491251 0.5636081,-7.648694 -2.804083 0.7518423,-7.528109 -2.204467 0.8703296,-8.298452 -4.418497 0.5063033,-8.137117 -3.035537 0.6225862,-8.011241 -2.1972 0.8360467,-7.901935 -1.510276 0.9825863,-8.646049 -4.43617 0.6678472,-8.539902 -3.105703 0.8021807,-8.438192 -2.303571 1.012198,-8.316339 -1.646145 1.158979,-9.014744 -4.665311 0.8424485,-9.019394 -3.606799 1.034764,-8.975422 -2.931262 1.204327,-8.892172 -2.318732 1.300528,6.310,
-0.5187445 -6.725214 -0.8973062,-1.017109 -6.607177 0.1351445,-1.227544 -6.296529 0.9238369,-1.05421 -6.120932 1.552793,-0.7087026 -5.784025 2.120645,-1.031834 -4.647909 0.8791178,-0.9145346 -4.030334 1.688415,-0.8074379 -3.745085 2.237495,-0.6851873 -3.684271 2.649524,-0.4981184 -4.540361 0.7265769,-0.1919804 -4.790964 1.718516,-0.253273 -5.658594 1.9523,-0.3944893 -6.20466 2.017818,-0.02432251 -4.805959 0.640361,0.2716141 -5.020149 1.488455,0.08075047 -5.750398 1.471024,-0.1106119 -6.133008 1.338312,0.3370438 -5.17951 0.6513007,0.6433578 -5.143802 1.265151,0.4470558 -5.687241 1.297517,0.215045 -5.997746 1.20937,-8.844383 -7.516325 0.3471642,-8.136475 -7.220468 0.5871512,-7.609029 -6.480739 0.7577692,-7.314785 -5.682913 0.9969876,-7.045326 -5.085401 1.241448,-7.956383 -4.770852 0.3785706,-7.766249 -3.626142 0.5657243,-7.639416 -2.943181 0.7640482,-7.524858 -2.34011 0.8901289,-8.306509 -4.52617 0.4729899,-8.128595 -3.154374 0.6072018,-7.993925 -2.320411 0.8441266,-7.880567 -1.632959 1.002075,-8.660909 -4.531457 0.6177704,-8.54067 -3.199621 0.7824247,-8.435812 -2.40826 1.009725,-8.313811 -1.764862 1.163356,-9.038107 -4.750875 0.7830897,-9.036496 -3.719389 0.9995444,-9.003998 -3.041581 1.177272,-8.932406 -2.415729 1.273836,6.410,
-0.4201784 -7.225189 -1.938076,-0.9085207 -7.152879 -0.9222397,-1.202557 -6.900422 -0.09836316,-1.131505 -6.679349 0.5688664,-0.8317385 -6.381021 1.071921,-1.00743 -5.574712 -0.07002473,-0.8928728 -5.277124 0.7653271,-0.8908439 -5.187849 1.127009,-0.8992229 -5.244537 1.359024,-0.5080032 -5.53735 -0.199181,-0.09770536 -5.42966 0.7914838,-0.1724806 -5.681215 1.069861,-0.3111544 -5.886257 1.254372,-0.03717422 -5.694756 -0.2823399,0.3069715 -5.826023 0.5730914,0.08715582 -6.328636 0.4183253,-0.1270885 -6.560108 0.2240049,0.3289142 -5.985799 -0.2625052,0.6294618 -5.921799 0.3454741,0.3903627 -6.288087 0.3723637,0.1320639 -6.515876 0.2836927,-8.781077 -7.499742 0.1701509,-8.061541 -7.226425 0.3828599,-7.543225 -6.479698 0.5523675,-7.259068 -5.693614 0.7905541,-6.983929 -5.094388 1.03681,-7.897214 -4.788579 0.1719313,-7.712735 -3.616897 0.3339601,-7.5874 -2.921733 0.5118302,-7.476503 -2.314525 0.6112171,-8.275781 -4.55434 0.2726297,-8.106243 -3.154514 0.4020502,-7.985207 -2.306015 0.6249177,-7.885826 -1.600566 0.777758,-8.635747 -4.543405 0.4121106,-8.50917 -3.194869 0.5543546,-8.415336 -2.398126 0.762537,-8.305706 -1.743828 0.9115231,-9.017063 -4.735277 0.5682656,-9.002906 -3.687099 0.7646945,-8.963883 -3.008113 0.9270814,-8.886934 -2.388052 1.020416,6.510,
-0.3966498 -7.529783 -2.254946,-0.9258237 -7.509366 -1.292535,-1.218875 -7.266823 -0.5007445,-1.119814 -6.971376 0.1393105,-0.7947841 -6.57978 0.63139,-1.04136 -5.94609 -0.5395912,-0.9394388 -5.488319 0.3414892,-0.9028683 -5.403505 0.7566766,-0.8868752 -5.449467 0.9910644,-0.5416908 -5.850194 -0.6402161,-0.1931496 -5.797499 0.4221708,-0.2902317 -6.433815 0.5682501,-0.4726162 -6.757284 0.5994109,-0.07276964 -5.963224 -0.6780951,0.2696319 -6.011647 0.2515301,0.05912256 -6.66761 0.06498682,-0.1649599 -6.930753 -0.1848406,0.304225 -6.187541 -0.6182457,0.6056423 -5.970506 0.01052535,0.3766661 -6.445148 0.004244447,0.1181731 -6.70226 -0.1234876,-8.770709 -7.489491 0.2633896,-8.05989 -7.210128 0.475751,-7.537287 -6.455839 0.650043,-7.251664 -5.676057 0.898119,-6.968937 -5.094362 1.151686,-7.890368 -4.764601 0.2832401,-7.71075 -3.598906 0.4508187,-7.585151 -2.911732 0.6223062,-7.473482 -2.318207 0.7144132,-8.246984 -4.520617 0.3764869,-8.091899 -3.13244 0.4825324,-7.976738 -2.298874 0.6855204,-7.87935 -1.610396 0.8210644,-8.602132 -4.5137 0.5181819,-8.483336 -3.182207 0.6431961,-8.385517 -2.392638 0.841439,-8.27269 -1.750725 0.9775828,-8.978497 -4.707733 0.6739843,-8.965137 -3.665928 0.8500874,-8.923327 -2.996645 1.003803,-8.84691 -2.392132 1.092289,6.610,
-0.2296562 -8.17679 -0.590058,-0.807498 -8.138552 0.3318298,-1.185318 -7.812551 1.129072,-1.13187 -7.423069 1.756762,-0.8016748 -6.962558 2.271642,-0.9525156 -6.225349 1.265299,-0.9109793 -6.117669 2.172952,-0.8813086 -6.174852 2.612138,-0.8364382 -6.281221 2.885344,-0.4505138 -6.004365 1.178526,-0.2224436 -6.341999 2.179888,-0.2811785 -7.233497 2.287774,-0.3872886 -7.664909 2.317653,0.02660131 -6.144992 1.156753,0.2200499 -6.637468 2.048551,0.05291367 -7.459615 1.866291,-0.1028328 -7.755517 1.653046,0.4202914 -6.479938 1.221533,0.5819206 -6.737857 1.746409,0.3854976 -7.33813 1.707029,0.1979532 -7.615519 1.608357,-8.78253 -7.509005 0.2781222,-8.06478 -7.254148 0.4916872,-7.536077 -6.493283 0.6445137,-7.250169 -5.703504 0.870888,-6.980752 -5.134478 1.099098,-7.889504 -4.793886 0.2831982,-7.711418 -3.619754 0.4425981,-7.585322 -2.919368 0.610855,-7.472142 -2.313139 0.7001625,-8.252157 -4.536088 0.3622347,-8.094976 -3.127212 0.4602844,-7.976067 -2.288821 0.6563758,-7.877679 -1.604207 0.7826636,-8.609515 -4.52037 0.4867136,-8.491035 -3.175627 0.6019875,-8.39292 -2.385758 0.7882423,-8.280092 -1.746052 0.9193139,-8.984892 -4.711837 0.6292081,-8.974663 -3.659159 0.7929992,-8.929653 -2.985644 0.9398178,-8.848176 -2.384528 1.021324,6.710,
-0.2378883 -8.566732 -0.5484681,-0.8071861 -8.441299 0.3769498,-1.183587 -8.137152 1.198372,-1.053057 -7.940862 1.840038,-0.6557064 -7.683317 2.423603,-0.9940782 -6.555025 1.227983,-0.9943767 -6.348341 2.060477,-0.9572029 -6.271154 2.526122,-0.9140606 -6.27087 2.900086,-0.4773817 -6.324645 1.148178,-0.3327532 -6.203571 2.175458,-0.2838693 -6.874261 2.522243,-0.2959104 -7.408897 2.744348,0.01322269 -6.390855 1.119558,0.1583385 -6.722164 2.039794,0.009551048 -7.668549 1.867112,-0.1632533 -8.169436 1.61984,0.4405136 -6.72903 1.179054,0.5525265 -6.822275 1.792028,0.357935 -7.5093 1.740719,0.1570196 -7.913549 1.594378,-8.795464 -7.54368 0.3392194,-8.083255 -7.26452 0.5156584,-7.556727 -6.505619 0.6723037,-7.268889 -5.713464 0.9124626,-6.991961 -5.130246 1.156118,-7.912649 -4.797552 0.3280091,-7.739445 -3.624575 0.4891265,-7.609749 -2.923777 0.670164,-7.493051 -2.31621 0.7742322,-8.267661 -4.553102 0.4403205,-8.111537 -3.127947 0.5470585,-7.990496 -2.272491 0.7496703,-7.891463 -1.579083 0.8769656,-8.622552 -4.55389 0.5940255,-8.505992 -3.183795 0.7117572,-8.406985 -2.368068 0.909151,-8.296124 -1.710259 1.047571,-8.997662 -4.767717 0.7608393,-8.989059 -3.69844 0.932034,-8.938655 -3.006227 1.089234,-8.854346 -2.385609 1.177126,6.810,
-0.2763696 -8.812149 -0.6540267,-0.8012171 -8.652283 0.3923542,-1.16092 -8.319908 1.262017,-0.9936724 -8.047764 1.920684,-0.5613174 -7.753068 2.514386,-0.9305506 -6.782188 1.106295,-0.9335351 -6.615778 2.059166,-0.8796368 -6.518339 2.545432,-0.8537817 -6.455371 2.89038,-0.4161911 -6.54914 0.975053,-0.2487011 -6.45684 2.130847,-0.1675243 -6.956927 2.536901,-0.1929178 -7.417341 2.751103,0.06325245 -6.60399 0.924284,0.21666 -7.091459 1.923833,0.06774616 -8.059599 1.754607,-0.1306405 -8.556868 1.462396,0.4676828 -6.952352 0.9644936,0.6044893 -7.173231 1.638498,0.4292812 -7.897064 1.578566,0.2289276 -8.301012 1.391468,-8.847512 -7.563467 0.4088782,-8.125811 -7.274418 0.6122932,-7.594243 -6.520723 0.7795294,-7.297038 -5.707851 1.024291,-7.014184 -5.092213 1.280434,-7.928596 -4.81394 0.3982016,-7.747669 -3.641996 0.5562549,-7.625625 -2.931966 0.7282537,-7.51456 -2.319431 0.8253453,-8.287681 -4.557926 0.4923016,-8.12427 -3.151676 0.5886363,-8.006422 -2.301255 0.7886948,-7.904572 -1.610157 0.9204991,-8.650295 -4.548176 0.6326999,-8.526772 -3.196563 0.7453011,-8.42937 -2.396521 0.9332142,-8.316063 -1.753498 1.064602,-9.034404 -4.746891 0.789788,-9.027123 -3.69711 0.961203,-8.985119 -3.010557 1.111879,-8.905022 -2.386905 1.195929,6.910,
-0.2383976 -8.75979 -0.4088862,-0.7774949 -8.688204 0.651571,-1.143774 -8.45549 1.553448,-0.9813623 -8.22925 2.242603,-0.5672154 -7.847353 2.883551,-0.9478669 -6.860482 1.478333,-0.9278808 -6.83138 2.526857,-0.882616 -6.689878 3.070274,-0.8407612 -6.515625 3.433542,-0.4213238 -6.475038 1.30502,-0.1937833 -6.808355 2.471896,-0.1409807 -7.543155 2.726065,-0.1806068 -7.993579 2.816253,0.08329487 -6.485215 1.233427,0.2930207 -7.260643 2.177587,0.1357212 -8.185925 1.916759,-0.0499444 -8.513117 1.581338,0.4942942 -6.801052 1.251345,0.6638913 -7.29872 1.830201,0.4874649 -8.007343 1.701769,0.2941599 -8.301195 1.487875,-8.84557 -7.575998 0.4422946,-8.121513 -7.290849 0.6319427,-7.595636 -6.532979 0.7966205,-7.303188 -5.725738 1.041792,-7.02685 -5.116987 1.298201,-7.944976 -4.805936 0.4022591,-7.775541 -3.625088 0.5581728,-7.652838 -2.917846 0.7368159,-7.536706 -2.306695 0.8422458,-8.302227 -4.557312 0.5072216,-8.145513 -3.1386 0.608833,-8.027496 -2.288205 0.8133854,-7.922907 -1.594652 0.9479714,-8.661064 -4.55137 0.6596963,-8.542315 -3.185531 0.7729106,-8.445471 -2.382215 0.9640358,-8.330524 -1.735548 1.093383,-9.040215 -4.756317 0.826862,-9.034882 -3.695704 0.9941282,-8.995728 -3.005617 1.137861,-8.919802 -2.384879 1.214976,7.010,
-0.1947098 -9.032557 0.02097561,-0.7518253 -8.857424 1.059879,-1.173429 -8.511108 1.98196,-1.005121 -8.14946 2.68468,-0.5019646 -7.775041 3.29339,-0.944973 -6.962091 1.909772,-0.9634976 -6.962467 2.987831,-0.8874283 -6.879362 3.464587,-0.8427534 -6.751153 3.779187,-0.394856 -6.623193 1.771241,-0.2074938 -6.72429 2.993821,-0.1350393 -7.156387 3.345293,-0.1868219 -7.46512 3.517876,0.1307807 -6.62495 1.723857,0.2958283 -7.306471 2.70842,0.1345592 -8.251598 2.33686,-0.08282661 -8.582544 1.909521,0.5626702 -6.979709 1.761802,0.6929083 -7.377143 2.400954,0.5045424 -8.100843 2.256076,0.2792325 -8.416809 1.99053,-8.863998 -7.568588 0.4850647,-8.144855 -7.287309 0.6987034,-7.620534 -6.535011 0.8788084,-7.32675 -5.725074 1.132099,-7.046879 -5.105499 1.398227,-7.963315 -4.788938 0.4785846,-7.780897 -3.615554 0.6389971,-7.657329 -2.914028 0.817706,-7.541366 -2.308023 0.923746,-8.322057 -4.537928 0.577495,-8.155298 -3.133071 0.6768105,-8.036079 -2.288143 0.8775343,-7.929689 -1.598195 1.007955,-8.683268 -4.538454 0.7256756,-8.559187 -3.182527 0.8427963,-8.458543 -2.385767 1.034053,-8.34036 -1.743438 1.161989,-9.064876 -4.750183 0.8916844,-9.062021 -3.702894 1.064372,-9.027365 -3.022854 1.209099,-8.95581 -2.402749 1.284287,7.110,
-0.1963282 -9.174646 0.02015959,-0.7765188 -8.907166 1.025393,-1.19266 -8.491976 1.890112,-1.010704 -8.128622 2.562816,-0.4730768 -7.81607 3.120025,-0.9221039 -6.863315 1.722954,-0.8562465 -6.768413 2.846271,-0.765625 -6.897682 3.274024,-0.7070036 -6.956098 3.453442,-0.3613863 -6.63698 1.582155,-0.1276407 -6.977623 2.858819,-0.1199112 -7.908523 3.04658,-0.235765 -8.363844 2.978515,0.1550617 -6.753784 1.554089,0.3562241 -7.348407 2.670286,0.1876249 -8.325369 2.39455,-0.04175949 -8.658384 1.931176,0.5691133 -7.13474 1.602371,0.7297907 -7.417093 2.270965,0.5373483 -8.127466 2.138439,0.3096061 -8.450558 1.811567,-8.868822 -7.576328 0.4797725,-8.150205 -7.283745 0.6973994,-7.61762 -6.527076 0.8770645,-7.331798 -5.707571 1.129049,-7.044725 -5.103463 1.392408,-7.966688 -4.806509 0.5257217,-7.785062 -3.631277 0.6965913,-7.661633 -2.936393 0.877278,-7.547296 -2.328423 0.9873275,-8.328339 -4.548807 0.6209463,-8.157163 -3.139984 0.7407223,-8.03441 -2.2847 0.9532602,-7.929417 -1.587564 1.09454,-8.691868 -4.549615 0.7638608,-8.564885 -3.1884 0.8968422,-8.462059 -2.377527 1.097254,-8.343053 -1.726228 1.238868,-9.078087 -4.765396 0.9208529,-9.071436 -3.708952 1.111443,-9.036326 -3.028163 1.272198,-8.963067 -2.410777 1.360663,7.210,
-0.1950574 -9.166548 0.6653318,-0.793232 -8.81782 1.72213,-1.257809 -8.341566 2.619937,-1.047112 -7.891027 3.294993,-0.4455175 -7.549878 3.817794,-0.8166828 -6.796052 2.58462,-0.7106209 -6.966001 3.770638,-0.6458802 -7.086412 4.192185,-0.5965834 -7.056747 4.358496,-0.2265902 -6.519529 2.407027,0.05578518 -7.38735 3.67583,-0.06536579 -8.301205 3.74962,-0.2354336 -8.575581 3.643089,0.3061838 -6.676847 2.365765,0.4791446 -7.659225 3.428156,0.1946559 -8.518675 3.034521,-0.0410471 -8.658432 2.537633,0.702631 -7.111736 2.409643,0.8322368 -7.761369 2.966706,0.5551023 -8.397984 2.74621,0.3306012 -8.551519 2.407943,-8.889312 -7.583383 0.5257983,-8.173992 -7.263996 0.7251594,-7.640024 -6.508314 0.9022436,-7.343471 -5.692959 1.160511,-7.063109 -5.066455 1.435556,-7.984172 -4.79173 0.5227942,-7.804042 -3.618723 0.686965,-7.682924 -2.916849 0.8602842,-7.570142 -2.310745 0.9617234,-8.34257 -4.542182 0.6315957,-8.176856 -3.144363 0.7364608,-8.059822 -2.289269 0.9397348,-7.957116 -1.5946 1.073822,-8.705855 -4.544673 0.7891299,-8.583608 -3.206535 0.9123625,-8.48631 -2.397486 1.110648,-8.371269 -1.748146 1.248078,-9.090493 -4.756156 0.9612601,-9.0855 -3.699799 1.148437,-9.04971 -3.010725 1.305039,-8.97279 -2.388233 1.387707,7.310,
-0.18715 -9.240841 1.353063,-0.7606411 -8.843407 2.476491,-1.188055 -8.265377 3.371569,-0.9996147 -7.779079 4.084107,-0.4260416 -7.43794 4.705075,-0.6716537 -6.621637 3.239874,-0.5293055 -6.840835 4.490757,-0.4340401 -7.165811 5.035275,-0.3584094 -7.318785 5.275622,-0.08339834 -6.320621 3.022393,0.1449118 -7.499248 4.294598,-0.04667807 -8.677896 4.28791,-0.2700281 -9.089706 4.066814,0.4149156 -6.535098 2.966354,0.5556064 -7.63676 4.065922,0.2609344 -8.593613 3.740437,0.02396011 -8.81797 3.290201,0.7662535 -7.013051 3.003151,0.9096761 -7.733634 3.643231,0.6311278 -8.459072 3.496227,0.3886285 -8.645517 3.233655,-8.878724 -7.549391 0.51299,-8.161365 -7.250267 0.7292914,-7.624016 -6.483885 0.9115708,-7.326887 -5.652003 1.170831,-7.048746 -5.026309 1.445279,-7.986478 -4.763811 0.5345963,-7.805853 -3.583896 0.7101223,-7.686815 -2.883715 0.8864045,-7.575739 -2.278591 0.9856793,-8.350636 -4.509204 0.6343089,-8.180201 -3.109352 0.7552006,-8.062057 -2.260547 0.9612598,-7.957744 -1.573845 1.094079,-8.713178 -4.513868 0.7853148,-8.588958 -3.16433 0.9228475,-8.487706 -2.359458 1.125988,-8.366634 -1.713002 1.268,-9.094009 -4.731575 0.9507361,-9.089728 -3.680383 1.143383,-9.053182 -2.995484 1.30819,-8.975207 -2.371694 1.398206,7.410,
-0.1532779 -9.247025 1.891634,-0.7390823 -8.903582 3.075655,-1.156677 -8.399397 4.047992,-0.9569263 -7.955941 4.79741,-0.416491 -7.452447 5.451146,-0.7033291 -6.625947 3.917357,-0.6330719 -6.80478 5.134192,-0.5404043 -6.928166 5.768823,-0.4337721 -6.934244 6.15945,-0.08695507 -6.22928 3.700961,0.1480327 -7.604082 4.949667,-0.0696764 -8.803759 4.959665,-0.3087931 -9.16033 4.83053,0.4415956 -6.446706 3.633611,0.5979009 -7.778443 4.689047,0.2542238 -8.7244 4.327046,-0.008934498 -8.881741 3.929979,0.8187218 -6.926192 3.675529,0.9490857 -7.851308 4.304717,0.6470304 -8.587986 4.091055,0.3975105 -8.709217 3.834438,-8.877388 -7.550241 0.5481029,-8.161901 -7.25844 0.7749591,-7.626584 -6.489604 0.9596913,-7.334159 -5.657884 1.219,-7.05496 -5.033256 1.49313,-7.985813 -4.759046 0.578997,-7.806359 -3.581716 0.7505468,-7.684956 -2.878715 0.9222325,-7.572495 -2.27068 1.018613,-8.349577 -4.500028 0.6746755,-8.180212 -3.105525 0.7937583,-8.058686 -2.249358 0.999233,-7.952032 -1.55512 1.133126,-8.712334 -4.504641 0.8235241,-8.589066 -3.16671 0.9600772,-8.485704 -2.361945 1.161901,-8.363147 -1.712374 1.302175,-9.095702 -4.723426 0.9872863,-9.090141 -3.679244 1.183458,-9.055199 -2.997108 1.352562,-8.979657 -2.376836 1.446606,7.510,
-0.1910009 -9.224895 2.067667,-0.7271786 -8.765343 3.217887,-1.154481 -8.207394 4.224401,-0.939599 -7.842502 4.97783,-0.3264003 -7.497171 5.603502,-0.6148047 -6.536132 4.279707,-0.5783896 -6.836891 5.520919,-0.5023508 -7.035404 6.010854,-0.4136944 -7.071109 6.235579,0.01288509 -6.266737 4.054822,0.2081504 -7.792909 5.345125,-0.01339245 -8.767021 5.381767,-0.2189627 -8.94408 5.30591,0.5473413 -6.552154 3.951291,0.6121259 -8.179861 5.027936,0.2078953 -8.937551 4.59535,-0.0712142 -8.926538 4.117275,0.9148679 -7.114439 3.951958,0.9714589 -8.206827 4.542525,0.6080971 -8.799679 4.290819,0.3469791 -8.781744 3.978121,-8.875597 -7.569721 0.5988057,-8.162238 -7.278198 0.820648,-7.622803 -6.489551 0.9963689,-7.328407 -5.666463 1.245343,-7.054903 -5.059887 1.500611,-7.996874 -4.75922 0.6274486,-7.809707 -3.586446 0.807407,-7.684155 -2.890906 0.9879518,-7.573354 -2.282934 1.088183,-8.357275 -4.503145 0.7250797,-8.182235 -3.104261 0.8513664,-8.059765 -2.253649 1.062914,-7.957358 -1.556706 1.198775,-8.716517 -4.508136 0.8748488,-8.593064 -3.152425 1.019513,-8.49096 -2.336736 1.228243,-8.371931 -1.674816 1.371315,-9.09521 -4.731714 1.036988,-9.090344 -3.676458 1.232091,-9.05068 -2.993042 1.400368,-8.970321 -2.374581 1.493778,7.610,
-0.2331901 -9.139202 1.378839,-0.784039 -8.705519 2.470494,-1.173004 -8.021534 3.378565,-0.967494 -7.463832 4.077256,-0.3949842 -7.187555 4.651931,-0.4961643 -6.67135 3.606629,-0.3076334 -7.20928 4.787665,-0.2583256 -7.580692 5.184234,-0.2180467 -7.710971 5.325035,0.08660221 -6.44849 3.386772,0.3216619 -7.985666 4.490149,0.03566647 -8.935089 4.369863,-0.2139578 -9.105198 4.199428,0.566246 -6.727821 3.285674,0.702446 -8.097717 4.272052,0.3259082 -8.796406 3.841243,0.06035519 -8.823542 3.390695,0.9028549 -7.20269 3.277233,1.045912 -8.116512 3.858764,0.6908646 -8.656429 3.680867,0.4162822 -8.660824 3.442991,-8.887085 -7.596679 0.6145542,-8.167796 -7.297077 0.8210754,-7.627413 -6.511198 0.9881694,-7.337341 -5.685052 1.23476,-7.063543 -5.067874 1.488476,-8.003191 -4.77983 0.6325714,-7.822517 -3.590067 0.8066913,-7.69902 -2.885141 0.9820021,-7.585943 -2.262775 1.087121,-8.362601 -4.526674 0.7429929,-8.187933 -3.116765 0.8694304,-8.066626 -2.253351 1.083795,-7.960606 -1.543234 1.223937,-8.722522 -4.536794 0.9046506,-8.599671 -3.181222 1.051506,-8.503259 -2.352506 1.268631,-8.385614 -1.676651 1.420151,-9.103631 -4.768096 1.077104,-9.101735 -3.711351 1.288296,-9.064718 -3.022386 1.468601,-8.984193 -2.406465 1.569915,7.710,
-0.2269402 -8.786074 1.356868,-0.7810569 -8.501514 2.525188,-1.161957 -8.081198 3.546391,-1.015979 -7.788805 4.341112,-0.4783964 -7.71042 5.124011,-0.609169 -6.427372 3.723775,-0.4986019 -6.86799 4.896314,-0.5084763 -7.418969 5.349905,-0.5444975 -7.598905 5.573512,-0.03866625 -6.190488 3.491976,0.1130033 -7.297091 4.731974,-0.03452158 -8.40906 4.850384,-0.2134733 -8.807402 4.83836,0.419353 -6.394284 3.343734,0.4954805 -7.526775 4.356075,0.2151208 -8.421928 4.163274,-0.02793884 -8.629568 3.888621,0.7457895 -6.810014 3.28091,0.8468246 -7.475128 3.852088,0.5614214 -8.149454 3.802084,0.3070564 -8.310682 3.693648,-8.943631 -7.597754 0.6135225,-8.243813 -7.285852 0.8219809,-7.709093 -6.524059 1.015343,-7.414305 -5.708675 1.291454,-7.131902 -5.090203 1.582145,-8.05274 -4.768301 0.6596981,-7.882758 -3.549902 0.83874,-7.769785 -2.81847 1.0245,-7.660385 -2.175561 1.146515,-8.407358 -4.53251 0.7905807,-8.230824 -3.097654 0.9307768,-8.113593 -2.199864 1.147811,-8.011016 -1.467359 1.294201,-8.769752 -4.55658 0.9696891,-8.639071 -3.171928 1.120747,-8.536585 -2.316506 1.334178,-8.419718 -1.61964 1.487709,-9.161085 -4.801994 1.161248,-9.156418 -3.72193 1.377003,-9.121538 -3.027537 1.552315,-9.049182 -2.40767 1.649888,7.810,
-0.451808 -7.340241 -2.329884,-1.06778 -7.485301 -1.398441,-1.477906 -7.280864 -0.55265,-1.390566 -7.06451 0.1236959,-1.01179 -6.783576 0.716573,-1.283922 -6.056234 -0.5105251,-1.354052 -5.434999 0.4595308,-1.270123 -5.345346 1.014241,-1.180449 -5.500203 1.373158,-0.7598591 -5.900684 -0.5458063,-0.6513691 -5.462839 0.7165768,-0.6475687 -6.185585 1.080792,-0.7376037 -6.738407 1.238622,-0.2570958 -5.937566 -0.5283318,-0.1712847 -5.689482 0.5173721,-0.3065872 -6.417251 0.4991889,-0.4707847 -6.897118 0.3170469,0.1753669 -6.097629 -0.429448,0.225729 -5.73267 0.2835701,0.06612587 -6.213766 0.342587,-0.118495 -6.571822 0.2727354,-8.946539 -7.609323 0.6513799,-8.231251 -7.285337 0.8853683,-7.699073 -6.523466 1.07151,-7.417578 -5.700281 1.323586,-7.14082 -5.091144 1.587463,-8.068348 -4.777921 0.7368481,-7.879302 -3.569466 0.9371568,-7.759272 -2.862358 1.123561,-7.64827 -2.237564 1.23996,-8.428203 -4.530717 0.8405271,-8.240396 -3.097295 0.9957225,-8.115498 -2.2284 1.217013,-8.004064 -1.516401 1.360327,-8.790007 -4.549098 0.9928544,-8.658854 -3.167779 1.16428,-8.570261 -2.328942 1.38122,-8.457358 -1.642761 1.534178,-9.176623 -4.792812 1.15876,-9.170492 -3.729883 1.384389,-9.142424 -3.046041 1.559028,-9.068624 -2.427488 1.657139,7.910,
-0.7179923 -6.72878 -2.216006,-1.320785 -6.433588 -1.502089,-1.671762 -6.09531 -0.6987947,-1.640709 -5.365552 -0.1381997,-1.374557 -4.769063 0.3000373,-1.243769 -7.199955 0.2352384,-1.320815 -6.027193 0.949633,-1.394133 -5.371925 0.8513886,-1.444105 -5.137638 0.7075006,-0.6679344 -7.196434 0.08189714,-0.7150412 -5.521463 0.842703,-0.8849096 -5.016678 0.4045106,-1.007077 -5.099821 0.06480253,-0.2110376 -6.915802 -0.0516516,-0.2323656 -5.26156 0.4330984,-0.5276237 -4.927778 -0.1614496,-0.7660952 -5.112921 -0.5516776,0.09155035 -6.540761 -0.1271437,0.1131668 -5.292734 0.1933266,-0.1461983 -4.972751 0.06588256,-0.3523426 -5.112041 -0.03722942,-8.934148 -7.598159 0.6202331,-8.216749 -7.273324 0.8461801,-7.677618 -6.511362 1.026744,-7.385784 -5.692001 1.270686,-7.106435 -5.077756 1.533293,-8.0564 -4.772561 0.6985063,-7.853423 -3.571173 0.9042058,-7.733762 -2.864241 1.086867,-7.630731 -2.238188 1.193649,-8.407379 -4.529846 0.8063679,-8.207932 -3.106389 0.961297,-8.081105 -2.240274 1.175043,-7.975499 -1.526558 1.306673,-8.765135 -4.553667 0.9619921,-8.625902 -3.177412 1.139216,-8.532411 -2.344471 1.358828,-8.422964 -1.662545 1.515047,-9.149986 -4.802742 1.132898,-9.135952 -3.752117 1.361581,-9.105702 -3.073634 1.54466,-9.036332 -2.457838 1.650971,8.010,
-0.6374021 -7.184733 -0.1843649,-1.172863 -7.080663 0.6895617,-1.588082 -6.731915 1.4192,-1.529075 -6.435939 2.030139,-1.107318 -5.993164 2.584972,-1.45483 -4.936874 1.400392,-1.488972 -4.539415 2.280341,-1.427185 -4.408914 2.809353,-1.308448 -4.382827 3.138444,-0.9248991 -4.674003 1.29056,-0.70681 -5.190152 2.298613,-0.7670512 -6.13878 2.525075,-0.8730154 -6.568367 2.59164,-0.4123197 -4.819246 1.275359,-0.2417064 -5.424301 2.162541,-0.4322643 -6.280193 2.104166,-0.5915432 -6.589443 1.927603,0.01737976 -5.161348 1.341553,0.1646738 -5.365646 1.921609,-0.05041552 -6.029369 1.913999,-0.2464123 -6.317188 1.791685,-8.893039 -7.590898 0.6167689,-8.179186 -7.255573 0.8408781,-7.652314 -6.496969 1.025217,-7.36296 -5.666999 1.278131,-7.073553 -5.049022 1.546314,-8.012523 -4.765907 0.6827121,-7.821302 -3.571444 0.863867,-7.702622 -2.866548 1.04055,-7.59258 -2.249067 1.149303,-8.370474 -4.521936 0.7865909,-8.185282 -3.104365 0.9238543,-8.064702 -2.244894 1.133333,-7.959845 -1.541673 1.265456,-8.730337 -4.541866 0.9393297,-8.600956 -3.161037 1.09929,-8.504928 -2.336859 1.318162,-8.392952 -1.663711 1.468606,-9.112752 -4.786916 1.103849,-9.108256 -3.738566 1.317147,-9.07527 -3.063306 1.493189,-9.003767 -2.441208 1.594591,8.110,
-0.5864553 -7.172325 -0.3919299,-1.122951 -7.071926 0.4451431,-1.543234 -6.744493 1.192893,-1.502783 -6.444038 1.830421,-1.139706 -6.060154 2.400851,-1.356544 -5.030458 1.193469,-1.355863 -4.604604 2.034058,-1.292607 -4.446393 2.497194,-1.198812 -4.39327 2.777482,-0.8205409 -4.729625 1.090167,-0.5715847 -5.270022 2.003627,-0.6550446 -6.178472 2.111645,-0.8028088 -6.500499 2.108603,-0.3066831 -4.864411 1.082317,-0.1156983 -5.383207 1.868968,-0.3198838 -6.177391 1.718588,-0.5009174 -6.4283 1.513305,0.1017289 -5.208498 1.167269,0.2555556 -5.417292 1.648818,0.02808762 -6.017116 1.595762,-0.1763382 -6.253343 1.441014,-8.893411 -7.578777 0.5761383,-8.177806 -7.235448 0.7818033,-7.646193 -6.481131 0.9580385,-7.358596 -5.667303 1.205766,-7.074061 -5.061618 1.469344,-8.010542 -4.762971 0.6318879,-7.825187 -3.557733 0.8237119,-7.701938 -2.855159 1.00777,-7.587811 -2.235778 1.121022,-8.363328 -4.523145 0.7504647,-8.179726 -3.102424 0.9062643,-8.054514 -2.241827 1.126391,-7.943627 -1.531044 1.266272,-8.720851 -4.544202 0.9193338,-8.593653 -3.164237 1.097109,-8.498016 -2.33205 1.324066,-8.384233 -1.650957 1.483202,-9.101622 -4.790271 1.096316,-9.103114 -3.745932 1.326033,-9.071572 -3.062843 1.516848,-9.000319 -2.440214 1.629148,8.210,
-0.4528179 -7.349241 -0.5058139,-0.9746838 -7.189876 0.3659557,-1.381383 -6.852197 1.117621,-1.327165 -6.594681 1.755234,-0.9272971 -6.316898 2.32961,-1.120995 -5.118043 1.073944,-1.138163 -4.657362 1.967929,-1.086106 -4.706866 2.430327,-1.010478 -4.899116 2.672651,-0.5952892 -4.948955 0.9945297,-0.367496 -5.247179 2.028355,-0.4401503 -6.195201 2.205221,-0.5917768 -6.621099 2.22776,-0.1083078 -5.15941 1.00269,0.09335613 -5.465969 1.907097,-0.09120274 -6.314826 1.758474,-0.2831554 -6.644872 1.506438,0.2771664 -5.56262 1.099064,0.457284 -5.591842 1.705416,0.2446432 -6.218168 1.675654,0.02936792 -6.516435 1.525389,-8.88909 -7.585044 0.5349535,-8.16902 -7.248703 0.7342377,-7.644313 -6.486055 0.9009247,-7.357106 -5.66403 1.140035,-7.076665 -5.050344 1.393262,-8.012593 -4.776166 0.5683998,-7.831038 -3.572801 0.7472184,-7.710019 -2.864777 0.9209613,-7.596353 -2.247429 1.025948,-8.367786 -4.538486 0.6826092,-8.191759 -3.106622 0.8101523,-8.07071 -2.241529 1.017084,-7.965137 -1.531395 1.152647,-8.727672 -4.559044 0.8420906,-8.60191 -3.179409 0.9936333,-8.506233 -2.353538 1.203611,-8.392645 -1.678119 1.349807,-9.109604 -4.799407 1.013866,-9.114396 -3.741543 1.223314,-9.087614 -3.056906 1.39622,-9.020295 -2.434945 1.496304,8.310,
-0.3403687 -7.323127 -0.4483257,-0.8821411 -7.194939 0.4054595,-1.316511 -6.894819 1.193494,-1.27234 -6.650108 1.853111,-0.8819923 -6.357435 2.426707,-1.066286 -5.204784 1.247722,-1.04084 -4.844251 2.144684,-0.9712019 -4.778401 2.618536,-0.8900976 -4.817983 2.903111,-0.5245008 -4.990301 1.179519,-0.2461815 -5.478343 2.187287,-0.3275452 -6.353783 2.287792,-0.4909964 -6.642946 2.303048,-0.0144968 -5.188396 1.203442,0.2244563 -5.653057 2.063157,0.01470566 -6.442951 1.83014,-0.1885681 -6.657751 1.558812,0.3875694 -5.591823 1.311618,0.5926046 -5.746768 1.862941,0.3598042 -6.340654 1.771156,0.1363192 -6.563371 1.602804,-8.887983 -7.57895 0.5720798,-8.174764 -7.242174 0.788459,-7.647928 -6.486204 0.9674042,-7.359636 -5.671903 1.216942,-7.079249 -5.062595 1.478996,-8.014885 -4.762937 0.6272471,-7.831046 -3.564714 0.8064087,-7.708358 -2.857421 0.9823325,-7.595229 -2.242204 1.087022,-8.37141 -4.521312 0.730017,-8.191505 -3.099111 0.8682091,-8.068142 -2.235609 1.077701,-7.961403 -1.535911 1.209614,-8.729649 -4.542701 0.8790447,-8.603633 -3.163062 1.035353,-8.505736 -2.332094 1.244791,-8.390037 -1.661855 1.391049,-9.108529 -4.786186 1.040477,-9.108385 -3.737292 1.247206,-9.073533 -3.057189 1.422109,-8.999537 -2.446295 1.521748,8.410,
-0.2352805 -7.635602 1.125392,-0.7770286 -7.274452 2.038684,-1.204612 -6.891876 2.893054,-1.077495 -6.810524 3.600071,-0.5796905 -6.660148 4.228941,-0.8615179 -5.077848 2.949164,-0.8269286 -4.945105 3.921536,-0.7593193 -4.855466 4.470936,-0.6767673 -4.774429 4.844568,-0.2767553 -4.810462 2.830914,-0.1206102 -5.687318 3.862384,-0.2755051 -6.678665 3.961776,-0.4288492 -7.097543 3.996376,0.2474327 -5.047258 2.827906,0.3438544 -5.901128 3.694954,0.05561638 -6.698299 3.456301,-0.1521482 -6.916333 3.168416,0.6444044 -5.552934 2.912158,0.7242303 -5.857414 3.407254,0.4288635 -6.41301 3.257485,0.2026901 -6.600274 3.046938,-8.88487 -7.605278 0.6173638,-8.169608 -7.280983 0.8191761,-7.638105 -6.497173 0.9842436,-7.355095 -5.676325 1.225174,-7.070325 -5.075294 1.480489,-7.995943 -4.777217 0.6539518,-7.817791 -3.583458 0.8289986,-7.695022 -2.877769 1.007553,-7.580111 -2.262553 1.117472,-8.355116 -4.536402 0.7681594,-8.184351 -3.123928 0.8967487,-8.061482 -2.267478 1.108693,-7.953942 -1.571682 1.246473,-8.715616 -4.554628 0.9302298,-8.598204 -3.190253 1.088351,-8.502148 -2.364133 1.309129,-8.388611 -1.697115 1.461091,-9.097755 -4.792728 1.102587,-9.102222 -3.74088 1.318334,-9.070536 -3.057867 1.493673,-8.999944 -2.441942 1.59328,8.510,
