TiagoOliveira98/HandTracking/DataLogging/JointData/Logs(1642625026)__Calculator.csv
WRIST,THUMB_CMC,THUMB_MCP,THUMB_IP,THUMB_TIP,INDEX_FINGER_MCP,INDEX_FINGER_PIP,INDEX_FINGER_DIP,INDEX_FINGER_TIP,MIDDLE_FINGER_MCP,MIDDLE_FINGER_PIP,MIDDLE_FINGER_DIP,MIDDLE_FINGER_TIP,RING_FINGER_MCP,RING_FINGER_PIP,RING_FINGER_DIP,RING_FINGER_TIP,PINKY_MCP,PINKY_PIP,PINKY_DIP,PINKY_TIP,WRIST2,THUMB_CMC2,THUMB_MCP2,THUMB_IP2,THUMB_TIP2,INDEX_FINGER_MCP2,INDEX_FINGER_PIP2,INDEX_FINGER_DIP2,INDEX_FINGER_TIP2,MIDDLE_FINGER_MCP2,MIDDLE_FINGER_PIP2,MIDDLE_FINGER_DIP2,MIDDLE_FINGER_TIP2,RING_FINGER_MCP2,RING_FINGER_PIP2,RING_FINGER_DIP2,RING_FINGER_TIP2,PINKY_MCP2,PINKY_PIP2,PINKY_DIP2,PINKY_TIP2,Timestamp,Event
10 0 0,10 7.47 0,10 7.47 0,10 7.47 0,10 7.47 0,10 7.47 0,10 7.47 0,10 7.47 0,10 7.47 0,10 7.47 0,10 7.47 0,10 7.47 0,10 7.47 0,10 7.47 0,10 7.47 0,10 7.47 0,10 7.47 0,10 7.47 0,10 7.47 0,10 7.47 0,10 7.47 0,10 0 0,10 7.47 0,10 7.47 0,10 7.47 0,10 7.47 0,10 7.47 0,10 7.47 0,10 7.47 0,10 7.47 0,10 7.47 0,10 7.47 0,10 7.47 0,10 7.47 0,10 7.47 0,10 7.47 0,10 7.47 0,10 7.47 0,10 7.47 0,10 7.47 0,10 7.47 0,10 7.47 0,0.010,
4.318212 0 0,5.339483 0 0,3.06042 0 0,2.869972 0 0,6.151464 0 0,6.841369 0 0,8.193164 0 0,1.326408 0 0,2.026408 0 0,4.554961 0 0,3.590143 0 0,7.766776 0 0,2.266011 0 0,7.069759 0 0,1.001041 0 0,4.109725 0 0,0.3056993 0 0,5.253842 0 0,8.893165 0 0,6.013316 0 0,-0.240068 0 0,-4.864767 -14.19352 -0.0003466194,-3.326757 -12.61972 0.005918073,-3.935678 -11.7333 0.01814914,-4.692372 -10.38216 0.1528759,-2.906353 -9.381191 0.6846347,-3.007471 -11.57551 0.4020745,-1.973933 -9.647549 0.5269765,-2.390011 -8.520382 0.4098509,-2.730155 -7.618439 -0.03362479,-1.638688 -12.26453 0.432761,-1.374855 -10.40804 0.1796864,-2.390553 -9.234047 -0.3284612,-2.486707 -8.206978 -0.8678792,0.568923 -12.65381 0.3713531,-0.5504475 -11.16631 -0.05841641,-2.102942 -10.46694 -0.5650031,-2.553131 -9.742804 -1.237725,-1.358761 -13.41486 0.299985,-0.7379274 -12.16669 -0.2473126,-1.34546 -11.48512 -0.7154036,-2.104624 -11.34925 -1.278833,0.110,
2 0 0,2 0 0,2 0 0,2 0 0,2 0 0,2 0 0,2 0 0,2 0 0,2 0 0,2 0 0,2 0 0,2 0 0,2 0 0,2 0 0,2 0 0,2 0 0,2 0 0,2 0 0,2 0 0,2 0 0,2 0 0,-4.576357 -13.90936 0.000580521,-4.791651 -12.64617 -0.5637242,-4.787968 -11.71855 -0.8861936,-4.803329 -11.17658 -1.095888,-4.945024 -10.97959 -1.326455,-4.036072 -11.18236 -0.9451205,-4.28679 -10.28667 -1.169618,-4.493161 -9.784176 -1.307612,-4.674009 -9.374334 -1.45206,-3.944485 -11.25632 -0.7522915,-4.268311 -10.25696 -0.9784265,-4.530443 -9.70302 -1.124185,-4.726635 -9.247175 -1.304378,-4.025082 -11.39138 -0.5848381,-4.311661 -10.34718 -0.7064129,-4.561782 -9.820618 -0.8639907,-4.743935 -9.452257 -1.014006,-4.180895 -11.56643 -0.4472941,-4.365622 -10.6832 -0.6549965,-4.51859 -10.19581 -0.8149487,-4.624556 -9.847454 -0.9658991,0.210,
2 0 0,2 0 0,2 0 0,2 0 0,2 0 0,2 0 0,2 0 0,2 0 0,2 0 0,2 0 0,2 0 0,2 0 0,2 0 0,2 0 0,2 0 0,2 0 0,2 0 0,2 0 0,2 0 0,2 0 0,2 0 0,-4.576357 -13.90936 0.000580521,-4.791651 -12.64617 -0.5637242,-4.787968 -11.71855 -0.8861936,-4.803329 -11.17658 -1.095888,-4.945024 -10.97959 -1.326455,-4.036072 -11.18236 -0.9451205,-4.28679 -10.28667 -1.169618,-4.493161 -9.784176 -1.307612,-4.674009 -9.374334 -1.45206,-3.944485 -11.25632 -0.7522915,-4.268311 -10.25696 -0.9784265,-4.530443 -9.70302 -1.124185,-4.726635 -9.247175 -1.304378,-4.025082 -11.39138 -0.5848381,-4.311661 -10.34718 -0.7064129,-4.561782 -9.820618 -0.8639907,-4.743935 -9.452257 -1.014006,-4.180895 -11.56643 -0.4472941,-4.365622 -10.6832 -0.6549965,-4.51859 -10.19581 -0.8149487,-4.624556 -9.847454 -0.9658991,0.310,
2 0 0,2 0 0,2 0 0,2 0 0,2 0 0,2 0 0,2 0 0,2 0 0,2 0 0,2 0 0,2 0 0,2 0 0,2 0 0,2 0 0,2 0 0,2 0 0,2 0 0,2 0 0,2 0 0,2 0 0,2 0 0,-4.576357 -13.90936 0.000580521,-4.791651 -12.64617 -0.5637242,-4.787968 -11.71855 -0.8861936,-4.803329 -11.17658 -1.095888,-4.945024 -10.97959 -1.326455,-4.036072 -11.18236 -0.9451205,-4.28679 -10.28667 -1.169618,-4.493161 -9.784176 -1.307612,-4.674009 -9.374334 -1.45206,-3.944485 -11.25632 -0.7522915,-4.268311 -10.25696 -0.9784265,-4.530443 -9.70302 -1.124185,-4.726635 -9.247175 -1.304378,-4.025082 -11.39138 -0.5848381,-4.311661 -10.34718 -0.7064129,-4.561782 -9.820618 -0.8639907,-4.743935 -9.452257 -1.014006,-4.180895 -11.56643 -0.4472941,-4.365622 -10.6832 -0.6549965,-4.51859 -10.19581 -0.8149487,-4.624556 -9.847454 -0.9658991,0.410,
2 0 0,2 0 0,2 0 0,2 0 0,2 0 0,2 0 0,2 0 0,2 0 0,2 0 0,2 0 0,2 0 0,2 0 0,2 0 0,2 0 0,2 0 0,2 0 0,2 0 0,2 0 0,2 0 0,2 0 0,2 0 0,-3.770284 -14.9458 0.0003467701,-4.005255 -13.62187 -0.4215849,-4.003837 -12.59383 -0.6742252,-3.846294 -11.98448 -0.8514963,-3.777294 -11.54562 -1.055449,-3.641245 -12.22169 -0.5874233,-3.53752 -11.02481 -0.7632427,-3.593316 -10.48917 -0.7984574,-3.674004 -10.18736 -0.8556542,-3.493353 -12.43709 -0.4117386,-3.460313 -11.05956 -0.6030513,-3.55066 -10.42894 -0.6636201,-3.635372 -10.10151 -0.7506559,-3.406168 -12.67716 -0.2832746,-3.391432 -11.43839 -0.4328427,-3.478935 -10.87198 -0.5350441,-3.548512 -10.58194 -0.6529035,-3.36384 -12.93353 -0.1580101,-3.348364 -11.99047 -0.3529029,-3.397388 -11.60736 -0.5129561,-3.415648 -11.43911 -0.657092,0.510,
2 0 0,2 0 0,2 0 0,2 0 0,2 0 0,2 0 0,2 0 0,2 0 0,2 0 0,2 0 0,2 0 0,2 0 0,2 0 0,2 0 0,2 0 0,2 0 0,2 0 0,2 0 0,2 0 0,2 0 0,2 0 0,-3.770284 -14.9458 0.0003467701,-4.005255 -13.62187 -0.4215849,-4.003837 -12.59383 -0.6742252,-3.846294 -11.98448 -0.8514963,-3.777294 -11.54562 -1.055449,-3.641245 -12.22169 -0.5874233,-3.53752 -11.02481 -0.7632427,-3.593316 -10.48917 -0.7984574,-3.674004 -10.18736 -0.8556542,-3.493353 -12.43709 -0.4117386,-3.460313 -11.05956 -0.6030513,-3.55066 -10.42894 -0.6636201,-3.635372 -10.10151 -0.7506559,-3.406168 -12.67716 -0.2832746,-3.391432 -11.43839 -0.4328427,-3.478935 -10.87198 -0.5350441,-3.548512 -10.58194 -0.6529035,-3.36384 -12.93353 -0.1580101,-3.348364 -11.99047 -0.3529029,-3.397388 -11.60736 -0.5129561,-3.415648 -11.43911 -0.657092,0.610,
2 0 0,2 0 0,2 0 0,2 0 0,2 0 0,2 0 0,2 0 0,2 0 0,2 0 0,2 0 0,2 0 0,2 0 0,2 0 0,2 0 0,2 0 0,2 0 0,2 0 0,2 0 0,2 0 0,2 0 0,2 0 0,-3.770284 -14.9458 0.0003467701,-4.005255 -13.62187 -0.4215849,-4.003837 -12.59383 -0.6742252,-3.846294 -11.98448 -0.8514963,-3.777294 -11.54562 -1.055449,-3.641245 -12.22169 -0.5874233,-3.53752 -11.02481 -0.7632427,-3.593316 -10.48917 -0.7984574,-3.674004 -10.18736 -0.8556542,-3.493353 -12.43709 -0.4117386,-3.460313 -11.05956 -0.6030513,-3.55066 -10.42894 -0.6636201,-3.635372 -10.10151 -0.7506559,-3.406168 -12.67716 -0.2832746,-3.391432 -11.43839 -0.4328427,-3.478935 -10.87198 -0.5350441,-3.548512 -10.58194 -0.6529035,-3.36384 -12.93353 -0.1580101,-3.348364 -11.99047 -0.3529029,-3.397388 -11.60736 -0.5129561,-3.415648 -11.43911 -0.657092,0.710,
2 0 0,2 0 0,2 0 0,2 0 0,2 0 0,2 0 0,2 0 0,2 0 0,2 0 0,2 0 0,2 0 0,2 0 0,2 0 0,2 0 0,2 0 0,2 0 0,2 0 0,2 0 0,2 0 0,2 0 0,2 0 0,-3.770284 -14.9458 0.0003467701,-4.005255 -13.62187 -0.4215849,-4.003837 -12.59383 -0.6742252,-3.846294 -11.98448 -0.8514963,-3.777294 -11.54562 -1.055449,-3.641245 -12.22169 -0.5874233,-3.53752 -11.02481 -0.7632427,-3.593316 -10.48917 -0.7984574,-3.674004 -10.18736 -0.8556542,-3.493353 -12.43709 -0.4117386,-3.460313 -11.05956 -0.6030513,-3.55066 -10.42894 -0.6636201,-3.635372 -10.10151 -0.7506559,-3.406168 -12.67716 -0.2832746,-3.391432 -11.43839 -0.4328427,-3.478935 -10.87198 -0.5350441,-3.548512 -10.58194 -0.6529035,-3.36384 -12.93353 -0.1580101,-3.348364 -11.99047 -0.3529029,-3.397388 -11.60736 -0.5129561,-3.415648 -11.43911 -0.657092,0.810,
2 0 0,2 0 0,2 0 0,2 0 0,2 0 0,2 0 0,2 0 0,2 0 0,2 0 0,2 0 0,2 0 0,2 0 0,2 0 0,2 0 0,2 0 0,2 0 0,2 0 0,2 0 0,2 0 0,2 0 0,2 0 0,-3.770284 -14.9458 0.0003467701,-4.005255 -13.62187 -0.4215849,-4.003837 -12.59383 -0.6742252,-3.846294 -11.98448 -0.8514963,-3.777294 -11.54562 -1.055449,-3.641245 -12.22169 -0.5874233,-3.53752 -11.02481 -0.7632427,-3.593316 -10.48917 -0.7984574,-3.674004 -10.18736 -0.8556542,-3.493353 -12.43709 -0.4117386,-3.460313 -11.05956 -0.6030513,-3.55066 -10.42894 -0.6636201,-3.635372 -10.10151 -0.7506559,-3.406168 -12.67716 -0.2832746,-3.391432 -11.43839 -0.4328427,-3.478935 -10.87198 -0.5350441,-3.548512 -10.58194 -0.6529035,-3.36384 -12.93353 -0.1580101,-3.348364 -11.99047 -0.3529029,-3.397388 -11.60736 -0.5129561,-3.415648 -11.43911 -0.657092,0.910,
2 0 0,2 0 0,2 0 0,2 0 0,2 0 0,2 0 0,2 0 0,2 0 0,2 0 0,2 0 0,2 0 0,2 0 0,2 0 0,2 0 0,2 0 0,2 0 0,2 0 0,2 0 0,2 0 0,2 0 0,2 0 0,-3.770284 -14.9458 0.0003467701,-4.005255 -13.62187 -0.4215849,-4.003837 -12.59383 -0.6742252,-3.846294 -11.98448 -0.8514963,-3.777294 -11.54562 -1.055449,-3.641245 -12.22169 -0.5874233,-3.53752 -11.02481 -0.7632427,-3.593316 -10.48917 -0.7984574,-3.674004 -10.18736 -0.8556542,-3.493353 -12.43709 -0.4117386,-3.460313 -11.05956 -0.6030513,-3.55066 -10.42894 -0.6636201,-3.635372 -10.10151 -0.7506559,-3.406168 -12.67716 -0.2832746,-3.391432 -11.43839 -0.4328427,-3.478935 -10.87198 -0.5350441,-3.548512 -10.58194 -0.6529035,-3.36384 -12.93353 -0.1580101,-3.348364 -11.99047 -0.3529029,-3.397388 -11.60736 -0.5129561,-3.415648 -11.43911 -0.657092,1.010,
2 0 0,2 0 0,2 0 0,2 0 0,2 0 0,2 0 0,2 0 0,2 0 0,2 0 0,2 0 0,2 0 0,2 0 0,2 0 0,2 0 0,2 0 0,2 0 0,2 0 0,2 0 0,2 0 0,2 0 0,2 0 0,-3.770284 -14.9458 0.0003467701,-4.005255 -13.62187 -0.4215849,-4.003837 -12.59383 -0.6742252,-3.846294 -11.98448 -0.8514963,-3.777294 -11.54562 -1.055449,-3.641245 -12.22169 -0.5874233,-3.53752 -11.02481 -0.7632427,-3.593316 -10.48917 -0.7984574,-3.674004 -10.18736 -0.8556542,-3.493353 -12.43709 -0.4117386,-3.460313 -11.05956 -0.6030513,-3.55066 -10.42894 -0.6636201,-3.635372 -10.10151 -0.7506559,-3.406168 -12.67716 -0.2832746,-3.391432 -11.43839 -0.4328427,-3.478935 -10.87198 -0.5350441,-3.548512 -10.58194 -0.6529035,-3.36384 -12.93353 -0.1580101,-3.348364 -11.99047 -0.3529029,-3.397388 -11.60736 -0.5129561,-3.415648 -11.43911 -0.657092,1.110,
2 0 0,2 0 0,2 0 0,2 0 0,2 0 0,2 0 0,2 0 0,2 0 0,2 0 0,2 0 0,2 0 0,2 0 0,2 0 0,2 0 0,2 0 0,2 0 0,2 0 0,2 0 0,2 0 0,2 0 0,2 0 0,-3.770284 -14.9458 0.0003467701,-4.005255 -13.62187 -0.4215849,-4.003837 -12.59383 -0.6742252,-3.846294 -11.98448 -0.8514963,-3.777294 -11.54562 -1.055449,-3.641245 -12.22169 -0.5874233,-3.53752 -11.02481 -0.7632427,-3.593316 -10.48917 -0.7984574,-3.674004 -10.18736 -0.8556542,-3.493353 -12.43709 -0.4117386,-3.460313 -11.05956 -0.6030513,-3.55066 -10.42894 -0.6636201,-3.635372 -10.10151 -0.7506559,-3.406168 -12.67716 -0.2832746,-3.391432 -11.43839 -0.4328427,-3.478935 -10.87198 -0.5350441,-3.548512 -10.58194 -0.6529035,-3.36384 -12.93353 -0.1580101,-3.348364 -11.99047 -0.3529029,-3.397388 -11.60736 -0.5129561,-3.415648 -11.43911 -0.657092,1.210,
2 0 0,2 0 0,2 0 0,2 0 0,2 0 0,2 0 0,2 0 0,2 0 0,2 0 0,2 0 0,2 0 0,2 0 0,2 0 0,2 0 0,2 0 0,2 0 0,2 0 0,2 0 0,2 0 0,2 0 0,2 0 0,-3.770284 -14.9458 0.0003467701,-4.005255 -13.62187 -0.4215849,-4.003837 -12.59383 -0.6742252,-3.846294 -11.98448 -0.8514963,-3.777294 -11.54562 -1.055449,-3.641245 -12.22169 -0.5874233,-3.53752 -11.02481 -0.7632427,-3.593316 -10.48917 -0.7984574,-3.674004 -10.18736 -0.8556542,-3.493353 -12.43709 -0.4117386,-3.460313 -11.05956 -0.6030513,-3.55066 -10.42894 -0.6636201,-3.635372 -10.10151 -0.7506559,-3.406168 -12.67716 -0.2832746,-3.391432 -11.43839 -0.4328427,-3.478935 -10.87198 -0.5350441,-3.548512 -10.58194 -0.6529035,-3.36384 -12.93353 -0.1580101,-3.348364 -11.99047 -0.3529029,-3.397388 -11.60736 -0.5129561,-3.415648 -11.43911 -0.657092,1.310,
2 0 0,2 0 0,2 0 0,2 0 0,2 0 0,2 0 0,2 0 0,2 0 0,2 0 0,2 0 0,2 0 0,2 0 0,2 0 0,2 0 0,2 0 0,2 0 0,2 0 0,2 0 0,2 0 0,2 0 0,2 0 0,-3.770284 -14.9458 0.0003467701,-4.005255 -13.62187 -0.4215849,-4.003837 -12.59383 -0.6742252,-3.846294 -11.98448 -0.8514963,-3.777294 -11.54562 -1.055449,-3.641245 -12.22169 -0.5874233,-3.53752 -11.02481 -0.7632427,-3.593316 -10.48917 -0.7984574,-3.674004 -10.18736 -0.8556542,-3.493353 -12.43709 -0.4117386,-3.460313 -11.05956 -0.6030513,-3.55066 -10.42894 -0.6636201,-3.635372 -10.10151 -0.7506559,-3.406168 -12.67716 -0.2832746,-3.391432 -11.43839 -0.4328427,-3.478935 -10.87198 -0.5350441,-3.548512 -10.58194 -0.6529035,-3.36384 -12.93353 -0.1580101,-3.348364 -11.99047 -0.3529029,-3.397388 -11.60736 -0.5129561,-3.415648 -11.43911 -0.657092,1.410,
2 0 0,2 0 0,2 0 0,2 0 0,2 0 0,2 0 0,2 0 0,2 0 0,2 0 0,2 0 0,2 0 0,2 0 0,2 0 0,2 0 0,2 0 0,2 0 0,2 0 0,2 0 0,2 0 0,2 0 0,2 0 0,-3.770284 -14.9458 0.0003467701,-4.005255 -13.62187 -0.4215849,-4.003837 -12.59383 -0.6742252,-3.846294 -11.98448 -0.8514963,-3.777294 -11.54562 -1.055449,-3.641245 -12.22169 -0.5874233,-3.53752 -11.02481 -0.7632427,-3.593316 -10.48917 -0.7984574,-3.674004 -10.18736 -0.8556542,-3.493353 -12.43709 -0.4117386,-3.460313 -11.05956 -0.6030513,-3.55066 -10.42894 -0.6636201,-3.635372 -10.10151 -0.7506559,-3.406168 -12.67716 -0.2832746,-3.391432 -11.43839 -0.4328427,-3.478935 -10.87198 -0.5350441,-3.548512 -10.58194 -0.6529035,-3.36384 -12.93353 -0.1580101,-3.348364 -11.99047 -0.3529029,-3.397388 -11.60736 -0.5129561,-3.415648 -11.43911 -0.657092,1.510,
2 0 0,2 0 0,2 0 0,2 0 0,2 0 0,2 0 0,2 0 0,2 0 0,2 0 0,2 0 0,2 0 0,2 0 0,2 0 0,2 0 0,2 0 0,2 0 0,2 0 0,2 0 0,2 0 0,2 0 0,2 0 0,-3.846512 -12.61555 0.0002108402,-4.51754 -12.331 0.4057592,-5.07096 -12.18931 0.9826946,-5.387855 -12.06201 1.36254,-5.592983 -11.93074 1.700237,-4.661058 -12.83377 2.236463,-4.624203 -12.84597 2.586802,-4.552594 -12.42252 2.524673,-4.503492 -12.04179 2.498859,-4.169241 -13.47921 2.121027,-4.207129 -13.42957 2.516101,-4.264797 -12.93968 2.303831,-4.355951 -12.67525 2.269419,-3.747385 -13.86902 1.927878,-3.818846 -13.96848 2.02162,-3.889819 -13.49412 1.64867,-3.952297 -13.22991 1.567947,-3.423422 -14.08552 1.774886,-3.443192 -14.18121 1.845268,-3.487595 -13.97899 1.814741,-3.561856 -13.84014 1.85832,1.610,
2 0 0,2 0 0,2 0 0,2 0 0,2 0 0,2 0 0,2 0 0,2 0 0,2 0 0,2 0 0,2 0 0,2 0 0,2 0 0,2 0 0,2 0 0,2 0 0,2 0 0,2 0 0,2 0 0,2 0 0,2 0 0,-4.01193 -12.69229 0.0005190814,-4.405978 -11.66942 0.3252906,-4.830997 -11.29726 0.9517372,-5.029606 -10.99108 1.39956,-5.039672 -10.81445 1.81976,-4.733623 -13.1033 2.058981,-4.672938 -12.62235 2.442606,-4.544294 -11.88295 2.388577,-4.501139 -11.44682 2.312614,-4.385588 -14.03408 1.938303,-4.302921 -13.30714 2.349341,-4.224388 -12.23947 2.120759,-4.312531 -11.78575 2.047818,-4.050083 -14.42726 1.710665,-4.008654 -13.67793 1.738761,-3.930596 -12.67298 1.330593,-3.948719 -12.26281 1.161084,-3.809035 -14.40353 1.521553,-3.733793 -13.8688 1.466754,-3.644336 -13.2891 1.226414,-3.651096 -13.03667 1.069403,1.710,
2 0 0,2 0 0,2 0 0,2 0 0,2 0 0,2 0 0,2 0 0,2 0 0,2 0 0,2 0 0,2 0 0,2 0 0,2 0 0,2 0 0,2 0 0,2 0 0,2 0 0,2 0 0,2 0 0,2 0 0,2 0 0,-3.728099 -11.87316 0.001091694,-3.693748 -10.64082 0.4538423,-3.794343 -10.24246 1.261983,-3.73098 -10.05479 1.97686,-3.668422 -9.92296 2.617339,-4.434689 -12.63192 2.618858,-4.209307 -12.35677 3.149904,-4.000141 -11.57773 3.117434,-3.978251 -11.13345 3.13851,-4.319078 -13.87763 2.598469,-4.007482 -13.24825 3.115798,-3.818449 -12.02377 2.787518,-3.952074 -11.45813 2.644004,-4.053933 -14.45809 2.476345,-3.744545 -13.78753 2.72381,-3.598231 -12.59932 2.300813,-3.719509 -12.12958 2.147738,-3.814083 -14.5504 2.407867,-3.589174 -14.21624 2.681062,-3.462985 -13.55132 2.59414,-3.527371 -13.3488 2.521008,1.810,
2 0 0,2 0 0,2 0 0,2 0 0,2 0 0,2 0 0,2 0 0,2 0 0,2 0 0,2 0 0,2 0 0,2 0 0,2 0 0,2 0 0,2 0 0,2 0 0,2 0 0,2 0 0,2 0 0,2 0 0,2 0 0,-3.728099 -11.87316 0.001091694,-3.693748 -10.64082 0.4538423,-3.794343 -10.24246 1.261983,-3.73098 -10.05479 1.97686,-3.668422 -9.92296 2.617339,-4.434689 -12.63192 2.618858,-4.209307 -12.35677 3.149904,-4.000141 -11.57773 3.117434,-3.978251 -11.13345 3.13851,-4.319078 -13.87763 2.598469,-4.007482 -13.24825 3.115798,-3.818449 -12.02377 2.787518,-3.952074 -11.45813 2.644004,-4.053933 -14.45809 2.476345,-3.744545 -13.78753 2.72381,-3.598231 -12.59932 2.300813,-3.719509 -12.12958 2.147738,-3.814083 -14.5504 2.407867,-3.589174 -14.21624 2.681062,-3.462985 -13.55132 2.59414,-3.527371 -13.3488 2.521008,1.910,
2 0 0,2 0 0,2 0 0,2 0 0,2 0 0,2 0 0,2 0 0,2 0 0,2 0 0,2 0 0,2 0 0,2 0 0,2 0 0,2 0 0,2 0 0,2 0 0,2 0 0,2 0 0,2 0 0,2 0 0,2 0 0,-3.728099 -11.87316 0.001091694,-3.693748 -10.64082 0.4538423,-3.794343 -10.24246 1.261983,-3.73098 -10.05479 1.97686,-3.668422 -9.92296 2.617339,-4.434689 -12.63192 2.618858,-4.209307 -12.35677 3.149904,-4.000141 -11.57773 3.117434,-3.978251 -11.13345 3.13851,-4.319078 -13.87763 2.598469,-4.007482 -13.24825 3.115798,-3.818449 -12.02377 2.787518,-3.952074 -11.45813 2.644004,-4.053933 -14.45809 2.476345,-3.744545 -13.78753 2.72381,-3.598231 -12.59932 2.300813,-3.719509 -12.12958 2.147738,-3.814083 -14.5504 2.407867,-3.589174 -14.21624 2.681062,-3.462985 -13.55132 2.59414,-3.527371 -13.3488 2.521008,2.010,
2 0 0,2 0 0,2 0 0,2 0 0,2 0 0,2 0 0,2 0 0,2 0 0,2 0 0,2 0 0,2 0 0,2 0 0,2 0 0,2 0 0,2 0 0,2 0 0,2 0 0,2 0 0,2 0 0,2 0 0,2 0 0,-3.728099 -11.87316 0.001091694,-3.693748 -10.64082 0.4538423,-3.794343 -10.24246 1.261983,-3.73098 -10.05479 1.97686,-3.668422 -9.92296 2.617339,-4.434689 -12.63192 2.618858,-4.209307 -12.35677 3.149904,-4.000141 -11.57773 3.117434,-3.978251 -11.13345 3.13851,-4.319078 -13.87763 2.598469,-4.007482 -13.24825 3.115798,-3.818449 -12.02377 2.787518,-3.952074 -11.45813 2.644004,-4.053933 -14.45809 2.476345,-3.744545 -13.78753 2.72381,-3.598231 -12.59932 2.300813,-3.719509 -12.12958 2.147738,-3.814083 -14.5504 2.407867,-3.589174 -14.21624 2.681062,-3.462985 -13.55132 2.59414,-3.527371 -13.3488 2.521008,2.110,
2 0 0,2 0 0,2 0 0,2 0 0,2 0 0,2 0 0,2 0 0,2 0 0,2 0 0,2 0 0,2 0 0,2 0 0,2 0 0,2 0 0,2 0 0,2 0 0,2 0 0,2 0 0,2 0 0,2 0 0,2 0 0,-3.728099 -11.87316 0.001091694,-3.693748 -10.64082 0.4538423,-3.794343 -10.24246 1.261983,-3.73098 -10.05479 1.97686,-3.668422 -9.92296 2.617339,-4.434689 -12.63192 2.618858,-4.209307 -12.35677 3.149904,-4.000141 -11.57773 3.117434,-3.978251 -11.13345 3.13851,-4.319078 -13.87763 2.598469,-4.007482 -13.24825 3.115798,-3.818449 -12.02377 2.787518,-3.952074 -11.45813 2.644004,-4.053933 -14.45809 2.476345,-3.744545 -13.78753 2.72381,-3.598231 -12.59932 2.300813,-3.719509 -12.12958 2.147738,-3.814083 -14.5504 2.407867,-3.589174 -14.21624 2.681062,-3.462985 -13.55132 2.59414,-3.527371 -13.3488 2.521008,2.210,
2 0 0,2 0 0,2 0 0,2 0 0,2 0 0,2 0 0,2 0 0,2 0 0,2 0 0,2 0 0,2 0 0,2 0 0,2 0 0,2 0 0,2 0 0,2 0 0,2 0 0,2 0 0,2 0 0,2 0 0,2 0 0,-3.728099 -11.87316 0.001091694,-3.693748 -10.64082 0.4538423,-3.794343 -10.24246 1.261983,-3.73098 -10.05479 1.97686,-3.668422 -9.92296 2.617339,-4.434689 -12.63192 2.618858,-4.209307 -12.35677 3.149904,-4.000141 -11.57773 3.117434,-3.978251 -11.13345 3.13851,-4.319078 -13.87763 2.598469,-4.007482 -13.24825 3.115798,-3.818449 -12.02377 2.787518,-3.952074 -11.45813 2.644004,-4.053933 -14.45809 2.476345,-3.744545 -13.78753 2.72381,-3.598231 -12.59932 2.300813,-3.719509 -12.12958 2.147738,-3.814083 -14.5504 2.407867,-3.589174 -14.21624 2.681062,-3.462985 -13.55132 2.59414,-3.527371 -13.3488 2.521008,2.310,
-2.84476 -12.31425 -8.219232E-05,-2.657861 -12.60228 -0.1539097,-2.5244 -12.68285 -0.1856394,-2.449835 -12.5867 -0.227338,-2.461801 -12.51153 -0.257347,-2.349566 -12.52221 0.07115734,-2.350551 -12.45058 -0.02307999,-2.426276 -12.40927 -0.04175639,-2.50887 -12.42274 -0.004692473,-2.355641 -12.23078 0.127127,-2.394527 -12.18257 -0.01072915,-2.492083 -12.18058 -0.04645598,-2.578595 -12.22263 0.002246932,-2.400587 -11.97922 0.1406412,-2.427073 -11.9589 -0.008113063,-2.522465 -11.9842 -0.05033598,-2.603914 -12.03225 -0.01510724,-2.461518 -11.7552 0.1484203,-2.488842 -11.72014 0.00774291,-2.574907 -11.77548 -0.05932178,-2.641162 -11.83819 -0.06117395,-3.728099 -11.87316 0.001091694,-3.693748 -10.64082 0.4538423,-3.794343 -10.24246 1.261983,-3.73098 -10.05479 1.97686,-3.668422 -9.92296 2.617339,-4.434689 -12.63192 2.618858,-4.209307 -12.35677 3.149904,-4.000141 -11.57773 3.117434,-3.978251 -11.13345 3.13851,-4.319078 -13.87763 2.598469,-4.007482 -13.24825 3.115798,-3.818449 -12.02377 2.787518,-3.952074 -11.45813 2.644004,-4.053933 -14.45809 2.476345,-3.744545 -13.78753 2.72381,-3.598231 -12.59932 2.300813,-3.719509 -12.12958 2.147738,-3.814083 -14.5504 2.407867,-3.589174 -14.21624 2.681062,-3.462985 -13.55132 2.59414,-3.527371 -13.3488 2.521008,2.410,
-2.84476 -12.31425 -8.219232E-05,-2.657861 -12.60228 -0.1539097,-2.5244 -12.68285 -0.1856394,-2.449835 -12.5867 -0.227338,-2.461801 -12.51153 -0.257347,-2.349566 -12.52221 0.07115734,-2.350551 -12.45058 -0.02307999,-2.426276 -12.40927 -0.04175639,-2.50887 -12.42274 -0.004692473,-2.355641 -12.23078 0.127127,-2.394527 -12.18257 -0.01072915,-2.492083 -12.18058 -0.04645598,-2.578595 -12.22263 0.002246932,-2.400587 -11.97922 0.1406412,-2.427073 -11.9589 -0.008113063,-2.522465 -11.9842 -0.05033598,-2.603914 -12.03225 -0.01510724,-2.461518 -11.7552 0.1484203,-2.488842 -11.72014 0.00774291,-2.574907 -11.77548 -0.05932178,-2.641162 -11.83819 -0.06117395,-4.401164 -13.38493 0.0005714187,-4.402372 -12.53392 0.06985316,-4.400842 -11.92018 0.2972325,-4.420369 -11.46132 0.5093752,-4.433405 -11.13814 0.7090231,-4.097831 -12.21017 0.7529407,-4.085447 -11.46869 1.091723,-4.143608 -11.05709 1.161774,-4.195256 -10.81193 1.136753,-4.062964 -12.36882 0.8002158,-4.039919 -11.50537 1.125743,-4.120235 -11.05962 1.071612,-4.186243 -10.84169 0.9500896,-4.077018 -12.46121 0.811464,-4.046169 -11.66576 1.096166,-4.122936 -11.24064 1.055452,-4.191729 -11.05081 0.9502702,-4.144581 -12.53526 0.8169473,-4.109463 -11.90444 0.9542952,-4.155708 -11.5386 0.9187278,-4.187972 -11.32599 0.825906,2.510,
-2.84476 -12.31425 -8.219232E-05,-2.657861 -12.60228 -0.1539097,-2.5244 -12.68285 -0.1856394,-2.449835 -12.5867 -0.227338,-2.461801 -12.51153 -0.257347,-2.349566 -12.52221 0.07115734,-2.350551 -12.45058 -0.02307999,-2.426276 -12.40927 -0.04175639,-2.50887 -12.42274 -0.004692473,-2.355641 -12.23078 0.127127,-2.394527 -12.18257 -0.01072915,-2.492083 -12.18058 -0.04645598,-2.578595 -12.22263 0.002246932,-2.400587 -11.97922 0.1406412,-2.427073 -11.9589 -0.008113063,-2.522465 -11.9842 -0.05033598,-2.603914 -12.03225 -0.01510724,-2.461518 -11.7552 0.1484203,-2.488842 -11.72014 0.00774291,-2.574907 -11.77548 -0.05932178,-2.641162 -11.83819 -0.06117395,-4.360994 -13.39249 0.0006237005,-4.33045 -12.57484 0.04678268,-4.322506 -11.99656 0.2821428,-4.359232 -11.58031 0.5249199,-4.380476 -11.22472 0.7777677,-4.065001 -12.17161 0.7223004,-4.076878 -11.60088 1.117089,-4.101893 -11.20793 1.264122,-4.118788 -10.87583 1.300962,-4.068443 -12.36089 0.8505699,-4.081162 -11.67641 1.293749,-4.117935 -11.25234 1.38823,-4.141006 -10.92374 1.382664,-4.113745 -12.54677 0.9524408,-4.127707 -11.89521 1.345562,-4.14885 -11.46568 1.43848,-4.152817 -11.16936 1.454437,-4.204332 -12.73834 1.034292,-4.219351 -12.22462 1.305,-4.227659 -11.87895 1.372401,-4.20982 -11.62697 1.384361,2.610,
-2.84476 -12.31425 -8.219232E-05,-2.657861 -12.60228 -0.1539097,-2.5244 -12.68285 -0.1856394,-2.449835 -12.5867 -0.227338,-2.461801 -12.51153 -0.257347,-2.349566 -12.52221 0.07115734,-2.350551 -12.45058 -0.02307999,-2.426276 -12.40927 -0.04175639,-2.50887 -12.42274 -0.004692473,-2.355641 -12.23078 0.127127,-2.394527 -12.18257 -0.01072915,-2.492083 -12.18058 -0.04645598,-2.578595 -12.22263 0.002246932,-2.400587 -11.97922 0.1406412,-2.427073 -11.9589 -0.008113063,-2.522465 -11.9842 -0.05033598,-2.603914 -12.03225 -0.01510724,-2.461518 -11.7552 0.1484203,-2.488842 -11.72014 0.00774291,-2.574907 -11.77548 -0.05932178,-2.641162 -11.83819 -0.06117395,-4.360994 -13.39249 0.0006237005,-4.33045 -12.57484 0.04678268,-4.322506 -11.99656 0.2821428,-4.359232 -11.58031 0.5249199,-4.380476 -11.22472 0.7777677,-4.065001 -12.17161 0.7223004,-4.076878 -11.60088 1.117089,-4.101893 -11.20793 1.264122,-4.118788 -10.87583 1.300962,-4.068443 -12.36089 0.8505699,-4.081162 -11.67641 1.293749,-4.117935 -11.25234 1.38823,-4.141006 -10.92374 1.382664,-4.113745 -12.54677 0.9524408,-4.127707 -11.89521 1.345562,-4.14885 -11.46568 1.43848,-4.152817 -11.16936 1.454437,-4.204332 -12.73834 1.034292,-4.219351 -12.22462 1.305,-4.227659 -11.87895 1.372401,-4.20982 -11.62697 1.384361,2.710,
-2.84476 -12.31425 -8.219232E-05,-2.657861 -12.60228 -0.1539097,-2.5244 -12.68285 -0.1856394,-2.449835 -12.5867 -0.227338,-2.461801 -12.51153 -0.257347,-2.349566 -12.52221 0.07115734,-2.350551 -12.45058 -0.02307999,-2.426276 -12.40927 -0.04175639,-2.50887 -12.42274 -0.004692473,-2.355641 -12.23078 0.127127,-2.394527 -12.18257 -0.01072915,-2.492083 -12.18058 -0.04645598,-2.578595 -12.22263 0.002246932,-2.400587 -11.97922 0.1406412,-2.427073 -11.9589 -0.008113063,-2.522465 -11.9842 -0.05033598,-2.603914 -12.03225 -0.01510724,-2.461518 -11.7552 0.1484203,-2.488842 -11.72014 0.00774291,-2.574907 -11.77548 -0.05932178,-2.641162 -11.83819 -0.06117395,-4.360994 -13.39249 0.0006237005,-4.33045 -12.57484 0.04678268,-4.322506 -11.99656 0.2821428,-4.359232 -11.58031 0.5249199,-4.380476 -11.22472 0.7777677,-4.065001 -12.17161 0.7223004,-4.076878 -11.60088 1.117089,-4.101893 -11.20793 1.264122,-4.118788 -10.87583 1.300962,-4.068443 -12.36089 0.8505699,-4.081162 -11.67641 1.293749,-4.117935 -11.25234 1.38823,-4.141006 -10.92374 1.382664,-4.113745 -12.54677 0.9524408,-4.127707 -11.89521 1.345562,-4.14885 -11.46568 1.43848,-4.152817 -11.16936 1.454437,-4.204332 -12.73834 1.034292,-4.219351 -12.22462 1.305,-4.227659 -11.87895 1.372401,-4.20982 -11.62697 1.384361,2.810,
-2.84476 -12.31425 -8.219232E-05,-2.657861 -12.60228 -0.1539097,-2.5244 -12.68285 -0.1856394,-2.449835 -12.5867 -0.227338,-2.461801 -12.51153 -0.257347,-2.349566 -12.52221 0.07115734,-2.350551 -12.45058 -0.02307999,-2.426276 -12.40927 -0.04175639,-2.50887 -12.42274 -0.004692473,-2.355641 -12.23078 0.127127,-2.394527 -12.18257 -0.01072915,-2.492083 -12.18058 -0.04645598,-2.578595 -12.22263 0.002246932,-2.400587 -11.97922 0.1406412,-2.427073 -11.9589 -0.008113063,-2.522465 -11.9842 -0.05033598,-2.603914 -12.03225 -0.01510724,-2.461518 -11.7552 0.1484203,-2.488842 -11.72014 0.00774291,-2.574907 -11.77548 -0.05932178,-2.641162 -11.83819 -0.06117395,-4.360994 -13.39249 0.0006237005,-4.33045 -12.57484 0.04678268,-4.322506 -11.99656 0.2821428,-4.359232 -11.58031 0.5249199,-4.380476 -11.22472 0.7777677,-4.065001 -12.17161 0.7223004,-4.076878 -11.60088 1.117089,-4.101893 -11.20793 1.264122,-4.118788 -10.87583 1.300962,-4.068443 -12.36089 0.8505699,-4.081162 -11.67641 1.293749,-4.117935 -11.25234 1.38823,-4.141006 -10.92374 1.382664,-4.113745 -12.54677 0.9524408,-4.127707 -11.89521 1.345562,-4.14885 -11.46568 1.43848,-4.152817 -11.16936 1.454437,-4.204332 -12.73834 1.034292,-4.219351 -12.22462 1.305,-4.227659 -11.87895 1.372401,-4.20982 -11.62697 1.384361,2.910,
-2.84476 -12.31425 -8.219232E-05,-2.657861 -12.60228 -0.1539097,-2.5244 -12.68285 -0.1856394,-2.449835 -12.5867 -0.227338,-2.461801 -12.51153 -0.257347,-2.349566 -12.52221 0.07115734,-2.350551 -12.45058 -0.02307999,-2.426276 -12.40927 -0.04175639,-2.50887 -12.42274 -0.004692473,-2.355641 -12.23078 0.127127,-2.394527 -12.18257 -0.01072915,-2.492083 -12.18058 -0.04645598,-2.578595 -12.22263 0.002246932,-2.400587 -11.97922 0.1406412,-2.427073 -11.9589 -0.008113063,-2.522465 -11.9842 -0.05033598,-2.603914 -12.03225 -0.01510724,-2.461518 -11.7552 0.1484203,-2.488842 -11.72014 0.00774291,-2.574907 -11.77548 -0.05932178,-2.641162 -11.83819 -0.06117395,-4.360994 -13.39249 0.0006237005,-4.33045 -12.57484 0.04678268,-4.322506 -11.99656 0.2821428,-4.359232 -11.58031 0.5249199,-4.380476 -11.22472 0.7777677,-4.065001 -12.17161 0.7223004,-4.076878 -11.60088 1.117089,-4.101893 -11.20793 1.264122,-4.118788 -10.87583 1.300962,-4.068443 -12.36089 0.8505699,-4.081162 -11.67641 1.293749,-4.117935 -11.25234 1.38823,-4.141006 -10.92374 1.382664,-4.113745 -12.54677 0.9524408,-4.127707 -11.89521 1.345562,-4.14885 -11.46568 1.43848,-4.152817 -11.16936 1.454437,-4.204332 -12.73834 1.034292,-4.219351 -12.22462 1.305,-4.227659 -11.87895 1.372401,-4.20982 -11.62697 1.384361,3.010,
-2.84476 -12.31425 -8.219232E-05,-2.657861 -12.60228 -0.1539097,-2.5244 -12.68285 -0.1856394,-2.449835 -12.5867 -0.227338,-2.461801 -12.51153 -0.257347,-2.349566 -12.52221 0.07115734,-2.350551 -12.45058 -0.02307999,-2.426276 -12.40927 -0.04175639,-2.50887 -12.42274 -0.004692473,-2.355641 -12.23078 0.127127,-2.394527 -12.18257 -0.01072915,-2.492083 -12.18058 -0.04645598,-2.578595 -12.22263 0.002246932,-2.400587 -11.97922 0.1406412,-2.427073 -11.9589 -0.008113063,-2.522465 -11.9842 -0.05033598,-2.603914 -12.03225 -0.01510724,-2.461518 -11.7552 0.1484203,-2.488842 -11.72014 0.00774291,-2.574907 -11.77548 -0.05932178,-2.641162 -11.83819 -0.06117395,-4.360994 -13.39249 0.0006237005,-4.33045 -12.57484 0.04678268,-4.322506 -11.99656 0.2821428,-4.359232 -11.58031 0.5249199,-4.380476 -11.22472 0.7777677,-4.065001 -12.17161 0.7223004,-4.076878 -11.60088 1.117089,-4.101893 -11.20793 1.264122,-4.118788 -10.87583 1.300962,-4.068443 -12.36089 0.8505699,-4.081162 -11.67641 1.293749,-4.117935 -11.25234 1.38823,-4.141006 -10.92374 1.382664,-4.113745 -12.54677 0.9524408,-4.127707 -11.89521 1.345562,-4.14885 -11.46568 1.43848,-4.152817 -11.16936 1.454437,-4.204332 -12.73834 1.034292,-4.219351 -12.22462 1.305,-4.227659 -11.87895 1.372401,-4.20982 -11.62697 1.384361,3.110,
-2.84476 -12.31425 -8.219232E-05,-2.657861 -12.60228 -0.1539097,-2.5244 -12.68285 -0.1856394,-2.449835 -12.5867 -0.227338,-2.461801 -12.51153 -0.257347,-2.349566 -12.52221 0.07115734,-2.350551 -12.45058 -0.02307999,-2.426276 -12.40927 -0.04175639,-2.50887 -12.42274 -0.004692473,-2.355641 -12.23078 0.127127,-2.394527 -12.18257 -0.01072915,-2.492083 -12.18058 -0.04645598,-2.578595 -12.22263 0.002246932,-2.400587 -11.97922 0.1406412,-2.427073 -11.9589 -0.008113063,-2.522465 -11.9842 -0.05033598,-2.603914 -12.03225 -0.01510724,-2.461518 -11.7552 0.1484203,-2.488842 -11.72014 0.00774291,-2.574907 -11.77548 -0.05932178,-2.641162 -11.83819 -0.06117395,-4.360994 -13.39249 0.0006237005,-4.33045 -12.57484 0.04678268,-4.322506 -11.99656 0.2821428,-4.359232 -11.58031 0.5249199,-4.380476 -11.22472 0.7777677,-4.065001 -12.17161 0.7223004,-4.076878 -11.60088 1.117089,-4.101893 -11.20793 1.264122,-4.118788 -10.87583 1.300962,-4.068443 -12.36089 0.8505699,-4.081162 -11.67641 1.293749,-4.117935 -11.25234 1.38823,-4.141006 -10.92374 1.382664,-4.113745 -12.54677 0.9524408,-4.127707 -11.89521 1.345562,-4.14885 -11.46568 1.43848,-4.152817 -11.16936 1.454437,-4.204332 -12.73834 1.034292,-4.219351 -12.22462 1.305,-4.227659 -11.87895 1.372401,-4.20982 -11.62697 1.384361,3.210,
-2.84476 -12.31425 -8.219232E-05,-2.657861 -12.60228 -0.1539097,-2.5244 -12.68285 -0.1856394,-2.449835 -12.5867 -0.227338,-2.461801 -12.51153 -0.257347,-2.349566 -12.52221 0.07115734,-2.350551 -12.45058 -0.02307999,-2.426276 -12.40927 -0.04175639,-2.50887 -12.42274 -0.004692473,-2.355641 -12.23078 0.127127,-2.394527 -12.18257 -0.01072915,-2.492083 -12.18058 -0.04645598,-2.578595 -12.22263 0.002246932,-2.400587 -11.97922 0.1406412,-2.427073 -11.9589 -0.008113063,-2.522465 -11.9842 -0.05033598,-2.603914 -12.03225 -0.01510724,-2.461518 -11.7552 0.1484203,-2.488842 -11.72014 0.00774291,-2.574907 -11.77548 -0.05932178,-2.641162 -11.83819 -0.06117395,-4.360994 -13.39249 0.0006237005,-4.33045 -12.57484 0.04678268,-4.322506 -11.99656 0.2821428,-4.359232 -11.58031 0.5249199,-4.380476 -11.22472 0.7777677,-4.065001 -12.17161 0.7223004,-4.076878 -11.60088 1.117089,-4.101893 -11.20793 1.264122,-4.118788 -10.87583 1.300962,-4.068443 -12.36089 0.8505699,-4.081162 -11.67641 1.293749,-4.117935 -11.25234 1.38823,-4.141006 -10.92374 1.382664,-4.113745 -12.54677 0.9524408,-4.127707 -11.89521 1.345562,-4.14885 -11.46568 1.43848,-4.152817 -11.16936 1.454437,-4.204332 -12.73834 1.034292,-4.219351 -12.22462 1.305,-4.227659 -11.87895 1.372401,-4.20982 -11.62697 1.384361,3.310,
-2.84476 -12.31425 -8.219232E-05,-2.657861 -12.60228 -0.1539097,-2.5244 -12.68285 -0.1856394,-2.449835 -12.5867 -0.227338,-2.461801 -12.51153 -0.257347,-2.349566 -12.52221 0.07115734,-2.350551 -12.45058 -0.02307999,-2.426276 -12.40927 -0.04175639,-2.50887 -12.42274 -0.004692473,-2.355641 -12.23078 0.127127,-2.394527 -12.18257 -0.01072915,-2.492083 -12.18058 -0.04645598,-2.578595 -12.22263 0.002246932,-2.400587 -11.97922 0.1406412,-2.427073 -11.9589 -0.008113063,-2.522465 -11.9842 -0.05033598,-2.603914 -12.03225 -0.01510724,-2.461518 -11.7552 0.1484203,-2.488842 -11.72014 0.00774291,-2.574907 -11.77548 -0.05932178,-2.641162 -11.83819 -0.06117395,-4.360994 -13.39249 0.0006237005,-4.33045 -12.57484 0.04678268,-4.322506 -11.99656 0.2821428,-4.359232 -11.58031 0.5249199,-4.380476 -11.22472 0.7777677,-4.065001 -12.17161 0.7223004,-4.076878 -11.60088 1.117089,-4.101893 -11.20793 1.264122,-4.118788 -10.87583 1.300962,-4.068443 -12.36089 0.8505699,-4.081162 -11.67641 1.293749,-4.117935 -11.25234 1.38823,-4.141006 -10.92374 1.382664,-4.113745 -12.54677 0.9524408,-4.127707 -11.89521 1.345562,-4.14885 -11.46568 1.43848,-4.152817 -11.16936 1.454437,-4.204332 -12.73834 1.034292,-4.219351 -12.22462 1.305,-4.227659 -11.87895 1.372401,-4.20982 -11.62697 1.384361,3.410,
-2.84476 -12.31425 -8.219232E-05,-2.657861 -12.60228 -0.1539097,-2.5244 -12.68285 -0.1856394,-2.449835 -12.5867 -0.227338,-2.461801 -12.51153 -0.257347,-2.349566 -12.52221 0.07115734,-2.350551 -12.45058 -0.02307999,-2.426276 -12.40927 -0.04175639,-2.50887 -12.42274 -0.004692473,-2.355641 -12.23078 0.127127,-2.394527 -12.18257 -0.01072915,-2.492083 -12.18058 -0.04645598,-2.578595 -12.22263 0.002246932,-2.400587 -11.97922 0.1406412,-2.427073 -11.9589 -0.008113063,-2.522465 -11.9842 -0.05033598,-2.603914 -12.03225 -0.01510724,-2.461518 -11.7552 0.1484203,-2.488842 -11.72014 0.00774291,-2.574907 -11.77548 -0.05932178,-2.641162 -11.83819 -0.06117395,-4.360994 -13.39249 0.0006237005,-4.33045 -12.57484 0.04678268,-4.322506 -11.99656 0.2821428,-4.359232 -11.58031 0.5249199,-4.380476 -11.22472 0.7777677,-4.065001 -12.17161 0.7223004,-4.076878 -11.60088 1.117089,-4.101893 -11.20793 1.264122,-4.118788 -10.87583 1.300962,-4.068443 -12.36089 0.8505699,-4.081162 -11.67641 1.293749,-4.117935 -11.25234 1.38823,-4.141006 -10.92374 1.382664,-4.113745 -12.54677 0.9524408,-4.127707 -11.89521 1.345562,-4.14885 -11.46568 1.43848,-4.152817 -11.16936 1.454437,-4.204332 -12.73834 1.034292,-4.219351 -12.22462 1.305,-4.227659 -11.87895 1.372401,-4.20982 -11.62697 1.384361,3.510,
-2.84476 -12.31425 -8.219232E-05,-2.657861 -12.60228 -0.1539097,-2.5244 -12.68285 -0.1856394,-2.449835 -12.5867 -0.227338,-2.461801 -12.51153 -0.257347,-2.349566 -12.52221 0.07115734,-2.350551 -12.45058 -0.02307999,-2.426276 -12.40927 -0.04175639,-2.50887 -12.42274 -0.004692473,-2.355641 -12.23078 0.127127,-2.394527 -12.18257 -0.01072915,-2.492083 -12.18058 -0.04645598,-2.578595 -12.22263 0.002246932,-2.400587 -11.97922 0.1406412,-2.427073 -11.9589 -0.008113063,-2.522465 -11.9842 -0.05033598,-2.603914 -12.03225 -0.01510724,-2.461518 -11.7552 0.1484203,-2.488842 -11.72014 0.00774291,-2.574907 -11.77548 -0.05932178,-2.641162 -11.83819 -0.06117395,-4.360994 -13.39249 0.0006237005,-4.33045 -12.57484 0.04678268,-4.322506 -11.99656 0.2821428,-4.359232 -11.58031 0.5249199,-4.380476 -11.22472 0.7777677,-4.065001 -12.17161 0.7223004,-4.076878 -11.60088 1.117089,-4.101893 -11.20793 1.264122,-4.118788 -10.87583 1.300962,-4.068443 -12.36089 0.8505699,-4.081162 -11.67641 1.293749,-4.117935 -11.25234 1.38823,-4.141006 -10.92374 1.382664,-4.113745 -12.54677 0.9524408,-4.127707 -11.89521 1.345562,-4.14885 -11.46568 1.43848,-4.152817 -11.16936 1.454437,-4.204332 -12.73834 1.034292,-4.219351 -12.22462 1.305,-4.227659 -11.87895 1.372401,-4.20982 -11.62697 1.384361,3.610,
-2.84476 -12.31425 -8.219232E-05,-2.657861 -12.60228 -0.1539097,-2.5244 -12.68285 -0.1856394,-2.449835 -12.5867 -0.227338,-2.461801 -12.51153 -0.257347,-2.349566 -12.52221 0.07115734,-2.350551 -12.45058 -0.02307999,-2.426276 -12.40927 -0.04175639,-2.50887 -12.42274 -0.004692473,-2.355641 -12.23078 0.127127,-2.394527 -12.18257 -0.01072915,-2.492083 -12.18058 -0.04645598,-2.578595 -12.22263 0.002246932,-2.400587 -11.97922 0.1406412,-2.427073 -11.9589 -0.008113063,-2.522465 -11.9842 -0.05033598,-2.603914 -12.03225 -0.01510724,-2.461518 -11.7552 0.1484203,-2.488842 -11.72014 0.00774291,-2.574907 -11.77548 -0.05932178,-2.641162 -11.83819 -0.06117395,-4.360994 -13.39249 0.0006237005,-4.33045 -12.57484 0.04678268,-4.322506 -11.99656 0.2821428,-4.359232 -11.58031 0.5249199,-4.380476 -11.22472 0.7777677,-4.065001 -12.17161 0.7223004,-4.076878 -11.60088 1.117089,-4.101893 -11.20793 1.264122,-4.118788 -10.87583 1.300962,-4.068443 -12.36089 0.8505699,-4.081162 -11.67641 1.293749,-4.117935 -11.25234 1.38823,-4.141006 -10.92374 1.382664,-4.113745 -12.54677 0.9524408,-4.127707 -11.89521 1.345562,-4.14885 -11.46568 1.43848,-4.152817 -11.16936 1.454437,-4.204332 -12.73834 1.034292,-4.219351 -12.22462 1.305,-4.227659 -11.87895 1.372401,-4.20982 -11.62697 1.384361,3.710,
-2.84476 -12.31425 -8.219232E-05,-2.657861 -12.60228 -0.1539097,-2.5244 -12.68285 -0.1856394,-2.449835 -12.5867 -0.227338,-2.461801 -12.51153 -0.257347,-2.349566 -12.52221 0.07115734,-2.350551 -12.45058 -0.02307999,-2.426276 -12.40927 -0.04175639,-2.50887 -12.42274 -0.004692473,-2.355641 -12.23078 0.127127,-2.394527 -12.18257 -0.01072915,-2.492083 -12.18058 -0.04645598,-2.578595 -12.22263 0.002246932,-2.400587 -11.97922 0.1406412,-2.427073 -11.9589 -0.008113063,-2.522465 -11.9842 -0.05033598,-2.603914 -12.03225 -0.01510724,-2.461518 -11.7552 0.1484203,-2.488842 -11.72014 0.00774291,-2.574907 -11.77548 -0.05932178,-2.641162 -11.83819 -0.06117395,-6.090622 -7.40673 -0.0006956604,-6.129077 -8.02882 0.3051406,-6.104354 -8.643723 0.4668562,-6.17063 -9.084621 0.5746303,-6.263936 -9.189613 0.7288131,-5.950068 -8.621645 0.7857934,-6.02582 -9.988539 0.9273629,-6.101729 -10.16161 1.1151,-6.143329 -10.18449 1.267691,-6.055526 -8.476246 0.7435716,-6.18384 -9.792475 0.901196,-6.256396 -9.912674 1.110497,-6.275519 -9.896042 1.330972,-6.193848 -8.207697 0.643561,-6.343203 -9.321909 0.8056449,-6.451765 -9.466595 0.9478685,-6.485669 -9.411465 0.9956483,-6.356829 -7.861631 0.5766866,-6.53906 -8.701038 0.7966281,-6.631662 -8.823822 0.9704075,-6.653378 -8.817003 1.031194,3.810,
-2.84476 -12.31425 -8.219232E-05,-2.657861 -12.60228 -0.1539097,-2.5244 -12.68285 -0.1856394,-2.449835 -12.5867 -0.227338,-2.461801 -12.51153 -0.257347,-2.349566 -12.52221 0.07115734,-2.350551 -12.45058 -0.02307999,-2.426276 -12.40927 -0.04175639,-2.50887 -12.42274 -0.004692473,-2.355641 -12.23078 0.127127,-2.394527 -12.18257 -0.01072915,-2.492083 -12.18058 -0.04645598,-2.578595 -12.22263 0.002246932,-2.400587 -11.97922 0.1406412,-2.427073 -11.9589 -0.008113063,-2.522465 -11.9842 -0.05033598,-2.603914 -12.03225 -0.01510724,-2.461518 -11.7552 0.1484203,-2.488842 -11.72014 0.00774291,-2.574907 -11.77548 -0.05932178,-2.641162 -11.83819 -0.06117395,-6.090622 -7.40673 -0.0006956604,-6.129077 -8.02882 0.3051406,-6.104354 -8.643723 0.4668562,-6.17063 -9.084621 0.5746303,-6.263936 -9.189613 0.7288131,-5.950068 -8.621645 0.7857934,-6.02582 -9.988539 0.9273629,-6.101729 -10.16161 1.1151,-6.143329 -10.18449 1.267691,-6.055526 -8.476246 0.7435716,-6.18384 -9.792475 0.901196,-6.256396 -9.912674 1.110497,-6.275519 -9.896042 1.330972,-6.193848 -8.207697 0.643561,-6.343203 -9.321909 0.8056449,-6.451765 -9.466595 0.9478685,-6.485669 -9.411465 0.9956483,-6.356829 -7.861631 0.5766866,-6.53906 -8.701038 0.7966281,-6.631662 -8.823822 0.9704075,-6.653378 -8.817003 1.031194,3.910,
-2.84476 -12.31425 -8.219232E-05,-2.657861 -12.60228 -0.1539097,-2.5244 -12.68285 -0.1856394,-2.449835 -12.5867 -0.227338,-2.461801 -12.51153 -0.257347,-2.349566 -12.52221 0.07115734,-2.350551 -12.45058 -0.02307999,-2.426276 -12.40927 -0.04175639,-2.50887 -12.42274 -0.004692473,-2.355641 -12.23078 0.127127,-2.394527 -12.18257 -0.01072915,-2.492083 -12.18058 -0.04645598,-2.578595 -12.22263 0.002246932,-2.400587 -11.97922 0.1406412,-2.427073 -11.9589 -0.008113063,-2.522465 -11.9842 -0.05033598,-2.603914 -12.03225 -0.01510724,-2.461518 -11.7552 0.1484203,-2.488842 -11.72014 0.00774291,-2.574907 -11.77548 -0.05932178,-2.641162 -11.83819 -0.06117395,-6.090622 -7.40673 -0.0006956604,-6.129077 -8.02882 0.3051406,-6.104354 -8.643723 0.4668562,-6.17063 -9.084621 0.5746303,-6.263936 -9.189613 0.7288131,-5.950068 -8.621645 0.7857934,-6.02582 -9.988539 0.9273629,-6.101729 -10.16161 1.1151,-6.143329 -10.18449 1.267691,-6.055526 -8.476246 0.7435716,-6.18384 -9.792475 0.901196,-6.256396 -9.912674 1.110497,-6.275519 -9.896042 1.330972,-6.193848 -8.207697 0.643561,-6.343203 -9.321909 0.8056449,-6.451765 -9.466595 0.9478685,-6.485669 -9.411465 0.9956483,-6.356829 -7.861631 0.5766866,-6.53906 -8.701038 0.7966281,-6.631662 -8.823822 0.9704075,-6.653378 -8.817003 1.031194,4.010,
-2.84476 -12.31425 -8.219232E-05,-2.657861 -12.60228 -0.1539097,-2.5244 -12.68285 -0.1856394,-2.449835 -12.5867 -0.227338,-2.461801 -12.51153 -0.257347,-2.349566 -12.52221 0.07115734,-2.350551 -12.45058 -0.02307999,-2.426276 -12.40927 -0.04175639,-2.50887 -12.42274 -0.004692473,-2.355641 -12.23078 0.127127,-2.394527 -12.18257 -0.01072915,-2.492083 -12.18058 -0.04645598,-2.578595 -12.22263 0.002246932,-2.400587 -11.97922 0.1406412,-2.427073 -11.9589 -0.008113063,-2.522465 -11.9842 -0.05033598,-2.603914 -12.03225 -0.01510724,-2.461518 -11.7552 0.1484203,-2.488842 -11.72014 0.00774291,-2.574907 -11.77548 -0.05932178,-2.641162 -11.83819 -0.06117395,-6.090622 -7.40673 -0.0006956604,-6.129077 -8.02882 0.3051406,-6.104354 -8.643723 0.4668562,-6.17063 -9.084621 0.5746303,-6.263936 -9.189613 0.7288131,-5.950068 -8.621645 0.7857934,-6.02582 -9.988539 0.9273629,-6.101729 -10.16161 1.1151,-6.143329 -10.18449 1.267691,-6.055526 -8.476246 0.7435716,-6.18384 -9.792475 0.901196,-6.256396 -9.912674 1.110497,-6.275519 -9.896042 1.330972,-6.193848 -8.207697 0.643561,-6.343203 -9.321909 0.8056449,-6.451765 -9.466595 0.9478685,-6.485669 -9.411465 0.9956483,-6.356829 -7.861631 0.5766866,-6.53906 -8.701038 0.7966281,-6.631662 -8.823822 0.9704075,-6.653378 -8.817003 1.031194,4.110,
-2.84476 -12.31425 -8.219232E-05,-2.657861 -12.60228 -0.1539097,-2.5244 -12.68285 -0.1856394,-2.449835 -12.5867 -0.227338,-2.461801 -12.51153 -0.257347,-2.349566 -12.52221 0.07115734,-2.350551 -12.45058 -0.02307999,-2.426276 -12.40927 -0.04175639,-2.50887 -12.42274 -0.004692473,-2.355641 -12.23078 0.127127,-2.394527 -12.18257 -0.01072915,-2.492083 -12.18058 -0.04645598,-2.578595 -12.22263 0.002246932,-2.400587 -11.97922 0.1406412,-2.427073 -11.9589 -0.008113063,-2.522465 -11.9842 -0.05033598,-2.603914 -12.03225 -0.01510724,-2.461518 -11.7552 0.1484203,-2.488842 -11.72014 0.00774291,-2.574907 -11.77548 -0.05932178,-2.641162 -11.83819 -0.06117395,-6.090622 -7.40673 -0.0006956604,-6.129077 -8.02882 0.3051406,-6.104354 -8.643723 0.4668562,-6.17063 -9.084621 0.5746303,-6.263936 -9.189613 0.7288131,-5.950068 -8.621645 0.7857934,-6.02582 -9.988539 0.9273629,-6.101729 -10.16161 1.1151,-6.143329 -10.18449 1.267691,-6.055526 -8.476246 0.7435716,-6.18384 -9.792475 0.901196,-6.256396 -9.912674 1.110497,-6.275519 -9.896042 1.330972,-6.193848 -8.207697 0.643561,-6.343203 -9.321909 0.8056449,-6.451765 -9.466595 0.9478685,-6.485669 -9.411465 0.9956483,-6.356829 -7.861631 0.5766866,-6.53906 -8.701038 0.7966281,-6.631662 -8.823822 0.9704075,-6.653378 -8.817003 1.031194,4.210,
-2.84476 -12.31425 -8.219232E-05,-2.657861 -12.60228 -0.1539097,-2.5244 -12.68285 -0.1856394,-2.449835 -12.5867 -0.227338,-2.461801 -12.51153 -0.257347,-2.349566 -12.52221 0.07115734,-2.350551 -12.45058 -0.02307999,-2.426276 -12.40927 -0.04175639,-2.50887 -12.42274 -0.004692473,-2.355641 -12.23078 0.127127,-2.394527 -12.18257 -0.01072915,-2.492083 -12.18058 -0.04645598,-2.578595 -12.22263 0.002246932,-2.400587 -11.97922 0.1406412,-2.427073 -11.9589 -0.008113063,-2.522465 -11.9842 -0.05033598,-2.603914 -12.03225 -0.01510724,-2.461518 -11.7552 0.1484203,-2.488842 -11.72014 0.00774291,-2.574907 -11.77548 -0.05932178,-2.641162 -11.83819 -0.06117395,-6.090622 -7.40673 -0.0006956604,-6.129077 -8.02882 0.3051406,-6.104354 -8.643723 0.4668562,-6.17063 -9.084621 0.5746303,-6.263936 -9.189613 0.7288131,-5.950068 -8.621645 0.7857934,-6.02582 -9.988539 0.9273629,-6.101729 -10.16161 1.1151,-6.143329 -10.18449 1.267691,-6.055526 -8.476246 0.7435716,-6.18384 -9.792475 0.901196,-6.256396 -9.912674 1.110497,-6.275519 -9.896042 1.330972,-6.193848 -8.207697 0.643561,-6.343203 -9.321909 0.8056449,-6.451765 -9.466595 0.9478685,-6.485669 -9.411465 0.9956483,-6.356829 -7.861631 0.5766866,-6.53906 -8.701038 0.7966281,-6.631662 -8.823822 0.9704075,-6.653378 -8.817003 1.031194,4.310,
-2.84476 -12.31425 -8.219232E-05,-2.657861 -12.60228 -0.1539097,-2.5244 -12.68285 -0.1856394,-2.449835 -12.5867 -0.227338,-2.461801 -12.51153 -0.257347,-2.349566 -12.52221 0.07115734,-2.350551 -12.45058 -0.02307999,-2.426276 -12.40927 -0.04175639,-2.50887 -12.42274 -0.004692473,-2.355641 -12.23078 0.127127,-2.394527 -12.18257 -0.01072915,-2.492083 -12.18058 -0.04645598,-2.578595 -12.22263 0.002246932,-2.400587 -11.97922 0.1406412,-2.427073 -11.9589 -0.008113063,-2.522465 -11.9842 -0.05033598,-2.603914 -12.03225 -0.01510724,-2.461518 -11.7552 0.1484203,-2.488842 -11.72014 0.00774291,-2.574907 -11.77548 -0.05932178,-2.641162 -11.83819 -0.06117395,-6.090622 -7.40673 -0.0006956604,-6.129077 -8.02882 0.3051406,-6.104354 -8.643723 0.4668562,-6.17063 -9.084621 0.5746303,-6.263936 -9.189613 0.7288131,-5.950068 -8.621645 0.7857934,-6.02582 -9.988539 0.9273629,-6.101729 -10.16161 1.1151,-6.143329 -10.18449 1.267691,-6.055526 -8.476246 0.7435716,-6.18384 -9.792475 0.901196,-6.256396 -9.912674 1.110497,-6.275519 -9.896042 1.330972,-6.193848 -8.207697 0.643561,-6.343203 -9.321909 0.8056449,-6.451765 -9.466595 0.9478685,-6.485669 -9.411465 0.9956483,-6.356829 -7.861631 0.5766866,-6.53906 -8.701038 0.7966281,-6.631662 -8.823822 0.9704075,-6.653378 -8.817003 1.031194,4.410,
-2.84476 -12.31425 -8.219232E-05,-2.657861 -12.60228 -0.1539097,-2.5244 -12.68285 -0.1856394,-2.449835 -12.5867 -0.227338,-2.461801 -12.51153 -0.257347,-2.349566 -12.52221 0.07115734,-2.350551 -12.45058 -0.02307999,-2.426276 -12.40927 -0.04175639,-2.50887 -12.42274 -0.004692473,-2.355641 -12.23078 0.127127,-2.394527 -12.18257 -0.01072915,-2.492083 -12.18058 -0.04645598,-2.578595 -12.22263 0.002246932,-2.400587 -11.97922 0.1406412,-2.427073 -11.9589 -0.008113063,-2.522465 -11.9842 -0.05033598,-2.603914 -12.03225 -0.01510724,-2.461518 -11.7552 0.1484203,-2.488842 -11.72014 0.00774291,-2.574907 -11.77548 -0.05932178,-2.641162 -11.83819 -0.06117395,-6.090622 -7.40673 -0.0006956604,-6.129077 -8.02882 0.3051406,-6.104354 -8.643723 0.4668562,-6.17063 -9.084621 0.5746303,-6.263936 -9.189613 0.7288131,-5.950068 -8.621645 0.7857934,-6.02582 -9.988539 0.9273629,-6.101729 -10.16161 1.1151,-6.143329 -10.18449 1.267691,-6.055526 -8.476246 0.7435716,-6.18384 -9.792475 0.901196,-6.256396 -9.912674 1.110497,-6.275519 -9.896042 1.330972,-6.193848 -8.207697 0.643561,-6.343203 -9.321909 0.8056449,-6.451765 -9.466595 0.9478685,-6.485669 -9.411465 0.9956483,-6.356829 -7.861631 0.5766866,-6.53906 -8.701038 0.7966281,-6.631662 -8.823822 0.9704075,-6.653378 -8.817003 1.031194,4.510,
-2.84476 -12.31425 -8.219232E-05,-2.657861 -12.60228 -0.1539097,-2.5244 -12.68285 -0.1856394,-2.449835 -12.5867 -0.227338,-2.461801 -12.51153 -0.257347,-2.349566 -12.52221 0.07115734,-2.350551 -12.45058 -0.02307999,-2.426276 -12.40927 -0.04175639,-2.50887 -12.42274 -0.004692473,-2.355641 -12.23078 0.127127,-2.394527 -12.18257 -0.01072915,-2.492083 -12.18058 -0.04645598,-2.578595 -12.22263 0.002246932,-2.400587 -11.97922 0.1406412,-2.427073 -11.9589 -0.008113063,-2.522465 -11.9842 -0.05033598,-2.603914 -12.03225 -0.01510724,-2.461518 -11.7552 0.1484203,-2.488842 -11.72014 0.00774291,-2.574907 -11.77548 -0.05932178,-2.641162 -11.83819 -0.06117395,-6.090622 -7.40673 -0.0006956604,-6.129077 -8.02882 0.3051406,-6.104354 -8.643723 0.4668562,-6.17063 -9.084621 0.5746303,-6.263936 -9.189613 0.7288131,-5.950068 -8.621645 0.7857934,-6.02582 -9.988539 0.9273629,-6.101729 -10.16161 1.1151,-6.143329 -10.18449 1.267691,-6.055526 -8.476246 0.7435716,-6.18384 -9.792475 0.901196,-6.256396 -9.912674 1.110497,-6.275519 -9.896042 1.330972,-6.193848 -8.207697 0.643561,-6.343203 -9.321909 0.8056449,-6.451765 -9.466595 0.9478685,-6.485669 -9.411465 0.9956483,-6.356829 -7.861631 0.5766866,-6.53906 -8.701038 0.7966281,-6.631662 -8.823822 0.9704075,-6.653378 -8.817003 1.031194,4.610,
-2.84476 -12.31425 -8.219232E-05,-2.657861 -12.60228 -0.1539097,-2.5244 -12.68285 -0.1856394,-2.449835 -12.5867 -0.227338,-2.461801 -12.51153 -0.257347,-2.349566 -12.52221 0.07115734,-2.350551 -12.45058 -0.02307999,-2.426276 -12.40927 -0.04175639,-2.50887 -12.42274 -0.004692473,-2.355641 -12.23078 0.127127,-2.394527 -12.18257 -0.01072915,-2.492083 -12.18058 -0.04645598,-2.578595 -12.22263 0.002246932,-2.400587 -11.97922 0.1406412,-2.427073 -11.9589 -0.008113063,-2.522465 -11.9842 -0.05033598,-2.603914 -12.03225 -0.01510724,-2.461518 -11.7552 0.1484203,-2.488842 -11.72014 0.00774291,-2.574907 -11.77548 -0.05932178,-2.641162 -11.83819 -0.06117395,-6.090622 -7.40673 -0.0006956604,-6.129077 -8.02882 0.3051406,-6.104354 -8.643723 0.4668562,-6.17063 -9.084621 0.5746303,-6.263936 -9.189613 0.7288131,-5.950068 -8.621645 0.7857934,-6.02582 -9.988539 0.9273629,-6.101729 -10.16161 1.1151,-6.143329 -10.18449 1.267691,-6.055526 -8.476246 0.7435716,-6.18384 -9.792475 0.901196,-6.256396 -9.912674 1.110497,-6.275519 -9.896042 1.330972,-6.193848 -8.207697 0.643561,-6.343203 -9.321909 0.8056449,-6.451765 -9.466595 0.9478685,-6.485669 -9.411465 0.9956483,-6.356829 -7.861631 0.5766866,-6.53906 -8.701038 0.7966281,-6.631662 -8.823822 0.9704075,-6.653378 -8.817003 1.031194,4.710,
-2.84476 -12.31425 -8.219232E-05,-2.657861 -12.60228 -0.1539097,-2.5244 -12.68285 -0.1856394,-2.449835 -12.5867 -0.227338,-2.461801 -12.51153 -0.257347,-2.349566 -12.52221 0.07115734,-2.350551 -12.45058 -0.02307999,-2.426276 -12.40927 -0.04175639,-2.50887 -12.42274 -0.004692473,-2.355641 -12.23078 0.127127,-2.394527 -12.18257 -0.01072915,-2.492083 -12.18058 -0.04645598,-2.578595 -12.22263 0.002246932,-2.400587 -11.97922 0.1406412,-2.427073 -11.9589 -0.008113063,-2.522465 -11.9842 -0.05033598,-2.603914 -12.03225 -0.01510724,-2.461518 -11.7552 0.1484203,-2.488842 -11.72014 0.00774291,-2.574907 -11.77548 -0.05932178,-2.641162 -11.83819 -0.06117395,-6.090622 -7.40673 -0.0006956604,-6.129077 -8.02882 0.3051406,-6.104354 -8.643723 0.4668562,-6.17063 -9.084621 0.5746303,-6.263936 -9.189613 0.7288131,-5.950068 -8.621645 0.7857934,-6.02582 -9.988539 0.9273629,-6.101729 -10.16161 1.1151,-6.143329 -10.18449 1.267691,-6.055526 -8.476246 0.7435716,-6.18384 -9.792475 0.901196,-6.256396 -9.912674 1.110497,-6.275519 -9.896042 1.330972,-6.193848 -8.207697 0.643561,-6.343203 -9.321909 0.8056449,-6.451765 -9.466595 0.9478685,-6.485669 -9.411465 0.9956483,-6.356829 -7.861631 0.5766866,-6.53906 -8.701038 0.7966281,-6.631662 -8.823822 0.9704075,-6.653378 -8.817003 1.031194,4.810,
-2.84476 -12.31425 -8.219232E-05,-2.657861 -12.60228 -0.1539097,-2.5244 -12.68285 -0.1856394,-2.449835 -12.5867 -0.227338,-2.461801 -12.51153 -0.257347,-2.349566 -12.52221 0.07115734,-2.350551 -12.45058 -0.02307999,-2.426276 -12.40927 -0.04175639,-2.50887 -12.42274 -0.004692473,-2.355641 -12.23078 0.127127,-2.394527 -12.18257 -0.01072915,-2.492083 -12.18058 -0.04645598,-2.578595 -12.22263 0.002246932,-2.400587 -11.97922 0.1406412,-2.427073 -11.9589 -0.008113063,-2.522465 -11.9842 -0.05033598,-2.603914 -12.03225 -0.01510724,-2.461518 -11.7552 0.1484203,-2.488842 -11.72014 0.00774291,-2.574907 -11.77548 -0.05932178,-2.641162 -11.83819 -0.06117395,-6.090622 -7.40673 -0.0006956604,-6.129077 -8.02882 0.3051406,-6.104354 -8.643723 0.4668562,-6.17063 -9.084621 0.5746303,-6.263936 -9.189613 0.7288131,-5.950068 -8.621645 0.7857934,-6.02582 -9.988539 0.9273629,-6.101729 -10.16161 1.1151,-6.143329 -10.18449 1.267691,-6.055526 -8.476246 0.7435716,-6.18384 -9.792475 0.901196,-6.256396 -9.912674 1.110497,-6.275519 -9.896042 1.330972,-6.193848 -8.207697 0.643561,-6.343203 -9.321909 0.8056449,-6.451765 -9.466595 0.9478685,-6.485669 -9.411465 0.9956483,-6.356829 -7.861631 0.5766866,-6.53906 -8.701038 0.7966281,-6.631662 -8.823822 0.9704075,-6.653378 -8.817003 1.031194,4.910,
-2.84476 -12.31425 -8.219232E-05,-2.657861 -12.60228 -0.1539097,-2.5244 -12.68285 -0.1856394,-2.449835 -12.5867 -0.227338,-2.461801 -12.51153 -0.257347,-2.349566 -12.52221 0.07115734,-2.350551 -12.45058 -0.02307999,-2.426276 -12.40927 -0.04175639,-2.50887 -12.42274 -0.004692473,-2.355641 -12.23078 0.127127,-2.394527 -12.18257 -0.01072915,-2.492083 -12.18058 -0.04645598,-2.578595 -12.22263 0.002246932,-2.400587 -11.97922 0.1406412,-2.427073 -11.9589 -0.008113063,-2.522465 -11.9842 -0.05033598,-2.603914 -12.03225 -0.01510724,-2.461518 -11.7552 0.1484203,-2.488842 -11.72014 0.00774291,-2.574907 -11.77548 -0.05932178,-2.641162 -11.83819 -0.06117395,-5.365663 -10.91427 -0.0005946255,-5.853438 -10.29269 1.304731,-6.272834 -9.611568 2.363742,-6.799632 -9.343782 3.266856,-7.298607 -9.057886 4.084776,-5.23608 -8.668007 3.117683,-4.868078 -8.123346 4.246288,-4.730024 -8.022318 4.849503,-4.721112 -8.044825 5.250046,-4.756226 -9.299179 2.895701,-4.486786 -8.850138 4.066515,-4.473326 -8.685329 4.652115,-4.592634 -8.65596 5.019407,-4.469893 -10.02942 2.631461,-4.177334 -9.937813 3.610638,-4.18991 -10.05592 3.931273,-4.300012 -10.2339 4.12326,-4.335219 -10.79042 2.444399,-4.033349 -10.92835 3.163465,-4.01669 -11.02069 3.55579,-4.107866 -11.13711 3.765618,5.010,
-2.84476 -12.31425 -8.219232E-05,-2.657861 -12.60228 -0.1539097,-2.5244 -12.68285 -0.1856394,-2.449835 -12.5867 -0.227338,-2.461801 -12.51153 -0.257347,-2.349566 -12.52221 0.07115734,-2.350551 -12.45058 -0.02307999,-2.426276 -12.40927 -0.04175639,-2.50887 -12.42274 -0.004692473,-2.355641 -12.23078 0.127127,-2.394527 -12.18257 -0.01072915,-2.492083 -12.18058 -0.04645598,-2.578595 -12.22263 0.002246932,-2.400587 -11.97922 0.1406412,-2.427073 -11.9589 -0.008113063,-2.522465 -11.9842 -0.05033598,-2.603914 -12.03225 -0.01510724,-2.461518 -11.7552 0.1484203,-2.488842 -11.72014 0.00774291,-2.574907 -11.77548 -0.05932178,-2.641162 -11.83819 -0.06117395,-5.365663 -10.91427 -0.0005946255,-5.853438 -10.29269 1.304731,-6.272834 -9.611568 2.363742,-6.799632 -9.343782 3.266856,-7.298607 -9.057886 4.084776,-5.23608 -8.668007 3.117683,-4.868078 -8.123346 4.246288,-4.730024 -8.022318 4.849503,-4.721112 -8.044825 5.250046,-4.756226 -9.299179 2.895701,-4.486786 -8.850138 4.066515,-4.473326 -8.685329 4.652115,-4.592634 -8.65596 5.019407,-4.469893 -10.02942 2.631461,-4.177334 -9.937813 3.610638,-4.18991 -10.05592 3.931273,-4.300012 -10.2339 4.12326,-4.335219 -10.79042 2.444399,-4.033349 -10.92835 3.163465,-4.01669 -11.02069 3.55579,-4.107866 -11.13711 3.765618,5.110,
-2.84476 -12.31425 -8.219232E-05,-2.657861 -12.60228 -0.1539097,-2.5244 -12.68285 -0.1856394,-2.449835 -12.5867 -0.227338,-2.461801 -12.51153 -0.257347,-2.349566 -12.52221 0.07115734,-2.350551 -12.45058 -0.02307999,-2.426276 -12.40927 -0.04175639,-2.50887 -12.42274 -0.004692473,-2.355641 -12.23078 0.127127,-2.394527 -12.18257 -0.01072915,-2.492083 -12.18058 -0.04645598,-2.578595 -12.22263 0.002246932,-2.400587 -11.97922 0.1406412,-2.427073 -11.9589 -0.008113063,-2.522465 -11.9842 -0.05033598,-2.603914 -12.03225 -0.01510724,-2.461518 -11.7552 0.1484203,-2.488842 -11.72014 0.00774291,-2.574907 -11.77548 -0.05932178,-2.641162 -11.83819 -0.06117395,-5.365663 -10.91427 -0.0005946255,-5.853438 -10.29269 1.304731,-6.272834 -9.611568 2.363742,-6.799632 -9.343782 3.266856,-7.298607 -9.057886 4.084776,-5.23608 -8.668007 3.117683,-4.868078 -8.123346 4.246288,-4.730024 -8.022318 4.849503,-4.721112 -8.044825 5.250046,-4.756226 -9.299179 2.895701,-4.486786 -8.850138 4.066515,-4.473326 -8.685329 4.652115,-4.592634 -8.65596 5.019407,-4.469893 -10.02942 2.631461,-4.177334 -9.937813 3.610638,-4.18991 -10.05592 3.931273,-4.300012 -10.2339 4.12326,-4.335219 -10.79042 2.444399,-4.033349 -10.92835 3.163465,-4.01669 -11.02069 3.55579,-4.107866 -11.13711 3.765618,5.210,
-2.84476 -12.31425 -8.219232E-05,-2.657861 -12.60228 -0.1539097,-2.5244 -12.68285 -0.1856394,-2.449835 -12.5867 -0.227338,-2.461801 -12.51153 -0.257347,-2.349566 -12.52221 0.07115734,-2.350551 -12.45058 -0.02307999,-2.426276 -12.40927 -0.04175639,-2.50887 -12.42274 -0.004692473,-2.355641 -12.23078 0.127127,-2.394527 -12.18257 -0.01072915,-2.492083 -12.18058 -0.04645598,-2.578595 -12.22263 0.002246932,-2.400587 -11.97922 0.1406412,-2.427073 -11.9589 -0.008113063,-2.522465 -11.9842 -0.05033598,-2.603914 -12.03225 -0.01510724,-2.461518 -11.7552 0.1484203,-2.488842 -11.72014 0.00774291,-2.574907 -11.77548 -0.05932178,-2.641162 -11.83819 -0.06117395,-5.365663 -10.91427 -0.0005946255,-5.853438 -10.29269 1.304731,-6.272834 -9.611568 2.363742,-6.799632 -9.343782 3.266856,-7.298607 -9.057886 4.084776,-5.23608 -8.668007 3.117683,-4.868078 -8.123346 4.246288,-4.730024 -8.022318 4.849503,-4.721112 -8.044825 5.250046,-4.756226 -9.299179 2.895701,-4.486786 -8.850138 4.066515,-4.473326 -8.685329 4.652115,-4.592634 -8.65596 5.019407,-4.469893 -10.02942 2.631461,-4.177334 -9.937813 3.610638,-4.18991 -10.05592 3.931273,-4.300012 -10.2339 4.12326,-4.335219 -10.79042 2.444399,-4.033349 -10.92835 3.163465,-4.01669 -11.02069 3.55579,-4.107866 -11.13711 3.765618,5.310,
-2.84476 -12.31425 -8.219232E-05,-2.657861 -12.60228 -0.1539097,-2.5244 -12.68285 -0.1856394,-2.449835 -12.5867 -0.227338,-2.461801 -12.51153 -0.257347,-2.349566 -12.52221 0.07115734,-2.350551 -12.45058 -0.02307999,-2.426276 -12.40927 -0.04175639,-2.50887 -12.42274 -0.004692473,-2.355641 -12.23078 0.127127,-2.394527 -12.18257 -0.01072915,-2.492083 -12.18058 -0.04645598,-2.578595 -12.22263 0.002246932,-2.400587 -11.97922 0.1406412,-2.427073 -11.9589 -0.008113063,-2.522465 -11.9842 -0.05033598,-2.603914 -12.03225 -0.01510724,-2.461518 -11.7552 0.1484203,-2.488842 -11.72014 0.00774291,-2.574907 -11.77548 -0.05932178,-2.641162 -11.83819 -0.06117395,-5.365663 -10.91427 -0.0005946255,-5.853438 -10.29269 1.304731,-6.272834 -9.611568 2.363742,-6.799632 -9.343782 3.266856,-7.298607 -9.057886 4.084776,-5.23608 -8.668007 3.117683,-4.868078 -8.123346 4.246288,-4.730024 -8.022318 4.849503,-4.721112 -8.044825 5.250046,-4.756226 -9.299179 2.895701,-4.486786 -8.850138 4.066515,-4.473326 -8.685329 4.652115,-4.592634 -8.65596 5.019407,-4.469893 -10.02942 2.631461,-4.177334 -9.937813 3.610638,-4.18991 -10.05592 3.931273,-4.300012 -10.2339 4.12326,-4.335219 -10.79042 2.444399,-4.033349 -10.92835 3.163465,-4.01669 -11.02069 3.55579,-4.107866 -11.13711 3.765618,5.410,
-2.84476 -12.31425 -8.219232E-05,-2.657861 -12.60228 -0.1539097,-2.5244 -12.68285 -0.1856394,-2.449835 -12.5867 -0.227338,-2.461801 -12.51153 -0.257347,-2.349566 -12.52221 0.07115734,-2.350551 -12.45058 -0.02307999,-2.426276 -12.40927 -0.04175639,-2.50887 -12.42274 -0.004692473,-2.355641 -12.23078 0.127127,-2.394527 -12.18257 -0.01072915,-2.492083 -12.18058 -0.04645598,-2.578595 -12.22263 0.002246932,-2.400587 -11.97922 0.1406412,-2.427073 -11.9589 -0.008113063,-2.522465 -11.9842 -0.05033598,-2.603914 -12.03225 -0.01510724,-2.461518 -11.7552 0.1484203,-2.488842 -11.72014 0.00774291,-2.574907 -11.77548 -0.05932178,-2.641162 -11.83819 -0.06117395,-5.365663 -10.91427 -0.0005946255,-5.853438 -10.29269 1.304731,-6.272834 -9.611568 2.363742,-6.799632 -9.343782 3.266856,-7.298607 -9.057886 4.084776,-5.23608 -8.668007 3.117683,-4.868078 -8.123346 4.246288,-4.730024 -8.022318 4.849503,-4.721112 -8.044825 5.250046,-4.756226 -9.299179 2.895701,-4.486786 -8.850138 4.066515,-4.473326 -8.685329 4.652115,-4.592634 -8.65596 5.019407,-4.469893 -10.02942 2.631461,-4.177334 -9.937813 3.610638,-4.18991 -10.05592 3.931273,-4.300012 -10.2339 4.12326,-4.335219 -10.79042 2.444399,-4.033349 -10.92835 3.163465,-4.01669 -11.02069 3.55579,-4.107866 -11.13711 3.765618,5.510,
