TiagoOliveira98/HandTracking/DataLogging/JointData/Logs(1642777862)_Tiago_Grab.csv
WRIST,THUMB_CMC,THUMB_MCP,THUMB_IP,THUMB_TIP,INDEX_FINGER_MCP,INDEX_FINGER_PIP,INDEX_FINGER_DIP,INDEX_FINGER_TIP,MIDDLE_FINGER_MCP,MIDDLE_FINGER_PIP,MIDDLE_FINGER_DIP,MIDDLE_FINGER_TIP,RING_FINGER_MCP,RING_FINGER_PIP,RING_FINGER_DIP,RING_FINGER_TIP,PINKY_MCP,PINKY_PIP,PINKY_DIP,PINKY_TIP,WRIST2,THUMB_CMC2,THUMB_MCP2,THUMB_IP2,THUMB_TIP2,INDEX_FINGER_MCP2,INDEX_FINGER_PIP2,INDEX_FINGER_DIP2,INDEX_FINGER_TIP2,MIDDLE_FINGER_MCP2,MIDDLE_FINGER_PIP2,MIDDLE_FINGER_DIP2,MIDDLE_FINGER_TIP2,RING_FINGER_MCP2,RING_FINGER_PIP2,RING_FINGER_DIP2,RING_FINGER_TIP2,PINKY_MCP2,PINKY_PIP2,PINKY_DIP2,PINKY_TIP2,Timestamp,Event
10 0 0,10 7.47 0,10 7.47 0,10 7.47 0,10 7.47 0,10 7.47 0,10 7.47 0,10 7.47 0,10 7.47 0,10 7.47 0,10 7.47 0,10 7.47 0,10 7.47 0,10 7.47 0,10 7.47 0,10 7.47 0,10 7.47 0,10 7.47 0,10 7.47 0,10 7.47 0,10 7.47 0,10 0 0,10 7.47 0,10 7.47 0,10 7.47 0,10 7.47 0,10 7.47 0,10 7.47 0,10 7.47 0,10 7.47 0,10 7.47 0,10 7.47 0,10 7.47 0,10 7.47 0,10 7.47 0,10 7.47 0,10 7.47 0,10 7.47 0,10 7.47 0,10 7.47 0,10 7.47 0,10 7.47 0,0.010,
2 0 -9.153271,2 0 -9.153271,2 0 -9.153271,2 0 -9.153271,2 0 -9.153271,2 0 -9.153271,2 0 -9.153271,2 0 -9.153271,2 0 -9.153271,2 0 -9.153271,2 0 -9.153271,2 0 -9.153271,2 0 -9.153271,2 0 -9.153271,2 0 -9.153271,2 0 -9.153271,2 0 -9.153271,2 0 -9.153271,2 0 -9.153271,2 0 -9.153271,2 0 -9.153271,2 0 -10.43492,2 0 -10.43492,2 0 -10.43492,2 0 -10.43492,2 0 -10.43492,2 0 -10.43492,2 0 -10.43492,2 0 -10.43492,2 0 -10.43492,2 0 -10.43492,2 0 -10.43492,2 0 -10.43492,2 0 -10.43492,2 0 -10.43492,2 0 -10.43492,2 0 -10.43492,2 0 -10.43492,2 0 -10.43492,2 0 -10.43492,2 0 -10.43492,2 0 -10.43492,0.110,
2 0 -9.153271,2 0 -9.153271,2 0 -9.153271,2 0 -9.153271,2 0 -9.153271,2 0 -9.153271,2 0 -9.153271,2 0 -9.153271,2 0 -9.153271,2 0 -9.153271,2 0 -9.153271,2 0 -9.153271,2 0 -9.153271,2 0 -9.153271,2 0 -9.153271,2 0 -9.153271,2 0 -9.153271,2 0 -9.153271,2 0 -9.153271,2 0 -9.153271,2 0 -9.153271,2 0 -10.43492,2 0 -10.43492,2 0 -10.43492,2 0 -10.43492,2 0 -10.43492,2 0 -10.43492,2 0 -10.43492,2 0 -10.43492,2 0 -10.43492,2 0 -10.43492,2 0 -10.43492,2 0 -10.43492,2 0 -10.43492,2 0 -10.43492,2 0 -10.43492,2 0 -10.43492,2 0 -10.43492,2 0 -10.43492,2 0 -10.43492,2 0 -10.43492,2 0 -10.43492,0.210,
2 0 -9.153271,2 0 -9.153271,2 0 -9.153271,2 0 -9.153271,2 0 -9.153271,2 0 -9.153271,2 0 -9.153271,2 0 -9.153271,2 0 -9.153271,2 0 -9.153271,2 0 -9.153271,2 0 -9.153271,2 0 -9.153271,2 0 -9.153271,2 0 -9.153271,2 0 -9.153271,2 0 -9.153271,2 0 -9.153271,2 0 -9.153271,2 0 -9.153271,2 0 -9.153271,2 0 -10.43492,2 0 -10.43492,2 0 -10.43492,2 0 -10.43492,2 0 -10.43492,2 0 -10.43492,2 0 -10.43492,2 0 -10.43492,2 0 -10.43492,2 0 -10.43492,2 0 -10.43492,2 0 -10.43492,2 0 -10.43492,2 0 -10.43492,2 0 -10.43492,2 0 -10.43492,2 0 -10.43492,2 0 -10.43492,2 0 -10.43492,2 0 -10.43492,2 0 -10.43492,0.310,
2 0 -9.153271,2 0 -9.153271,2 0 -9.153271,2 0 -9.153271,2 0 -9.153271,2 0 -9.153271,2 0 -9.153271,2 0 -9.153271,2 0 -9.153271,2 0 -9.153271,2 0 -9.153271,2 0 -9.153271,2 0 -9.153271,2 0 -9.153271,2 0 -9.153271,2 0 -9.153271,2 0 -9.153271,2 0 -9.153271,2 0 -9.153271,2 0 -9.153271,2 0 -9.153271,2 0 -10.43492,2 0 -10.43492,2 0 -10.43492,2 0 -10.43492,2 0 -10.43492,2 0 -10.43492,2 0 -10.43492,2 0 -10.43492,2 0 -10.43492,2 0 -10.43492,2 0 -10.43492,2 0 -10.43492,2 0 -10.43492,2 0 -10.43492,2 0 -10.43492,2 0 -10.43492,2 0 -10.43492,2 0 -10.43492,2 0 -10.43492,2 0 -10.43492,2 0 -10.43492,0.410,
2 0 -9.153271,2 0 -9.153271,2 0 -9.153271,2 0 -9.153271,2 0 -9.153271,2 0 -9.153271,2 0 -9.153271,2 0 -9.153271,2 0 -9.153271,2 0 -9.153271,2 0 -9.153271,2 0 -9.153271,2 0 -9.153271,2 0 -9.153271,2 0 -9.153271,2 0 -9.153271,2 0 -9.153271,2 0 -9.153271,2 0 -9.153271,2 0 -9.153271,2 0 -9.153271,2 0 -10.43492,2 0 -10.43492,2 0 -10.43492,2 0 -10.43492,2 0 -10.43492,2 0 -10.43492,2 0 -10.43492,2 0 -10.43492,2 0 -10.43492,2 0 -10.43492,2 0 -10.43492,2 0 -10.43492,2 0 -10.43492,2 0 -10.43492,2 0 -10.43492,2 0 -10.43492,2 0 -10.43492,2 0 -10.43492,2 0 -10.43492,2 0 -10.43492,2 0 -10.43492,0.510,
2 0 -9.153271,2 0 -9.153271,2 0 -9.153271,2 0 -9.153271,2 0 -9.153271,2 0 -9.153271,2 0 -9.153271,2 0 -9.153271,2 0 -9.153271,2 0 -9.153271,2 0 -9.153271,2 0 -9.153271,2 0 -9.153271,2 0 -9.153271,2 0 -9.153271,2 0 -9.153271,2 0 -9.153271,2 0 -9.153271,2 0 -9.153271,2 0 -9.153271,2 0 -9.153271,2 0 -10.43492,2 0 -10.43492,2 0 -10.43492,2 0 -10.43492,2 0 -10.43492,2 0 -10.43492,2 0 -10.43492,2 0 -10.43492,2 0 -10.43492,2 0 -10.43492,2 0 -10.43492,2 0 -10.43492,2 0 -10.43492,2 0 -10.43492,2 0 -10.43492,2 0 -10.43492,2 0 -10.43492,2 0 -10.43492,2 0 -10.43492,2 0 -10.43492,2 0 -10.43492,0.610,
2 0 -9.153271,2 0 -9.153271,2 0 -9.153271,2 0 -9.153271,2 0 -9.153271,2 0 -9.153271,2 0 -9.153271,2 0 -9.153271,2 0 -9.153271,2 0 -9.153271,2 0 -9.153271,2 0 -9.153271,2 0 -9.153271,2 0 -9.153271,2 0 -9.153271,2 0 -9.153271,2 0 -9.153271,2 0 -9.153271,2 0 -9.153271,2 0 -9.153271,2 0 -9.153271,2 0 -10.43492,2 0 -10.43492,2 0 -10.43492,2 0 -10.43492,2 0 -10.43492,2 0 -10.43492,2 0 -10.43492,2 0 -10.43492,2 0 -10.43492,2 0 -10.43492,2 0 -10.43492,2 0 -10.43492,2 0 -10.43492,2 0 -10.43492,2 0 -10.43492,2 0 -10.43492,2 0 -10.43492,2 0 -10.43492,2 0 -10.43492,2 0 -10.43492,2 0 -10.43492,0.710,
2 0 -9.153271,2 0 -9.153271,2 0 -9.153271,2 0 -9.153271,2 0 -9.153271,2 0 -9.153271,2 0 -9.153271,2 0 -9.153271,2 0 -9.153271,2 0 -9.153271,2 0 -9.153271,2 0 -9.153271,2 0 -9.153271,2 0 -9.153271,2 0 -9.153271,2 0 -9.153271,2 0 -9.153271,2 0 -9.153271,2 0 -9.153271,2 0 -9.153271,2 0 -9.153271,2 0 -10.43492,2 0 -10.43492,2 0 -10.43492,2 0 -10.43492,2 0 -10.43492,2 0 -10.43492,2 0 -10.43492,2 0 -10.43492,2 0 -10.43492,2 0 -10.43492,2 0 -10.43492,2 0 -10.43492,2 0 -10.43492,2 0 -10.43492,2 0 -10.43492,2 0 -10.43492,2 0 -10.43492,2 0 -10.43492,2 0 -10.43492,2 0 -10.43492,2 0 -10.43492,0.810,
2 0 -9.153271,2 0 -9.153271,2 0 -9.153271,2 0 -9.153271,2 0 -9.153271,2 0 -9.153271,2 0 -9.153271,2 0 -9.153271,2 0 -9.153271,2 0 -9.153271,2 0 -9.153271,2 0 -9.153271,2 0 -9.153271,2 0 -9.153271,2 0 -9.153271,2 0 -9.153271,2 0 -9.153271,2 0 -9.153271,2 0 -9.153271,2 0 -9.153271,2 0 -9.153271,2 0 -10.43492,2 0 -10.43492,2 0 -10.43492,2 0 -10.43492,2 0 -10.43492,2 0 -10.43492,2 0 -10.43492,2 0 -10.43492,2 0 -10.43492,2 0 -10.43492,2 0 -10.43492,2 0 -10.43492,2 0 -10.43492,2 0 -10.43492,2 0 -10.43492,2 0 -10.43492,2 0 -10.43492,2 0 -10.43492,2 0 -10.43492,2 0 -10.43492,2 0 -10.43492,0.910,
2 0 -9.153271,2 0 -9.153271,2 0 -9.153271,2 0 -9.153271,2 0 -9.153271,2 0 -9.153271,2 0 -9.153271,2 0 -9.153271,2 0 -9.153271,2 0 -9.153271,2 0 -9.153271,2 0 -9.153271,2 0 -9.153271,2 0 -9.153271,2 0 -9.153271,2 0 -9.153271,2 0 -9.153271,2 0 -9.153271,2 0 -9.153271,2 0 -9.153271,2 0 -9.153271,2 0 -10.43492,2 0 -10.43492,2 0 -10.43492,2 0 -10.43492,2 0 -10.43492,2 0 -10.43492,2 0 -10.43492,2 0 -10.43492,2 0 -10.43492,2 0 -10.43492,2 0 -10.43492,2 0 -10.43492,2 0 -10.43492,2 0 -10.43492,2 0 -10.43492,2 0 -10.43492,2 0 -10.43492,2 0 -10.43492,2 0 -10.43492,2 0 -10.43492,2 0 -10.43492,1.010,
2 0 -9.153271,2 0 -9.153271,2 0 -9.153271,2 0 -9.153271,2 0 -9.153271,2 0 -9.153271,2 0 -9.153271,2 0 -9.153271,2 0 -9.153271,2 0 -9.153271,2 0 -9.153271,2 0 -9.153271,2 0 -9.153271,2 0 -9.153271,2 0 -9.153271,2 0 -9.153271,2 0 -9.153271,2 0 -9.153271,2 0 -9.153271,2 0 -9.153271,2 0 -9.153271,2 0 -10.43492,2 0 -10.43492,2 0 -10.43492,2 0 -10.43492,2 0 -10.43492,2 0 -10.43492,2 0 -10.43492,2 0 -10.43492,2 0 -10.43492,2 0 -10.43492,2 0 -10.43492,2 0 -10.43492,2 0 -10.43492,2 0 -10.43492,2 0 -10.43492,2 0 -10.43492,2 0 -10.43492,2 0 -10.43492,2 0 -10.43492,2 0 -10.43492,2 0 -10.43492,1.110,
2 0 -9.153271,2 0 -9.153271,2 0 -9.153271,2 0 -9.153271,2 0 -9.153271,2 0 -9.153271,2 0 -9.153271,2 0 -9.153271,2 0 -9.153271,2 0 -9.153271,2 0 -9.153271,2 0 -9.153271,2 0 -9.153271,2 0 -9.153271,2 0 -9.153271,2 0 -9.153271,2 0 -9.153271,2 0 -9.153271,2 0 -9.153271,2 0 -9.153271,2 0 -9.153271,2 0 -10.43492,2 0 -10.43492,2 0 -10.43492,2 0 -10.43492,2 0 -10.43492,2 0 -10.43492,2 0 -10.43492,2 0 -10.43492,2 0 -10.43492,2 0 -10.43492,2 0 -10.43492,2 0 -10.43492,2 0 -10.43492,2 0 -10.43492,2 0 -10.43492,2 0 -10.43492,2 0 -10.43492,2 0 -10.43492,2 0 -10.43492,2 0 -10.43492,2 0 -10.43492,1.210,
2 0 -9.153271,2 0 -9.153271,2 0 -9.153271,2 0 -9.153271,2 0 -9.153271,2 0 -9.153271,2 0 -9.153271,2 0 -9.153271,2 0 -9.153271,2 0 -9.153271,2 0 -9.153271,2 0 -9.153271,2 0 -9.153271,2 0 -9.153271,2 0 -9.153271,2 0 -9.153271,2 0 -9.153271,2 0 -9.153271,2 0 -9.153271,2 0 -9.153271,2 0 -9.153271,2 0 -10.43492,2 0 -10.43492,2 0 -10.43492,2 0 -10.43492,2 0 -10.43492,2 0 -10.43492,2 0 -10.43492,2 0 -10.43492,2 0 -10.43492,2 0 -10.43492,2 0 -10.43492,2 0 -10.43492,2 0 -10.43492,2 0 -10.43492,2 0 -10.43492,2 0 -10.43492,2 0 -10.43492,2 0 -10.43492,2 0 -10.43492,2 0 -10.43492,2 0 -10.43492,1.310,
-2.699653 -14.43416 -0.4184449,-3.394041 -14.20723 -0.1144058,-3.872831 -13.32798 0.05856586,-4.089122 -12.47365 0.2235644,-4.203188 -11.69464 0.3857324,-3.488598 -12.03225 -0.1519738,-3.670623 -10.93197 -0.01000085,-3.77883 -10.74366 0.1288507,-3.77775 -10.7972 0.2630962,-3.102024 -11.98829 -0.1280296,-3.24831 -10.80395 0.0869298,-3.324778 -10.66176 0.319437,-3.274552 -10.7854 0.5025813,-2.725516 -12.03968 -0.08382475,-2.822294 -10.98127 0.1350494,-2.907758 -10.80512 0.3405594,-2.901176 -10.86651 0.4870953,-2.364551 -12.193 -0.001492292,-2.329768 -11.34665 0.2191652,-2.346117 -10.92736 0.3989351,-2.33363 -10.62841 0.5423207,2 0 -10.43492,2 0 -10.43492,2 0 -10.43492,2 0 -10.43492,2 0 -10.43492,2 0 -10.43492,2 0 -10.43492,2 0 -10.43492,2 0 -10.43492,2 0 -10.43492,2 0 -10.43492,2 0 -10.43492,2 0 -10.43492,2 0 -10.43492,2 0 -10.43492,2 0 -10.43492,2 0 -10.43492,2 0 -10.43492,2 0 -10.43492,2 0 -10.43492,2 0 -10.43492,1.410,
-2.803305 -12.91649 0.05093389,-3.599087 -12.64253 0.0766737,-4.053072 -11.91309 0.09646039,-4.327135 -11.06642 0.08446126,-4.494398 -10.25862 0.007941511,-3.61845 -10.45227 0.1536182,-3.85466 -9.147364 -0.005543012,-4.00305 -8.49271 -0.1995804,-4.123335 -8.023546 -0.3696024,-3.175025 -10.31552 -0.05604463,-3.387987 -8.911037 -0.2974459,-3.544534 -8.332584 -0.6650624,-3.684649 -7.929782 -0.9840395,-2.813793 -10.33681 -0.2921761,-3.009117 -9.125702 -0.6211371,-3.184239 -8.524094 -0.9649245,-3.34866 -8.138418 -1.207941,-2.537992 -10.46311 -0.5176986,-2.714948 -9.543028 -0.8615106,-2.884718 -9.084608 -1.092846,-3.03931 -8.787312 -1.27608,2 0 -10.43492,2 0 -10.43492,2 0 -10.43492,2 0 -10.43492,2 0 -10.43492,2 0 -10.43492,2 0 -10.43492,2 0 -10.43492,2 0 -10.43492,2 0 -10.43492,2 0 -10.43492,2 0 -10.43492,2 0 -10.43492,2 0 -10.43492,2 0 -10.43492,2 0 -10.43492,2 0 -10.43492,2 0 -10.43492,2 0 -10.43492,2 0 -10.43492,2 0 -10.43492,1.510,
-3.019945 -10.40474 0.6346311,-3.745512 -9.980724 0.8983753,-4.286782 -9.269909 1.167839,-4.548527 -8.560854 1.428251,-4.675752 -7.931655 1.658756,-4.12074 -8.005213 1.269127,-4.356501 -6.687497 1.529405,-4.440159 -6.055852 1.582208,-4.501848 -5.641305 1.578895,-3.715257 -7.788352 1.33539,-3.921933 -6.343243 1.642538,-4.035418 -5.662787 1.699171,-4.12174 -5.198841 1.716048,-3.320311 -7.749427 1.425651,-3.464403 -6.435425 1.723035,-3.572713 -5.787578 1.778253,-3.688175 -5.335405 1.808069,-2.929781 -7.887184 1.534389,-2.976016 -6.883484 1.799634,-3.062941 -6.377731 1.896632,-3.186495 -5.968533 1.948463,2 0 -10.43492,2 0 -10.43492,2 0 -10.43492,2 0 -10.43492,2 0 -10.43492,2 0 -10.43492,2 0 -10.43492,2 0 -10.43492,2 0 -10.43492,2 0 -10.43492,2 0 -10.43492,2 0 -10.43492,2 0 -10.43492,2 0 -10.43492,2 0 -10.43492,2 0 -10.43492,2 0 -10.43492,2 0 -10.43492,2 0 -10.43492,2 0 -10.43492,2 0 -10.43492,1.610,
-2.907792 -9.04546 0.6189241,-3.568588 -8.660082 0.8512561,-4.121971 -8.068249 1.024174,-4.452843 -7.378374 1.243672,-4.687828 -6.749115 1.469642,-3.978201 -6.624004 0.6891776,-4.308584 -5.650229 0.9012398,-4.449253 -5.13252 1.091218,-4.557268 -4.666427 1.225739,-3.6565 -6.359371 0.7552835,-3.924689 -5.233363 0.9455669,-4.058874 -4.582511 1.154557,-4.157597 -4.050865 1.298914,-3.335532 -6.274557 0.880654,-3.511393 -5.192008 1.063389,-3.626915 -4.570875 1.293077,-3.747477 -4.070205 1.476494,-2.988713 -6.365575 1.041775,-3.059034 -5.564053 1.214113,-3.138443 -5.074449 1.362885,-3.238567 -4.647378 1.474243,-9.030927 -10.24555 1.499518,-8.294868 -9.723585 1.37424,-7.766047 -8.764801 1.415507,-7.475968 -7.967512 1.587272,-7.174912 -7.309507 1.822997,-8.042413 -7.0466 1.135343,-7.882075 -5.899353 1.229731,-7.800997 -5.227547 1.353845,-7.748659 -4.665565 1.424942,-8.338332 -6.908578 1.396852,-8.161376 -5.641346 1.460517,-8.074632 -4.92712 1.586169,-8.000814 -4.348545 1.651928,-8.647265 -7.004041 1.692627,-8.579954 -5.796594 1.764113,-8.525366 -5.175683 1.955327,-8.428461 -4.695943 2.066646,-8.991123 -7.330846 1.987703,-9.003225 -6.404989 2.127505,-8.94588 -5.859363 2.285803,-8.840456 -5.379182 2.377732,1.710,
-2.858727 -8.679707 0.5814156,-3.492167 -8.322437 0.6667647,-4.033726 -7.711086 0.7307828,-4.353309 -7.033338 0.8731236,-4.61973 -6.523092 1.04781,-3.888586 -6.258569 0.4333529,-4.215017 -5.351358 0.5444481,-4.376976 -4.794481 0.6497443,-4.490333 -4.256029 0.7288018,-3.603144 -6.000104 0.5640429,-3.872789 -4.918536 0.6681436,-4.018832 -4.274982 0.8073788,-4.110861 -3.719235 0.8788153,-3.298256 -5.932696 0.7535962,-3.475457 -4.872292 0.878988,-3.605791 -4.291645 1.028132,-3.721836 -3.775345 1.145334,-2.948263 -6.042516 0.9704027,-3.001398 -5.229679 1.100674,-3.073757 -4.751007 1.227791,-3.155416 -4.281242 1.322909,-9.136002 -9.840281 1.278975,-8.425077 -9.278996 1.138026,-7.929534 -8.389999 1.19471,-7.645802 -7.651728 1.387722,-7.346986 -7.088024 1.608849,-8.222728 -6.714846 0.9584031,-8.071667 -5.650198 1.052605,-7.94966 -5.002544 1.192721,-7.848071 -4.445834 1.280937,-8.510289 -6.552765 1.25707,-8.353954 -5.311312 1.321445,-8.223908 -4.55422 1.49092,-8.11245 -3.898099 1.594712,-8.822573 -6.611715 1.58462,-8.755266 -5.430763 1.6619,-8.642596 -4.698604 1.865777,-8.486172 -4.067296 1.975061,-9.168692 -6.902365 1.905646,-9.214237 -5.987764 2.021008,-9.174646 -5.372764 2.128705,-9.078168 -4.785373 2.205804,1.810,
-2.706924 -8.346741 0.3918375,-3.314632 -8.046032 0.5937651,-3.838148 -7.43976 0.6824685,-4.158648 -6.766561 0.8201618,-4.426178 -6.189611 0.9852418,-3.663866 -5.960445 0.3039859,-3.951003 -5.034339 0.4083714,-4.102745 -4.475549 0.4994849,-4.212772 -3.956774 0.5778313,-3.375658 -5.703184 0.3731886,-3.633383 -4.61819 0.4443084,-3.789788 -3.982288 0.5781012,-3.897102 -3.40797 0.6760069,-3.070874 -5.642273 0.5085405,-3.224755 -4.600868 0.6152451,-3.348119 -3.968423 0.776119,-3.450773 -3.405625 0.9180186,-2.73029 -5.768796 0.6817524,-2.789878 -4.940261 0.8184363,-2.860817 -4.425273 0.9688045,-2.930114 -3.948601 1.085787,-9.247465 -9.283115 0.6904376,-8.569692 -8.824575 0.663987,-8.077418 -7.946861 0.7215364,-7.798093 -7.173948 0.8534564,-7.505287 -6.636426 1.002792,-8.444326 -6.32607 0.4702007,-8.255747 -5.263667 0.5330955,-8.128869 -4.666444 0.6493353,-8.022027 -4.140316 0.7277812,-8.747511 -6.144403 0.6612327,-8.603363 -4.849453 0.6576715,-8.48665 -4.084733 0.8181276,-8.390215 -3.4099 0.9324397,-9.05007 -6.214442 0.8899596,-8.975831 -4.978183 0.9298452,-8.889318 -4.24208 1.105429,-8.784004 -3.597322 1.242418,-9.370903 -6.494462 1.112753,-9.416239 -5.560059 1.227397,-9.399349 -4.960899 1.362533,-9.34136 -4.380706 1.453276,1.910,
-2.663835 -8.347761 0.2738676,-3.276777 -8.064186 0.4966841,-3.801949 -7.471352 0.5907256,-4.115133 -6.803837 0.722905,-4.384435 -6.236685 0.8880236,-3.623165 -5.993383 0.2694619,-3.915379 -5.048488 0.3839805,-4.068715 -4.469116 0.4701442,-4.173554 -3.930454 0.5522729,-3.331028 -5.73907 0.3260682,-3.59149 -4.640907 0.4227431,-3.741161 -3.982215 0.5526685,-3.83672 -3.394194 0.6487615,-3.02426 -5.672958 0.4499376,-3.190247 -4.626691 0.5772557,-3.309333 -3.980252 0.7369971,-3.39983 -3.407379 0.8777111,-2.681481 -5.784048 0.6098946,-2.75045 -4.94399 0.7574918,-2.821375 -4.43086 0.9096519,-2.883407 -3.957309 1.029989,-9.202958 -9.241474 0.5196483,-8.550901 -8.800539 0.5214612,-8.071991 -7.930277 0.5951851,-7.79818 -7.148077 0.7481484,-7.506248 -6.605524 0.9163187,-8.444997 -6.33386 0.3254879,-8.276201 -5.242185 0.4070495,-8.162187 -4.606859 0.5339746,-8.064982 -4.05491 0.6253673,-8.748573 -6.145042 0.5033977,-8.616294 -4.838544 0.5190886,-8.502605 -4.04207 0.6884744,-8.40909 -3.354685 0.8125651,-9.053352 -6.206465 0.7195411,-8.98665 -4.970623 0.7748182,-8.898284 -4.220441 0.9484254,-8.794829 -3.577078 1.082043,-9.376161 -6.476805 0.9329395,-9.418476 -5.519815 1.063172,-9.402736 -4.912295 1.203044,-9.348501 -4.339401 1.292602,2.010,
-2.590552 -8.337502 0.2823101,-3.206855 -8.076984 0.5355499,-3.742972 -7.470836 0.6296129,-4.069958 -6.791685 0.7525037,-4.328979 -6.225286 0.8959733,-3.561001 -5.989774 0.2656824,-3.858258 -5.040445 0.3392256,-4.012531 -4.464559 0.3940572,-4.11886 -3.944023 0.4540225,-3.265795 -5.727869 0.2788299,-3.519993 -4.629468 0.3148202,-3.665906 -3.967035 0.4109241,-3.754934 -3.398501 0.4804976,-2.96154 -5.658197 0.3627208,-3.12414 -4.613709 0.4287446,-3.248039 -3.971229 0.5679371,-3.345995 -3.420309 0.693741,-2.622365 -5.765758 0.4861066,-2.689027 -4.933811 0.5869765,-2.760159 -4.435897 0.7202407,-2.827149 -3.990393 0.831372,-9.20105 -9.194613 0.3563724,-8.547691 -8.774832 0.4177266,-8.065444 -7.935935 0.5122847,-7.797101 -7.16471 0.681537,-7.522559 -6.615277 0.8541648,-8.457465 -6.327289 0.2228771,-8.299546 -5.218997 0.3158441,-8.184444 -4.575564 0.4486886,-8.082879 -4.01139 0.5447387,-8.76811 -6.142246 0.3750387,-8.646595 -4.829277 0.4138178,-8.536403 -4.032073 0.5959021,-8.44174 -3.347341 0.7292912,-9.073908 -6.206063 0.5716567,-9.005475 -4.966667 0.6417011,-8.917385 -4.212423 0.8289369,-8.810205 -3.569901 0.9732056,-9.395263 -6.477123 0.7684461,-9.437759 -5.517496 0.9070294,-9.42592 -4.911808 1.061582,-9.372997 -4.349752 1.165499,2.110,
-2.352381 -8.341585 0.2321747,-2.946421 -8.069399 0.4956366,-3.446869 -7.515254 0.5827448,-3.753952 -6.831717 0.6795098,-4.001893 -6.288841 0.7853609,-3.262579 -5.99385 0.2352247,-3.558303 -5.069993 0.2816826,-3.697441 -4.506923 0.349892,-3.783146 -4.002048 0.4344856,-2.982099 -5.735465 0.2079427,-3.219918 -4.642226 0.2452255,-3.336281 -3.997543 0.36329,-3.394231 -3.413321 0.4664723,-2.688958 -5.671066 0.2376386,-2.848281 -4.648014 0.2951542,-2.945403 -4.0418 0.4388296,-3.003397 -3.510175 0.5586213,-2.357723 -5.768487 0.3043568,-2.395486 -4.975315 0.3954596,-2.43792 -4.49175 0.5209346,-2.466968 -4.043906 0.6230364,-9.229591 -9.267498 0.1954612,-8.589933 -8.849302 0.2571353,-8.11469 -8.010832 0.3673416,-7.835773 -7.266148 0.5549162,-7.548465 -6.737304 0.7510094,-8.510803 -6.433811 0.1703014,-8.340296 -5.311492 0.3036655,-8.227874 -4.645765 0.4619579,-8.137915 -4.051576 0.5782309,-8.827838 -6.260569 0.338349,-8.706204 -4.952018 0.4312588,-8.600051 -4.130205 0.6535683,-8.518589 -3.411602 0.8002455,-9.14624 -6.332857 0.5377476,-9.07785 -5.103299 0.6461513,-8.985074 -4.326438 0.8529094,-8.881252 -3.662309 1.012805,-9.474182 -6.606328 0.7352057,-9.523704 -5.636501 0.9097592,-9.502892 -5.012556 1.08786,-9.443792 -4.432937 1.20095,2.210,
-2.298449 -8.319544 0.08529309,-2.881407 -8.040676 0.4231781,-3.379818 -7.520348 0.5685965,-3.703072 -6.900144 0.7079424,-3.942101 -6.362231 0.8523403,-3.21179 -5.997816 0.1734997,-3.494977 -5.058531 0.2422073,-3.619577 -4.480912 0.3129576,-3.688385 -3.979093 0.3954718,-2.931177 -5.757297 0.1032972,-3.158173 -4.656671 0.1335208,-3.25585 -4.023494 0.2175789,-3.293461 -3.454828 0.2974198,-2.645317 -5.690237 0.09452967,-2.80437 -4.666032 0.1258051,-2.897291 -4.062247 0.2253562,-2.952432 -3.532396 0.3136015,-2.329703 -5.785406 0.1357986,-2.374969 -4.977136 0.1744979,-2.409968 -4.495937 0.2575772,-2.425657 -4.050437 0.3254459,-9.269623 -9.293247 0.08095167,-8.630433 -8.891317 0.1572139,-8.147429 -8.057457 0.2697583,-7.864997 -7.317524 0.45731,-7.569431 -6.788848 0.6540123,-8.550848 -6.500608 0.07914977,-8.371716 -5.380355 0.2262872,-8.251214 -4.72207 0.3946854,-8.154461 -4.133024 0.5135854,-8.871367 -6.319814 0.2414921,-8.745975 -5.002244 0.3512023,-8.635622 -4.182369 0.576659,-8.548813 -3.460649 0.7223477,-9.192653 -6.383436 0.4372916,-9.120371 -5.145465 0.56016,-9.021136 -4.373579 0.7657268,-8.909426 -3.714548 0.9218268,-9.52326 -6.642969 0.6317379,-9.568997 -5.666936 0.815155,-9.549506 -5.047217 0.996467,-9.492795 -4.466602 1.107132,2.310,
-2.239943 -8.258579 -0.2730587,-2.772426 -7.995655 0.0925315,-3.236467 -7.520216 0.2431351,-3.529201 -6.931661 0.3764325,-3.7428 -6.430524 0.5091314,-3.127148 -6.033154 -0.1523108,-3.402622 -5.126327 -0.05941452,-3.491669 -4.55064 0.04461014,-3.516077 -4.05038 0.1449374,-2.874979 -5.802729 -0.2375673,-3.097425 -4.740251 -0.1650913,-3.164349 -4.138863 -0.03298885,-3.160975 -3.577461 0.0853664,-2.614365 -5.733557 -0.2629168,-2.773352 -4.750092 -0.2013168,-2.837104 -4.195897 -0.07389036,-2.860365 -3.689905 0.03512004,-2.320259 -5.82773 -0.2370999,-2.355809 -5.070459 -0.1769492,-2.371614 -4.630233 -0.09144515,-2.368043 -4.206901 -0.01997542,-9.34262 -9.311234 0.1772146,-8.710661 -8.891672 0.2321637,-8.242068 -8.011198 0.3161851,-7.966205 -7.26551 0.470388,-7.654906 -6.777832 0.6376564,-8.669693 -6.481283 0.1553228,-8.491464 -5.385041 0.3077607,-8.36622 -4.742162 0.4842069,-8.266991 -4.158927 0.6112152,-8.988336 -6.304316 0.3339807,-8.859688 -4.99834 0.457652,-8.745928 -4.197541 0.6952851,-8.654057 -3.482692 0.8575501,-9.307096 -6.377922 0.5454754,-9.233311 -5.148271 0.6928415,-9.134517 -4.391046 0.9077251,-9.025519 -3.730774 1.073842,-9.637007 -6.653125 0.7532158,-9.686371 -5.691912 0.95171,-9.67834 -5.077655 1.131338,-9.6361 -4.480436 1.250861,2.410,
-2.220562 -8.203407 -0.3403969,-2.722143 -7.944557 0.03039566,-3.165643 -7.47467 0.1673817,-3.442888 -6.884544 0.291147,-3.622532 -6.400737 0.4107613,-3.063636 -5.983922 -0.2293173,-3.330916 -5.078169 -0.1590081,-3.412237 -4.494153 -0.05733427,-3.426184 -4.00114 0.04372767,-2.823322 -5.758953 -0.3368782,-3.03876 -4.70036 -0.3062209,-3.089174 -4.09593 -0.201737,-3.073691 -3.549454 -0.1035711,-2.573366 -5.688528 -0.3902939,-2.71648 -4.731428 -0.3710188,-2.751345 -4.190282 -0.2685377,-2.753425 -3.70991 -0.1769073,-2.291812 -5.78193 -0.3861948,-2.322583 -5.05209 -0.3649413,-2.31808 -4.625446 -0.308,-2.298098 -4.214529 -0.2609302,-9.363016 -9.283745 0.1655506,-8.735833 -8.851749 0.2129046,-8.272518 -7.97327 0.2921949,-7.992321 -7.23525 0.4408813,-7.676015 -6.749519 0.6036515,-8.696181 -6.451132 0.132145,-8.499485 -5.370111 0.2818256,-8.355262 -4.748376 0.4645981,-8.240417 -4.188653 0.5968251,-9.011513 -6.279941 0.3243237,-8.88225 -4.969295 0.4485698,-8.762788 -4.17036 0.6894001,-8.664227 -3.468479 0.8546035,-9.326903 -6.361127 0.5513715,-9.2522 -5.126464 0.6988449,-9.147357 -4.358007 0.924162,-9.029996 -3.692428 1.100321,-9.655197 -6.645081 0.7752314,-9.711238 -5.694718 0.9873126,-9.705709 -5.074827 1.178583,-9.664956 -4.467662 1.306113,2.510,
-2.153774 -8.168179 -0.2169797,-2.612989 -7.914095 0.2667562,-2.997868 -7.447114 0.484528,-3.211493 -6.852096 0.6770094,-3.310715 -6.388158 0.8632547,-2.906099 -5.907217 0.08892018,-3.145475 -4.999549 0.2406567,-3.187892 -4.441055 0.4160117,-3.167214 -3.930646 0.5584433,-2.669267 -5.674327 -0.03602143,-2.832965 -4.649029 0.09347937,-2.831852 -4.079697 0.2570948,-2.764861 -3.530885 0.3906866,-2.432785 -5.624956 -0.1047024,-2.542235 -4.67209 -0.001661524,-2.539297 -4.137907 0.1738923,-2.507036 -3.656209 0.3060904,-2.160456 -5.7371 -0.1122814,-2.170137 -5.022983 -0.01305079,-2.142623 -4.578649 0.07259291,-2.097872 -4.143337 0.1478724,-9.399605 -9.246712 0.1975976,-8.772896 -8.814445 0.2501202,-8.304672 -7.939177 0.3300889,-8.029754 -7.209806 0.479905,-7.71198 -6.737944 0.6428428,-8.7177 -6.415773 0.1475248,-8.511722 -5.363078 0.2912764,-8.362197 -4.761919 0.4675788,-8.244829 -4.216959 0.5972823,-9.028537 -6.235507 0.3459933,-8.885771 -4.956878 0.4678403,-8.760945 -4.17881 0.7050651,-8.656218 -3.49091 0.8724601,-9.341403 -6.299396 0.5822213,-9.249193 -5.085512 0.7297705,-9.14081 -4.330924 0.9571493,-9.01887 -3.676677 1.135053,-9.671534 -6.565305 0.8158126,-9.72162 -5.631958 1.024143,-9.712813 -5.031048 1.202993,-9.668467 -4.443145 1.329563,2.610,
-1.983084 -8.037205 -0.2827562,-2.417525 -7.800277 0.294694,-2.753956 -7.340139 0.5656722,-2.922422 -6.737501 0.7932571,-3.007645 -6.28162 1.020379,-2.672974 -5.785352 0.1171683,-2.881572 -4.922344 0.2887831,-2.894256 -4.384584 0.4784465,-2.843771 -3.917165 0.6239694,-2.428718 -5.552688 -0.05709796,-2.566473 -4.543288 0.07830715,-2.542242 -3.961604 0.2477807,-2.462542 -3.430095 0.3847475,-2.194555 -5.512881 -0.1638775,-2.266225 -4.559038 -0.06899874,-2.241339 -4.042535 0.09737682,-2.187354 -3.578271 0.233336,-1.928328 -5.666182 -0.2000755,-1.90032 -4.959105 -0.1203902,-1.850893 -4.518978 -0.02446422,-1.779299 -4.10083 0.05988935,-9.424571 -9.239475 0.1543915,-8.794494 -8.817007 0.2003345,-8.329657 -7.934015 0.2626681,-8.053102 -7.194641 0.3898902,-7.734388 -6.734323 0.5284947,-8.737444 -6.432106 0.08394103,-8.519931 -5.401344 0.2251405,-8.365962 -4.810788 0.4012843,-8.244802 -4.274505 0.5288308,-9.050701 -6.239723 0.2730214,-8.902617 -4.965133 0.3803156,-8.772851 -4.190069 0.6112407,-8.665717 -3.511353 0.7733317,-9.364364 -6.298552 0.500272,-9.270235 -5.082716 0.6396371,-9.15877 -4.337596 0.8609269,-9.035525 -3.688061 1.031434,-9.693249 -6.560659 0.724308,-9.738517 -5.632137 0.933034,-9.725642 -5.030315 1.1131,-9.677134 -4.441214 1.235882,2.710,
-1.892311 -7.932262 -0.1827824,-2.326324 -7.686279 0.3617736,-2.616561 -7.197684 0.6208246,-2.70811 -6.543235 0.8232468,-2.688929 -6.043242 1.008926,-2.520648 -5.641027 0.228991,-2.659923 -4.747854 0.3873648,-2.616475 -4.220451 0.5796049,-2.494259 -3.785686 0.7258039,-2.256037 -5.405796 0.04699634,-2.32779 -4.382389 0.1958754,-2.250378 -3.827595 0.3696261,-2.10015 -3.358147 0.5095845,-2.011927 -5.383628 -0.079176,-2.045615 -4.439546 0.01574096,-1.988588 -3.910553 0.18413,-1.893553 -3.485675 0.3163498,-1.749437 -5.549436 -0.1442456,-1.720953 -4.856037 -0.06018172,-1.637421 -4.415935 0.03103106,-1.525552 -4.042189 0.1199592,-9.454241 -9.193275 0.1366157,-8.822796 -8.75511 0.1694075,-8.361376 -7.866901 0.2248332,-8.083583 -7.129191 0.3454151,-7.757505 -6.683307 0.4717573,-8.761936 -6.381181 0.08600528,-8.569441 -5.337413 0.224932,-8.425508 -4.739173 0.3993892,-8.311121 -4.193161 0.5279594,-9.07748 -6.199835 0.2748131,-8.946697 -4.938811 0.3772422,-8.821568 -4.174449 0.603983,-8.716422 -3.504347 0.7671676,-9.394535 -6.269042 0.4991499,-9.322446 -5.076055 0.6370901,-9.215053 -4.345729 0.8571285,-9.095482 -3.707451 1.023196,-9.723949 -6.540417 0.716206,-9.780826 -5.626359 0.9175435,-9.776001 -5.033699 1.087371,-9.736723 -4.442279 1.201212,2.810,
-1.773321 -7.811405 -0.4445808,-2.17186 -7.654979 0.4382488,-2.442249 -7.170503 0.8538965,-2.488843 -6.543176 1.158581,-2.437247 -5.934394 1.453313,-2.397326 -5.562175 0.2912403,-2.467108 -4.584636 0.5842627,-2.347345 -4.008972 0.9251837,-2.139718 -3.679123 1.17352,-2.100497 -5.378803 -0.03703332,-2.136258 -4.3214 0.2122549,-1.982481 -3.741099 0.515806,-1.750021 -3.348173 0.7604523,-1.845308 -5.35978 -0.2744007,-1.852617 -4.420744 -0.09434831,-1.712939 -3.899946 0.179026,-1.537015 -3.550784 0.3915308,-1.581581 -5.484081 -0.4327941,-1.525162 -4.815409 -0.2732691,-1.389103 -4.401349 -0.1030063,-1.238252 -4.053478 0.05399799,-9.47284 -9.207359 0.151632,-8.844418 -8.777578 0.2376399,-8.380281 -7.902462 0.328912,-8.107283 -7.159352 0.479332,-7.784582 -6.684876 0.6310239,-8.778561 -6.394724 0.1539522,-8.599821 -5.343259 0.2972227,-8.471775 -4.722221 0.4658544,-8.37149 -4.160383 0.5871291,-9.099656 -6.21025 0.3122482,-8.98637 -4.949181 0.4171227,-8.873374 -4.168684 0.6452249,-8.779353 -3.491436 0.80883,-9.422343 -6.277389 0.5065981,-9.361731 -5.080967 0.6319128,-9.266644 -4.342733 0.8363584,-9.158345 -3.704417 0.9937293,-9.757698 -6.544767 0.6997318,-9.81452 -5.622062 0.8883498,-9.812977 -5.022615 1.053179,-9.778222 -4.443237 1.163238,2.910,
-1.554006 -7.77615 -1.16924,-1.875343 -7.700355 -0.2622808,-2.117207 -7.309899 0.2019079,-2.149179 -6.755806 0.5248315,-2.024432 -6.211639 0.8269155,-2.038259 -5.747579 -0.2119445,-2.02422 -4.781421 0.1409129,-1.842535 -4.257806 0.5638206,-1.574081 -4.055101 0.8885486,-1.75871 -5.590493 -0.5493508,-1.724113 -4.552078 -0.2221195,-1.503331 -4.034929 0.16547,-1.213116 -3.781703 0.4806769,-1.520089 -5.57433 -0.8070953,-1.472355 -4.659543 -0.5628211,-1.268642 -4.192466 -0.2283816,-1.027042 -3.954875 0.0509187,-1.293312 -5.671604 -0.9980978,-1.210649 -5.030563 -0.7949243,-1.039968 -4.642372 -0.5625273,-0.8490267 -4.348093 -0.3471365,-9.516182 -9.290051 0.1001993,-8.881872 -8.873089 0.1854252,-8.40447 -7.98719 0.2760248,-8.126814 -7.246473 0.4314006,-7.803536 -6.772846 0.5937919,-8.805447 -6.486162 0.08328219,-8.635129 -5.414309 0.2329959,-8.51088 -4.773028 0.4046314,-8.412891 -4.19086 0.5303351,-9.124999 -6.309387 0.2477793,-9.008772 -5.050376 0.3620409,-8.893765 -4.262373 0.5931598,-8.797619 -3.577597 0.7576177,-9.446444 -6.374031 0.450426,-9.381689 -5.177494 0.5840724,-9.285322 -4.435106 0.7890245,-9.175906 -3.795786 0.9434631,-9.783918 -6.634498 0.6538731,-9.841626 -5.702896 0.8428328,-9.839256 -5.108297 1.001451,-9.802195 -4.536935 1.108831,3.010,
-1.47274 -7.775985 -1.306616,-1.775135 -7.73493 -0.3601017,-1.994299 -7.35815 0.1300265,-2.00827 -6.808656 0.4702159,-1.881387 -6.251916 0.7965574,-1.932878 -5.843558 -0.2027344,-1.897495 -4.883018 0.1855731,-1.698264 -4.349634 0.6223595,-1.410315 -4.092396 0.9492199,-1.665682 -5.677062 -0.5431688,-1.610931 -4.657098 -0.1768918,-1.371495 -4.154115 0.2100649,-1.064436 -3.906629 0.5077497,-1.433687 -5.653484 -0.8061526,-1.376434 -4.744781 -0.5293975,-1.161222 -4.306104 -0.1949737,-0.8971863 -4.089714 0.08309054,-1.208395 -5.752183 -1.001006,-1.125974 -5.095748 -0.7882895,-0.9481492 -4.724817 -0.5499967,-0.7401142 -4.453271 -0.3343815,-9.515432 -9.286739 0.09638066,-8.874674 -8.86409 0.1661152,-8.401286 -7.982042 0.2547455,-8.121442 -7.242809 0.4067223,-7.79912 -6.764395 0.5716393,-8.820262 -6.479862 0.03718747,-8.642012 -5.413873 0.1919831,-8.510333 -4.787031 0.3723999,-8.407732 -4.223992 0.4973321,-9.136939 -6.304267 0.2154103,-9.017088 -5.044887 0.332533,-8.903941 -4.265306 0.5684494,-8.807804 -3.580699 0.7346777,-9.456658 -6.376159 0.4311696,-9.388435 -5.174795 0.5682155,-9.297289 -4.435811 0.772173,-9.190166 -3.78805 0.9313535,-9.792992 -6.648977 0.6503887,-9.85141 -5.721399 0.834873,-9.851923 -5.11745 0.9994341,-9.81667 -4.5241 1.117215,3.110,
-1.47274 -7.775985 -1.306616,-1.775135 -7.73493 -0.3601017,-1.994299 -7.35815 0.1300265,-2.00827 -6.808656 0.4702159,-1.881387 -6.251916 0.7965574,-1.932878 -5.843558 -0.2027344,-1.897495 -4.883018 0.1855731,-1.698264 -4.349634 0.6223595,-1.410315 -4.092396 0.9492199,-1.665682 -5.677062 -0.5431688,-1.610931 -4.657098 -0.1768918,-1.371495 -4.154115 0.2100649,-1.064436 -3.906629 0.5077497,-1.433687 -5.653484 -0.8061526,-1.376434 -4.744781 -0.5293975,-1.161222 -4.306104 -0.1949737,-0.8971863 -4.089714 0.08309054,-1.208395 -5.752183 -1.001006,-1.125974 -5.095748 -0.7882895,-0.9481492 -4.724817 -0.5499967,-0.7401142 -4.453271 -0.3343815,-9.540583 -9.310047 0.1074137,-8.901617 -8.885319 0.1876807,-8.425329 -7.996149 0.2773787,-8.143448 -7.258841 0.4295149,-7.821848 -6.784643 0.5927478,-8.840386 -6.497821 0.06762026,-8.669641 -5.4157 0.2189355,-8.546037 -4.770502 0.3923843,-8.44824 -4.18935 0.5185614,-9.159397 -6.325202 0.2377287,-9.039177 -5.075286 0.3523608,-8.930189 -4.293184 0.5825005,-8.839639 -3.601047 0.7446965,-9.479949 -6.395482 0.4458544,-9.40913 -5.19882 0.5860687,-9.319863 -4.454042 0.7880194,-9.217791 -3.804679 0.942683,-9.816302 -6.662735 0.6567532,-9.871159 -5.737557 0.8398105,-9.872158 -5.137558 0.9984801,-9.841051 -4.55018 1.109151,3.210,
-1.47274 -7.775985 -1.306616,-1.775135 -7.73493 -0.3601017,-1.994299 -7.35815 0.1300265,-2.00827 -6.808656 0.4702159,-1.881387 -6.251916 0.7965574,-1.932878 -5.843558 -0.2027344,-1.897495 -4.883018 0.1855731,-1.698264 -4.349634 0.6223595,-1.410315 -4.092396 0.9492199,-1.665682 -5.677062 -0.5431688,-1.610931 -4.657098 -0.1768918,-1.371495 -4.154115 0.2100649,-1.064436 -3.906629 0.5077497,-1.433687 -5.653484 -0.8061526,-1.376434 -4.744781 -0.5293975,-1.161222 -4.306104 -0.1949737,-0.8971863 -4.089714 0.08309054,-1.208395 -5.752183 -1.001006,-1.125974 -5.095748 -0.7882895,-0.9481492 -4.724817 -0.5499967,-0.7401142 -4.453271 -0.3343815,-9.54314 -9.287216 0.05515598,-8.889172 -8.882738 0.1275353,-8.405751 -7.997472 0.2147177,-8.120806 -7.256605 0.3623652,-7.80108 -6.784215 0.5206463,-8.830296 -6.487933 0.007098131,-8.655675 -5.400297 0.1654851,-8.530549 -4.767035 0.3444823,-8.433025 -4.19638 0.4712617,-9.148912 -6.319049 0.1835369,-9.024927 -5.065003 0.3075358,-8.912815 -4.29936 0.5412937,-8.817292 -3.619742 0.7016042,-9.470479 -6.392047 0.3997229,-9.397991 -5.192766 0.5474849,-9.308333 -4.459356 0.7554058,-9.205842 -3.817661 0.9152967,-9.807874 -6.660743 0.6173818,-9.861507 -5.736532 0.7996007,-9.86482 -5.137889 0.95947,-9.837431 -4.548549 1.072431,3.310,
-1.47274 -7.775985 -1.306616,-1.775135 -7.73493 -0.3601017,-1.994299 -7.35815 0.1300265,-2.00827 -6.808656 0.4702159,-1.881387 -6.251916 0.7965574,-1.932878 -5.843558 -0.2027344,-1.897495 -4.883018 0.1855731,-1.698264 -4.349634 0.6223595,-1.410315 -4.092396 0.9492199,-1.665682 -5.677062 -0.5431688,-1.610931 -4.657098 -0.1768918,-1.371495 -4.154115 0.2100649,-1.064436 -3.906629 0.5077497,-1.433687 -5.653484 -0.8061526,-1.376434 -4.744781 -0.5293975,-1.161222 -4.306104 -0.1949737,-0.8971863 -4.089714 0.08309054,-1.208395 -5.752183 -1.001006,-1.125974 -5.095748 -0.7882895,-0.9481492 -4.724817 -0.5499967,-0.7401142 -4.453271 -0.3343815,-9.535347 -9.341532 0.1039578,-8.891223 -8.937742 0.2073737,-8.409895 -8.048927 0.311424,-8.129145 -7.299192 0.4746858,-7.806733 -6.811638 0.647609,-8.83051 -6.534235 0.07823512,-8.655175 -5.453458 0.2381855,-8.529568 -4.806839 0.4163868,-8.430817 -4.222509 0.5451431,-9.153011 -6.358126 0.2410556,-9.028677 -5.108691 0.3616871,-8.919844 -4.3364 0.5960861,-8.827129 -3.649257 0.761237,-9.475214 -6.428366 0.4466343,-9.402651 -5.231636 0.5918252,-9.315552 -4.495377 0.7999603,-9.214748 -3.846938 0.9624944,-9.813133 -6.69527 0.656245,-9.869851 -5.773945 0.8420085,-9.87557 -5.174694 1.004936,-9.848059 -4.583799 1.12247,3.410,
-1.47274 -7.775985 -1.306616,-1.775135 -7.73493 -0.3601017,-1.994299 -7.35815 0.1300265,-2.00827 -6.808656 0.4702159,-1.881387 -6.251916 0.7965574,-1.932878 -5.843558 -0.2027344,-1.897495 -4.883018 0.1855731,-1.698264 -4.349634 0.6223595,-1.410315 -4.092396 0.9492199,-1.665682 -5.677062 -0.5431688,-1.610931 -4.657098 -0.1768918,-1.371495 -4.154115 0.2100649,-1.064436 -3.906629 0.5077497,-1.433687 -5.653484 -0.8061526,-1.376434 -4.744781 -0.5293975,-1.161222 -4.306104 -0.1949737,-0.8971863 -4.089714 0.08309054,-1.208395 -5.752183 -1.001006,-1.125974 -5.095748 -0.7882895,-0.9481492 -4.724817 -0.5499967,-0.7401142 -4.453271 -0.3343815,-9.540496 -9.326115 0.01569572,-8.897511 -8.929579 0.1081608,-8.415304 -8.040237 0.1922828,-8.133403 -7.296186 0.3361266,-7.819905 -6.82357 0.484445,-8.837419 -6.539533 -0.02617705,-8.672199 -5.432392 0.1306708,-8.555941 -4.768949 0.3041791,-8.464471 -4.171321 0.4288049,-9.159433 -6.367119 0.1323241,-9.031003 -5.10658 0.255978,-8.922426 -4.325763 0.4902038,-8.832354 -3.632179 0.6519958,-9.481593 -6.432279 0.3322429,-9.401261 -5.223512 0.4795644,-9.312605 -4.481893 0.6835271,-9.214763 -3.839536 0.8356637,-9.819633 -6.691637 0.5347553,-9.871726 -5.7653 0.7207372,-9.876548 -5.161157 0.8771303,-9.85325 -4.571409 0.9841239,3.510,
-1.47274 -7.775985 -1.306616,-1.775135 -7.73493 -0.3601017,-1.994299 -7.35815 0.1300265,-2.00827 -6.808656 0.4702159,-1.881387 -6.251916 0.7965574,-1.932878 -5.843558 -0.2027344,-1.897495 -4.883018 0.1855731,-1.698264 -4.349634 0.6223595,-1.410315 -4.092396 0.9492199,-1.665682 -5.677062 -0.5431688,-1.610931 -4.657098 -0.1768918,-1.371495 -4.154115 0.2100649,-1.064436 -3.906629 0.5077497,-1.433687 -5.653484 -0.8061526,-1.376434 -4.744781 -0.5293975,-1.161222 -4.306104 -0.1949737,-0.8971863 -4.089714 0.08309054,-1.208395 -5.752183 -1.001006,-1.125974 -5.095748 -0.7882895,-0.9481492 -4.724817 -0.5499967,-0.7401142 -4.453271 -0.3343815,-9.532732 -9.346176 0.06843099,-8.892188 -8.947456 0.1643072,-8.417413 -8.043039 0.2540047,-8.139681 -7.291564 0.403413,-7.82118 -6.826505 0.5636292,-8.839856 -6.543582 0.02709251,-8.676638 -5.445016 0.1835424,-8.558371 -4.787307 0.3602219,-8.46685 -4.194057 0.4866856,-9.159107 -6.371205 0.1895217,-9.036466 -5.113941 0.3131472,-8.925757 -4.327259 0.5450364,-8.834864 -3.626932 0.704744,-9.478592 -6.440347 0.3941064,-9.406963 -5.233945 0.5426241,-9.317227 -4.486819 0.7471371,-9.220092 -3.83546 0.9051113,-9.814172 -6.708491 0.6026313,-9.8675 -5.775955 0.7893264,-9.872358 -5.167711 0.9487218,-9.850785 -4.573728 1.061083,3.610,
-1.47274 -7.775985 -1.306616,-1.775135 -7.73493 -0.3601017,-1.994299 -7.35815 0.1300265,-2.00827 -6.808656 0.4702159,-1.881387 -6.251916 0.7965574,-1.932878 -5.843558 -0.2027344,-1.897495 -4.883018 0.1855731,-1.698264 -4.349634 0.6223595,-1.410315 -4.092396 0.9492199,-1.665682 -5.677062 -0.5431688,-1.610931 -4.657098 -0.1768918,-1.371495 -4.154115 0.2100649,-1.064436 -3.906629 0.5077497,-1.433687 -5.653484 -0.8061526,-1.376434 -4.744781 -0.5293975,-1.161222 -4.306104 -0.1949737,-0.8971863 -4.089714 0.08309054,-1.208395 -5.752183 -1.001006,-1.125974 -5.095748 -0.7882895,-0.9481492 -4.724817 -0.5499967,-0.7401142 -4.453271 -0.3343815,-9.550744 -9.343607 0.04023119,-8.912538 -8.94585 0.1502264,-8.431859 -8.059912 0.2497991,-8.15479 -7.317226 0.4094721,-7.838946 -6.842744 0.5784485,-8.848477 -6.553559 0.01062583,-8.684307 -5.45479 0.1599722,-8.566123 -4.7995 0.3296374,-8.474447 -4.214756 0.4504687,-9.17064 -6.377787 0.1656969,-9.046833 -5.117748 0.2808449,-8.939207 -4.340507 0.5074407,-8.852715 -3.650044 0.666646,-9.49082 -6.440876 0.3634823,-9.41596 -5.237558 0.5028144,-9.325937 -4.498246 0.7038752,-9.227319 -3.852792 0.8604184,-9.827473 -6.701311 0.5675172,-9.884169 -5.773065 0.7449141,-9.891799 -5.177783 0.8974627,-9.870403 -4.593668 1.007211,3.710,
-1.47274 -7.775985 -1.306616,-1.775135 -7.73493 -0.3601017,-1.994299 -7.35815 0.1300265,-2.00827 -6.808656 0.4702159,-1.881387 -6.251916 0.7965574,-1.932878 -5.843558 -0.2027344,-1.897495 -4.883018 0.1855731,-1.698264 -4.349634 0.6223595,-1.410315 -4.092396 0.9492199,-1.665682 -5.677062 -0.5431688,-1.610931 -4.657098 -0.1768918,-1.371495 -4.154115 0.2100649,-1.064436 -3.906629 0.5077497,-1.433687 -5.653484 -0.8061526,-1.376434 -4.744781 -0.5293975,-1.161222 -4.306104 -0.1949737,-0.8971863 -4.089714 0.08309054,-1.208395 -5.752183 -1.001006,-1.125974 -5.095748 -0.7882895,-0.9481492 -4.724817 -0.5499967,-0.7401142 -4.453271 -0.3343815,-9.564508 -9.343901 0.07513362,-8.914152 -8.944626 0.1589278,-8.432418 -8.0536 0.2525907,-8.150661 -7.305223 0.4078566,-7.829661 -6.837072 0.5719949,-8.857355 -6.545686 0.01281665,-8.691251 -5.464337 0.1562481,-8.564859 -4.83219 0.3265422,-8.462548 -4.270751 0.4456329,-9.178008 -6.367912 0.1771161,-9.056977 -5.107554 0.2875527,-8.947062 -4.333959 0.5153455,-8.855828 -3.647357 0.6810541,-9.497972 -6.436643 0.3800655,-9.426255 -5.241205 0.5112095,-9.335052 -4.503165 0.7071846,-9.23223 -3.853909 0.8631047,-9.835516 -6.706403 0.5871235,-9.893309 -5.783965 0.7589436,-9.896832 -5.184398 0.9096365,-9.86939 -4.59467 1.023297,3.810,
-1.47274 -7.775985 -1.306616,-1.775135 -7.73493 -0.3601017,-1.994299 -7.35815 0.1300265,-2.00827 -6.808656 0.4702159,-1.881387 -6.251916 0.7965574,-1.932878 -5.843558 -0.2027344,-1.897495 -4.883018 0.1855731,-1.698264 -4.349634 0.6223595,-1.410315 -4.092396 0.9492199,-1.665682 -5.677062 -0.5431688,-1.610931 -4.657098 -0.1768918,-1.371495 -4.154115 0.2100649,-1.064436 -3.906629 0.5077497,-1.433687 -5.653484 -0.8061526,-1.376434 -4.744781 -0.5293975,-1.161222 -4.306104 -0.1949737,-0.8971863 -4.089714 0.08309054,-1.208395 -5.752183 -1.001006,-1.125974 -5.095748 -0.7882895,-0.9481492 -4.724817 -0.5499967,-0.7401142 -4.453271 -0.3343815,-9.573802 -9.346432 0.04665333,-8.932552 -8.960714 0.1484042,-8.450337 -8.077164 0.2532377,-8.172765 -7.323854 0.4198875,-7.856116 -6.837717 0.5947526,-8.859119 -6.558404 0.0279729,-8.703607 -5.462204 0.1772808,-8.590221 -4.812364 0.3446414,-8.501757 -4.234642 0.4619528,-9.18259 -6.38068 0.1829197,-9.066459 -5.117071 0.2992543,-8.960656 -4.336553 0.5264393,-8.875273 -3.643585 0.6863669,-9.505842 -6.447916 0.376832,-9.440136 -5.244785 0.5150223,-9.351803 -4.500553 0.7145563,-9.253592 -3.851224 0.8682531,-9.846279 -6.713092 0.5740057,-9.907126 -5.787242 0.7562516,-9.912457 -5.187154 0.911273,-9.885583 -4.601991 1.021691,3.910,
-1.47274 -7.775985 -1.306616,-1.775135 -7.73493 -0.3601017,-1.994299 -7.35815 0.1300265,-2.00827 -6.808656 0.4702159,-1.881387 -6.251916 0.7965574,-1.932878 -5.843558 -0.2027344,-1.897495 -4.883018 0.1855731,-1.698264 -4.349634 0.6223595,-1.410315 -4.092396 0.9492199,-1.665682 -5.677062 -0.5431688,-1.610931 -4.657098 -0.1768918,-1.371495 -4.154115 0.2100649,-1.064436 -3.906629 0.5077497,-1.433687 -5.653484 -0.8061526,-1.376434 -4.744781 -0.5293975,-1.161222 -4.306104 -0.1949737,-0.8971863 -4.089714 0.08309054,-1.208395 -5.752183 -1.001006,-1.125974 -5.095748 -0.7882895,-0.9481492 -4.724817 -0.5499967,-0.7401142 -4.453271 -0.3343815,-9.584355 -9.373314 0.06410988,-8.938947 -8.980595 0.1760193,-8.448227 -8.10087 0.2863642,-8.164433 -7.350009 0.4553839,-7.857005 -6.876571 0.6303893,-8.855772 -6.583619 0.075941,-8.707571 -5.482196 0.2389703,-8.59284 -4.837079 0.4106522,-8.501778 -4.261302 0.5292897,-9.180168 -6.405519 0.225422,-9.067598 -5.142128 0.3591316,-8.962843 -4.353559 0.5941988,-8.878304 -3.649917 0.7607989,-9.505882 -6.476444 0.4112759,-9.441566 -5.26906 0.5638562,-9.354668 -4.52377 0.7713175,-9.258451 -3.872342 0.9291604,-9.84776 -6.745759 0.6000291,-9.909422 -5.814369 0.7905722,-9.912329 -5.210687 0.9500878,-9.883479 -4.62159 1.064198,4.010,
-1.47274 -7.775985 -1.306616,-1.775135 -7.73493 -0.3601017,-1.994299 -7.35815 0.1300265,-2.00827 -6.808656 0.4702159,-1.881387 -6.251916 0.7965574,-1.932878 -5.843558 -0.2027344,-1.897495 -4.883018 0.1855731,-1.698264 -4.349634 0.6223595,-1.410315 -4.092396 0.9492199,-1.665682 -5.677062 -0.5431688,-1.610931 -4.657098 -0.1768918,-1.371495 -4.154115 0.2100649,-1.064436 -3.906629 0.5077497,-1.433687 -5.653484 -0.8061526,-1.376434 -4.744781 -0.5293975,-1.161222 -4.306104 -0.1949737,-0.8971863 -4.089714 0.08309054,-1.208395 -5.752183 -1.001006,-1.125974 -5.095748 -0.7882895,-0.9481492 -4.724817 -0.5499967,-0.7401142 -4.453271 -0.3343815,-9.580228 -9.382561 -0.0001675129,-8.934977 -8.989962 0.09999991,-8.446424 -8.111879 0.2015377,-8.163837 -7.359954 0.3598962,-7.860309 -6.898059 0.5233952,-8.865611 -6.610464 -0.007994688,-8.717714 -5.50641 0.1553095,-8.606794 -4.85359 0.3323521,-8.520861 -4.268558 0.4571656,-9.190357 -6.430231 0.1377755,-9.075076 -5.164609 0.2639517,-8.97005 -4.369273 0.4966623,-8.887541 -3.665582 0.6639717,-9.514651 -6.489297 0.3184241,-9.448238 -5.28233 0.4610249,-9.362532 -4.534973 0.6594118,-9.270193 -3.888573 0.8100398,-9.856516 -6.744524 0.5035582,-9.913321 -5.809676 0.6798385,-9.913262 -5.208426 0.8291312,-9.884333 -4.630455 0.9347768,4.110,
-1.47274 -7.775985 -1.306616,-1.775135 -7.73493 -0.3601017,-1.994299 -7.35815 0.1300265,-2.00827 -6.808656 0.4702159,-1.881387 -6.251916 0.7965574,-1.932878 -5.843558 -0.2027344,-1.897495 -4.883018 0.1855731,-1.698264 -4.349634 0.6223595,-1.410315 -4.092396 0.9492199,-1.665682 -5.677062 -0.5431688,-1.610931 -4.657098 -0.1768918,-1.371495 -4.154115 0.2100649,-1.064436 -3.906629 0.5077497,-1.433687 -5.653484 -0.8061526,-1.376434 -4.744781 -0.5293975,-1.161222 -4.306104 -0.1949737,-0.8971863 -4.089714 0.08309054,-1.208395 -5.752183 -1.001006,-1.125974 -5.095748 -0.7882895,-0.9481492 -4.724817 -0.5499967,-0.7401142 -4.453271 -0.3343815,-9.606222 -9.395784 0.02105545,-8.952789 -9.013378 0.1259455,-8.459428 -8.142677 0.2308368,-8.169218 -7.394753 0.3940124,-7.865464 -6.917345 0.565956,-8.87051 -6.624155 -0.04170959,-8.681969 -5.552052 0.1159739,-8.5333 -4.934448 0.2982793,-8.414458 -4.403759 0.4225809,-9.191971 -6.439058 0.1202353,-9.060019 -5.177768 0.2388797,-8.946087 -4.397129 0.4756456,-8.852779 -3.709107 0.6450177,-9.517028 -6.503711 0.3207869,-9.431784 -5.301899 0.4567398,-9.336109 -4.554794 0.6636788,-9.232322 -3.905101 0.8305288,-9.859363 -6.765771 0.5307446,-9.912597 -5.839983 0.6966091,-9.913487 -5.229681 0.8476618,-9.884181 -4.631034 0.9652322,4.210,
-1.47274 -7.775985 -1.306616,-1.775135 -7.73493 -0.3601017,-1.994299 -7.35815 0.1300265,-2.00827 -6.808656 0.4702159,-1.881387 -6.251916 0.7965574,-1.932878 -5.843558 -0.2027344,-1.897495 -4.883018 0.1855731,-1.698264 -4.349634 0.6223595,-1.410315 -4.092396 0.9492199,-1.665682 -5.677062 -0.5431688,-1.610931 -4.657098 -0.1768918,-1.371495 -4.154115 0.2100649,-1.064436 -3.906629 0.5077497,-1.433687 -5.653484 -0.8061526,-1.376434 -4.744781 -0.5293975,-1.161222 -4.306104 -0.1949737,-0.8971863 -4.089714 0.08309054,-1.208395 -5.752183 -1.001006,-1.125974 -5.095748 -0.7882895,-0.9481492 -4.724817 -0.5499967,-0.7401142 -4.453271 -0.3343815,-9.617278 -9.466118 0.05664779,-8.963703 -9.078501 0.1758329,-8.467629 -8.217165 0.2958541,-8.181222 -7.458318 0.4747151,-7.885291 -6.958516 0.6560411,-8.887753 -6.681675 0.02945103,-8.720875 -5.574689 0.1828238,-8.590921 -4.939421 0.3523145,-8.486757 -4.391695 0.4678934,-9.211473 -6.498699 0.1757393,-9.088987 -5.229398 0.2928571,-8.982178 -4.455426 0.5218306,-8.896538 -3.768131 0.6841203,-9.536795 -6.559544 0.3616313,-9.461126 -5.35971 0.4932386,-9.372129 -4.619913 0.6916561,-9.27404 -3.97569 0.8500243,-9.880749 -6.816583 0.5549105,-9.934149 -5.875452 0.7205703,-9.930552 -5.276227 0.8712265,-9.89443 -4.697046 0.9889939,4.310,
-1.47274 -7.775985 -1.306616,-1.775135 -7.73493 -0.3601017,-1.994299 -7.35815 0.1300265,-2.00827 -6.808656 0.4702159,-1.881387 -6.251916 0.7965574,-1.932878 -5.843558 -0.2027344,-1.897495 -4.883018 0.1855731,-1.698264 -4.349634 0.6223595,-1.410315 -4.092396 0.9492199,-1.665682 -5.677062 -0.5431688,-1.610931 -4.657098 -0.1768918,-1.371495 -4.154115 0.2100649,-1.064436 -3.906629 0.5077497,-1.433687 -5.653484 -0.8061526,-1.376434 -4.744781 -0.5293975,-1.161222 -4.306104 -0.1949737,-0.8971863 -4.089714 0.08309054,-1.208395 -5.752183 -1.001006,-1.125974 -5.095748 -0.7882895,-0.9481492 -4.724817 -0.5499967,-0.7401142 -4.453271 -0.3343815,-9.622934 -9.49095 0.052772,-8.970533 -9.101009 0.174596,-8.472445 -8.236368 0.2956373,-8.183286 -7.483158 0.4763256,-7.885375 -6.995199 0.6658825,-8.884313 -6.703309 0.05055865,-8.737988 -5.575938 0.2115444,-8.629364 -4.919435 0.3908979,-8.544292 -4.345486 0.5179276,-9.209733 -6.526802 0.197224,-9.092287 -5.262125 0.32521,-8.991068 -4.478031 0.5628244,-8.907728 -3.779023 0.7365835,-9.536587 -6.591457 0.3825698,-9.467429 -5.392315 0.5291368,-9.380534 -4.648104 0.7380217,-9.282871 -4.000189 0.901757,-9.883991 -6.85228 0.5749927,-9.941358 -5.916717 0.754161,-9.941851 -5.315126 0.9067467,-9.909206 -4.727111 1.022374,4.410,
-1.47274 -7.775985 -1.306616,-1.775135 -7.73493 -0.3601017,-1.994299 -7.35815 0.1300265,-2.00827 -6.808656 0.4702159,-1.881387 -6.251916 0.7965574,-1.932878 -5.843558 -0.2027344,-1.897495 -4.883018 0.1855731,-1.698264 -4.349634 0.6223595,-1.410315 -4.092396 0.9492199,-1.665682 -5.677062 -0.5431688,-1.610931 -4.657098 -0.1768918,-1.371495 -4.154115 0.2100649,-1.064436 -3.906629 0.5077497,-1.433687 -5.653484 -0.8061526,-1.376434 -4.744781 -0.5293975,-1.161222 -4.306104 -0.1949737,-0.8971863 -4.089714 0.08309054,-1.208395 -5.752183 -1.001006,-1.125974 -5.095748 -0.7882895,-0.9481492 -4.724817 -0.5499967,-0.7401142 -4.453271 -0.3343815,-9.609895 -9.525433 0.05791751,-8.966125 -9.140837 0.1711662,-8.471334 -8.273129 0.2842414,-8.183088 -7.524114 0.4582208,-7.882297 -7.044248 0.6447663,-8.884222 -6.7325 0.04486625,-8.737055 -5.614414 0.1976943,-8.630662 -4.957182 0.3713844,-8.546845 -4.373273 0.4956774,-9.209467 -6.557813 0.1973921,-9.09391 -5.302457 0.3144907,-8.993778 -4.52353 0.5452565,-8.912407 -3.832249 0.7081436,-9.535999 -6.624728 0.3873276,-9.469493 -5.43667 0.5317663,-9.386349 -4.695535 0.7428036,-9.291601 -4.052984 0.902923,-9.880818 -6.891349 0.5856609,-9.938885 -5.955383 0.7676165,-9.93961 -5.353781 0.9275373,-9.90596 -4.765954 1.047014,4.510,
-1.47274 -7.775985 -1.306616,-1.775135 -7.73493 -0.3601017,-1.994299 -7.35815 0.1300265,-2.00827 -6.808656 0.4702159,-1.881387 -6.251916 0.7965574,-1.932878 -5.843558 -0.2027344,-1.897495 -4.883018 0.1855731,-1.698264 -4.349634 0.6223595,-1.410315 -4.092396 0.9492199,-1.665682 -5.677062 -0.5431688,-1.610931 -4.657098 -0.1768918,-1.371495 -4.154115 0.2100649,-1.064436 -3.906629 0.5077497,-1.433687 -5.653484 -0.8061526,-1.376434 -4.744781 -0.5293975,-1.161222 -4.306104 -0.1949737,-0.8971863 -4.089714 0.08309054,-1.208395 -5.752183 -1.001006,-1.125974 -5.095748 -0.7882895,-0.9481492 -4.724817 -0.5499967,-0.7401142 -4.453271 -0.3343815,-9.614911 -9.54845 0.0001731939,-8.962714 -9.16893 0.1376351,-8.462262 -8.299393 0.2560335,-8.166657 -7.548511 0.430204,-7.865067 -7.058258 0.6096081,-8.874583 -6.774833 -0.005647602,-8.713256 -5.651914 0.1580919,-8.588302 -5.004684 0.3370336,-8.489289 -4.439418 0.4646505,-9.198831 -6.599788 0.1424724,-9.075163 -5.331086 0.275925,-8.968195 -4.551874 0.5195184,-8.878703 -3.856681 0.6966506,-9.525577 -6.667711 0.3315746,-9.44918 -5.464443 0.491736,-9.360534 -4.71644 0.7181424,-9.258782 -4.066093 0.8976489,-9.872233 -6.931879 0.5310738,-9.924957 -5.996978 0.7207755,-9.92627 -5.392957 0.8908302,-9.893502 -4.802188 1.023782,4.610,
-0.2186027 -9.350323 -0.1132887,-0.2068691 -9.025896 0.7668017,-0.352458 -8.61109 1.352169,-0.4019976 -8.123953 1.79437,-0.3397226 -7.694452 2.171076,-0.5490627 -7.088712 0.9090165,-0.1065898 -6.623544 1.473491,0.1270766 -7.277172 1.79469,0.1312165 -7.721447 1.874017,-0.3490086 -6.887805 0.6548673,0.1015186 -6.281723 1.254412,0.3283768 -7.095773 1.524763,0.2704587 -7.634073 1.607922,-0.1454754 -6.830314 0.4988146,0.2450256 -6.274181 1.029539,0.4348731 -7.072519 1.192457,0.3565989 -7.645734 1.189288,0.02180767 -6.872877 0.3890729,0.3562975 -6.60661 0.7807188,0.4818392 -7.108882 0.9434904,0.4191628 -7.510099 0.9590069,-9.611641 -9.565727 -0.04711485,-8.963881 -9.186316 0.1008601,-8.465086 -8.34078 0.2375811,-8.165756 -7.595642 0.4286586,-7.858775 -7.118914 0.6330274,-8.871422 -6.813417 -0.005718499,-8.712827 -5.704446 0.164984,-8.595477 -5.072109 0.3497134,-8.503804 -4.509988 0.4762481,-9.199142 -6.632196 0.1311002,-9.08123 -5.366216 0.2645428,-8.978089 -4.59081 0.5016862,-8.894453 -3.903004 0.6689286,-9.526089 -6.696974 0.306944,-9.456362 -5.497934 0.4610248,-9.369985 -4.755208 0.676948,-9.273069 -4.108545 0.8422695,-9.87249 -6.95613 0.4951425,-9.930903 -6.025564 0.6801299,-9.93375 -5.430868 0.8428512,-9.902776 -4.852962 0.9666646,4.710,Right Hand Closed 
-0.2186027 -9.350323 -0.1132887,-0.2068691 -9.025896 0.7668017,-0.352458 -8.61109 1.352169,-0.4019976 -8.123953 1.79437,-0.3397226 -7.694452 2.171076,-0.5490627 -7.088712 0.9090165,-0.1065898 -6.623544 1.473491,0.1270766 -7.277172 1.79469,0.1312165 -7.721447 1.874017,-0.3490086 -6.887805 0.6548673,0.1015186 -6.281723 1.254412,0.3283768 -7.095773 1.524763,0.2704587 -7.634073 1.607922,-0.1454754 -6.830314 0.4988146,0.2450256 -6.274181 1.029539,0.4348731 -7.072519 1.192457,0.3565989 -7.645734 1.189288,0.02180767 -6.872877 0.3890729,0.3562975 -6.60661 0.7807188,0.4818392 -7.108882 0.9434904,0.4191628 -7.510099 0.9590069,-9.619536 -9.579899 -0.05706514,-8.972342 -9.216314 0.1006731,-8.468475 -8.360811 0.2380904,-8.164993 -7.611875 0.4280082,-7.857366 -7.127774 0.6332758,-8.879375 -6.832889 -0.01110977,-8.707777 -5.722158 0.1652571,-8.581306 -5.080628 0.3484837,-8.48179 -4.510889 0.4707497,-9.208497 -6.649148 0.1228798,-9.081241 -5.379642 0.2614509,-8.973419 -4.60312 0.5004027,-8.882811 -3.919637 0.6645298,-9.536035 -6.710853 0.2965685,-9.461016 -5.512867 0.4590867,-9.373235 -4.773045 0.6763839,-9.270887 -4.130027 0.8428039,-9.879597 -6.969097 0.482428,-9.938358 -6.039789 0.6723349,-9.942934 -5.443929 0.839323,-9.909822 -4.862533 0.9649523,4.810,Right Hand Closed 
-0.3344965 -9.753363 1.376374,-0.3347015 -9.23312 1.820245,-0.3775578 -8.915987 2.376193,-0.399765 -8.762114 2.900129,-0.3379617 -8.75034 3.416964,-0.1459312 -7.429208 2.896917,-0.02965736 -6.900974 3.419584,0.02202463 -7.340381 3.597942,0.01030922 -7.651777 3.656204,-0.0470829 -7.199966 2.941254,0.1421733 -6.641582 3.270895,0.1847701 -7.166513 3.148096,0.09146881 -7.511509 3.219966,-0.01093578 -7.1575 2.956466,0.1960826 -6.615555 3.152232,0.2210813 -7.100458 2.85259,0.1319227 -7.440187 2.706142,-0.01760292 -7.270861 2.984322,0.1895037 -6.881206 3.08608,0.1890488 -7.24721 2.922619,0.1181087 -7.521173 2.870505,-9.612408 -9.585388 -0.1011445,-8.971076 -9.21944 0.07514277,-8.473055 -8.380276 0.2369649,-8.167798 -7.632383 0.4512284,-7.85815 -7.12021 0.6827498,-8.887692 -6.843462 -0.03653936,-8.723722 -5.720756 0.148949,-8.604775 -5.062011 0.3366175,-8.509846 -4.478926 0.4620601,-9.21772 -6.666109 0.09422754,-9.093898 -5.388699 0.2488885,-8.988088 -4.606945 0.4909337,-8.898091 -3.917015 0.6540486,-9.545659 -6.732567 0.2683098,-9.475629 -5.522035 0.4351508,-9.38505 -4.781776 0.6488203,-9.278396 -4.136522 0.8123839,-9.889454 -6.993539 0.4552813,-9.94927 -6.053213 0.6562946,-9.946662 -5.452508 0.8268462,-9.906263 -4.870191 0.9516753,4.910,Right Hand Closed 
-0.3344965 -9.753363 1.376374,-0.3347015 -9.23312 1.820245,-0.3775578 -8.915987 2.376193,-0.399765 -8.762114 2.900129,-0.3379617 -8.75034 3.416964,-0.1459312 -7.429208 2.896917,-0.02965736 -6.900974 3.419584,0.02202463 -7.340381 3.597942,0.01030922 -7.651777 3.656204,-0.0470829 -7.199966 2.941254,0.1421733 -6.641582 3.270895,0.1847701 -7.166513 3.148096,0.09146881 -7.511509 3.219966,-0.01093578 -7.1575 2.956466,0.1960826 -6.615555 3.152232,0.2210813 -7.100458 2.85259,0.1319227 -7.440187 2.706142,-0.01760292 -7.270861 2.984322,0.1895037 -6.881206 3.08608,0.1890488 -7.24721 2.922619,0.1181087 -7.521173 2.870505,-9.617437 -9.595139 -0.08473337,-8.970428 -9.240263 0.08403383,-8.472145 -8.391092 0.2284142,-8.172907 -7.637197 0.4235873,-7.865958 -7.14076 0.63038,-8.886464 -6.846027 -0.02112494,-8.73154 -5.71739 0.1484824,-8.614746 -5.049274 0.3273712,-8.523019 -4.456642 0.4487373,-9.219785 -6.670938 0.1017367,-9.103981 -5.394447 0.2415536,-9.000871 -4.60942 0.4756091,-8.915445 -3.917448 0.6368331,-9.549025 -6.738012 0.2642743,-9.481722 -5.525321 0.4177037,-9.394837 -4.784534 0.626758,-9.295401 -4.141355 0.7857966,-9.893815 -7.000242 0.4388173,-9.955436 -6.064605 0.6224374,-9.957452 -5.462696 0.7837209,-9.924693 -4.875116 0.9034923,5.010,Right Hand Closed 
-0.3271189 -9.840813 1.459589,-0.2944899 -9.393112 2.139768,-0.3260002 -9.068832 2.773166,-0.334456 -8.832706 3.308877,-0.2862701 -8.738405 3.800634,-0.09356594 -7.560463 3.133445,-0.07313633 -6.846359 3.680562,-0.01170301 -7.309 3.863131,0.01785374 -7.664891 3.90476,-0.01664925 -7.272401 3.041312,0.05551195 -6.510587 3.445332,0.1172981 -7.094792 3.36569,0.06500196 -7.493536 3.419321,-0.001331806 -7.184779 2.932692,0.08392143 -6.462817 3.189463,0.1400967 -7.013286 2.925226,0.09940338 -7.414966 2.768134,-0.02559757 -7.260061 2.84453,0.09736538 -6.763581 2.967714,0.1263399 -7.166151 2.821094,0.1010604 -7.497694 2.759657,-9.637956 -9.596577 -0.05180311,-8.985997 -9.234325 0.1036694,-8.484979 -8.38475 0.2432801,-8.18563 -7.634479 0.4357621,-7.873415 -7.160514 0.643976,-8.890349 -6.840288 0.01939052,-8.746646 -5.702457 0.1911914,-8.648422 -5.032466 0.3737747,-8.574303 -4.436946 0.4984111,-9.220968 -6.666726 0.152281,-9.109101 -5.393159 0.2935902,-9.013925 -4.613411 0.5273203,-8.936029 -3.924163 0.6921368,-9.551097 -6.731483 0.3211159,-9.491348 -5.532941 0.4841791,-9.413084 -4.795572 0.6975982,-9.322447 -4.148756 0.8556945,-9.899035 -6.996112 0.5014046,-9.96319 -6.067213 0.6919932,-9.971951 -5.469289 0.8499641,-9.947263 -4.880152 0.9655491,5.110,Right Hand Closed 
-0.2761488 -9.462746 2.127354,-0.3482771 -9.219862 3.292126,-0.4750862 -8.951092 4.08168,-0.5221338 -8.698933 4.660663,-0.4607124 -8.589815 5.182219,-0.2564225 -7.296148 4.395281,-0.02823257 -7.136374 5.030678,-0.02041721 -7.615388 5.158035,-0.09040117 -7.821353 5.151325,-0.06534863 -6.883663 4.048819,0.2077198 -6.81702 4.570163,0.2194242 -7.358705 4.489294,0.08855677 -7.564622 4.515909,0.08035851 -6.686252 3.705772,0.3169088 -6.512146 4.090631,0.3085504 -6.975941 3.892461,0.1844144 -7.23159 3.751979,0.1666322 -6.674631 3.444097,0.4016309 -6.530427 3.696802,0.3999014 -6.91113 3.741663,0.3163829 -7.170555 3.75872,-9.638505 -9.616798 -0.03931367,-8.992599 -9.256424 0.1565198,-8.489604 -8.404896 0.3198628,-8.192395 -7.650087 0.5313218,-7.886246 -7.153375 0.7507994,-8.902832 -6.857282 0.07196603,-8.752221 -5.718431 0.2623455,-8.64424 -5.041959 0.4482334,-8.560566 -4.438331 0.5745328,-9.238111 -6.682979 0.1913706,-9.119518 -5.4056 0.3524751,-9.018681 -4.629611 0.5916286,-8.934069 -3.931424 0.7580699,-9.569553 -6.749126 0.3500699,-9.50178 -5.534704 0.5252715,-9.419756 -4.797061 0.7434824,-9.324115 -4.143258 0.9092552,-9.916655 -7.015539 0.5215656,-9.979849 -6.083071 0.718753,-9.987597 -5.482396 0.8848965,-9.960509 -4.886066 1.012806,5.210,Right Hand Closed 
-0.2951574 -9.377863 1.280281,-0.4178963 -8.896494 2.041652,-0.5165977 -8.530838 2.647018,-0.5337276 -8.310926 3.142179,-0.4415703 -8.275055 3.606471,-0.2923536 -7.075658 2.971966,-0.1324644 -6.75116 3.522038,-0.08912945 -7.209936 3.699467,-0.08968592 -7.493207 3.722879,-0.07607269 -6.841182 2.830654,0.1210985 -6.610488 3.26845,0.1390181 -7.112508 3.246577,0.04842806 -7.368883 3.340153,0.0813446 -6.773202 2.687313,0.2648358 -6.493173 3.009058,0.2475567 -6.935785 2.837158,0.1521711 -7.232573 2.742607,0.1813116 -6.869495 2.590045,0.3949041 -6.665361 2.756409,0.3688564 -7.003728 2.739335,0.2813139 -7.246444 2.763533,-9.6451 -9.610292 -0.06936411,-8.995937 -9.252388 0.106571,-8.49073 -8.408272 0.2610536,-8.190166 -7.651849 0.4672763,-7.886606 -7.143816 0.6829864,-8.902315 -6.861619 0.0138204,-8.748644 -5.71767 0.2026876,-8.638943 -5.04055 0.39196,-8.55197 -4.442289 0.5189847,-9.236579 -6.684731 0.1404294,-9.114063 -5.405395 0.300222,-9.01239 -4.623987 0.541333,-8.926232 -3.929867 0.7096975,-9.569332 -6.749019 0.3073044,-9.495814 -5.53811 0.4769046,-9.410082 -4.799879 0.6900738,-9.307745 -4.154903 0.8522683,-9.919309 -7.010453 0.4850112,-9.975068 -6.07295 0.6807715,-9.976735 -5.473411 0.8423274,-9.941816 -4.884538 0.9634243,5.310,Right Hand Closed 
-0.3626308 -9.596596 1.287038,-0.3545952 -8.936459 1.915608,-0.3929663 -8.489191 2.436651,-0.3885651 -8.117086 2.880743,-0.3061628 -7.917386 3.250912,-0.2939014 -7.051803 2.575903,-0.04791307 -6.43938 3.127876,0.01596498 -6.893984 3.342116,-0.01354742 -7.24755 3.371697,-0.1643991 -6.875232 2.492082,0.1354322 -6.288493 2.919935,0.1779833 -6.845069 2.985672,0.0670867 -7.222681 3.0983,-0.08902407 -6.861969 2.415586,0.1678715 -6.321321 2.762808,0.2023401 -6.840862 2.662152,0.1100869 -7.24712 2.575033,-0.06780863 -7.0228 2.373889,0.1870584 -6.654603 2.562479,0.2195988 -7.021641 2.575281,0.1539221 -7.337238 2.598175,-9.654327 -9.646385 -0.02116897,-9.003974 -9.281445 0.1546745,-8.504581 -8.424622 0.3031681,-8.208646 -7.666757 0.5058511,-7.898927 -7.17462 0.7201157,-8.911101 -6.877946 0.06620558,-8.772115 -5.731975 0.248039,-8.671707 -5.044363 0.4306993,-8.594435 -4.435235 0.5555065,-9.240589 -6.707977 0.1936446,-9.126897 -5.440488 0.346244,-9.028364 -4.662046 0.5800877,-8.944463 -3.968025 0.7411026,-9.569491 -6.771589 0.3605651,-9.509216 -5.570238 0.5311619,-9.430322 -4.830623 0.7453032,-9.337316 -4.180803 0.9029791,-9.917868 -7.035036 0.5376965,-9.97932 -6.094694 0.736048,-9.985158 -5.488954 0.8962868,-9.956011 -4.893126 1.01385,5.410,Right Hand Closed 
-0.3626308 -9.596596 1.287038,-0.3545952 -8.936459 1.915608,-0.3929663 -8.489191 2.436651,-0.3885651 -8.117086 2.880743,-0.3061628 -7.917386 3.250912,-0.2939014 -7.051803 2.575903,-0.04791307 -6.43938 3.127876,0.01596498 -6.893984 3.342116,-0.01354742 -7.24755 3.371697,-0.1643991 -6.875232 2.492082,0.1354322 -6.288493 2.919935,0.1779833 -6.845069 2.985672,0.0670867 -7.222681 3.0983,-0.08902407 -6.861969 2.415586,0.1678715 -6.321321 2.762808,0.2023401 -6.840862 2.662152,0.1100869 -7.24712 2.575033,-0.06780863 -7.0228 2.373889,0.1870584 -6.654603 2.562479,0.2195988 -7.021641 2.575281,0.1539221 -7.337238 2.598175,-9.656953 -9.645617 -0.03441198,-9.009996 -9.26701 0.1359772,-8.511921 -8.421677 0.2855827,-8.21495 -7.671201 0.4904934,-7.895476 -7.180985 0.7128829,-8.918196 -6.875906 0.06245318,-8.77852 -5.72178 0.247644,-8.685148 -5.028831 0.4355027,-8.618231 -4.41125 0.5654188,-9.250389 -6.710936 0.192711,-9.135012 -5.440937 0.3504804,-9.038059 -4.662461 0.5858827,-8.96184 -3.970682 0.7497797,-9.581142 -6.777288 0.3628278,-9.522396 -5.575533 0.5381662,-9.44537 -4.836653 0.7580563,-9.357519 -4.188665 0.9203686,-9.930336 -7.043509 0.5421523,-9.990368 -6.111274 0.743988,-9.992567 -5.509989 0.9046109,-9.96198 -4.918487 1.022267,5.510,Right Hand Closed 
-0.3626308 -9.596596 1.287038,-0.3545952 -8.936459 1.915608,-0.3929663 -8.489191 2.436651,-0.3885651 -8.117086 2.880743,-0.3061628 -7.917386 3.250912,-0.2939014 -7.051803 2.575903,-0.04791307 -6.43938 3.127876,0.01596498 -6.893984 3.342116,-0.01354742 -7.24755 3.371697,-0.1643991 -6.875232 2.492082,0.1354322 -6.288493 2.919935,0.1779833 -6.845069 2.985672,0.0670867 -7.222681 3.0983,-0.08902407 -6.861969 2.415586,0.1678715 -6.321321 2.762808,0.2023401 -6.840862 2.662152,0.1100869 -7.24712 2.575033,-0.06780863 -7.0228 2.373889,0.1870584 -6.654603 2.562479,0.2195988 -7.021641 2.575281,0.1539221 -7.337238 2.598175,-9.683481 -9.681166 -0.03795143,-9.029884 -9.310772 0.1670542,-8.521976 -8.463881 0.3383831,-8.21911 -7.70894 0.5556789,-7.909957 -7.208744 0.7858105,-8.935131 -6.922033 0.09561238,-8.787769 -5.769821 0.2924648,-8.688361 -5.085273 0.4812236,-8.615741 -4.484567 0.6068823,-9.270963 -6.749892 0.2081656,-9.155165 -5.473998 0.3767349,-9.06098 -4.693798 0.6132039,-8.982847 -3.999586 0.7838305,-9.60481 -6.81777 0.3603866,-9.537905 -5.607667 0.5409768,-9.460371 -4.866188 0.7613496,-9.368446 -4.219081 0.9295089,-9.957172 -7.083348 0.5267389,-10.01783 -6.151362 0.7246202,-10.02456 -5.54464 0.8873465,-9.995325 -4.95168 1.015248,5.610,Right Hand Closed 
-0.3626308 -9.596596 1.287038,-0.3545952 -8.936459 1.915608,-0.3929663 -8.489191 2.436651,-0.3885651 -8.117086 2.880743,-0.3061628 -7.917386 3.250912,-0.2939014 -7.051803 2.575903,-0.04791307 -6.43938 3.127876,0.01596498 -6.893984 3.342116,-0.01354742 -7.24755 3.371697,-0.1643991 -6.875232 2.492082,0.1354322 -6.288493 2.919935,0.1779833 -6.845069 2.985672,0.0670867 -7.222681 3.0983,-0.08902407 -6.861969 2.415586,0.1678715 -6.321321 2.762808,0.2023401 -6.840862 2.662152,0.1100869 -7.24712 2.575033,-0.06780863 -7.0228 2.373889,0.1870584 -6.654603 2.562479,0.2195988 -7.021641 2.575281,0.1539221 -7.337238 2.598175,-9.685516 -9.68774 -0.03847748,-9.031126 -9.31571 0.1500198,-8.52804 -8.465759 0.3103761,-8.22953 -7.706958 0.5215921,-7.91591 -7.215341 0.7451192,-8.935438 -6.923892 0.07825979,-8.797717 -5.770143 0.2640903,-8.700091 -5.083459 0.4483791,-8.625563 -4.474235 0.5720295,-9.271094 -6.756089 0.1979682,-9.161062 -5.478822 0.3586974,-9.065454 -4.698432 0.5938505,-8.986444 -4.008934 0.7614015,-9.604935 -6.82286 0.3554865,-9.545873 -5.6144 0.5312574,-9.4718 -4.870274 0.75527,-9.383297 -4.221281 0.9197619,-9.956039 -7.085899 0.5244314,-10.01798 -6.147228 0.7242309,-10.0236 -5.539954 0.8878409,-9.99384 -4.945732 1.008811,5.710,Right Hand Closed 
-0.3626308 -9.596596 1.287038,-0.3545952 -8.936459 1.915608,-0.3929663 -8.489191 2.436651,-0.3885651 -8.117086 2.880743,-0.3061628 -7.917386 3.250912,-0.2939014 -7.051803 2.575903,-0.04791307 -6.43938 3.127876,0.01596498 -6.893984 3.342116,-0.01354742 -7.24755 3.371697,-0.1643991 -6.875232 2.492082,0.1354322 -6.288493 2.919935,0.1779833 -6.845069 2.985672,0.0670867 -7.222681 3.0983,-0.08902407 -6.861969 2.415586,0.1678715 -6.321321 2.762808,0.2023401 -6.840862 2.662152,0.1100869 -7.24712 2.575033,-0.06780863 -7.0228 2.373889,0.1870584 -6.654603 2.562479,0.2195988 -7.021641 2.575281,0.1539221 -7.337238 2.598175,-9.705464 -9.678688 -0.05734777,-9.049029 -9.323879 0.1443116,-8.543355 -8.482327 0.3071078,-8.244711 -7.72536 0.5181951,-7.936979 -7.218122 0.7395988,-8.947106 -6.924772 0.05074071,-8.803615 -5.770475 0.2386072,-8.703379 -5.085463 0.4236494,-8.624281 -4.482236 0.5447563,-9.282642 -6.752722 0.1667588,-9.17243 -5.478294 0.3253562,-9.07882 -4.706636 0.56145,-8.997712 -4.026817 0.7270563,-9.617157 -6.816972 0.3235227,-9.556164 -5.610233 0.4989316,-9.483376 -4.872978 0.7232734,-9.390395 -4.230598 0.8899278,-9.971135 -7.079276 0.4930416,-10.03284 -6.145448 0.6922883,-10.03895 -5.545578 0.8540204,-10.00528 -4.960034 0.9755993,5.810,Right Hand Closed 
-0.3626308 -9.596596 1.287038,-0.3545952 -8.936459 1.915608,-0.3929663 -8.489191 2.436651,-0.3885651 -8.117086 2.880743,-0.3061628 -7.917386 3.250912,-0.2939014 -7.051803 2.575903,-0.04791307 -6.43938 3.127876,0.01596498 -6.893984 3.342116,-0.01354742 -7.24755 3.371697,-0.1643991 -6.875232 2.492082,0.1354322 -6.288493 2.919935,0.1779833 -6.845069 2.985672,0.0670867 -7.222681 3.0983,-0.08902407 -6.861969 2.415586,0.1678715 -6.321321 2.762808,0.2023401 -6.840862 2.662152,0.1100869 -7.24712 2.575033,-0.06780863 -7.0228 2.373889,0.1870584 -6.654603 2.562479,0.2195988 -7.021641 2.575281,0.1539221 -7.337238 2.598175,-9.697517 -9.685207 -0.02529365,-9.047543 -9.32284 0.1656396,-8.547367 -8.471773 0.3263918,-8.25217 -7.720617 0.5350451,-7.933466 -7.236896 0.7573259,-8.95158 -6.919902 0.1099619,-8.816597 -5.770046 0.303102,-8.720035 -5.087601 0.4900343,-8.646184 -4.483001 0.6138626,-9.285569 -6.75089 0.2288935,-9.180701 -5.471573 0.3953191,-9.085918 -4.692144 0.6329188,-9.007537 -4.001537 0.7981968,-9.619152 -6.821941 0.3853913,-9.564836 -5.606319 0.5607031,-9.490216 -4.864824 0.7805995,-9.403731 -4.216678 0.9448842,-9.971574 -7.092407 0.551191,-10.03441 -6.152959 0.7472099,-10.03864 -5.547478 0.9077969,-10.01209 -4.95763 1.02887,5.910,Right Hand Closed 
-0.3626308 -9.596596 1.287038,-0.3545952 -8.936459 1.915608,-0.3929663 -8.489191 2.436651,-0.3885651 -8.117086 2.880743,-0.3061628 -7.917386 3.250912,-0.2939014 -7.051803 2.575903,-0.04791307 -6.43938 3.127876,0.01596498 -6.893984 3.342116,-0.01354742 -7.24755 3.371697,-0.1643991 -6.875232 2.492082,0.1354322 -6.288493 2.919935,0.1779833 -6.845069 2.985672,0.0670867 -7.222681 3.0983,-0.08902407 -6.861969 2.415586,0.1678715 -6.321321 2.762808,0.2023401 -6.840862 2.662152,0.1100869 -7.24712 2.575033,-0.06780863 -7.0228 2.373889,0.1870584 -6.654603 2.562479,0.2195988 -7.021641 2.575281,0.1539221 -7.337238 2.598175,-9.718089 -9.695002 -0.0136976,-9.063362 -9.331282 0.1818666,-8.557224 -8.4806 0.3450768,-8.258707 -7.718262 0.560307,-7.945223 -7.216131 0.7858675,-8.956308 -6.926786 0.1134965,-8.827095 -5.767326 0.3060885,-8.741249 -5.070055 0.4940866,-8.679273 -4.45262 0.6217793,-9.292827 -6.758272 0.229366,-9.188698 -5.48007 0.3952707,-9.100567 -4.694692 0.6320161,-9.030104 -3.99872 0.7995502,-9.629637 -6.824127 0.3858893,-9.575405 -5.612054 0.5676696,-9.504262 -4.866241 0.7966282,-9.420439 -4.214376 0.9683593,-9.986674 -7.086841 0.5530369,-10.04803 -6.14759 0.7568007,-10.05345 -5.542784 0.9204772,-10.02602 -4.950275 1.042667,6.010,Right Hand Closed 
-0.3626308 -9.596596 1.287038,-0.3545952 -8.936459 1.915608,-0.3929663 -8.489191 2.436651,-0.3885651 -8.117086 2.880743,-0.3061628 -7.917386 3.250912,-0.2939014 -7.051803 2.575903,-0.04791307 -6.43938 3.127876,0.01596498 -6.893984 3.342116,-0.01354742 -7.24755 3.371697,-0.1643991 -6.875232 2.492082,0.1354322 -6.288493 2.919935,0.1779833 -6.845069 2.985672,0.0670867 -7.222681 3.0983,-0.08902407 -6.861969 2.415586,0.1678715 -6.321321 2.762808,0.2023401 -6.840862 2.662152,0.1100869 -7.24712 2.575033,-0.06780863 -7.0228 2.373889,0.1870584 -6.654603 2.562479,0.2195988 -7.021641 2.575281,0.1539221 -7.337238 2.598175,-9.726271 -9.690891 -0.0485474,-9.070152 -9.322678 0.1411079,-8.564965 -8.483232 0.3043032,-8.266685 -7.730827 0.5189412,-7.954925 -7.232048 0.7460762,-8.97106 -6.931676 0.08489683,-8.837428 -5.774562 0.2801307,-8.741294 -5.087604 0.472061,-8.668146 -4.474779 0.6002898,-9.30566 -6.7644 0.2041045,-9.201858 -5.484083 0.3710069,-9.108883 -4.699402 0.6094834,-9.031354 -4.00554 0.776336,-9.638999 -6.832102 0.3616287,-9.586529 -5.621808 0.5443261,-9.514973 -4.8726 0.7703976,-9.428688 -4.220528 0.9370994,-9.989914 -7.095853 0.5285373,-10.05191 -6.156158 0.7297715,-10.05778 -5.550021 0.8956378,-10.0295 -4.963466 1.018674,6.110,Right Hand Closed 
-0.3626308 -9.596596 1.287038,-0.3545952 -8.936459 1.915608,-0.3929663 -8.489191 2.436651,-0.3885651 -8.117086 2.880743,-0.3061628 -7.917386 3.250912,-0.2939014 -7.051803 2.575903,-0.04791307 -6.43938 3.127876,0.01596498 -6.893984 3.342116,-0.01354742 -7.24755 3.371697,-0.1643991 -6.875232 2.492082,0.1354322 -6.288493 2.919935,0.1779833 -6.845069 2.985672,0.0670867 -7.222681 3.0983,-0.08902407 -6.861969 2.415586,0.1678715 -6.321321 2.762808,0.2023401 -6.840862 2.662152,0.1100869 -7.24712 2.575033,-0.06780863 -7.0228 2.373889,0.1870584 -6.654603 2.562479,0.2195988 -7.021641 2.575281,0.1539221 -7.337238 2.598175,-9.741838 -9.688242 -0.003234456,-9.08513 -9.335024 0.2052038,-8.582685 -8.480335 0.3696018,-8.289168 -7.716693 0.5810485,-7.969307 -7.223012 0.8026736,-8.97594 -6.9241 0.1439338,-8.846951 -5.768596 0.3337719,-8.761467 -5.07784 0.517334,-8.697118 -4.466683 0.6371045,-9.315273 -6.749579 0.2505249,-9.218619 -5.473705 0.4128407,-9.131277 -4.700684 0.6460534,-9.057254 -4.019226 0.8102295,-9.651409 -6.813326 0.39723,-9.606905 -5.603199 0.5736613,-9.540317 -4.868226 0.7989064,-9.457419 -4.226309 0.9651918,-10.00552 -7.072746 0.5541786,-10.07338 -6.144107 0.7563984,-10.08224 -5.549772 0.9196831,-10.05726 -4.974063 1.038923,6.210,Right Hand Closed 
-0.3626308 -9.596596 1.287038,-0.3545952 -8.936459 1.915608,-0.3929663 -8.489191 2.436651,-0.3885651 -8.117086 2.880743,-0.3061628 -7.917386 3.250912,-0.2939014 -7.051803 2.575903,-0.04791307 -6.43938 3.127876,0.01596498 -6.893984 3.342116,-0.01354742 -7.24755 3.371697,-0.1643991 -6.875232 2.492082,0.1354322 -6.288493 2.919935,0.1779833 -6.845069 2.985672,0.0670867 -7.222681 3.0983,-0.08902407 -6.861969 2.415586,0.1678715 -6.321321 2.762808,0.2023401 -6.840862 2.662152,0.1100869 -7.24712 2.575033,-0.06780863 -7.0228 2.373889,0.1870584 -6.654603 2.562479,0.2195988 -7.021641 2.575281,0.1539221 -7.337238 2.598175,-9.74729 -9.694204 -0.05059501,-9.095098 -9.32654 0.161165,-8.592383 -8.493895 0.3340415,-8.298947 -7.740465 0.5525426,-7.98591 -7.239373 0.7802964,-8.993036 -6.939897 0.1048917,-8.857492 -5.777318 0.3095756,-8.765923 -5.08782 0.5020515,-8.698111 -4.478536 0.6299725,-9.328427 -6.768941 0.212096,-9.219881 -5.490738 0.3895659,-9.129561 -4.713775 0.6302105,-9.054201 -4.024055 0.8002573,-9.662881 -6.833561 0.3590983,-9.605032 -5.62387 0.5428059,-9.536209 -4.884394 0.7707966,-9.45214 -4.241291 0.9418592,-10.01776 -7.096771 0.5172483,-10.07341 -6.16164 0.7164879,-10.07598 -5.564302 0.8803023,-10.04498 -4.983497 1.008531,6.310,Right Hand Closed 
-0.3626308 -9.596596 1.287038,-0.3545952 -8.936459 1.915608,-0.3929663 -8.489191 2.436651,-0.3885651 -8.117086 2.880743,-0.3061628 -7.917386 3.250912,-0.2939014 -7.051803 2.575903,-0.04791307 -6.43938 3.127876,0.01596498 -6.893984 3.342116,-0.01354742 -7.24755 3.371697,-0.1643991 -6.875232 2.492082,0.1354322 -6.288493 2.919935,0.1779833 -6.845069 2.985672,0.0670867 -7.222681 3.0983,-0.08902407 -6.861969 2.415586,0.1678715 -6.321321 2.762808,0.2023401 -6.840862 2.662152,0.1100869 -7.24712 2.575033,-0.06780863 -7.0228 2.373889,0.1870584 -6.654603 2.562479,0.2195988 -7.021641 2.575281,0.1539221 -7.337238 2.598175,-9.75947 -9.689461 -0.06772632,-9.103581 -9.32144 0.1412777,-8.599319 -8.482355 0.3107879,-8.301517 -7.72534 0.5261218,-7.983219 -7.230592 0.7548742,-9.004541 -6.945259 0.0916464,-8.865874 -5.783758 0.2941382,-8.775848 -5.089059 0.4833914,-8.71176 -4.474311 0.6115891,-9.341568 -6.769327 0.1982864,-9.22774 -5.490922 0.3749139,-9.138863 -4.709182 0.6081419,-9.066846 -4.013307 0.7749625,-9.675264 -6.827686 0.3431097,-9.614195 -5.616282 0.5298993,-9.543577 -4.87503 0.7492182,-9.460007 -4.229828 0.9132906,-10.02699 -7.083438 0.4987596,-10.08331 -6.147054 0.7016504,-10.08621 -5.548757 0.8603121,-10.05596 -4.967958 0.9827137,6.410,Right Hand Closed 
-0.3626308 -9.596596 1.287038,-0.3545952 -8.936459 1.915608,-0.3929663 -8.489191 2.436651,-0.3885651 -8.117086 2.880743,-0.3061628 -7.917386 3.250912,-0.2939014 -7.051803 2.575903,-0.04791307 -6.43938 3.127876,0.01596498 -6.893984 3.342116,-0.01354742 -7.24755 3.371697,-0.1643991 -6.875232 2.492082,0.1354322 -6.288493 2.919935,0.1779833 -6.845069 2.985672,0.0670867 -7.222681 3.0983,-0.08902407 -6.861969 2.415586,0.1678715 -6.321321 2.762808,0.2023401 -6.840862 2.662152,0.1100869 -7.24712 2.575033,-0.06780863 -7.0228 2.373889,0.1870584 -6.654603 2.562479,0.2195988 -7.021641 2.575281,0.1539221 -7.337238 2.598175,-9.764841 -9.697788 -0.05976008,-9.110668 -9.341574 0.1411031,-8.606009 -8.496183 0.3052644,-8.308777 -7.741403 0.516252,-7.997335 -7.253513 0.7358496,-9.001067 -6.947128 0.0738451,-8.869843 -5.785076 0.2640498,-8.778143 -5.092021 0.4461243,-8.705462 -4.481403 0.564738,-9.340363 -6.774112 0.1812943,-9.237854 -5.488998 0.3414677,-9.149343 -4.704021 0.5720006,-9.072808 -4.012973 0.7358862,-9.678321 -6.839469 0.3265087,-9.625764 -5.619758 0.5020764,-9.557647 -4.874974 0.7226818,-9.473994 -4.229665 0.8855171,-10.03296 -7.1017 0.4820539,-10.09557 -6.162059 0.6792591,-10.10118 -5.557899 0.8407741,-10.07382 -4.977198 0.9614941,6.510,Right Hand Closed 
-0.3626308 -9.596596 1.287038,-0.3545952 -8.936459 1.915608,-0.3929663 -8.489191 2.436651,-0.3885651 -8.117086 2.880743,-0.3061628 -7.917386 3.250912,-0.2939014 -7.051803 2.575903,-0.04791307 -6.43938 3.127876,0.01596498 -6.893984 3.342116,-0.01354742 -7.24755 3.371697,-0.1643991 -6.875232 2.492082,0.1354322 -6.288493 2.919935,0.1779833 -6.845069 2.985672,0.0670867 -7.222681 3.0983,-0.08902407 -6.861969 2.415586,0.1678715 -6.321321 2.762808,0.2023401 -6.840862 2.662152,0.1100869 -7.24712 2.575033,-0.06780863 -7.0228 2.373889,0.1870584 -6.654603 2.562479,0.2195988 -7.021641 2.575281,0.1539221 -7.337238 2.598175,-9.778804 -9.688375 -0.0682064,-9.125116 -9.330696 0.1522539,-8.61704 -8.489109 0.3329851,-8.314449 -7.734373 0.558115,-7.988983 -7.235583 0.7942624,-9.012043 -6.942087 0.107506,-8.873899 -5.777924 0.3209319,-8.782228 -5.084962 0.5160369,-8.714274 -4.477743 0.6384873,-9.35252 -6.770975 0.2128325,-9.246572 -5.47763 0.3997633,-9.159742 -4.691741 0.6415036,-9.087072 -4.001259 0.8128349,-9.691303 -6.836255 0.3573653,-9.637945 -5.614543 0.5476921,-9.570727 -4.869127 0.7700512,-9.487644 -4.225469 0.938078,-10.04763 -7.09924 0.5146089,-10.10787 -6.157991 0.7163933,-10.11337 -5.556493 0.8772772,-10.08418 -4.977933 1.001827,6.610,Right Hand Closed 
-0.3626308 -9.596596 1.287038,-0.3545952 -8.936459 1.915608,-0.3929663 -8.489191 2.436651,-0.3885651 -8.117086 2.880743,-0.3061628 -7.917386 3.250912,-0.2939014 -7.051803 2.575903,-0.04791307 -6.43938 3.127876,0.01596498 -6.893984 3.342116,-0.01354742 -7.24755 3.371697,-0.1643991 -6.875232 2.492082,0.1354322 -6.288493 2.919935,0.1779833 -6.845069 2.985672,0.0670867 -7.222681 3.0983,-0.08902407 -6.861969 2.415586,0.1678715 -6.321321 2.762808,0.2023401 -6.840862 2.662152,0.1100869 -7.24712 2.575033,-0.06780863 -7.0228 2.373889,0.1870584 -6.654603 2.562479,0.2195988 -7.021641 2.575281,0.1539221 -7.337238 2.598175,-9.784582 -9.698008 -0.037234,-9.129381 -9.345932 0.1692696,-8.624554 -8.506401 0.3373577,-8.328479 -7.746527 0.5530139,-8.015342 -7.247316 0.7804098,-9.015903 -6.940423 0.1195128,-8.880985 -5.76758 0.3202142,-8.794378 -5.066079 0.508539,-8.731603 -4.447347 0.6298472,-9.35721 -6.770097 0.2254816,-9.250068 -5.479515 0.3982764,-9.161183 -4.689806 0.6315774,-9.089299 -3.998531 0.7965579,-9.697968 -6.835866 0.368529,-9.641757 -5.615587 0.5515993,-9.571956 -4.87004 0.7742218,-9.489031 -4.228435 0.9410928,-10.05604 -7.097442 0.5224307,-10.11056 -6.156518 0.7226418,-10.11162 -5.55099 0.8860787,-10.07873 -4.962276 1.010911,6.710,Right Hand Closed 
-0.3626308 -9.596596 1.287038,-0.3545952 -8.936459 1.915608,-0.3929663 -8.489191 2.436651,-0.3885651 -8.117086 2.880743,-0.3061628 -7.917386 3.250912,-0.2939014 -7.051803 2.575903,-0.04791307 -6.43938 3.127876,0.01596498 -6.893984 3.342116,-0.01354742 -7.24755 3.371697,-0.1643991 -6.875232 2.492082,0.1354322 -6.288493 2.919935,0.1779833 -6.845069 2.985672,0.0670867 -7.222681 3.0983,-0.08902407 -6.861969 2.415586,0.1678715 -6.321321 2.762808,0.2023401 -6.840862 2.662152,0.1100869 -7.24712 2.575033,-0.06780863 -7.0228 2.373889,0.1870584 -6.654603 2.562479,0.2195988 -7.021641 2.575281,0.1539221 -7.337238 2.598175,-9.770484 -9.728558 0.04677119,-9.125484 -9.368162 0.2562321,-8.622621 -8.515139 0.4216092,-8.323402 -7.754026 0.6327392,-7.998766 -7.26128 0.8605075,-9.012909 -6.952988 0.2165733,-8.873982 -5.778639 0.4304336,-8.785118 -5.078424 0.6224418,-8.719842 -4.452915 0.7519454,-9.349182 -6.77738 0.3304297,-9.235629 -5.495499 0.5158097,-9.145895 -4.701884 0.7583834,-9.070339 -4.000101 0.9276065,-9.686409 -6.844441 0.4815289,-9.624984 -5.632303 0.6798564,-9.555955 -4.880006 0.9130908,-9.47084 -4.230826 1.087752,-10.04316 -7.114015 0.6433059,-10.10026 -6.175821 0.8598353,-10.10463 -5.573857 1.029315,-10.07385 -4.99045 1.157046,6.810,Right Hand Closed 
-0.3626308 -9.596596 1.287038,-0.3545952 -8.936459 1.915608,-0.3929663 -8.489191 2.436651,-0.3885651 -8.117086 2.880743,-0.3061628 -7.917386 3.250912,-0.2939014 -7.051803 2.575903,-0.04791307 -6.43938 3.127876,0.01596498 -6.893984 3.342116,-0.01354742 -7.24755 3.371697,-0.1643991 -6.875232 2.492082,0.1354322 -6.288493 2.919935,0.1779833 -6.845069 2.985672,0.0670867 -7.222681 3.0983,-0.08902407 -6.861969 2.415586,0.1678715 -6.321321 2.762808,0.2023401 -6.840862 2.662152,0.1100869 -7.24712 2.575033,-0.06780863 -7.0228 2.373889,0.1870584 -6.654603 2.562479,0.2195988 -7.021641 2.575281,0.1539221 -7.337238 2.598175,-9.767138 -9.719624 0.01441884,-9.115363 -9.347191 0.216602,-8.613505 -8.497192 0.3847947,-8.316399 -7.734346 0.5996608,-7.998227 -7.243061 0.830316,-9.007529 -6.948039 0.1727461,-8.868433 -5.776586 0.3824132,-8.778195 -5.083831 0.5751622,-8.71086 -4.472505 0.70541,-9.344381 -6.777103 0.2883902,-9.232964 -5.49291 0.4712871,-9.142935 -4.705762 0.7106839,-9.067513 -4.007393 0.882571,-9.681952 -6.849008 0.4437116,-9.625018 -5.63519 0.6375955,-9.554212 -4.890089 0.8673347,-9.467941 -4.238233 1.04247,-10.03905 -7.120136 0.6101654,-10.10074 -6.184806 0.8197951,-10.10957 -5.582661 0.9887384,-10.08333 -4.988266 1.117961,6.910,Right Hand Closed 
-0.3626308 -9.596596 1.287038,-0.3545952 -8.936459 1.915608,-0.3929663 -8.489191 2.436651,-0.3885651 -8.117086 2.880743,-0.3061628 -7.917386 3.250912,-0.2939014 -7.051803 2.575903,-0.04791307 -6.43938 3.127876,0.01596498 -6.893984 3.342116,-0.01354742 -7.24755 3.371697,-0.1643991 -6.875232 2.492082,0.1354322 -6.288493 2.919935,0.1779833 -6.845069 2.985672,0.0670867 -7.222681 3.0983,-0.08902407 -6.861969 2.415586,0.1678715 -6.321321 2.762808,0.2023401 -6.840862 2.662152,0.1100869 -7.24712 2.575033,-0.06780863 -7.0228 2.373889,0.1870584 -6.654603 2.562479,0.2195988 -7.021641 2.575281,0.1539221 -7.337238 2.598175,-9.772771 -9.706041 -0.03311055,-9.114752 -9.346418 0.1765577,-8.605613 -8.50638 0.342949,-8.304645 -7.746659 0.5528551,-7.989572 -7.252543 0.7717435,-9.003428 -6.953117 0.1300796,-8.867776 -5.787859 0.3345896,-8.781689 -5.097618 0.5236736,-8.71924 -4.482378 0.6492242,-9.343944 -6.777612 0.2345961,-9.231969 -5.492524 0.4106574,-9.144834 -4.710298 0.6493319,-9.073804 -4.016721 0.8194163,-9.683571 -6.840923 0.3772862,-9.622192 -5.620899 0.5662689,-9.55444 -4.875786 0.7940948,-9.474443 -4.229232 0.9634467,-10.042 -7.101549 0.5293509,-10.09485 -6.159215 0.7317374,-10.09711 -5.558557 0.8953092,-10.06839 -4.977365 1.021245,7.010,Right Hand Closed 
-1.589899 -6.653026 0.2935469,-1.848983 -6.167087 0.3947504,-1.974983 -5.438358 0.5143303,-1.911939 -4.888986 0.7001594,-1.780938 -4.493547 0.9207266,-1.78996 -4.105467 0.5677863,-1.537408 -3.455739 0.7796636,-1.459916 -4.057973 0.8695192,-1.46836 -4.52658 0.9209256,-1.558079 -3.979696 0.6635132,-1.328469 -3.317554 0.8383503,-1.28059 -4.059063 0.9409252,-1.35143 -4.57681 1.079141,-1.360414 -3.955484 0.7659905,-1.198154 -3.388485 0.962064,-1.135811 -4.177129 1.013547,-1.179314 -4.799875 1.037335,-1.190445 -4.031732 0.8373064,-1.048539 -3.457332 1.0263,-1.055916 -4.040082 1.076243,-1.143493 -4.543586 1.082277,-9.761395 -9.726957 0.01441925,-9.107407 -9.362312 0.2055863,-8.608165 -8.514439 0.3541529,-8.315255 -7.757488 0.5542364,-7.999619 -7.268798 0.7619932,-9.005032 -6.952356 0.1155002,-8.870515 -5.79606 0.2966297,-8.777823 -5.101177 0.478492,-8.705396 -4.482708 0.6017051,-9.339417 -6.779027 0.2237385,-9.232625 -5.503751 0.3731965,-9.143978 -4.717657 0.6100322,-9.068898 -4.023568 0.7794852,-9.674277 -6.842641 0.3726337,-9.618253 -5.633018 0.5377924,-9.552498 -4.885482 0.7629371,-9.472431 -4.238193 0.9294562,-10.03051 -7.103363 0.5311378,-10.08838 -6.166625 0.7264107,-10.09358 -5.563215 0.888896,-10.06828 -4.983205 1.009662,7.110,Right Hand Closed 
-1.274613 -6.621762 -0.8266065,-1.717433 -6.265329 0.02301329,-1.989371 -5.692237 0.4604167,-2.09308 -4.957394 0.8439894,-1.99873 -4.165666 1.182229,-1.889951 -4.333131 -0.3181736,-1.816844 -3.495595 0.4452479,-1.59893 -4.158763 0.9034774,-1.494473 -4.772928 1.028563,-1.530675 -4.275196 -0.5311943,-1.368581 -3.433973 0.3738596,-1.238258 -4.382022 0.7018574,-1.274477 -5.055762 0.610849,-1.220668 -4.298191 -0.5974503,-1.049169 -3.563398 0.2181541,-0.9827003 -4.458488 0.3918433,-1.041285 -5.122415 0.2321619,-0.9430265 -4.3725 -0.6108068,-0.7973604 -3.789198 -0.01518911,-0.7630949 -4.347802 0.1690621,-0.8257537 -4.849103 0.09596026,-9.782635 -9.748917 0.01043592,-9.124936 -9.39003 0.2119889,-8.616023 -8.540577 0.3707923,-8.317863 -7.785812 0.5813743,-7.997358 -7.289613 0.8041385,-9.004264 -6.979932 0.1464278,-8.873715 -5.817796 0.3358966,-8.78567 -5.11807 0.5183746,-8.722675 -4.49803 0.6397392,-9.340742 -6.807666 0.2535584,-9.231913 -5.525753 0.4088233,-9.146901 -4.7345 0.6393859,-9.079984 -4.034658 0.8044135,-9.678453 -6.870048 0.4000075,-9.622067 -5.657367 0.571044,-9.558431 -4.905635 0.7939707,-9.484029 -4.2532 0.9636949,-10.03799 -7.126821 0.5582644,-10.09921 -6.184141 0.7524186,-10.10626 -5.580657 0.9113305,-10.08284 -4.997772 1.033665,7.210,Right Hand Closed 
-1.301919 -6.656509 -0.8616463,-1.749154 -6.341104 0.03588569,-2.016114 -5.767339 0.459168,-2.115608 -4.99772 0.8281273,-2.050139 -4.171299 1.153645,-1.907426 -4.379446 -0.3721068,-1.769483 -3.540113 0.4162824,-1.570648 -4.237487 0.8580865,-1.50117 -4.840372 0.9540484,-1.541025 -4.312574 -0.6153927,-1.343079 -3.488551 0.3443632,-1.238724 -4.499044 0.6615074,-1.313573 -5.153506 0.5315809,-1.232025 -4.319672 -0.6990569,-1.039324 -3.611983 0.1790799,-1.000766 -4.574794 0.3228339,-1.088935 -5.233205 0.1080331,-0.9614201 -4.368572 -0.7299843,-0.805182 -3.797071 -0.1005821,-0.7838697 -4.388095 0.0646773,-0.8581495 -4.893172 -0.05660862,-9.803072 -9.749355 0.01402398,-9.14484 -9.408976 0.2212439,-8.630863 -8.571493 0.3951171,-8.32598 -7.817844 0.6203763,-8.002439 -7.312244 0.8636572,-9.011994 -6.985124 0.1684991,-8.874264 -5.820334 0.3672733,-8.789234 -5.12321 0.5558172,-8.728323 -4.506694 0.6804034,-9.349956 -6.811045 0.2831878,-9.238856 -5.531841 0.4521261,-9.153616 -4.747202 0.6852259,-9.082828 -4.056171 0.8516484,-9.690172 -6.876249 0.4380629,-9.632899 -5.666522 0.6281165,-9.568086 -4.913854 0.8588315,-9.490271 -4.261425 1.031159,-10.05276 -7.139875 0.6042651,-10.10914 -6.193269 0.8151333,-10.11359 -5.586823 0.9817466,-10.08615 -4.999875 1.108176,7.310,Right Hand Closed 
-1.371901 -6.655885 -0.8920392,-1.818465 -6.397125 0.002714515,-2.104441 -5.794436 0.4581997,-2.202753 -5.034416 0.8474398,-2.082423 -4.283674 1.19173,-1.969193 -4.372442 -0.3302894,-1.811188 -3.629208 0.4543369,-1.653552 -4.37636 0.8474499,-1.622231 -4.951375 0.9014112,-1.592426 -4.329959 -0.5569537,-1.394 -3.594137 0.4346027,-1.323927 -4.640251 0.7106168,-1.406678 -5.25824 0.5380521,-1.267006 -4.371679 -0.626043,-1.086826 -3.751307 0.2497914,-1.071198 -4.728815 0.3480657,-1.163 -5.332382 0.1158333,-0.9792104 -4.467458 -0.6312496,-0.8265314 -3.901021 -0.01885128,-0.8283253 -4.511619 0.121706,-0.9098701 -4.993735 -0.01545125,-9.81216 -9.812794 0.07731106,-9.151918 -9.46229 0.2883771,-8.63815 -8.607721 0.4529743,-8.335533 -7.847462 0.6684597,-8.019951 -7.34386 0.9002725,-9.035845 -7.022741 0.24379,-8.903197 -5.847605 0.4405847,-8.825216 -5.146522 0.6281011,-8.776015 -4.52275 0.755965,-9.375476 -6.853809 0.3483721,-9.26801 -5.57492 0.5102303,-9.185311 -4.796747 0.7433066,-9.118414 -4.103563 0.9110839,-9.714863 -6.916404 0.4897499,-9.663469 -5.718625 0.6730809,-9.600429 -4.974752 0.9022728,-9.522935 -4.327358 1.07426,-10.07228 -7.180648 0.6430687,-10.13306 -6.240493 0.847501,-10.14236 -5.633932 1.012057,-10.11655 -5.040409 1.138964,7.410,Right Hand Closed 
-1.459601 -6.745656 -0.9929886,-1.905061 -6.453263 -0.2203658,-2.196166 -5.813026 0.1821288,-2.298921 -5.09643 0.5378556,-2.135598 -4.400492 0.8735489,-2.054595 -4.479673 -0.5535145,-1.974227 -3.784867 0.2591695,-1.814676 -4.546869 0.7068334,-1.756149 -5.158852 0.7700465,-1.683837 -4.440517 -0.7255031,-1.518738 -3.680729 0.240558,-1.438546 -4.685478 0.5393174,-1.498799 -5.334463 0.3885516,-1.356407 -4.499579 -0.7463412,-1.195523 -3.82541 0.08693027,-1.17786 -4.755672 0.2238666,-1.243361 -5.388834 0.03469336,-1.062624 -4.628943 -0.7207654,-0.9311199 -4.04099 -0.1683161,-0.9262271 -4.6278 -0.02898079,-0.9823546 -5.13379 -0.1427119,-9.834854 -9.83429 0.04146672,-9.177397 -9.493185 0.2737243,-8.655833 -8.641544 0.463465,-8.345169 -7.880504 0.7014163,-8.034956 -7.357772 0.9552709,-9.035963 -7.065549 0.2366413,-8.901125 -5.895831 0.4469187,-8.827374 -5.202719 0.6421361,-8.783944 -4.595008 0.7690704,-9.378813 -6.891601 0.3430389,-9.274148 -5.60633 0.5192405,-9.19411 -4.82909 0.7569218,-9.129829 -4.133185 0.9285787,-9.724073 -6.956594 0.4884745,-9.676207 -5.751523 0.6859359,-9.614755 -5.002117 0.9223277,-9.536352 -4.344941 1.101526,-10.09038 -7.222081 0.6480829,-10.15381 -6.273494 0.8586208,-10.16454 -5.6585 1.026303,-10.13728 -5.05425 1.156304,7.510,Right Hand Closed 
-1.609341 -6.672077 -0.9623619,-2.076365 -6.524049 -0.1203482,-2.392711 -5.919601 0.3160045,-2.499162 -5.167934 0.7082393,-2.351915 -4.400853 1.083129,-2.250897 -4.429031 -0.4321265,-2.172814 -3.699296 0.4345771,-2.017382 -4.393819 0.9546084,-1.930538 -5.041719 1.089302,-1.876595 -4.370674 -0.6323564,-1.731673 -3.645335 0.3825639,-1.646888 -4.646215 0.7406662,-1.693301 -5.326409 0.6462195,-1.541191 -4.41266 -0.6665405,-1.39801 -3.797149 0.2289906,-1.387213 -4.715919 0.4089847,-1.452825 -5.36467 0.251002,-1.234243 -4.530698 -0.6520195,-1.114114 -4.023366 -0.02897376,-1.126087 -4.578599 0.1664313,-1.190592 -5.051651 0.1009429,-9.858061 -9.85527 0.06519449,-9.197317 -9.495344 0.2806159,-8.687209 -8.633102 0.467897,-8.379099 -7.875785 0.704003,-8.048773 -7.381187 0.9651031,-9.072723 -7.076627 0.2792972,-8.937173 -5.917892 0.4987866,-8.860249 -5.230941 0.7043623,-8.810231 -4.619829 0.8360586,-9.417118 -6.905759 0.3889734,-9.313306 -5.630596 0.5808461,-9.230115 -4.848197 0.8291305,-9.16017 -4.140049 1.016404,-9.762003 -6.975745 0.5342346,-9.721692 -5.783659 0.7297433,-9.657951 -5.036065 0.9553229,-9.578176 -4.37464 1.130386,-10.12256 -7.25023 0.6892112,-10.18704 -6.315126 0.8980378,-10.19312 -5.702068 1.061021,-10.16269 -5.093956 1.186572,7.610,Right Hand Closed 
-1.639688 -6.656387 -1.073885,-2.116074 -6.540268 -0.2229565,-2.459123 -5.963594 0.2250385,-2.587276 -5.191917 0.6187199,-2.456887 -4.463753 0.9732951,-2.333117 -4.493186 -0.5389065,-2.260595 -3.655723 0.3182305,-2.091101 -4.317159 0.8161597,-2.010319 -4.920787 0.9402074,-1.956718 -4.39428 -0.7406718,-1.815996 -3.584752 0.2634872,-1.709931 -4.611049 0.5910758,-1.761419 -5.277528 0.4662645,-1.615571 -4.407496 -0.7812805,-1.472004 -3.717199 0.09718609,-1.436872 -4.688903 0.2264104,-1.50901 -5.329917 0.03638709,-1.297053 -4.517156 -0.7640406,-1.181044 -3.933476 -0.1486946,-1.176744 -4.551749 0.001797795,-1.240618 -5.0488 -0.1063195,-9.882145 -9.851189 -0.004489946,-9.213819 -9.50449 0.2275634,-8.69508 -8.649166 0.417122,-8.384028 -7.881183 0.6441264,-8.063376 -7.377498 0.8889074,-9.081636 -7.107887 0.2381503,-8.946053 -5.930816 0.4747596,-8.873385 -5.231299 0.6874567,-8.834332 -4.615473 0.8293867,-9.422424 -6.927188 0.340106,-9.306765 -5.635908 0.5508705,-9.221729 -4.840728 0.8066842,-9.153254 -4.125049 1.001508,-9.767752 -6.98693 0.4779443,-9.71589 -5.78012 0.6897827,-9.65112 -5.027816 0.9263656,-9.575708 -4.367099 1.112595,-10.13405 -7.250603 0.6276174,-10.19462 -6.312 0.8449916,-10.20634 -5.69647 1.012835,-10.18677 -5.087191 1.147336,7.710,Right Hand Closed 
-1.839295 -6.517118 -1.077,-2.301743 -6.36001 -0.3998109,-2.659038 -5.785947 3.659725E-05,-2.825202 -5.064857 0.3792689,-2.719239 -4.320259 0.737771,-2.528284 -4.320774 -0.6957871,-2.522143 -3.431045 0.1508101,-2.397931 -4.087602 0.6487695,-2.326301 -4.725862 0.7340486,-2.152494 -4.245664 -0.8183796,-2.067186 -3.389346 0.1528094,-2.003662 -4.373741 0.4925146,-2.055827 -5.032526 0.366675,-1.81155 -4.292956 -0.794947,-1.71455 -3.530405 0.06082845,-1.721995 -4.437253 0.2064945,-1.788837 -5.055589 0.01740909,-1.480615 -4.429206 -0.7289992,-1.400055 -3.745994 -0.1819841,-1.429489 -4.273427 -0.02838874,-1.495502 -4.762262 -0.135458,-9.919358 -9.91732 0.0650075,-9.232988 -9.573164 0.293646,-8.704841 -8.698156 0.4562765,-8.394315 -7.91406 0.6586669,-8.075814 -7.411233 0.8663929,-9.094593 -7.160172 0.2631425,-8.963837 -6.007105 0.4702872,-8.884849 -5.34175 0.652315,-8.833943 -4.761549 0.7673266,-9.447124 -6.968587 0.3487346,-9.341704 -5.682182 0.5237131,-9.260951 -4.909557 0.7671552,-9.191514 -4.21101 0.9551218,-9.797265 -7.024726 0.4701398,-9.752033 -5.824092 0.6563402,-9.695014 -5.07957 0.8869265,-9.620964 -4.430132 1.071413,-10.16535 -7.288555 0.6025795,-10.24124 -6.354217 0.8013979,-10.26009 -5.748441 0.9673715,-10.24061 -5.165542 1.100342,7.810,Right Hand Closed 
-1.869829 -6.479661 -0.9499529,-2.347755 -6.316144 -0.217687,-2.749514 -5.738076 0.2032027,-2.946659 -5.001165 0.5947165,-2.845041 -4.239028 0.9276206,-2.602489 -4.270481 -0.5459657,-2.602381 -3.397019 0.3269478,-2.462898 -3.996187 0.8474801,-2.377142 -4.628936 0.9726441,-2.234898 -4.180006 -0.6818618,-2.153387 -3.300268 0.2990062,-2.072454 -4.298986 0.6586715,-2.114441 -5.00004 0.5630227,-1.897771 -4.198258 -0.6758592,-1.818567 -3.425285 0.1959746,-1.805093 -4.365827 0.3282861,-1.864821 -5.02168 0.1344416,-1.572127 -4.311731 -0.6188126,-1.502029 -3.633592 -0.04024929,-1.520873 -4.200435 0.09268034,-1.58236 -4.723533 -0.03011465,-9.921053 -9.957527 0.09031369,-9.234585 -9.592224 0.3381412,-8.714013 -8.717808 0.5162442,-8.411377 -7.929225 0.7336867,-8.097988 -7.433085 0.9616472,-9.110632 -7.186338 0.3141566,-8.988381 -6.042858 0.5273198,-8.915953 -5.380276 0.71239,-8.869781 -4.7957 0.8306262,-9.466784 -6.999712 0.3850748,-9.360641 -5.721059 0.5635167,-9.279346 -4.946401 0.8114396,-9.211472 -4.242372 1.002533,-9.816088 -7.056751 0.4928021,-9.773249 -5.862918 0.6772262,-9.712408 -5.123344 0.8973488,-9.641706 -4.472946 1.073283,-10.18017 -7.320135 0.6120169,-10.25272 -6.385105 0.8086208,-10.26724 -5.780998 0.9682774,-10.24938 -5.195615 1.096471,7.910,Right Hand Closed 
-1.988535 -6.27354 -0.9020333,-2.486815 -6.125162 -0.1182546,-2.90737 -5.572069 0.3197261,-3.129395 -4.884683 0.7322159,-3.069834 -4.123979 1.074441,-2.776289 -4.041046 -0.5306254,-2.784979 -3.168453 0.4228961,-2.634017 -3.824124 0.9948148,-2.541521 -4.499864 1.131078,-2.395204 -3.961961 -0.6800374,-2.332213 -3.065247 0.383026,-2.238305 -4.095441 0.7704021,-2.274098 -4.807539 0.6537721,-2.048083 -3.972961 -0.6742845,-1.971433 -3.170021 0.2530018,-1.955585 -4.125337 0.4269814,-2.012071 -4.792226 0.2312416,-1.717783 -4.05731 -0.6072584,-1.643683 -3.382647 -0.01268959,-1.660004 -3.949298 0.1580063,-1.721328 -4.46371 0.05956227,-9.979454 -10.06554 0.1882706,-9.296869 -9.709339 0.4221876,-8.773014 -8.814693 0.612436,-8.458535 -8.028997 0.8411549,-8.151051 -7.508318 1.078212,-9.170018 -7.257564 0.4237469,-9.0507 -6.114881 0.6499283,-8.980704 -5.436593 0.8504919,-8.931868 -4.834267 0.9831961,-9.52315 -7.082412 0.5104483,-9.419263 -5.81097 0.7101563,-9.340601 -5.027737 0.9740105,-9.273173 -4.306814 1.178503,-9.872869 -7.157998 0.6293949,-9.830606 -5.963371 0.8239159,-9.768297 -5.212889 1.054122,-9.696003 -4.551567 1.240504,-10.23509 -7.453105 0.7569789,-10.31238 -6.522165 0.9640014,-10.32559 -5.911491 1.129506,-10.30717 -5.32257 1.267191,8.010,Right Hand Closed 
-2.081329 -6.172725 -0.7757359,-2.597557 -6.036911 -0.01824129,-3.050097 -5.460609 0.4393628,-3.266373 -4.735862 0.8613461,-3.202887 -3.971117 1.208491,-2.901873 -3.951295 -0.3528763,-2.925566 -3.066284 0.5340854,-2.809511 -3.620682 1.076128,-2.724318 -4.238956 1.2162,-2.530581 -3.840106 -0.4816808,-2.491338 -2.944592 0.5256958,-2.407476 -3.952706 0.8890431,-2.426192 -4.643323 0.7979929,-2.18098 -3.838084 -0.466163,-2.130418 -3.028755 0.4011365,-2.112386 -3.998598 0.5342065,-2.153052 -4.644203 0.3498204,-1.82902 -3.938363 -0.3905112,-1.779703 -3.190856 0.1686115,-1.79698 -3.798016 0.3038595,-1.84581 -4.336803 0.1945859,-9.98498 -10.09739 0.2088381,-9.298491 -9.723993 0.4377325,-8.784272 -8.830532 0.6233401,-8.486124 -8.046476 0.8513021,-8.174946 -7.55368 1.10104,-9.178466 -7.286423 0.4224986,-9.062329 -6.143501 0.6371936,-8.99221 -5.475379 0.8400401,-8.942801 -4.878645 0.9710046,-9.538251 -7.104855 0.5121734,-9.436949 -5.827838 0.6935278,-9.3548 -5.04386 0.9511392,-9.286245 -4.331298 1.151986,-9.892794 -7.169591 0.637773,-9.851749 -5.976205 0.8186795,-9.788181 -5.229137 1.044472,-9.714238 -4.571616 1.22812,-10.25816 -7.448299 0.7740523,-10.32376 -6.51682 0.976002,-10.33574 -5.900274 1.141101,-10.31558 -5.297504 1.276899,8.110,Right Hand Closed 
-2.136131 -6.173299 -0.5584471,-2.646152 -6.034254 0.1841508,-3.107868 -5.42755 0.6370597,-3.342146 -4.694224 1.060929,-3.313482 -3.932883 1.409819,-2.977688 -3.905772 -0.1536697,-3.017271 -3.025256 0.7292598,-2.902369 -3.572113 1.280946,-2.805263 -4.192449 1.43055,-2.608338 -3.779753 -0.2787632,-2.579392 -2.877651 0.7155206,-2.491719 -3.863801 1.105305,-2.49764 -4.569672 1.036259,-2.259303 -3.771503 -0.2629602,-2.21657 -2.918743 0.5800973,-2.197549 -3.857286 0.7276591,-2.22912 -4.518335 0.5550222,-1.904773 -3.876145 -0.1906382,-1.866011 -3.117165 0.3488851,-1.883435 -3.709751 0.4919498,-1.925377 -4.251848 0.398123,-10.03882 -10.1723 0.2876318,-9.3507 -9.795897 0.5053889,-8.832953 -8.908039 0.6882784,-8.53252 -8.12615 0.9098435,-8.21097 -7.64676 1.150889,-9.220304 -7.341512 0.5444123,-9.115992 -6.182764 0.7738125,-9.060044 -5.511564 0.9878107,-9.025066 -4.910336 1.127762,-9.583422 -7.164067 0.6447233,-9.49334 -5.878618 0.8421209,-9.417806 -5.095663 1.101372,-9.351245 -4.374824 1.302942,-9.944036 -7.228713 0.7761132,-9.908853 -6.02555 0.9679359,-9.850862 -5.282931 1.196387,-9.781465 -4.630422 1.378406,-10.318 -7.507019 0.9149676,-10.38974 -6.572364 1.118965,-10.41139 -5.95154 1.280741,-10.40231 -5.343488 1.414736,8.210,Right Hand Closed 
-2.397123 -6.113678 -0.4301428,-2.941124 -5.958045 0.2181682,-3.433374 -5.371854 0.637547,-3.688549 -4.686525 1.041564,-3.640562 -4.050089 1.377508,-3.342257 -3.87041 -0.1137981,-3.432729 -2.99529 0.7449642,-3.334445 -3.541942 1.271701,-3.257153 -4.120578 1.373485,-2.961506 -3.697979 -0.1912286,-2.959662 -2.793308 0.7930485,-2.878064 -3.758461 1.159473,-2.906458 -4.405208 1.074728,-2.589269 -3.671918 -0.1381933,-2.58293 -2.814638 0.7054732,-2.566371 -3.725127 0.8380301,-2.599502 -4.340406 0.6529999,-2.202351 -3.767801 -0.04041556,-2.190722 -2.978574 0.4677961,-2.214744 -3.539899 0.597322,-2.25485 -4.071439 0.4884218,-10.13109 -10.30715 0.3901101,-9.43932 -9.921797 0.5952907,-8.919429 -9.020844 0.7761891,-8.620843 -8.242439 0.9956375,-8.302841 -7.771836 1.232475,-9.32268 -7.441246 0.6417431,-9.208358 -6.304211 0.8612109,-9.150748 -5.641429 1.074739,-9.112886 -5.046178 1.214146,-9.683043 -7.267587 0.7430804,-9.592346 -5.999928 0.9250702,-9.519961 -5.230344 1.175107,-9.454346 -4.516057 1.377914,-10.039 -7.335828 0.8766044,-10.00146 -6.139564 1.056768,-9.949215 -5.402262 1.273915,-9.883104 -4.751611 1.452286,-10.4069 -7.619234 1.011621,-10.47884 -6.685148 1.200633,-10.50279 -6.076637 1.346168,-10.48082 -5.480035 1.382488,8.310,Right Hand Closed 
-2.521968 -6.096248 -0.444083,-3.060111 -5.960803 0.1502295,-3.562155 -5.340075 0.5398584,-3.809659 -4.645494 0.9379399,-3.760046 -4.029647 1.266379,-3.461139 -3.831762 -0.1902264,-3.561592 -2.91768 0.6699458,-3.465677 -3.507954 1.168654,-3.366883 -4.112827 1.237158,-3.078193 -3.679941 -0.2350906,-3.100784 -2.784376 0.747015,-3.034308 -3.778989 1.110509,-3.043528 -4.431652 1.02763,-2.707381 -3.653727 -0.1516365,-2.728145 -2.804735 0.6771374,-2.724199 -3.727889 0.8213725,-2.732971 -4.349942 0.6543028,-2.317733 -3.740749 -0.01871347,-2.331757 -2.956576 0.483735,-2.366413 -3.531868 0.632338,-2.395984 -4.073946 0.5489385,-10.16078 -10.352 0.4314049,-9.468529 -9.970882 0.6357571,-8.950912 -9.049852 0.8004385,-8.655379 -8.270538 1.004071,-8.332651 -7.810709 1.219919,-9.334689 -7.480573 0.6399193,-9.218426 -6.345185 0.84549,-9.153925 -5.680543 1.050081,-9.107586 -5.083685 1.183562,-9.701364 -7.2968 0.7352679,-9.61218 -6.037717 0.8940758,-9.536351 -5.267395 1.13487,-9.467218 -4.555717 1.337441,-10.06463 -7.356901 0.8652587,-10.02511 -6.160753 1.031567,-9.970283 -5.421585 1.245979,-9.901289 -4.771083 1.425271,-10.43892 -7.635119 0.9989275,-10.51223 -6.708513 1.181476,-10.53712 -6.092632 1.327565,-10.53353 -5.495431 1.457714,8.410,Right Hand Closed 
-2.595284 -6.105209 -0.5043496,-3.179806 -5.965669 0.0961445,-3.689262 -5.366657 0.4750169,-3.956175 -4.695169 0.8537265,-3.953728 -4.092573 1.183988,-3.59856 -3.888563 -0.2297616,-3.718353 -2.911663 0.5997959,-3.637933 -3.450771 1.113577,-3.542094 -4.050135 1.220649,-3.211808 -3.722228 -0.2862087,-3.25057 -2.783832 0.6670474,-3.188595 -3.749368 1.0437,-3.19424 -4.428796 0.9733449,-2.837628 -3.674469 -0.219399,-2.866613 -2.766752 0.589193,-2.868931 -3.66808 0.7319918,-2.878788 -4.308465 0.5711051,-2.445713 -3.734399 -0.1078897,-2.469131 -2.933905 0.3972669,-2.505393 -3.515146 0.5416491,-2.534701 -4.069412 0.4540476,-10.18516 -10.37284 0.4338396,-9.49367 -9.986683 0.6326365,-8.984718 -9.064497 0.8092713,-8.695665 -8.277121 1.028418,-8.373765 -7.826747 1.268104,-9.355139 -7.49685 0.6624758,-9.246145 -6.354215 0.8729044,-9.19601 -5.697949 1.083285,-9.159897 -5.115184 1.215538,-9.727614 -7.319226 0.7625401,-9.644819 -6.053461 0.9242401,-9.580101 -5.291494 1.156383,-9.519335 -4.58958 1.353331,-10.09407 -7.38192 0.8951706,-10.05687 -6.174037 1.06071,-10.00392 -5.43065 1.278758,-9.934164 -4.775047 1.463416,-10.47114 -7.664203 1.034334,-10.5469 -6.734877 1.210271,-10.57375 -6.112356 1.35579,-10.57096 -5.505666 1.488402,8.510,Right Hand Closed 
