TiagoOliveira98/HandTracking/DataLogging/JointData/Logs(1642777953)_Tiago_MemoryGame.csv
WRIST,THUMB_CMC,THUMB_MCP,THUMB_IP,THUMB_TIP,INDEX_FINGER_MCP,INDEX_FINGER_PIP,INDEX_FINGER_DIP,INDEX_FINGER_TIP,MIDDLE_FINGER_MCP,MIDDLE_FINGER_PIP,MIDDLE_FINGER_DIP,MIDDLE_FINGER_TIP,RING_FINGER_MCP,RING_FINGER_PIP,RING_FINGER_DIP,RING_FINGER_TIP,PINKY_MCP,PINKY_PIP,PINKY_DIP,PINKY_TIP,WRIST2,THUMB_CMC2,THUMB_MCP2,THUMB_IP2,THUMB_TIP2,INDEX_FINGER_MCP2,INDEX_FINGER_PIP2,INDEX_FINGER_DIP2,INDEX_FINGER_TIP2,MIDDLE_FINGER_MCP2,MIDDLE_FINGER_PIP2,MIDDLE_FINGER_DIP2,MIDDLE_FINGER_TIP2,RING_FINGER_MCP2,RING_FINGER_PIP2,RING_FINGER_DIP2,RING_FINGER_TIP2,PINKY_MCP2,PINKY_PIP2,PINKY_DIP2,PINKY_TIP2,Timestamp,Event
10 0 0,10 7.47 0,10 7.47 0,10 7.47 0,10 7.47 0,10 7.47 0,10 7.47 0,10 7.47 0,10 7.47 0,10 7.47 0,10 7.47 0,10 7.47 0,10 7.47 0,10 7.47 0,10 7.47 0,10 7.47 0,10 7.47 0,10 7.47 0,10 7.47 0,10 7.47 0,10 7.47 0,10 0 0,10 7.47 0,10 7.47 0,10 7.47 0,10 7.47 0,10 7.47 0,10 7.47 0,10 7.47 0,10 7.47 0,10 7.47 0,10 7.47 0,10 7.47 0,10 7.47 0,10 7.47 0,10 7.47 0,10 7.47 0,10 7.47 0,10 7.47 0,10 7.47 0,10 7.47 0,10 7.47 0,0.010,
2 0 -9.153271,2 0 -9.153271,2 0 -9.153271,2 0 -9.153271,2 0 -9.153271,2 0 -9.153271,2 0 -9.153271,2 0 -9.153271,2 0 -9.153271,2 0 -9.153271,2 0 -9.153271,2 0 -9.153271,2 0 -9.153271,2 0 -9.153271,2 0 -9.153271,2 0 -9.153271,2 0 -9.153271,2 0 -9.153271,2 0 -9.153271,2 0 -9.153271,2 0 -9.153271,2 0 -10.43492,2 0 -10.43492,2 0 -10.43492,2 0 -10.43492,2 0 -10.43492,2 0 -10.43492,2 0 -10.43492,2 0 -10.43492,2 0 -10.43492,2 0 -10.43492,2 0 -10.43492,2 0 -10.43492,2 0 -10.43492,2 0 -10.43492,2 0 -10.43492,2 0 -10.43492,2 0 -10.43492,2 0 -10.43492,2 0 -10.43492,2 0 -10.43492,2 0 -10.43492,0.110, 0
2 0 -9.153271,2 0 -9.153271,2 0 -9.153271,2 0 -9.153271,2 0 -9.153271,2 0 -9.153271,2 0 -9.153271,2 0 -9.153271,2 0 -9.153271,2 0 -9.153271,2 0 -9.153271,2 0 -9.153271,2 0 -9.153271,2 0 -9.153271,2 0 -9.153271,2 0 -9.153271,2 0 -9.153271,2 0 -9.153271,2 0 -9.153271,2 0 -9.153271,2 0 -9.153271,2 0 -10.43492,2 0 -10.43492,2 0 -10.43492,2 0 -10.43492,2 0 -10.43492,2 0 -10.43492,2 0 -10.43492,2 0 -10.43492,2 0 -10.43492,2 0 -10.43492,2 0 -10.43492,2 0 -10.43492,2 0 -10.43492,2 0 -10.43492,2 0 -10.43492,2 0 -10.43492,2 0 -10.43492,2 0 -10.43492,2 0 -10.43492,2 0 -10.43492,2 0 -10.43492,0.210, 0
2 0 -9.153271,2 0 -9.153271,2 0 -9.153271,2 0 -9.153271,2 0 -9.153271,2 0 -9.153271,2 0 -9.153271,2 0 -9.153271,2 0 -9.153271,2 0 -9.153271,2 0 -9.153271,2 0 -9.153271,2 0 -9.153271,2 0 -9.153271,2 0 -9.153271,2 0 -9.153271,2 0 -9.153271,2 0 -9.153271,2 0 -9.153271,2 0 -9.153271,2 0 -9.153271,2 0 -10.43492,2 0 -10.43492,2 0 -10.43492,2 0 -10.43492,2 0 -10.43492,2 0 -10.43492,2 0 -10.43492,2 0 -10.43492,2 0 -10.43492,2 0 -10.43492,2 0 -10.43492,2 0 -10.43492,2 0 -10.43492,2 0 -10.43492,2 0 -10.43492,2 0 -10.43492,2 0 -10.43492,2 0 -10.43492,2 0 -10.43492,2 0 -10.43492,2 0 -10.43492,0.310, 0
2 0 -9.153271,2 0 -9.153271,2 0 -9.153271,2 0 -9.153271,2 0 -9.153271,2 0 -9.153271,2 0 -9.153271,2 0 -9.153271,2 0 -9.153271,2 0 -9.153271,2 0 -9.153271,2 0 -9.153271,2 0 -9.153271,2 0 -9.153271,2 0 -9.153271,2 0 -9.153271,2 0 -9.153271,2 0 -9.153271,2 0 -9.153271,2 0 -9.153271,2 0 -9.153271,2 0 -10.43492,2 0 -10.43492,2 0 -10.43492,2 0 -10.43492,2 0 -10.43492,2 0 -10.43492,2 0 -10.43492,2 0 -10.43492,2 0 -10.43492,2 0 -10.43492,2 0 -10.43492,2 0 -10.43492,2 0 -10.43492,2 0 -10.43492,2 0 -10.43492,2 0 -10.43492,2 0 -10.43492,2 0 -10.43492,2 0 -10.43492,2 0 -10.43492,2 0 -10.43492,0.410, 0
2 0 -9.153271,2 0 -9.153271,2 0 -9.153271,2 0 -9.153271,2 0 -9.153271,2 0 -9.153271,2 0 -9.153271,2 0 -9.153271,2 0 -9.153271,2 0 -9.153271,2 0 -9.153271,2 0 -9.153271,2 0 -9.153271,2 0 -9.153271,2 0 -9.153271,2 0 -9.153271,2 0 -9.153271,2 0 -9.153271,2 0 -9.153271,2 0 -9.153271,2 0 -9.153271,2 0 -10.43492,2 0 -10.43492,2 0 -10.43492,2 0 -10.43492,2 0 -10.43492,2 0 -10.43492,2 0 -10.43492,2 0 -10.43492,2 0 -10.43492,2 0 -10.43492,2 0 -10.43492,2 0 -10.43492,2 0 -10.43492,2 0 -10.43492,2 0 -10.43492,2 0 -10.43492,2 0 -10.43492,2 0 -10.43492,2 0 -10.43492,2 0 -10.43492,2 0 -10.43492,0.510, 0
2 0 -9.153271,2 0 -9.153271,2 0 -9.153271,2 0 -9.153271,2 0 -9.153271,2 0 -9.153271,2 0 -9.153271,2 0 -9.153271,2 0 -9.153271,2 0 -9.153271,2 0 -9.153271,2 0 -9.153271,2 0 -9.153271,2 0 -9.153271,2 0 -9.153271,2 0 -9.153271,2 0 -9.153271,2 0 -9.153271,2 0 -9.153271,2 0 -9.153271,2 0 -9.153271,2 0 -10.43492,2 0 -10.43492,2 0 -10.43492,2 0 -10.43492,2 0 -10.43492,2 0 -10.43492,2 0 -10.43492,2 0 -10.43492,2 0 -10.43492,2 0 -10.43492,2 0 -10.43492,2 0 -10.43492,2 0 -10.43492,2 0 -10.43492,2 0 -10.43492,2 0 -10.43492,2 0 -10.43492,2 0 -10.43492,2 0 -10.43492,2 0 -10.43492,2 0 -10.43492,0.610, 0
2 0 -9.153271,2 0 -9.153271,2 0 -9.153271,2 0 -9.153271,2 0 -9.153271,2 0 -9.153271,2 0 -9.153271,2 0 -9.153271,2 0 -9.153271,2 0 -9.153271,2 0 -9.153271,2 0 -9.153271,2 0 -9.153271,2 0 -9.153271,2 0 -9.153271,2 0 -9.153271,2 0 -9.153271,2 0 -9.153271,2 0 -9.153271,2 0 -9.153271,2 0 -9.153271,2 0 -10.43492,2 0 -10.43492,2 0 -10.43492,2 0 -10.43492,2 0 -10.43492,2 0 -10.43492,2 0 -10.43492,2 0 -10.43492,2 0 -10.43492,2 0 -10.43492,2 0 -10.43492,2 0 -10.43492,2 0 -10.43492,2 0 -10.43492,2 0 -10.43492,2 0 -10.43492,2 0 -10.43492,2 0 -10.43492,2 0 -10.43492,2 0 -10.43492,2 0 -10.43492,0.710, 0
2 0 -9.153271,2 0 -9.153271,2 0 -9.153271,2 0 -9.153271,2 0 -9.153271,2 0 -9.153271,2 0 -9.153271,2 0 -9.153271,2 0 -9.153271,2 0 -9.153271,2 0 -9.153271,2 0 -9.153271,2 0 -9.153271,2 0 -9.153271,2 0 -9.153271,2 0 -9.153271,2 0 -9.153271,2 0 -9.153271,2 0 -9.153271,2 0 -9.153271,2 0 -9.153271,2 0 -10.43492,2 0 -10.43492,2 0 -10.43492,2 0 -10.43492,2 0 -10.43492,2 0 -10.43492,2 0 -10.43492,2 0 -10.43492,2 0 -10.43492,2 0 -10.43492,2 0 -10.43492,2 0 -10.43492,2 0 -10.43492,2 0 -10.43492,2 0 -10.43492,2 0 -10.43492,2 0 -10.43492,2 0 -10.43492,2 0 -10.43492,2 0 -10.43492,2 0 -10.43492,0.810, 0
2 0 -9.153271,2 0 -9.153271,2 0 -9.153271,2 0 -9.153271,2 0 -9.153271,2 0 -9.153271,2 0 -9.153271,2 0 -9.153271,2 0 -9.153271,2 0 -9.153271,2 0 -9.153271,2 0 -9.153271,2 0 -9.153271,2 0 -9.153271,2 0 -9.153271,2 0 -9.153271,2 0 -9.153271,2 0 -9.153271,2 0 -9.153271,2 0 -9.153271,2 0 -9.153271,2 0 -10.43492,2 0 -10.43492,2 0 -10.43492,2 0 -10.43492,2 0 -10.43492,2 0 -10.43492,2 0 -10.43492,2 0 -10.43492,2 0 -10.43492,2 0 -10.43492,2 0 -10.43492,2 0 -10.43492,2 0 -10.43492,2 0 -10.43492,2 0 -10.43492,2 0 -10.43492,2 0 -10.43492,2 0 -10.43492,2 0 -10.43492,2 0 -10.43492,2 0 -10.43492,0.910, 0
2 0 -9.153271,2 0 -9.153271,2 0 -9.153271,2 0 -9.153271,2 0 -9.153271,2 0 -9.153271,2 0 -9.153271,2 0 -9.153271,2 0 -9.153271,2 0 -9.153271,2 0 -9.153271,2 0 -9.153271,2 0 -9.153271,2 0 -9.153271,2 0 -9.153271,2 0 -9.153271,2 0 -9.153271,2 0 -9.153271,2 0 -9.153271,2 0 -9.153271,2 0 -9.153271,2 0 -10.43492,2 0 -10.43492,2 0 -10.43492,2 0 -10.43492,2 0 -10.43492,2 0 -10.43492,2 0 -10.43492,2 0 -10.43492,2 0 -10.43492,2 0 -10.43492,2 0 -10.43492,2 0 -10.43492,2 0 -10.43492,2 0 -10.43492,2 0 -10.43492,2 0 -10.43492,2 0 -10.43492,2 0 -10.43492,2 0 -10.43492,2 0 -10.43492,2 0 -10.43492,1.010, 0
2 0 -9.153271,2 0 -9.153271,2 0 -9.153271,2 0 -9.153271,2 0 -9.153271,2 0 -9.153271,2 0 -9.153271,2 0 -9.153271,2 0 -9.153271,2 0 -9.153271,2 0 -9.153271,2 0 -9.153271,2 0 -9.153271,2 0 -9.153271,2 0 -9.153271,2 0 -9.153271,2 0 -9.153271,2 0 -9.153271,2 0 -9.153271,2 0 -9.153271,2 0 -9.153271,2 0 -10.43492,2 0 -10.43492,2 0 -10.43492,2 0 -10.43492,2 0 -10.43492,2 0 -10.43492,2 0 -10.43492,2 0 -10.43492,2 0 -10.43492,2 0 -10.43492,2 0 -10.43492,2 0 -10.43492,2 0 -10.43492,2 0 -10.43492,2 0 -10.43492,2 0 -10.43492,2 0 -10.43492,2 0 -10.43492,2 0 -10.43492,2 0 -10.43492,2 0 -10.43492,1.110, 0
2 0 -9.153271,2 0 -9.153271,2 0 -9.153271,2 0 -9.153271,2 0 -9.153271,2 0 -9.153271,2 0 -9.153271,2 0 -9.153271,2 0 -9.153271,2 0 -9.153271,2 0 -9.153271,2 0 -9.153271,2 0 -9.153271,2 0 -9.153271,2 0 -9.153271,2 0 -9.153271,2 0 -9.153271,2 0 -9.153271,2 0 -9.153271,2 0 -9.153271,2 0 -9.153271,2 0 -10.43492,2 0 -10.43492,2 0 -10.43492,2 0 -10.43492,2 0 -10.43492,2 0 -10.43492,2 0 -10.43492,2 0 -10.43492,2 0 -10.43492,2 0 -10.43492,2 0 -10.43492,2 0 -10.43492,2 0 -10.43492,2 0 -10.43492,2 0 -10.43492,2 0 -10.43492,2 0 -10.43492,2 0 -10.43492,2 0 -10.43492,2 0 -10.43492,2 0 -10.43492,1.210, 0
2 0 -9.153271,2 0 -9.153271,2 0 -9.153271,2 0 -9.153271,2 0 -9.153271,2 0 -9.153271,2 0 -9.153271,2 0 -9.153271,2 0 -9.153271,2 0 -9.153271,2 0 -9.153271,2 0 -9.153271,2 0 -9.153271,2 0 -9.153271,2 0 -9.153271,2 0 -9.153271,2 0 -9.153271,2 0 -9.153271,2 0 -9.153271,2 0 -9.153271,2 0 -9.153271,2 0 -10.43492,2 0 -10.43492,2 0 -10.43492,2 0 -10.43492,2 0 -10.43492,2 0 -10.43492,2 0 -10.43492,2 0 -10.43492,2 0 -10.43492,2 0 -10.43492,2 0 -10.43492,2 0 -10.43492,2 0 -10.43492,2 0 -10.43492,2 0 -10.43492,2 0 -10.43492,2 0 -10.43492,2 0 -10.43492,2 0 -10.43492,2 0 -10.43492,2 0 -10.43492,1.310, 0
2 0 -9.153271,2 0 -9.153271,2 0 -9.153271,2 0 -9.153271,2 0 -9.153271,2 0 -9.153271,2 0 -9.153271,2 0 -9.153271,2 0 -9.153271,2 0 -9.153271,2 0 -9.153271,2 0 -9.153271,2 0 -9.153271,2 0 -9.153271,2 0 -9.153271,2 0 -9.153271,2 0 -9.153271,2 0 -9.153271,2 0 -9.153271,2 0 -9.153271,2 0 -9.153271,2 0 -10.43492,2 0 -10.43492,2 0 -10.43492,2 0 -10.43492,2 0 -10.43492,2 0 -10.43492,2 0 -10.43492,2 0 -10.43492,2 0 -10.43492,2 0 -10.43492,2 0 -10.43492,2 0 -10.43492,2 0 -10.43492,2 0 -10.43492,2 0 -10.43492,2 0 -10.43492,2 0 -10.43492,2 0 -10.43492,2 0 -10.43492,2 0 -10.43492,2 0 -10.43492,1.410, 0
2 0 -9.153271,2 0 -9.153271,2 0 -9.153271,2 0 -9.153271,2 0 -9.153271,2 0 -9.153271,2 0 -9.153271,2 0 -9.153271,2 0 -9.153271,2 0 -9.153271,2 0 -9.153271,2 0 -9.153271,2 0 -9.153271,2 0 -9.153271,2 0 -9.153271,2 0 -9.153271,2 0 -9.153271,2 0 -9.153271,2 0 -9.153271,2 0 -9.153271,2 0 -9.153271,2 0 -10.43492,2 0 -10.43492,2 0 -10.43492,2 0 -10.43492,2 0 -10.43492,2 0 -10.43492,2 0 -10.43492,2 0 -10.43492,2 0 -10.43492,2 0 -10.43492,2 0 -10.43492,2 0 -10.43492,2 0 -10.43492,2 0 -10.43492,2 0 -10.43492,2 0 -10.43492,2 0 -10.43492,2 0 -10.43492,2 0 -10.43492,2 0 -10.43492,2 0 -10.43492,1.510, 0
2 0 -9.153271,2 0 -9.153271,2 0 -9.153271,2 0 -9.153271,2 0 -9.153271,2 0 -9.153271,2 0 -9.153271,2 0 -9.153271,2 0 -9.153271,2 0 -9.153271,2 0 -9.153271,2 0 -9.153271,2 0 -9.153271,2 0 -9.153271,2 0 -9.153271,2 0 -9.153271,2 0 -9.153271,2 0 -9.153271,2 0 -9.153271,2 0 -9.153271,2 0 -9.153271,2 0 -10.43492,2 0 -10.43492,2 0 -10.43492,2 0 -10.43492,2 0 -10.43492,2 0 -10.43492,2 0 -10.43492,2 0 -10.43492,2 0 -10.43492,2 0 -10.43492,2 0 -10.43492,2 0 -10.43492,2 0 -10.43492,2 0 -10.43492,2 0 -10.43492,2 0 -10.43492,2 0 -10.43492,2 0 -10.43492,2 0 -10.43492,2 0 -10.43492,2 0 -10.43492,1.610, 0
2 0 -9.153271,2 0 -9.153271,2 0 -9.153271,2 0 -9.153271,2 0 -9.153271,2 0 -9.153271,2 0 -9.153271,2 0 -9.153271,2 0 -9.153271,2 0 -9.153271,2 0 -9.153271,2 0 -9.153271,2 0 -9.153271,2 0 -9.153271,2 0 -9.153271,2 0 -9.153271,2 0 -9.153271,2 0 -9.153271,2 0 -9.153271,2 0 -9.153271,2 0 -9.153271,2 0 -10.43492,2 0 -10.43492,2 0 -10.43492,2 0 -10.43492,2 0 -10.43492,2 0 -10.43492,2 0 -10.43492,2 0 -10.43492,2 0 -10.43492,2 0 -10.43492,2 0 -10.43492,2 0 -10.43492,2 0 -10.43492,2 0 -10.43492,2 0 -10.43492,2 0 -10.43492,2 0 -10.43492,2 0 -10.43492,2 0 -10.43492,2 0 -10.43492,2 0 -10.43492,1.710, 0
2 0 -9.153271,2 0 -9.153271,2 0 -9.153271,2 0 -9.153271,2 0 -9.153271,2 0 -9.153271,2 0 -9.153271,2 0 -9.153271,2 0 -9.153271,2 0 -9.153271,2 0 -9.153271,2 0 -9.153271,2 0 -9.153271,2 0 -9.153271,2 0 -9.153271,2 0 -9.153271,2 0 -9.153271,2 0 -9.153271,2 0 -9.153271,2 0 -9.153271,2 0 -9.153271,2 0 -10.43492,2 0 -10.43492,2 0 -10.43492,2 0 -10.43492,2 0 -10.43492,2 0 -10.43492,2 0 -10.43492,2 0 -10.43492,2 0 -10.43492,2 0 -10.43492,2 0 -10.43492,2 0 -10.43492,2 0 -10.43492,2 0 -10.43492,2 0 -10.43492,2 0 -10.43492,2 0 -10.43492,2 0 -10.43492,2 0 -10.43492,2 0 -10.43492,2 0 -10.43492,1.810, 0
2 0 -9.153271,2 0 -9.153271,2 0 -9.153271,2 0 -9.153271,2 0 -9.153271,2 0 -9.153271,2 0 -9.153271,2 0 -9.153271,2 0 -9.153271,2 0 -9.153271,2 0 -9.153271,2 0 -9.153271,2 0 -9.153271,2 0 -9.153271,2 0 -9.153271,2 0 -9.153271,2 0 -9.153271,2 0 -9.153271,2 0 -9.153271,2 0 -9.153271,2 0 -9.153271,2 0 -10.43492,2 0 -10.43492,2 0 -10.43492,2 0 -10.43492,2 0 -10.43492,2 0 -10.43492,2 0 -10.43492,2 0 -10.43492,2 0 -10.43492,2 0 -10.43492,2 0 -10.43492,2 0 -10.43492,2 0 -10.43492,2 0 -10.43492,2 0 -10.43492,2 0 -10.43492,2 0 -10.43492,2 0 -10.43492,2 0 -10.43492,2 0 -10.43492,2 0 -10.43492,1.910, 0
2 0 -9.153271,2 0 -9.153271,2 0 -9.153271,2 0 -9.153271,2 0 -9.153271,2 0 -9.153271,2 0 -9.153271,2 0 -9.153271,2 0 -9.153271,2 0 -9.153271,2 0 -9.153271,2 0 -9.153271,2 0 -9.153271,2 0 -9.153271,2 0 -9.153271,2 0 -9.153271,2 0 -9.153271,2 0 -9.153271,2 0 -9.153271,2 0 -9.153271,2 0 -9.153271,2 0 -10.43492,2 0 -10.43492,2 0 -10.43492,2 0 -10.43492,2 0 -10.43492,2 0 -10.43492,2 0 -10.43492,2 0 -10.43492,2 0 -10.43492,2 0 -10.43492,2 0 -10.43492,2 0 -10.43492,2 0 -10.43492,2 0 -10.43492,2 0 -10.43492,2 0 -10.43492,2 0 -10.43492,2 0 -10.43492,2 0 -10.43492,2 0 -10.43492,2 0 -10.43492,2.010, 0
2 0 -9.153271,2 0 -9.153271,2 0 -9.153271,2 0 -9.153271,2 0 -9.153271,2 0 -9.153271,2 0 -9.153271,2 0 -9.153271,2 0 -9.153271,2 0 -9.153271,2 0 -9.153271,2 0 -9.153271,2 0 -9.153271,2 0 -9.153271,2 0 -9.153271,2 0 -9.153271,2 0 -9.153271,2 0 -9.153271,2 0 -9.153271,2 0 -9.153271,2 0 -9.153271,2 0 -10.43492,2 0 -10.43492,2 0 -10.43492,2 0 -10.43492,2 0 -10.43492,2 0 -10.43492,2 0 -10.43492,2 0 -10.43492,2 0 -10.43492,2 0 -10.43492,2 0 -10.43492,2 0 -10.43492,2 0 -10.43492,2 0 -10.43492,2 0 -10.43492,2 0 -10.43492,2 0 -10.43492,2 0 -10.43492,2 0 -10.43492,2 0 -10.43492,2 0 -10.43492,2.110, 0
2 0 -9.153271,2 0 -9.153271,2 0 -9.153271,2 0 -9.153271,2 0 -9.153271,2 0 -9.153271,2 0 -9.153271,2 0 -9.153271,2 0 -9.153271,2 0 -9.153271,2 0 -9.153271,2 0 -9.153271,2 0 -9.153271,2 0 -9.153271,2 0 -9.153271,2 0 -9.153271,2 0 -9.153271,2 0 -9.153271,2 0 -9.153271,2 0 -9.153271,2 0 -9.153271,-10.82411 -14.73834 -6.306354,-11.24434 -14.52442 -6.142768,-11.47834 -14.18423 -6.059106,-11.58945 -13.83642 -5.956342,-11.5701 -13.5684 -5.832452,-11.43033 -13.61339 -6.25786,-11.53947 -13.22864 -6.036293,-11.55092 -13.20896 -5.850284,-11.52075 -13.21889 -5.762559,-11.27454 -13.65021 -6.240211,-11.3915 -13.45118 -5.960658,-11.39252 -13.63768 -5.773596,-11.3675 -13.78185 -5.686557,-11.13567 -13.77087 -6.203087,-11.25711 -13.88095 -5.902254,-11.23471 -14.17689 -5.788178,-11.18415 -14.37726 -5.785525,-11.01196 -13.97229 -6.14891,-11.11947 -14.04166 -5.968146,-11.12752 -14.23418 -5.902856,-11.10474 -14.3603 -5.902133,2.210, 0
2 0 -9.153271,2 0 -9.153271,2 0 -9.153271,2 0 -9.153271,2 0 -9.153271,2 0 -9.153271,2 0 -9.153271,2 0 -9.153271,2 0 -9.153271,2 0 -9.153271,2 0 -9.153271,2 0 -9.153271,2 0 -9.153271,2 0 -9.153271,2 0 -9.153271,2 0 -9.153271,2 0 -9.153271,2 0 -9.153271,2 0 -9.153271,2 0 -9.153271,2 0 -9.153271,-10.82411 -14.73834 -6.306354,-11.24434 -14.52442 -6.142768,-11.47834 -14.18423 -6.059106,-11.58945 -13.83642 -5.956342,-11.5701 -13.5684 -5.832452,-11.43033 -13.61339 -6.25786,-11.53947 -13.22864 -6.036293,-11.55092 -13.20896 -5.850284,-11.52075 -13.21889 -5.762559,-11.27454 -13.65021 -6.240211,-11.3915 -13.45118 -5.960658,-11.39252 -13.63768 -5.773596,-11.3675 -13.78185 -5.686557,-11.13567 -13.77087 -6.203087,-11.25711 -13.88095 -5.902254,-11.23471 -14.17689 -5.788178,-11.18415 -14.37726 -5.785525,-11.01196 -13.97229 -6.14891,-11.11947 -14.04166 -5.968146,-11.12752 -14.23418 -5.902856,-11.10474 -14.3603 -5.902133,2.310, 2
2 0 -9.153271,2 0 -9.153271,2 0 -9.153271,2 0 -9.153271,2 0 -9.153271,2 0 -9.153271,2 0 -9.153271,2 0 -9.153271,2 0 -9.153271,2 0 -9.153271,2 0 -9.153271,2 0 -9.153271,2 0 -9.153271,2 0 -9.153271,2 0 -9.153271,2 0 -9.153271,2 0 -9.153271,2 0 -9.153271,2 0 -9.153271,2 0 -9.153271,2 0 -9.153271,-10.82411 -14.73834 -6.306354,-11.24434 -14.52442 -6.142768,-11.47834 -14.18423 -6.059106,-11.58945 -13.83642 -5.956342,-11.5701 -13.5684 -5.832452,-11.43033 -13.61339 -6.25786,-11.53947 -13.22864 -6.036293,-11.55092 -13.20896 -5.850284,-11.52075 -13.21889 -5.762559,-11.27454 -13.65021 -6.240211,-11.3915 -13.45118 -5.960658,-11.39252 -13.63768 -5.773596,-11.3675 -13.78185 -5.686557,-11.13567 -13.77087 -6.203087,-11.25711 -13.88095 -5.902254,-11.23471 -14.17689 -5.788178,-11.18415 -14.37726 -5.785525,-11.01196 -13.97229 -6.14891,-11.11947 -14.04166 -5.968146,-11.12752 -14.23418 -5.902856,-11.10474 -14.3603 -5.902133,2.410, 2
2 0 -9.153271,2 0 -9.153271,2 0 -9.153271,2 0 -9.153271,2 0 -9.153271,2 0 -9.153271,2 0 -9.153271,2 0 -9.153271,2 0 -9.153271,2 0 -9.153271,2 0 -9.153271,2 0 -9.153271,2 0 -9.153271,2 0 -9.153271,2 0 -9.153271,2 0 -9.153271,2 0 -9.153271,2 0 -9.153271,2 0 -9.153271,2 0 -9.153271,2 0 -9.153271,-10.82411 -14.73834 -6.306354,-11.24434 -14.52442 -6.142768,-11.47834 -14.18423 -6.059106,-11.58945 -13.83642 -5.956342,-11.5701 -13.5684 -5.832452,-11.43033 -13.61339 -6.25786,-11.53947 -13.22864 -6.036293,-11.55092 -13.20896 -5.850284,-11.52075 -13.21889 -5.762559,-11.27454 -13.65021 -6.240211,-11.3915 -13.45118 -5.960658,-11.39252 -13.63768 -5.773596,-11.3675 -13.78185 -5.686557,-11.13567 -13.77087 -6.203087,-11.25711 -13.88095 -5.902254,-11.23471 -14.17689 -5.788178,-11.18415 -14.37726 -5.785525,-11.01196 -13.97229 -6.14891,-11.11947 -14.04166 -5.968146,-11.12752 -14.23418 -5.902856,-11.10474 -14.3603 -5.902133,2.510, 2
2 0 -9.153271,2 0 -9.153271,2 0 -9.153271,2 0 -9.153271,2 0 -9.153271,2 0 -9.153271,2 0 -9.153271,2 0 -9.153271,2 0 -9.153271,2 0 -9.153271,2 0 -9.153271,2 0 -9.153271,2 0 -9.153271,2 0 -9.153271,2 0 -9.153271,2 0 -9.153271,2 0 -9.153271,2 0 -9.153271,2 0 -9.153271,2 0 -9.153271,2 0 -9.153271,-10.82411 -14.73834 -6.306354,-11.24434 -14.52442 -6.142768,-11.47834 -14.18423 -6.059106,-11.58945 -13.83642 -5.956342,-11.5701 -13.5684 -5.832452,-11.43033 -13.61339 -6.25786,-11.53947 -13.22864 -6.036293,-11.55092 -13.20896 -5.850284,-11.52075 -13.21889 -5.762559,-11.27454 -13.65021 -6.240211,-11.3915 -13.45118 -5.960658,-11.39252 -13.63768 -5.773596,-11.3675 -13.78185 -5.686557,-11.13567 -13.77087 -6.203087,-11.25711 -13.88095 -5.902254,-11.23471 -14.17689 -5.788178,-11.18415 -14.37726 -5.785525,-11.01196 -13.97229 -6.14891,-11.11947 -14.04166 -5.968146,-11.12752 -14.23418 -5.902856,-11.10474 -14.3603 -5.902133,2.610, 2
2 0 -9.153271,2 0 -9.153271,2 0 -9.153271,2 0 -9.153271,2 0 -9.153271,2 0 -9.153271,2 0 -9.153271,2 0 -9.153271,2 0 -9.153271,2 0 -9.153271,2 0 -9.153271,2 0 -9.153271,2 0 -9.153271,2 0 -9.153271,2 0 -9.153271,2 0 -9.153271,2 0 -9.153271,2 0 -9.153271,2 0 -9.153271,2 0 -9.153271,2 0 -9.153271,-10.82411 -14.73834 -6.306354,-11.24434 -14.52442 -6.142768,-11.47834 -14.18423 -6.059106,-11.58945 -13.83642 -5.956342,-11.5701 -13.5684 -5.832452,-11.43033 -13.61339 -6.25786,-11.53947 -13.22864 -6.036293,-11.55092 -13.20896 -5.850284,-11.52075 -13.21889 -5.762559,-11.27454 -13.65021 -6.240211,-11.3915 -13.45118 -5.960658,-11.39252 -13.63768 -5.773596,-11.3675 -13.78185 -5.686557,-11.13567 -13.77087 -6.203087,-11.25711 -13.88095 -5.902254,-11.23471 -14.17689 -5.788178,-11.18415 -14.37726 -5.785525,-11.01196 -13.97229 -6.14891,-11.11947 -14.04166 -5.968146,-11.12752 -14.23418 -5.902856,-11.10474 -14.3603 -5.902133,2.710, 2
2 0 -9.153271,2 0 -9.153271,2 0 -9.153271,2 0 -9.153271,2 0 -9.153271,2 0 -9.153271,2 0 -9.153271,2 0 -9.153271,2 0 -9.153271,2 0 -9.153271,2 0 -9.153271,2 0 -9.153271,2 0 -9.153271,2 0 -9.153271,2 0 -9.153271,2 0 -9.153271,2 0 -9.153271,2 0 -9.153271,2 0 -9.153271,2 0 -9.153271,2 0 -9.153271,-10.82411 -14.73834 -6.306354,-11.24434 -14.52442 -6.142768,-11.47834 -14.18423 -6.059106,-11.58945 -13.83642 -5.956342,-11.5701 -13.5684 -5.832452,-11.43033 -13.61339 -6.25786,-11.53947 -13.22864 -6.036293,-11.55092 -13.20896 -5.850284,-11.52075 -13.21889 -5.762559,-11.27454 -13.65021 -6.240211,-11.3915 -13.45118 -5.960658,-11.39252 -13.63768 -5.773596,-11.3675 -13.78185 -5.686557,-11.13567 -13.77087 -6.203087,-11.25711 -13.88095 -5.902254,-11.23471 -14.17689 -5.788178,-11.18415 -14.37726 -5.785525,-11.01196 -13.97229 -6.14891,-11.11947 -14.04166 -5.968146,-11.12752 -14.23418 -5.902856,-11.10474 -14.3603 -5.902133,2.810, 2
2 0 -9.153271,2 0 -9.153271,2 0 -9.153271,2 0 -9.153271,2 0 -9.153271,2 0 -9.153271,2 0 -9.153271,2 0 -9.153271,2 0 -9.153271,2 0 -9.153271,2 0 -9.153271,2 0 -9.153271,2 0 -9.153271,2 0 -9.153271,2 0 -9.153271,2 0 -9.153271,2 0 -9.153271,2 0 -9.153271,2 0 -9.153271,2 0 -9.153271,2 0 -9.153271,-10.82411 -14.73834 -6.306354,-11.24434 -14.52442 -6.142768,-11.47834 -14.18423 -6.059106,-11.58945 -13.83642 -5.956342,-11.5701 -13.5684 -5.832452,-11.43033 -13.61339 -6.25786,-11.53947 -13.22864 -6.036293,-11.55092 -13.20896 -5.850284,-11.52075 -13.21889 -5.762559,-11.27454 -13.65021 -6.240211,-11.3915 -13.45118 -5.960658,-11.39252 -13.63768 -5.773596,-11.3675 -13.78185 -5.686557,-11.13567 -13.77087 -6.203087,-11.25711 -13.88095 -5.902254,-11.23471 -14.17689 -5.788178,-11.18415 -14.37726 -5.785525,-11.01196 -13.97229 -6.14891,-11.11947 -14.04166 -5.968146,-11.12752 -14.23418 -5.902856,-11.10474 -14.3603 -5.902133,2.910, 2
2 0 -9.153271,2 0 -9.153271,2 0 -9.153271,2 0 -9.153271,2 0 -9.153271,2 0 -9.153271,2 0 -9.153271,2 0 -9.153271,2 0 -9.153271,2 0 -9.153271,2 0 -9.153271,2 0 -9.153271,2 0 -9.153271,2 0 -9.153271,2 0 -9.153271,2 0 -9.153271,2 0 -9.153271,2 0 -9.153271,2 0 -9.153271,2 0 -9.153271,2 0 -9.153271,-10.82411 -14.73834 -6.306354,-11.24434 -14.52442 -6.142768,-11.47834 -14.18423 -6.059106,-11.58945 -13.83642 -5.956342,-11.5701 -13.5684 -5.832452,-11.43033 -13.61339 -6.25786,-11.53947 -13.22864 -6.036293,-11.55092 -13.20896 -5.850284,-11.52075 -13.21889 -5.762559,-11.27454 -13.65021 -6.240211,-11.3915 -13.45118 -5.960658,-11.39252 -13.63768 -5.773596,-11.3675 -13.78185 -5.686557,-11.13567 -13.77087 -6.203087,-11.25711 -13.88095 -5.902254,-11.23471 -14.17689 -5.788178,-11.18415 -14.37726 -5.785525,-11.01196 -13.97229 -6.14891,-11.11947 -14.04166 -5.968146,-11.12752 -14.23418 -5.902856,-11.10474 -14.3603 -5.902133,3.010, 2
2 0 -9.153271,2 0 -9.153271,2 0 -9.153271,2 0 -9.153271,2 0 -9.153271,2 0 -9.153271,2 0 -9.153271,2 0 -9.153271,2 0 -9.153271,2 0 -9.153271,2 0 -9.153271,2 0 -9.153271,2 0 -9.153271,2 0 -9.153271,2 0 -9.153271,2 0 -9.153271,2 0 -9.153271,2 0 -9.153271,2 0 -9.153271,2 0 -9.153271,2 0 -9.153271,-10.82411 -14.73834 -6.306354,-11.24434 -14.52442 -6.142768,-11.47834 -14.18423 -6.059106,-11.58945 -13.83642 -5.956342,-11.5701 -13.5684 -5.832452,-11.43033 -13.61339 -6.25786,-11.53947 -13.22864 -6.036293,-11.55092 -13.20896 -5.850284,-11.52075 -13.21889 -5.762559,-11.27454 -13.65021 -6.240211,-11.3915 -13.45118 -5.960658,-11.39252 -13.63768 -5.773596,-11.3675 -13.78185 -5.686557,-11.13567 -13.77087 -6.203087,-11.25711 -13.88095 -5.902254,-11.23471 -14.17689 -5.788178,-11.18415 -14.37726 -5.785525,-11.01196 -13.97229 -6.14891,-11.11947 -14.04166 -5.968146,-11.12752 -14.23418 -5.902856,-11.10474 -14.3603 -5.902133,3.110, 2
2 0 -9.153271,2 0 -9.153271,2 0 -9.153271,2 0 -9.153271,2 0 -9.153271,2 0 -9.153271,2 0 -9.153271,2 0 -9.153271,2 0 -9.153271,2 0 -9.153271,2 0 -9.153271,2 0 -9.153271,2 0 -9.153271,2 0 -9.153271,2 0 -9.153271,2 0 -9.153271,2 0 -9.153271,2 0 -9.153271,2 0 -9.153271,2 0 -9.153271,2 0 -9.153271,-10.82411 -14.73834 -6.306354,-11.24434 -14.52442 -6.142768,-11.47834 -14.18423 -6.059106,-11.58945 -13.83642 -5.956342,-11.5701 -13.5684 -5.832452,-11.43033 -13.61339 -6.25786,-11.53947 -13.22864 -6.036293,-11.55092 -13.20896 -5.850284,-11.52075 -13.21889 -5.762559,-11.27454 -13.65021 -6.240211,-11.3915 -13.45118 -5.960658,-11.39252 -13.63768 -5.773596,-11.3675 -13.78185 -5.686557,-11.13567 -13.77087 -6.203087,-11.25711 -13.88095 -5.902254,-11.23471 -14.17689 -5.788178,-11.18415 -14.37726 -5.785525,-11.01196 -13.97229 -6.14891,-11.11947 -14.04166 -5.968146,-11.12752 -14.23418 -5.902856,-11.10474 -14.3603 -5.902133,3.210, 2
2 0 -9.153271,2 0 -9.153271,2 0 -9.153271,2 0 -9.153271,2 0 -9.153271,2 0 -9.153271,2 0 -9.153271,2 0 -9.153271,2 0 -9.153271,2 0 -9.153271,2 0 -9.153271,2 0 -9.153271,2 0 -9.153271,2 0 -9.153271,2 0 -9.153271,2 0 -9.153271,2 0 -9.153271,2 0 -9.153271,2 0 -9.153271,2 0 -9.153271,2 0 -9.153271,-10.82411 -14.73834 -6.306354,-11.24434 -14.52442 -6.142768,-11.47834 -14.18423 -6.059106,-11.58945 -13.83642 -5.956342,-11.5701 -13.5684 -5.832452,-11.43033 -13.61339 -6.25786,-11.53947 -13.22864 -6.036293,-11.55092 -13.20896 -5.850284,-11.52075 -13.21889 -5.762559,-11.27454 -13.65021 -6.240211,-11.3915 -13.45118 -5.960658,-11.39252 -13.63768 -5.773596,-11.3675 -13.78185 -5.686557,-11.13567 -13.77087 -6.203087,-11.25711 -13.88095 -5.902254,-11.23471 -14.17689 -5.788178,-11.18415 -14.37726 -5.785525,-11.01196 -13.97229 -6.14891,-11.11947 -14.04166 -5.968146,-11.12752 -14.23418 -5.902856,-11.10474 -14.3603 -5.902133,3.310, 2
2 0 -9.153271,2 0 -9.153271,2 0 -9.153271,2 0 -9.153271,2 0 -9.153271,2 0 -9.153271,2 0 -9.153271,2 0 -9.153271,2 0 -9.153271,2 0 -9.153271,2 0 -9.153271,2 0 -9.153271,2 0 -9.153271,2 0 -9.153271,2 0 -9.153271,2 0 -9.153271,2 0 -9.153271,2 0 -9.153271,2 0 -9.153271,2 0 -9.153271,2 0 -9.153271,-10.82411 -14.73834 -6.306354,-11.24434 -14.52442 -6.142768,-11.47834 -14.18423 -6.059106,-11.58945 -13.83642 -5.956342,-11.5701 -13.5684 -5.832452,-11.43033 -13.61339 -6.25786,-11.53947 -13.22864 -6.036293,-11.55092 -13.20896 -5.850284,-11.52075 -13.21889 -5.762559,-11.27454 -13.65021 -6.240211,-11.3915 -13.45118 -5.960658,-11.39252 -13.63768 -5.773596,-11.3675 -13.78185 -5.686557,-11.13567 -13.77087 -6.203087,-11.25711 -13.88095 -5.902254,-11.23471 -14.17689 -5.788178,-11.18415 -14.37726 -5.785525,-11.01196 -13.97229 -6.14891,-11.11947 -14.04166 -5.968146,-11.12752 -14.23418 -5.902856,-11.10474 -14.3603 -5.902133,3.410, 2
2 0 -9.153271,2 0 -9.153271,2 0 -9.153271,2 0 -9.153271,2 0 -9.153271,2 0 -9.153271,2 0 -9.153271,2 0 -9.153271,2 0 -9.153271,2 0 -9.153271,2 0 -9.153271,2 0 -9.153271,2 0 -9.153271,2 0 -9.153271,2 0 -9.153271,2 0 -9.153271,2 0 -9.153271,2 0 -9.153271,2 0 -9.153271,2 0 -9.153271,2 0 -9.153271,-10.82411 -14.73834 -6.306354,-11.24434 -14.52442 -6.142768,-11.47834 -14.18423 -6.059106,-11.58945 -13.83642 -5.956342,-11.5701 -13.5684 -5.832452,-11.43033 -13.61339 -6.25786,-11.53947 -13.22864 -6.036293,-11.55092 -13.20896 -5.850284,-11.52075 -13.21889 -5.762559,-11.27454 -13.65021 -6.240211,-11.3915 -13.45118 -5.960658,-11.39252 -13.63768 -5.773596,-11.3675 -13.78185 -5.686557,-11.13567 -13.77087 -6.203087,-11.25711 -13.88095 -5.902254,-11.23471 -14.17689 -5.788178,-11.18415 -14.37726 -5.785525,-11.01196 -13.97229 -6.14891,-11.11947 -14.04166 -5.968146,-11.12752 -14.23418 -5.902856,-11.10474 -14.3603 -5.902133,3.510, 2
2 0 -9.153271,2 0 -9.153271,2 0 -9.153271,2 0 -9.153271,2 0 -9.153271,2 0 -9.153271,2 0 -9.153271,2 0 -9.153271,2 0 -9.153271,2 0 -9.153271,2 0 -9.153271,2 0 -9.153271,2 0 -9.153271,2 0 -9.153271,2 0 -9.153271,2 0 -9.153271,2 0 -9.153271,2 0 -9.153271,2 0 -9.153271,2 0 -9.153271,2 0 -9.153271,-10.82411 -14.73834 -6.306354,-11.24434 -14.52442 -6.142768,-11.47834 -14.18423 -6.059106,-11.58945 -13.83642 -5.956342,-11.5701 -13.5684 -5.832452,-11.43033 -13.61339 -6.25786,-11.53947 -13.22864 -6.036293,-11.55092 -13.20896 -5.850284,-11.52075 -13.21889 -5.762559,-11.27454 -13.65021 -6.240211,-11.3915 -13.45118 -5.960658,-11.39252 -13.63768 -5.773596,-11.3675 -13.78185 -5.686557,-11.13567 -13.77087 -6.203087,-11.25711 -13.88095 -5.902254,-11.23471 -14.17689 -5.788178,-11.18415 -14.37726 -5.785525,-11.01196 -13.97229 -6.14891,-11.11947 -14.04166 -5.968146,-11.12752 -14.23418 -5.902856,-11.10474 -14.3603 -5.902133,3.610, 2
2 0 -9.153271,2 0 -9.153271,2 0 -9.153271,2 0 -9.153271,2 0 -9.153271,2 0 -9.153271,2 0 -9.153271,2 0 -9.153271,2 0 -9.153271,2 0 -9.153271,2 0 -9.153271,2 0 -9.153271,2 0 -9.153271,2 0 -9.153271,2 0 -9.153271,2 0 -9.153271,2 0 -9.153271,2 0 -9.153271,2 0 -9.153271,2 0 -9.153271,2 0 -9.153271,-10.82411 -14.73834 -6.306354,-11.24434 -14.52442 -6.142768,-11.47834 -14.18423 -6.059106,-11.58945 -13.83642 -5.956342,-11.5701 -13.5684 -5.832452,-11.43033 -13.61339 -6.25786,-11.53947 -13.22864 -6.036293,-11.55092 -13.20896 -5.850284,-11.52075 -13.21889 -5.762559,-11.27454 -13.65021 -6.240211,-11.3915 -13.45118 -5.960658,-11.39252 -13.63768 -5.773596,-11.3675 -13.78185 -5.686557,-11.13567 -13.77087 -6.203087,-11.25711 -13.88095 -5.902254,-11.23471 -14.17689 -5.788178,-11.18415 -14.37726 -5.785525,-11.01196 -13.97229 -6.14891,-11.11947 -14.04166 -5.968146,-11.12752 -14.23418 -5.902856,-11.10474 -14.3603 -5.902133,3.710, 2
2 0 -9.153271,2 0 -9.153271,2 0 -9.153271,2 0 -9.153271,2 0 -9.153271,2 0 -9.153271,2 0 -9.153271,2 0 -9.153271,2 0 -9.153271,2 0 -9.153271,2 0 -9.153271,2 0 -9.153271,2 0 -9.153271,2 0 -9.153271,2 0 -9.153271,2 0 -9.153271,2 0 -9.153271,2 0 -9.153271,2 0 -9.153271,2 0 -9.153271,2 0 -9.153271,-10.82411 -14.73834 -6.306354,-11.24434 -14.52442 -6.142768,-11.47834 -14.18423 -6.059106,-11.58945 -13.83642 -5.956342,-11.5701 -13.5684 -5.832452,-11.43033 -13.61339 -6.25786,-11.53947 -13.22864 -6.036293,-11.55092 -13.20896 -5.850284,-11.52075 -13.21889 -5.762559,-11.27454 -13.65021 -6.240211,-11.3915 -13.45118 -5.960658,-11.39252 -13.63768 -5.773596,-11.3675 -13.78185 -5.686557,-11.13567 -13.77087 -6.203087,-11.25711 -13.88095 -5.902254,-11.23471 -14.17689 -5.788178,-11.18415 -14.37726 -5.785525,-11.01196 -13.97229 -6.14891,-11.11947 -14.04166 -5.968146,-11.12752 -14.23418 -5.902856,-11.10474 -14.3603 -5.902133,3.810, 2
2 0 -9.153271,2 0 -9.153271,2 0 -9.153271,2 0 -9.153271,2 0 -9.153271,2 0 -9.153271,2 0 -9.153271,2 0 -9.153271,2 0 -9.153271,2 0 -9.153271,2 0 -9.153271,2 0 -9.153271,2 0 -9.153271,2 0 -9.153271,2 0 -9.153271,2 0 -9.153271,2 0 -9.153271,2 0 -9.153271,2 0 -9.153271,2 0 -9.153271,2 0 -9.153271,-10.82411 -14.73834 -6.306354,-11.24434 -14.52442 -6.142768,-11.47834 -14.18423 -6.059106,-11.58945 -13.83642 -5.956342,-11.5701 -13.5684 -5.832452,-11.43033 -13.61339 -6.25786,-11.53947 -13.22864 -6.036293,-11.55092 -13.20896 -5.850284,-11.52075 -13.21889 -5.762559,-11.27454 -13.65021 -6.240211,-11.3915 -13.45118 -5.960658,-11.39252 -13.63768 -5.773596,-11.3675 -13.78185 -5.686557,-11.13567 -13.77087 -6.203087,-11.25711 -13.88095 -5.902254,-11.23471 -14.17689 -5.788178,-11.18415 -14.37726 -5.785525,-11.01196 -13.97229 -6.14891,-11.11947 -14.04166 -5.968146,-11.12752 -14.23418 -5.902856,-11.10474 -14.3603 -5.902133,3.910, 2
2 0 -9.153271,2 0 -9.153271,2 0 -9.153271,2 0 -9.153271,2 0 -9.153271,2 0 -9.153271,2 0 -9.153271,2 0 -9.153271,2 0 -9.153271,2 0 -9.153271,2 0 -9.153271,2 0 -9.153271,2 0 -9.153271,2 0 -9.153271,2 0 -9.153271,2 0 -9.153271,2 0 -9.153271,2 0 -9.153271,2 0 -9.153271,2 0 -9.153271,2 0 -9.153271,-10.82411 -14.73834 -6.306354,-11.24434 -14.52442 -6.142768,-11.47834 -14.18423 -6.059106,-11.58945 -13.83642 -5.956342,-11.5701 -13.5684 -5.832452,-11.43033 -13.61339 -6.25786,-11.53947 -13.22864 -6.036293,-11.55092 -13.20896 -5.850284,-11.52075 -13.21889 -5.762559,-11.27454 -13.65021 -6.240211,-11.3915 -13.45118 -5.960658,-11.39252 -13.63768 -5.773596,-11.3675 -13.78185 -5.686557,-11.13567 -13.77087 -6.203087,-11.25711 -13.88095 -5.902254,-11.23471 -14.17689 -5.788178,-11.18415 -14.37726 -5.785525,-11.01196 -13.97229 -6.14891,-11.11947 -14.04166 -5.968146,-11.12752 -14.23418 -5.902856,-11.10474 -14.3603 -5.902133,4.010, 2
2 0 -9.153271,2 0 -9.153271,2 0 -9.153271,2 0 -9.153271,2 0 -9.153271,2 0 -9.153271,2 0 -9.153271,2 0 -9.153271,2 0 -9.153271,2 0 -9.153271,2 0 -9.153271,2 0 -9.153271,2 0 -9.153271,2 0 -9.153271,2 0 -9.153271,2 0 -9.153271,2 0 -9.153271,2 0 -9.153271,2 0 -9.153271,2 0 -9.153271,2 0 -9.153271,-10.82411 -14.73834 -6.306354,-11.24434 -14.52442 -6.142768,-11.47834 -14.18423 -6.059106,-11.58945 -13.83642 -5.956342,-11.5701 -13.5684 -5.832452,-11.43033 -13.61339 -6.25786,-11.53947 -13.22864 -6.036293,-11.55092 -13.20896 -5.850284,-11.52075 -13.21889 -5.762559,-11.27454 -13.65021 -6.240211,-11.3915 -13.45118 -5.960658,-11.39252 -13.63768 -5.773596,-11.3675 -13.78185 -5.686557,-11.13567 -13.77087 -6.203087,-11.25711 -13.88095 -5.902254,-11.23471 -14.17689 -5.788178,-11.18415 -14.37726 -5.785525,-11.01196 -13.97229 -6.14891,-11.11947 -14.04166 -5.968146,-11.12752 -14.23418 -5.902856,-11.10474 -14.3603 -5.902133,4.110, 2
2 0 -9.153271,2 0 -9.153271,2 0 -9.153271,2 0 -9.153271,2 0 -9.153271,2 0 -9.153271,2 0 -9.153271,2 0 -9.153271,2 0 -9.153271,2 0 -9.153271,2 0 -9.153271,2 0 -9.153271,2 0 -9.153271,2 0 -9.153271,2 0 -9.153271,2 0 -9.153271,2 0 -9.153271,2 0 -9.153271,2 0 -9.153271,2 0 -9.153271,2 0 -9.153271,-10.82411 -14.73834 -6.306354,-11.24434 -14.52442 -6.142768,-11.47834 -14.18423 -6.059106,-11.58945 -13.83642 -5.956342,-11.5701 -13.5684 -5.832452,-11.43033 -13.61339 -6.25786,-11.53947 -13.22864 -6.036293,-11.55092 -13.20896 -5.850284,-11.52075 -13.21889 -5.762559,-11.27454 -13.65021 -6.240211,-11.3915 -13.45118 -5.960658,-11.39252 -13.63768 -5.773596,-11.3675 -13.78185 -5.686557,-11.13567 -13.77087 -6.203087,-11.25711 -13.88095 -5.902254,-11.23471 -14.17689 -5.788178,-11.18415 -14.37726 -5.785525,-11.01196 -13.97229 -6.14891,-11.11947 -14.04166 -5.968146,-11.12752 -14.23418 -5.902856,-11.10474 -14.3603 -5.902133,4.210, 2
2 0 -9.153271,2 0 -9.153271,2 0 -9.153271,2 0 -9.153271,2 0 -9.153271,2 0 -9.153271,2 0 -9.153271,2 0 -9.153271,2 0 -9.153271,2 0 -9.153271,2 0 -9.153271,2 0 -9.153271,2 0 -9.153271,2 0 -9.153271,2 0 -9.153271,2 0 -9.153271,2 0 -9.153271,2 0 -9.153271,2 0 -9.153271,2 0 -9.153271,2 0 -9.153271,-10.82411 -14.73834 -6.306354,-11.24434 -14.52442 -6.142768,-11.47834 -14.18423 -6.059106,-11.58945 -13.83642 -5.956342,-11.5701 -13.5684 -5.832452,-11.43033 -13.61339 -6.25786,-11.53947 -13.22864 -6.036293,-11.55092 -13.20896 -5.850284,-11.52075 -13.21889 -5.762559,-11.27454 -13.65021 -6.240211,-11.3915 -13.45118 -5.960658,-11.39252 -13.63768 -5.773596,-11.3675 -13.78185 -5.686557,-11.13567 -13.77087 -6.203087,-11.25711 -13.88095 -5.902254,-11.23471 -14.17689 -5.788178,-11.18415 -14.37726 -5.785525,-11.01196 -13.97229 -6.14891,-11.11947 -14.04166 -5.968146,-11.12752 -14.23418 -5.902856,-11.10474 -14.3603 -5.902133,4.310, 2
2 0 -9.153271,2 0 -9.153271,2 0 -9.153271,2 0 -9.153271,2 0 -9.153271,2 0 -9.153271,2 0 -9.153271,2 0 -9.153271,2 0 -9.153271,2 0 -9.153271,2 0 -9.153271,2 0 -9.153271,2 0 -9.153271,2 0 -9.153271,2 0 -9.153271,2 0 -9.153271,2 0 -9.153271,2 0 -9.153271,2 0 -9.153271,2 0 -9.153271,2 0 -9.153271,-10.82411 -14.73834 -6.306354,-11.24434 -14.52442 -6.142768,-11.47834 -14.18423 -6.059106,-11.58945 -13.83642 -5.956342,-11.5701 -13.5684 -5.832452,-11.43033 -13.61339 -6.25786,-11.53947 -13.22864 -6.036293,-11.55092 -13.20896 -5.850284,-11.52075 -13.21889 -5.762559,-11.27454 -13.65021 -6.240211,-11.3915 -13.45118 -5.960658,-11.39252 -13.63768 -5.773596,-11.3675 -13.78185 -5.686557,-11.13567 -13.77087 -6.203087,-11.25711 -13.88095 -5.902254,-11.23471 -14.17689 -5.788178,-11.18415 -14.37726 -5.785525,-11.01196 -13.97229 -6.14891,-11.11947 -14.04166 -5.968146,-11.12752 -14.23418 -5.902856,-11.10474 -14.3603 -5.902133,4.410, 2
2 0 -9.153271,2 0 -9.153271,2 0 -9.153271,2 0 -9.153271,2 0 -9.153271,2 0 -9.153271,2 0 -9.153271,2 0 -9.153271,2 0 -9.153271,2 0 -9.153271,2 0 -9.153271,2 0 -9.153271,2 0 -9.153271,2 0 -9.153271,2 0 -9.153271,2 0 -9.153271,2 0 -9.153271,2 0 -9.153271,2 0 -9.153271,2 0 -9.153271,2 0 -9.153271,-10.82411 -14.73834 -6.306354,-11.24434 -14.52442 -6.142768,-11.47834 -14.18423 -6.059106,-11.58945 -13.83642 -5.956342,-11.5701 -13.5684 -5.832452,-11.43033 -13.61339 -6.25786,-11.53947 -13.22864 -6.036293,-11.55092 -13.20896 -5.850284,-11.52075 -13.21889 -5.762559,-11.27454 -13.65021 -6.240211,-11.3915 -13.45118 -5.960658,-11.39252 -13.63768 -5.773596,-11.3675 -13.78185 -5.686557,-11.13567 -13.77087 -6.203087,-11.25711 -13.88095 -5.902254,-11.23471 -14.17689 -5.788178,-11.18415 -14.37726 -5.785525,-11.01196 -13.97229 -6.14891,-11.11947 -14.04166 -5.968146,-11.12752 -14.23418 -5.902856,-11.10474 -14.3603 -5.902133,4.510, 2
2 0 -9.153271,2 0 -9.153271,2 0 -9.153271,2 0 -9.153271,2 0 -9.153271,2 0 -9.153271,2 0 -9.153271,2 0 -9.153271,2 0 -9.153271,2 0 -9.153271,2 0 -9.153271,2 0 -9.153271,2 0 -9.153271,2 0 -9.153271,2 0 -9.153271,2 0 -9.153271,2 0 -9.153271,2 0 -9.153271,2 0 -9.153271,2 0 -9.153271,2 0 -9.153271,-10.82411 -14.73834 -6.306354,-11.24434 -14.52442 -6.142768,-11.47834 -14.18423 -6.059106,-11.58945 -13.83642 -5.956342,-11.5701 -13.5684 -5.832452,-11.43033 -13.61339 -6.25786,-11.53947 -13.22864 -6.036293,-11.55092 -13.20896 -5.850284,-11.52075 -13.21889 -5.762559,-11.27454 -13.65021 -6.240211,-11.3915 -13.45118 -5.960658,-11.39252 -13.63768 -5.773596,-11.3675 -13.78185 -5.686557,-11.13567 -13.77087 -6.203087,-11.25711 -13.88095 -5.902254,-11.23471 -14.17689 -5.788178,-11.18415 -14.37726 -5.785525,-11.01196 -13.97229 -6.14891,-11.11947 -14.04166 -5.968146,-11.12752 -14.23418 -5.902856,-11.10474 -14.3603 -5.902133,4.610, 2
2 0 -9.153271,2 0 -9.153271,2 0 -9.153271,2 0 -9.153271,2 0 -9.153271,2 0 -9.153271,2 0 -9.153271,2 0 -9.153271,2 0 -9.153271,2 0 -9.153271,2 0 -9.153271,2 0 -9.153271,2 0 -9.153271,2 0 -9.153271,2 0 -9.153271,2 0 -9.153271,2 0 -9.153271,2 0 -9.153271,2 0 -9.153271,2 0 -9.153271,2 0 -9.153271,-10.82411 -14.73834 -6.306354,-11.24434 -14.52442 -6.142768,-11.47834 -14.18423 -6.059106,-11.58945 -13.83642 -5.956342,-11.5701 -13.5684 -5.832452,-11.43033 -13.61339 -6.25786,-11.53947 -13.22864 -6.036293,-11.55092 -13.20896 -5.850284,-11.52075 -13.21889 -5.762559,-11.27454 -13.65021 -6.240211,-11.3915 -13.45118 -5.960658,-11.39252 -13.63768 -5.773596,-11.3675 -13.78185 -5.686557,-11.13567 -13.77087 -6.203087,-11.25711 -13.88095 -5.902254,-11.23471 -14.17689 -5.788178,-11.18415 -14.37726 -5.785525,-11.01196 -13.97229 -6.14891,-11.11947 -14.04166 -5.968146,-11.12752 -14.23418 -5.902856,-11.10474 -14.3603 -5.902133,4.710, 2
2 0 -9.153271,2 0 -9.153271,2 0 -9.153271,2 0 -9.153271,2 0 -9.153271,2 0 -9.153271,2 0 -9.153271,2 0 -9.153271,2 0 -9.153271,2 0 -9.153271,2 0 -9.153271,2 0 -9.153271,2 0 -9.153271,2 0 -9.153271,2 0 -9.153271,2 0 -9.153271,2 0 -9.153271,2 0 -9.153271,2 0 -9.153271,2 0 -9.153271,2 0 -9.153271,-10.82411 -14.73834 -6.306354,-11.24434 -14.52442 -6.142768,-11.47834 -14.18423 -6.059106,-11.58945 -13.83642 -5.956342,-11.5701 -13.5684 -5.832452,-11.43033 -13.61339 -6.25786,-11.53947 -13.22864 -6.036293,-11.55092 -13.20896 -5.850284,-11.52075 -13.21889 -5.762559,-11.27454 -13.65021 -6.240211,-11.3915 -13.45118 -5.960658,-11.39252 -13.63768 -5.773596,-11.3675 -13.78185 -5.686557,-11.13567 -13.77087 -6.203087,-11.25711 -13.88095 -5.902254,-11.23471 -14.17689 -5.788178,-11.18415 -14.37726 -5.785525,-11.01196 -13.97229 -6.14891,-11.11947 -14.04166 -5.968146,-11.12752 -14.23418 -5.902856,-11.10474 -14.3603 -5.902133,4.810, 2
2 0 -9.153271,2 0 -9.153271,2 0 -9.153271,2 0 -9.153271,2 0 -9.153271,2 0 -9.153271,2 0 -9.153271,2 0 -9.153271,2 0 -9.153271,2 0 -9.153271,2 0 -9.153271,2 0 -9.153271,2 0 -9.153271,2 0 -9.153271,2 0 -9.153271,2 0 -9.153271,2 0 -9.153271,2 0 -9.153271,2 0 -9.153271,2 0 -9.153271,2 0 -9.153271,-10.82411 -14.73834 -6.306354,-11.24434 -14.52442 -6.142768,-11.47834 -14.18423 -6.059106,-11.58945 -13.83642 -5.956342,-11.5701 -13.5684 -5.832452,-11.43033 -13.61339 -6.25786,-11.53947 -13.22864 -6.036293,-11.55092 -13.20896 -5.850284,-11.52075 -13.21889 -5.762559,-11.27454 -13.65021 -6.240211,-11.3915 -13.45118 -5.960658,-11.39252 -13.63768 -5.773596,-11.3675 -13.78185 -5.686557,-11.13567 -13.77087 -6.203087,-11.25711 -13.88095 -5.902254,-11.23471 -14.17689 -5.788178,-11.18415 -14.37726 -5.785525,-11.01196 -13.97229 -6.14891,-11.11947 -14.04166 -5.968146,-11.12752 -14.23418 -5.902856,-11.10474 -14.3603 -5.902133,4.910, 2
-3.422486 -14.59933 -2.583248,-2.988959 -14.7235 -2.152035,-2.793408 -14.43198 -1.773395,-2.786824 -14.18723 -1.512337,-2.776995 -14.08367 -1.222817,-3.169016 -13.48256 -1.185987,-3.300962 -13.06592 -0.9311054,-3.404156 -13.38 -0.8981829,-3.476495 -13.63088 -0.8297671,-3.485207 -13.27538 -1.254017,-3.615612 -12.94552 -0.9308795,-3.717747 -13.45236 -0.8471237,-3.81072 -13.89371 -0.698585,-3.762529 -13.25867 -1.378957,-3.893986 -12.91807 -1.042663,-3.947995 -13.43872 -0.9023732,-3.997264 -13.90944 -0.7788197,-4.01357 -13.38318 -1.509553,-4.178446 -13.01591 -1.209366,-4.209805 -13.26136 -1.080579,-4.203064 -13.54797 -0.9497573,-10.82411 -14.73834 -6.306354,-11.24434 -14.52442 -6.142768,-11.47834 -14.18423 -6.059106,-11.58945 -13.83642 -5.956342,-11.5701 -13.5684 -5.832452,-11.43033 -13.61339 -6.25786,-11.53947 -13.22864 -6.036293,-11.55092 -13.20896 -5.850284,-11.52075 -13.21889 -5.762559,-11.27454 -13.65021 -6.240211,-11.3915 -13.45118 -5.960658,-11.39252 -13.63768 -5.773596,-11.3675 -13.78185 -5.686557,-11.13567 -13.77087 -6.203087,-11.25711 -13.88095 -5.902254,-11.23471 -14.17689 -5.788178,-11.18415 -14.37726 -5.785525,-11.01196 -13.97229 -6.14891,-11.11947 -14.04166 -5.968146,-11.12752 -14.23418 -5.902856,-11.10474 -14.3603 -5.902133,5.010,Right Hand Closed  2
-2.963442 -13.36037 -2.394977,-3.520691 -12.97087 -2.389194,-3.892138 -12.21727 -2.274547,-4.023266 -11.52417 -2.143134,-3.980707 -11.02942 -1.976954,-3.889949 -11.61425 -1.95991,-4.016086 -10.54728 -1.839877,-4.089069 -10.17421 -1.890423,-4.177362 -9.92523 -1.929209,-3.561487 -11.61036 -1.840184,-3.671054 -10.97648 -1.762989,-3.685085 -11.39285 -1.847766,-3.694099 -11.80516 -1.858252,-3.224581 -11.69365 -1.739008,-3.369499 -11.22901 -1.628147,-3.372816 -11.68361 -1.729918,-3.352477 -12.10397 -1.744529,-2.881101 -11.83751 -1.624409,-3.039482 -11.44844 -1.51534,-3.092369 -11.77947 -1.506244,-3.086609 -12.09692 -1.46336,-10.82411 -14.73834 -6.306354,-11.24434 -14.52442 -6.142768,-11.47834 -14.18423 -6.059106,-11.58945 -13.83642 -5.956342,-11.5701 -13.5684 -5.832452,-11.43033 -13.61339 -6.25786,-11.53947 -13.22864 -6.036293,-11.55092 -13.20896 -5.850284,-11.52075 -13.21889 -5.762559,-11.27454 -13.65021 -6.240211,-11.3915 -13.45118 -5.960658,-11.39252 -13.63768 -5.773596,-11.3675 -13.78185 -5.686557,-11.13567 -13.77087 -6.203087,-11.25711 -13.88095 -5.902254,-11.23471 -14.17689 -5.788178,-11.18415 -14.37726 -5.785525,-11.01196 -13.97229 -6.14891,-11.11947 -14.04166 -5.968146,-11.12752 -14.23418 -5.902856,-11.10474 -14.3603 -5.902133,5.110, 3
-2.842728 -10.73518 -0.4341078,-3.440697 -10.25755 -0.2930821,-3.893204 -9.599152 -0.04396945,-4.10059 -8.957981 0.2586824,-4.036211 -8.406172 0.5815889,-3.880327 -8.468792 -0.2946918,-4.144529 -7.548551 0.0151121,-4.260094 -7.179597 0.2393887,-4.349633 -6.953435 0.3309523,-3.533336 -8.362906 -0.1188779,-3.777063 -7.706892 0.3077443,-3.807873 -8.299404 0.4681073,-3.797022 -8.817638 0.4965827,-3.181023 -8.449377 0.09745878,-3.41963 -8.126383 0.5266705,-3.468436 -8.861631 0.5904819,-3.45329 -9.397673 0.5414248,-2.833551 -8.672466 0.3283022,-3.076462 -8.353283 0.6638607,-3.180111 -8.886417 0.7171314,-3.187092 -9.307762 0.6951239,-8.947023 -11.80725 1.154402,-8.199223 -11.45897 1.227607,-7.6068 -10.6716 1.450946,-7.257565 -9.999874 1.75112,-7.016207 -9.288162 2.011333,-7.886798 -8.781002 1.313543,-7.637151 -7.456266 1.62877,-7.502061 -6.986234 1.895846,-7.406459 -6.88264 2.06091,-8.215453 -8.60083 1.536977,-7.987553 -7.191942 1.881635,-7.829014 -6.722881 2.143078,-7.716598 -6.646825 2.286537,-8.576718 -8.753798 1.785264,-8.407349 -7.411199 2.116366,-8.254303 -6.969037 2.34912,-8.09534 -6.819288 2.485732,-8.990618 -9.188097 2.041951,-8.994761 -8.127491 2.359654,-8.889646 -7.647607 2.523976,-8.736348 -7.37222 2.606529,5.210, 6
-2.878419 -10.46497 -0.5068519,-3.41783 -9.987965 -0.3062365,-3.810985 -9.344645 -0.1266649,-3.948538 -8.68305 0.0952729,-3.850175 -8.136677 0.306473,-3.802019 -8.207958 -0.4288207,-4.098677 -7.347286 -0.2577199,-4.284651 -6.787926 -0.1413471,-4.451586 -6.24491 -0.02982005,-3.507351 -8.085539 -0.2949146,-3.724446 -7.168283 0.01032948,-3.913342 -6.772373 0.1543856,-4.071072 -6.461358 0.2344398,-3.206083 -8.174955 -0.1039055,-3.44157 -7.681745 0.3560838,-3.535395 -8.391968 0.5218374,-3.541857 -8.998444 0.5241314,-2.895599 -8.415701 0.1111794,-3.077003 -7.964374 0.4911721,-3.204577 -8.467121 0.6336768,-3.256413 -8.994862 0.675647,-9.142363 -11.63134 1.08147,-8.343028 -11.167 1.069739,-7.72635 -10.33495 1.141541,-7.348814 -9.600592 1.324546,-7.119016 -8.959127 1.545597,-7.940739 -8.663622 0.5828604,-7.727021 -7.656557 0.6359919,-7.576142 -7.181732 0.7979797,-7.440336 -6.921595 0.9206133,-8.267389 -8.473558 0.7833722,-8.076041 -7.347959 0.7980229,-7.923525 -6.837175 1.019453,-7.782926 -6.611755 1.184724,-8.605122 -8.507544 1.023242,-8.463878 -7.45377 1.065766,-8.324512 -7.015388 1.287309,-8.178605 -6.847529 1.457629,-8.974212 -8.751402 1.2837,-8.890735 -7.887578 1.342517,-8.76832 -7.447972 1.476997,-8.615863 -7.184162 1.602175,5.310, 7
-2.847395 -9.664146 -0.8486661,-3.33997 -9.340633 -0.6085353,-3.661778 -8.623955 -0.4573004,-3.698508 -7.799146 -0.2758762,-3.551897 -7.12811 -0.1642841,-3.784725 -7.588159 -0.857855,-4.150333 -6.68807 -0.6646692,-4.361985 -6.095561 -0.5956233,-4.537058 -5.532997 -0.6139398,-3.496323 -7.383508 -0.7674358,-3.723026 -6.256931 -0.5019866,-3.903872 -5.433961 -0.2900199,-4.057158 -4.68119 -0.1365467,-3.180432 -7.436182 -0.6216674,-3.376197 -6.934694 -0.1266008,-3.384613 -7.766856 -0.01530546,-3.319314 -8.339729 -0.08507293,-2.860659 -7.632656 -0.4522944,-3.069812 -7.219583 -0.1011953,-3.149139 -7.829874 0.003165364,-3.144579 -8.33499 0.007023811,-8.979248 -10.56399 -1.795668,-8.393793 -10.23908 -1.613211,-7.909716 -9.536438 -1.321695,-7.76529 -8.742002 -0.9587114,-7.974462 -8.188196 -0.673563,-8.051544 -8.269863 -1.696117,-7.835848 -7.598796 -1.264567,-7.884701 -8.381559 -1.151799,-7.985901 -8.786711 -1.263337,-8.375823 -8.186102 -1.524039,-8.154263 -7.664857 -0.9510932,-8.200012 -8.586359 -0.8898106,-8.31589 -8.83629 -1.070498,-8.714131 -8.252819 -1.260465,-8.508415 -7.742239 -0.7794968,-8.505335 -8.652056 -0.8134956,-8.614492 -8.957222 -0.9646666,-9.078207 -8.433432 -0.9587916,-8.879928 -7.987242 -0.7294252,-8.837763 -8.632374 -0.6913618,-8.922418 -8.931698 -0.7565385,5.410,Left Hand Closed 2
-2.834859 -9.474089 -1.020701,-3.321499 -9.209164 -0.7940953,-3.668077 -8.472242 -0.6611842,-3.637098 -7.620101 -0.5026913,-3.448713 -7.003818 -0.398833,-3.779642 -7.431465 -0.9863804,-4.1703 -6.508933 -0.7922382,-4.376038 -5.917975 -0.7128274,-4.529636 -5.375751 -0.6819031,-3.479835 -7.245719 -0.8920809,-3.703653 -6.079648 -0.6516478,-3.856493 -5.265546 -0.4592737,-3.976666 -4.569612 -0.2937589,-3.15709 -7.342121 -0.7486768,-3.299626 -6.889145 -0.2565917,-3.302565 -7.730905 -0.2022566,-3.259901 -8.299669 -0.280724,-2.838337 -7.580652 -0.5855782,-3.003635 -7.146657 -0.2233838,-3.046947 -7.794929 -0.184432,-3.04401 -8.303799 -0.2371424,-9.046532 -10.44025 -0.6926908,-8.445287 -10.14669 -0.4234065,-7.941483 -9.485395 -0.02889603,-7.780019 -8.620995 0.392252,-8.064964 -8.00201 0.7115835,-8.098968 -7.895179 -0.4166763,-7.847178 -7.669754 0.00766027,-8.00858 -8.473076 -0.04568362,-8.155267 -8.660667 -0.2861298,-8.449975 -7.752254 -0.2849556,-8.201098 -7.643756 0.3042374,-8.316843 -8.651218 0.1534822,-8.421346 -8.661352 -0.1689834,-8.805718 -7.877557 -0.04928792,-8.586494 -7.805816 0.4481876,-8.630913 -8.778425 0.2849571,-8.7423 -8.800097 0.0673151,-9.169382 -8.130972 0.2402522,-8.939285 -8.061817 0.4445676,-8.94824 -8.773817 0.4223403,-9.077398 -8.846386 0.337669,5.510,Left Hand Closed 2
-2.784532 -9.307779 -1.071989,-3.241097 -9.018587 -0.8105521,-3.594006 -8.388868 -0.6335615,-3.570389 -7.628828 -0.4630631,-3.357744 -7.026699 -0.3481566,-3.759127 -7.316587 -0.8748857,-4.148655 -6.431011 -0.6592408,-4.348886 -5.879596 -0.5495708,-4.494614 -5.375276 -0.4830194,-3.465739 -7.118272 -0.8036778,-3.673678 -5.960574 -0.5690463,-3.799803 -5.181006 -0.386835,-3.897509 -4.522541 -0.232844,-3.142078 -7.221511 -0.6938633,-3.234354 -6.832933 -0.2820113,-3.216923 -7.628999 -0.2595028,-3.184359 -8.127615 -0.3279392,-2.832427 -7.453413 -0.5597949,-2.966195 -7.095333 -0.2549045,-2.989044 -7.728755 -0.2213423,-2.985142 -8.204449 -0.277288,-8.959392 -10.19496 -0.6272377,-8.417992 -9.959875 -0.1630727,-7.931591 -9.305704 0.2666607,-7.814665 -8.456009 0.6948795,-8.14973 -7.948341 0.9599713,-8.144787 -7.585773 -0.1845634,-7.882855 -7.471149 0.3473789,-8.044521 -8.28825 0.2608542,-8.182461 -8.381485 -0.02191734,-8.528053 -7.469948 -0.137225,-8.269696 -7.452682 0.5722897,-8.369937 -8.483631 0.4268945,-8.477138 -8.389927 0.03840286,-8.901258 -7.628435 0.0429855,-8.669904 -7.697278 0.6671342,-8.689794 -8.670406 0.5123602,-8.790428 -8.564316 0.261009,-9.269789 -7.919622 0.2867664,-9.023682 -7.967948 0.5844744,-8.992966 -8.679104 0.5902234,-9.105783 -8.665865 0.464729,5.610,Left Hand Closed 2
-2.798301 -9.265343 -1.137491,-3.256939 -8.96701 -0.879805,-3.598188 -8.322599 -0.7050405,-3.576052 -7.56623 -0.5292866,-3.379904 -6.96693 -0.3960164,-3.750957 -7.275957 -0.956667,-4.140463 -6.387706 -0.7285432,-4.342196 -5.837899 -0.6080292,-4.487881 -5.334441 -0.5400616,-3.460382 -7.088465 -0.8792425,-3.665808 -5.922088 -0.626782,-3.786998 -5.140936 -0.4364161,-3.878495 -4.470493 -0.2783141,-3.140806 -7.191812 -0.7617062,-3.244101 -6.80026 -0.3329302,-3.230637 -7.59432 -0.290863,-3.196022 -8.101463 -0.3500676,-2.833143 -7.4125 -0.6215377,-2.979489 -7.054079 -0.304144,-3.00905 -7.676677 -0.2608175,-3.003716 -8.155073 -0.3098755,-8.908128 -10.06403 -1.065212,-8.392694 -9.844324 -0.6011159,-7.917794 -9.198673 -0.1838205,-7.801943 -8.357946 0.2345884,-8.132378 -7.889068 0.5027733,-8.111964 -7.547252 -0.6694984,-7.864011 -7.392705 -0.1358715,-8.028243 -8.203508 -0.1963248,-8.163293 -8.326456 -0.4674226,-8.494617 -7.456411 -0.6230203,-8.257847 -7.334771 0.103027,-8.347033 -8.342594 0.034554,-8.445845 -8.317284 -0.312197,-8.869432 -7.605018 -0.4511785,-8.672993 -7.59596 0.1855257,-8.675241 -8.541601 0.09001458,-8.754455 -8.487255 -0.151127,-9.244773 -7.875041 -0.2219961,-9.025808 -7.804756 0.08665609,-8.980755 -8.495659 0.1133263,-9.074655 -8.533108 -0.02508986,5.710,Left Hand Closed 2
-2.795619 -9.183115 -1.334945,-3.263046 -8.918062 -1.098361,-3.633057 -8.249866 -0.9359366,-3.612793 -7.430345 -0.7641181,-3.400484 -6.77873 -0.6544791,-3.766947 -7.253182 -1.227302,-4.168022 -6.346811 -1.028615,-4.363991 -5.79037 -0.932215,-4.501532 -5.291724 -0.8805952,-3.468754 -7.06233 -1.139974,-3.685257 -5.883663 -0.9466255,-3.812334 -5.100708 -0.7733777,-3.902128 -4.440694 -0.6318111,-3.146559 -7.151996 -1.013845,-3.254653 -6.769069 -0.6033428,-3.237452 -7.562333 -0.5707634,-3.191456 -8.054934 -0.6341792,-2.835787 -7.352874 -0.8645382,-2.990021 -6.982304 -0.5680392,-3.015071 -7.621972 -0.5434598,-3.003149 -8.106899 -0.6027876,-8.890143 -9.951805 -1.085582,-8.380437 -9.740879 -0.6039394,-7.913611 -9.103422 -0.1871249,-7.808597 -8.278578 0.221881,-8.128262 -7.799185 0.484849,-8.106109 -7.458877 -0.6784313,-7.863461 -7.326639 -0.1293137,-8.025607 -8.133665 -0.1670607,-8.160044 -8.257204 -0.417281,-8.482764 -7.349067 -0.6440054,-8.244836 -7.272945 0.07341182,-8.335319 -8.284399 -0.001787663,-8.439255 -8.248505 -0.3408747,-8.851275 -7.489313 -0.4816061,-8.64389 -7.527874 0.1516896,-8.654099 -8.470575 0.04849756,-8.74402 -8.398245 -0.187629,-9.221342 -7.754591 -0.2566438,-8.98695 -7.732257 0.04949296,-8.94615 -8.42256 0.06850517,-9.048063 -8.44421 -0.06268787,5.810,Left Hand Closed 2
-2.832185 -9.076769 -1.260294,-3.285744 -8.823277 -1.010138,-3.655087 -8.164314 -0.8455722,-3.637421 -7.370815 -0.6772332,-3.438976 -6.743885 -0.5693348,-3.793667 -7.129322 -1.128714,-4.180314 -6.235461 -0.9220401,-4.373976 -5.681432 -0.8198147,-4.5128 -5.177474 -0.7564169,-3.502058 -6.934259 -1.047246,-3.711679 -5.764382 -0.832757,-3.835802 -4.979454 -0.6618977,-3.926923 -4.320119 -0.5216888,-3.18257 -7.031118 -0.9239683,-3.293552 -6.611955 -0.5015956,-3.27319 -7.40492 -0.4584342,-3.226089 -7.914483 -0.5172729,-2.872806 -7.241086 -0.778087,-3.033264 -6.846927 -0.4643394,-3.057228 -7.474438 -0.4261686,-3.039995 -7.956857 -0.4778179,-8.903632 -9.718033 -1.475473,-8.409823 -9.547928 -0.9379991,-7.936012 -8.908556 -0.5046042,-7.828678 -8.063475 -0.08337069,-8.171427 -7.577959 0.1952676,-8.126944 -7.332063 -1.06881,-7.897679 -7.138608 -0.4161533,-8.058405 -7.920432 -0.3879819,-8.188337 -8.070902 -0.6137037,-8.502704 -7.225877 -1.050234,-8.277845 -7.060173 -0.229533,-8.35798 -8.06395 -0.2655693,-8.449303 -8.040686 -0.6110246,-8.879225 -7.351516 -0.8949717,-8.685338 -7.391322 -0.1614529,-8.691087 -8.347282 -0.2522333,-8.773374 -8.258371 -0.5340705,-9.255525 -7.583476 -0.6695105,-9.020761 -7.591376 -0.3298917,-8.973776 -8.280718 -0.3388011,-9.067058 -8.270723 -0.5181152,5.910,Left Hand Closed 2
-2.825477 -9.071436 -1.252642,-3.274302 -8.807003 -1.011599,-3.62125 -8.162296 -0.8571227,-3.613546 -7.383349 -0.6877271,-3.453108 -6.722332 -0.5625005,-3.76633 -7.1272 -1.167308,-4.154619 -6.248387 -0.9763895,-4.351421 -5.699424 -0.8701932,-4.495211 -5.198854 -0.812351,-3.485179 -6.91979 -1.080495,-3.700063 -5.75241 -0.880743,-3.822329 -4.969027 -0.7009488,-3.91456 -4.315937 -0.5582162,-3.174425 -7.006237 -0.9521611,-3.30229 -6.597163 -0.5298638,-3.281223 -7.386954 -0.443646,-3.230754 -7.903736 -0.4849194,-2.870932 -7.206293 -0.8007799,-3.046733 -6.832445 -0.4825808,-3.07808 -7.447811 -0.4322728,-3.060926 -7.93208 -0.4847093,-8.882166 -9.634806 -1.824052,-8.414249 -9.469687 -1.329448,-7.9539 -8.805923 -0.9181501,-7.842021 -7.991067 -0.5078478,-8.171089 -7.556787 -0.2174221,-8.152761 -7.326055 -1.445901,-7.925911 -7.100235 -0.7880424,-8.04606 -7.86094 -0.6705598,-8.172154 -8.068352 -0.8353413,-8.511716 -7.238615 -1.407855,-8.289276 -6.934778 -0.6256722,-8.338358 -7.877601 -0.6131926,-8.435938 -7.980791 -0.9122214,-8.883005 -7.374436 -1.246048,-8.680116 -7.303678 -0.5475788,-8.669058 -8.235662 -0.6161565,-8.759068 -8.263931 -0.8887792,-9.262506 -7.626289 -1.019168,-9.023537 -7.49508 -0.7019416,-8.963913 -8.152725 -0.7398388,-9.055072 -8.236532 -0.9376945,6.010,Left Hand Closed 2
-2.815091 -8.945013 -1.30364,-3.272977 -8.670641 -1.047436,-3.620498 -8.044106 -0.896539,-3.600433 -7.273468 -0.7432047,-3.420049 -6.637498 -0.6451101,-3.775114 -7.011661 -1.193261,-4.15895 -6.146308 -0.9979594,-4.348778 -5.612006 -0.8952206,-4.491169 -5.123964 -0.8409702,-3.492956 -6.814786 -1.126538,-3.698174 -5.67254 -0.9165345,-3.817082 -4.901082 -0.7323645,-3.908244 -4.246052 -0.5811009,-3.182274 -6.906692 -1.016534,-3.282467 -6.540737 -0.6024954,-3.257077 -7.31903 -0.5321775,-3.213414 -7.827181 -0.5794688,-2.880624 -7.10987 -0.8834218,-3.02644 -6.760612 -0.5723472,-3.052212 -7.372544 -0.5189739,-3.042135 -7.849885 -0.5667217,-8.909867 -9.501844 -1.774732,-8.432397 -9.362835 -1.22144,-7.972264 -8.711636 -0.7989984,-7.864681 -7.87901 -0.3967133,-8.18465 -7.406003 -0.1301862,-8.163586 -7.195298 -1.380042,-7.938869 -6.995138 -0.6875603,-8.091832 -7.759757 -0.6125156,-8.22234 -7.926837 -0.8148214,-8.526524 -7.090038 -1.377146,-8.305586 -6.873434 -0.5310072,-8.381377 -7.867194 -0.5589396,-8.474158 -7.884544 -0.9171218,-8.899946 -7.210124 -1.235831,-8.703607 -7.201068 -0.482501,-8.711748 -8.157164 -0.5752002,-8.799112 -8.103039 -0.8816754,-9.277487 -7.433298 -1.025352,-9.038675 -7.387891 -0.6742389,-8.992338 -8.078009 -0.713994,-9.090027 -8.103231 -0.9256887,6.110,Left Hand Closed 2
-2.824304 -8.901251 -1.350822,-3.273226 -8.645416 -1.095378,-3.626949 -8.018898 -0.9262133,-3.611507 -7.241172 -0.7537953,-3.428902 -6.606449 -0.6391377,-3.778542 -6.991527 -1.215904,-4.166213 -6.12854 -1.001926,-4.36252 -5.597635 -0.8848731,-4.508966 -5.112356 -0.8192607,-3.496184 -6.786264 -1.141338,-3.707032 -5.646852 -0.9261046,-3.833906 -4.880659 -0.7458717,-3.931496 -4.227616 -0.5958873,-3.183228 -6.872306 -1.023308,-3.290859 -6.501388 -0.6091855,-3.267487 -7.279313 -0.5547511,-3.221439 -7.771068 -0.6055924,-2.880952 -7.074497 -0.8830437,-3.033702 -6.735031 -0.5796337,-3.060302 -7.350036 -0.540167,-3.049623 -7.819669 -0.5944154,-8.913071 -9.439941 -1.923376,-8.444554 -9.316774 -1.39347,-7.981797 -8.673685 -0.9857681,-7.873019 -7.842723 -0.5880355,-8.191303 -7.356651 -0.3210605,-8.159321 -7.176742 -1.572892,-7.942096 -6.934165 -0.8732554,-8.082089 -7.692681 -0.7629348,-8.206078 -7.875714 -0.9407289,-8.518739 -7.067827 -1.561491,-8.315106 -6.815151 -0.7286124,-8.386927 -7.819147 -0.7371128,-8.476861 -7.857769 -1.082211,-8.896134 -7.183816 -1.410887,-8.709579 -7.132339 -0.6827226,-8.714424 -8.10038 -0.7704419,-8.798055 -8.061348 -1.06901,-9.281661 -7.40139 -1.190778,-9.046412 -7.359644 -0.850366,-8.997654 -8.053137 -0.8802508,-9.089299 -8.071938 -1.084961,6.210,Left Hand Closed 2
-2.836955 -8.83548 -1.417731,-3.295438 -8.592661 -1.179595,-3.658073 -7.987656 -1.010353,-3.643986 -7.222015 -0.8330587,-3.470969 -6.601348 -0.7110852,-3.80154 -6.951093 -1.295527,-4.187326 -6.090544 -1.07375,-4.381325 -5.558761 -0.9529319,-4.524706 -5.068781 -0.8852745,-3.514363 -6.742385 -1.208536,-3.72319 -5.606502 -0.9807288,-3.844415 -4.838124 -0.7986798,-3.935396 -4.186543 -0.6489373,-3.200485 -6.827724 -1.081824,-3.309387 -6.484248 -0.6534499,-3.288082 -7.25999 -0.607352,-3.242929 -7.75879 -0.6672306,-2.895216 -7.025506 -0.9330865,-3.047531 -6.70081 -0.6214606,-3.078312 -7.315847 -0.5903631,-3.071186 -7.792911 -0.6530903,-8.864189 -9.442175 -1.914765,-8.409575 -9.281145 -1.341631,-7.964497 -8.622349 -0.9130632,-7.865528 -7.796915 -0.4992517,-8.196722 -7.324453 -0.219646,-8.169157 -7.142499 -1.556948,-7.954156 -6.894515 -0.8283787,-8.092207 -7.665481 -0.7153391,-8.218206 -7.824844 -0.8943084,-8.529308 -7.05822 -1.554211,-8.321343 -6.812788 -0.6749703,-8.38889 -7.837147 -0.7035395,-8.482204 -7.836895 -1.080572,-8.901546 -7.18246 -1.39984,-8.716906 -7.086687 -0.6123893,-8.71864 -8.062798 -0.7214853,-8.809115 -8.020479 -1.05503,-9.287181 -7.398419 -1.174399,-9.060773 -7.249273 -0.8072276,-8.997472 -7.942697 -0.8611666,-9.08604 -7.991237 -1.097729,6.310,Left Hand Closed 2
-2.847445 -8.827112 -1.423008,-3.293569 -8.591793 -1.138442,-3.64871 -7.973991 -0.9578879,-3.607657 -7.215858 -0.7874759,-3.392754 -6.61768 -0.6839707,-3.804874 -6.930974 -1.235851,-4.188029 -6.063791 -0.9967214,-4.385093 -5.528171 -0.8721688,-4.530479 -5.038251 -0.8036358,-3.506544 -6.735958 -1.158949,-3.71484 -5.593288 -0.9212847,-3.838467 -4.816915 -0.7355717,-3.929589 -4.171861 -0.5872366,-3.182039 -6.833344 -1.039368,-3.292709 -6.464311 -0.5759956,-3.281404 -7.247615 -0.5123329,-3.236925 -7.759674 -0.5717286,-2.869946 -7.045303 -0.8966393,-3.038174 -6.712955 -0.5511432,-3.072083 -7.332001 -0.5094942,-3.058016 -7.805996 -0.5783991,-8.873233 -9.395741 -2.256188,-8.41446 -9.245817 -1.741966,-7.959557 -8.608084 -1.32847,-7.846842 -7.810621 -0.9154712,-8.162379 -7.3194 -0.6296049,-8.146059 -7.208272 -1.947822,-7.935472 -6.90398 -1.230408,-8.054762 -7.628788 -1.061429,-8.17568 -7.837109 -1.185229,-8.496443 -7.114414 -1.919389,-8.297788 -6.762167 -1.088246,-8.352489 -7.727689 -1.055739,-8.446445 -7.819835 -1.373183,-8.868805 -7.216342 -1.752567,-8.676264 -7.071311 -1.021445,-8.675813 -8.021658 -1.099062,-8.769682 -8.046801 -1.405976,-9.261845 -7.417148 -1.521093,-9.024343 -7.233221 -1.190817,-8.962378 -7.90903 -1.246544,-9.054906 -7.998558 -1.474447,6.410,Left Hand Closed 2
-2.841389 -8.81492 -1.365917,-3.286428 -8.58493 -1.076668,-3.637524 -7.963233 -0.8925387,-3.605364 -7.206984 -0.7147337,-3.416464 -6.593448 -0.5938011,-3.793961 -6.901694 -1.19208,-4.164557 -6.036022 -0.9635723,-4.354368 -5.497931 -0.8450912,-4.496683 -5.00249 -0.7779784,-3.497547 -6.702877 -1.124897,-3.696815 -5.573534 -0.8845683,-3.81075 -4.806341 -0.6963313,-3.898515 -4.1555 -0.5493975,-3.176437 -6.802426 -1.0146,-3.270788 -6.442949 -0.5549272,-3.260344 -7.226359 -0.4882408,-3.224687 -7.738771 -0.544489,-2.870181 -7.018454 -0.8813384,-3.021446 -6.701776 -0.5323483,-3.061523 -7.319839 -0.4810398,-3.060928 -7.797307 -0.5408145,-8.836418 -9.312456 -2.079486,-8.385264 -9.166805 -1.543255,-7.946922 -8.519575 -1.124293,-7.838306 -7.719904 -0.7038652,-8.141705 -7.214372 -0.3845607,-8.133395 -7.061277 -1.726938,-7.921939 -6.784998 -0.9937629,-8.035347 -7.534717 -0.8304222,-8.147926 -7.729845 -0.9830191,-8.497985 -6.976629 -1.721968,-8.290125 -6.711807 -0.8700776,-8.352886 -7.708932 -0.8709495,-8.44378 -7.729969 -1.226732,-8.871434 -7.101112 -1.569864,-8.682655 -7.011675 -0.8266293,-8.675274 -7.958993 -0.9154495,-8.75211 -7.917977 -1.222889,-9.250488 -7.316619 -1.358469,-9.016342 -7.191197 -1.016891,-8.948414 -7.858942 -1.058697,-9.03018 -7.888117 -1.278827,6.510,Left Hand Closed 2
-2.830824 -8.829384 -1.391298,-3.276222 -8.594025 -1.102638,-3.621806 -7.965979 -0.9358277,-3.588447 -7.209184 -0.7763896,-3.40148 -6.614686 -0.6704577,-3.789945 -6.922428 -1.221315,-4.160196 -6.039356 -1.022121,-4.356325 -5.49487 -0.924957,-4.505161 -4.997915 -0.8633181,-3.492838 -6.726217 -1.155681,-3.691823 -5.578872 -0.9343855,-3.805679 -4.798785 -0.7485315,-3.890514 -4.155248 -0.5969427,-3.172425 -6.826404 -1.051176,-3.27314 -6.453298 -0.5908809,-3.260632 -7.235971 -0.516513,-3.222034 -7.766085 -0.5751711,-2.862405 -7.040041 -0.9231095,-3.022724 -6.686574 -0.5628741,-3.056159 -7.296842 -0.515816,-3.045466 -7.780609 -0.5797374,-8.76757 -9.233736 -2.233972,-8.306067 -9.065069 -1.743171,-7.863012 -8.387236 -1.355327,-7.775723 -7.575068 -0.9509405,-8.117239 -7.105627 -0.6795106,-8.091272 -6.994651 -1.9948,-7.857971 -6.650616 -1.288377,-7.969078 -7.417244 -1.162982,-8.098575 -7.609981 -1.324166,-8.44317 -6.929542 -1.960342,-8.235019 -6.588626 -1.119389,-8.291147 -7.601329 -1.111116,-8.393728 -7.647684 -1.471743,-8.810967 -7.049081 -1.774685,-8.611801 -6.848066 -1.037881,-8.60169 -7.819743 -1.126542,-8.695536 -7.834524 -1.441284,-9.201542 -7.262483 -1.529278,-8.955252 -7.019178 -1.195658,-8.884463 -7.705571 -1.236436,-8.975616 -7.801307 -1.463268,6.610,Left Hand Closed 2
-2.821286 -8.841589 -1.385346,-3.270235 -8.594975 -1.102943,-3.61677 -7.949458 -0.9381852,-3.58882 -7.179775 -0.7815821,-3.406174 -6.579792 -0.6740673,-3.77799 -6.933895 -1.226819,-4.153095 -6.054056 -1.009584,-4.339884 -5.512827 -0.8982728,-4.47649 -5.019762 -0.8384672,-3.483082 -6.734884 -1.165064,-3.680631 -5.580072 -0.946551,-3.786499 -4.803567 -0.7666644,-3.864304 -4.157623 -0.6178583,-3.167593 -6.833557 -1.061386,-3.259872 -6.4666 -0.6359837,-3.247649 -7.23841 -0.5693733,-3.213249 -7.754112 -0.6205371,-2.865134 -7.04177 -0.9328257,-3.009842 -6.70803 -0.6061696,-3.040453 -7.324098 -0.5597281,-3.034197 -7.804042 -0.6170445,-8.680373 -9.028408 -1.870471,-8.206468 -8.880974 -1.367392,-7.766737 -8.239166 -0.9547528,-7.650183 -7.421598 -0.5155785,-7.949572 -6.848318 -0.187246,-7.959521 -6.719348 -1.641494,-7.742319 -6.445225 -0.934364,-7.855058 -7.234008 -0.7979628,-7.972995 -7.433965 -0.9578912,-8.310269 -6.622155 -1.625462,-8.093824 -6.43621 -0.8058026,-8.1681 -7.497974 -0.8446254,-8.267872 -7.482205 -1.247125,-8.681176 -6.74151 -1.454166,-8.465383 -6.650053 -0.7456594,-8.468707 -7.65295 -0.8414606,-8.564219 -7.617855 -1.15221,-9.065063 -6.954119 -1.218507,-8.800849 -6.85737 -0.8838234,-8.748071 -7.581302 -0.9017206,-8.850797 -7.618877 -1.11864,6.710,Left Hand Closed 2
-2.810391 -8.796638 -1.370536,-3.250386 -8.543491 -1.083175,-3.585351 -7.932507 -0.901791,-3.552667 -7.183769 -0.7352186,-3.357122 -6.589511 -0.621777,-3.758999 -6.884223 -1.178918,-4.133266 -6.014334 -0.9710443,-4.316011 -5.476749 -0.8612298,-4.44879 -4.991271 -0.8110512,-3.471344 -6.688657 -1.119604,-3.671572 -5.542907 -0.8911391,-3.777292 -4.769779 -0.709864,-3.852537 -4.127692 -0.5641279,-3.157595 -6.794321 -1.020719,-3.243401 -6.409639 -0.5884204,-3.226536 -7.167405 -0.5233357,-3.188271 -7.66744 -0.5803563,-2.853889 -7.016445 -0.8969023,-2.993376 -6.666379 -0.5724795,-3.029857 -7.267202 -0.5263379,-3.027772 -7.735418 -0.5853394,-8.640201 -8.961647 -1.913815,-8.16676 -8.806353 -1.394197,-7.722891 -8.160158 -0.9855372,-7.606521 -7.348918 -0.5600175,-7.915884 -6.800086 -0.2651777,-7.928418 -6.659847 -1.651247,-7.693132 -6.33473 -0.9582149,-7.821261 -7.153686 -0.8515096,-7.947446 -7.353906 -1.030192,-8.277382 -6.570686 -1.634072,-8.055456 -6.334307 -0.8154948,-8.139262 -7.397797 -0.8571676,-8.243526 -7.393661 -1.259636,-8.646811 -6.695945 -1.455775,-8.433316 -6.532133 -0.7373462,-8.439743 -7.54059 -0.8240077,-8.534981 -7.539047 -1.128627,-9.037766 -6.920639 -1.212399,-8.777555 -6.735567 -0.8593433,-8.720659 -7.451637 -0.8586437,-8.814058 -7.527246 -1.062381,6.810,Left Hand Closed 2
-2.777833 -8.754997 -1.389622,-3.213408 -8.508484 -1.079593,-3.550508 -7.887916 -0.9055399,-3.524517 -7.134555 -0.7489648,-3.347626 -6.545747 -0.6481207,-3.726608 -6.835332 -1.183034,-4.095019 -5.939822 -0.9971925,-4.272799 -5.395515 -0.9100776,-4.407297 -4.898 -0.8655766,-3.429571 -6.651069 -1.128669,-3.625661 -5.499317 -0.9117863,-3.721369 -4.718307 -0.7313861,-3.78967 -4.068809 -0.580745,-3.113204 -6.770517 -1.038299,-3.199698 -6.363063 -0.5968518,-3.190346 -7.140321 -0.522993,-3.161663 -7.675708 -0.578567,-2.80719 -7.003135 -0.9224367,-2.944159 -6.61687 -0.5790349,-2.97972 -7.220763 -0.5299234,-2.979946 -7.699279 -0.5934985,-8.600334 -8.746664 -1.735786,-8.10725 -8.556046 -1.257463,-7.64804 -7.930068 -0.8566616,-7.515604 -7.107437 -0.4336174,-7.814606 -6.532594 -0.1505702,-7.852841 -6.408275 -1.524758,-7.617196 -6.076484 -0.871516,-7.742013 -6.896137 -0.771539,-7.863986 -7.105627 -0.9509259,-8.196228 -6.305732 -1.500488,-7.959168 -6.098701 -0.7300452,-8.052258 -7.15724 -0.7693755,-8.164584 -7.148715 -1.162816,-8.555988 -6.414188 -1.319589,-8.315995 -6.261543 -0.6412458,-8.342262 -7.281962 -0.7119648,-8.452322 -7.29256 -1.002897,-8.938368 -6.620409 -1.079213,-8.646733 -6.484535 -0.7468079,-8.612121 -7.204267 -0.7265286,-8.73301 -7.270088 -0.9123403,6.910,Left Hand Closed 2
-2.774487 -8.75174 -1.346691,-3.209702 -8.509434 -1.025503,-3.543997 -7.884799 -0.8419393,-3.507298 -7.135314 -0.6787804,-3.315927 -6.547317 -0.5730594,-3.724205 -6.818243 -1.133385,-4.091652 -5.924081 -0.9338644,-4.267207 -5.372846 -0.8432652,-4.392748 -4.8783 -0.8015302,-3.424639 -6.635362 -1.077964,-3.621763 -5.478454 -0.8471571,-3.718037 -4.700727 -0.6710688,-3.78366 -4.067146 -0.5396354,-3.101273 -6.760755 -0.9833689,-3.180281 -6.33702 -0.5195937,-3.173632 -7.114936 -0.4368593,-3.14614 -7.655333 -0.4944334,-2.789803 -7.002086 -0.8630545,-2.934977 -6.626052 -0.4997845,-2.983808 -7.230318 -0.4419106,-2.990103 -7.712419 -0.5045165,-8.594461 -8.710382 -1.86661,-8.102743 -8.514135 -1.423134,-7.630711 -7.87137 -1.035213,-7.495595 -7.04029 -0.6232913,-7.808409 -6.502409 -0.3583671,-7.866249 -6.404354 -1.6806,-7.608667 -6.029188 -1.050651,-7.72273 -6.858031 -0.9650063,-7.854703 -7.074857 -1.163998,-8.192239 -6.30717 -1.632063,-7.934841 -6.039814 -0.8743513,-8.033259 -7.084278 -0.9046537,-8.164735 -7.100991 -1.291708,-8.540177 -6.411614 -1.431732,-8.276937 -6.217418 -0.7581882,-8.317409 -7.22162 -0.8314047,-8.448761 -7.255935 -1.127423,-8.916292 -6.610845 -1.177023,-8.60466 -6.400663 -0.8467537,-8.581676 -7.103019 -0.8366289,-8.716573 -7.204577 -1.03157,7.010,Left Hand Closed 2
-2.739175 -8.734102 -1.374429,-3.177403 -8.481213 -1.070918,-3.502621 -7.874474 -0.8926399,-3.463167 -7.131628 -0.7364189,-3.279316 -6.556307 -0.6307026,-3.698175 -6.819586 -1.159305,-4.057168 -5.913352 -0.9706019,-4.231244 -5.361 -0.8809422,-4.357592 -4.860001 -0.8380221,-3.39957 -6.62891 -1.108683,-3.589231 -5.46185 -0.8922764,-3.688114 -4.68635 -0.7128033,-3.758627 -4.048775 -0.5602451,-3.078362 -6.741268 -1.024892,-3.148984 -6.342184 -0.5955849,-3.140439 -7.113105 -0.5256454,-3.116553 -7.63558 -0.5777554,-2.770495 -6.965126 -0.9170612,-2.901903 -6.604918 -0.5879661,-2.940422 -7.214926 -0.547893,-2.943808 -7.68848 -0.6153216,-8.610769 -8.687828 -1.766034,-8.103631 -8.511663 -1.285173,-7.625418 -7.851591 -0.8679355,-7.48798 -6.969375 -0.445071,-7.788493 -6.386158 -0.1812627,-7.841127 -6.377256 -1.531375,-7.580987 -5.99469 -0.9279819,-7.73699 -6.842083 -0.9033993,-7.870535 -7.018228 -1.138104,-8.169598 -6.26568 -1.496705,-7.929201 -5.974256 -0.7183851,-8.050839 -7.054367 -0.7988532,-8.16528 -7.017239 -1.222411,-8.521876 -6.356706 -1.31356,-8.286295 -6.144619 -0.6242489,-8.328348 -7.186426 -0.7109952,-8.437031 -7.173231 -1.009597,-8.893494 -6.537038 -1.071381,-8.609504 -6.359313 -0.7318236,-8.597607 -7.087423 -0.7035807,-8.723028 -7.140066 -0.8781058,7.110,Left Hand Closed 2
-2.755179 -8.747002 -1.28568,-3.188589 -8.48632 -0.9594519,-3.512854 -7.8894 -0.767108,-3.464331 -7.166621 -0.5976154,-3.263137 -6.606893 -0.4805031,-3.691387 -6.792821 -1.033574,-4.049278 -5.891361 -0.8323659,-4.219519 -5.335435 -0.7427606,-4.341619 -4.831058 -0.6946822,-3.389236 -6.611965 -0.9830704,-3.581827 -5.458324 -0.739513,-3.676942 -4.682027 -0.5578215,-3.742876 -4.045433 -0.412636,-3.064573 -6.735865 -0.8949638,-3.142536 -6.326396 -0.432386,-3.141857 -7.106591 -0.3555131,-3.119109 -7.653756 -0.4106601,-2.751335 -6.976892 -0.7796494,-2.889281 -6.609574 -0.4280066,-2.942201 -7.202872 -0.3707666,-2.953649 -7.677326 -0.4278487,-8.625915 -8.684101 -1.809697,-8.128963 -8.499157 -1.340138,-7.647535 -7.846852 -0.9196562,-7.496584 -6.96403 -0.4813297,-7.791469 -6.371593 -0.1918346,-7.849171 -6.390477 -1.605152,-7.586991 -5.96986 -0.9848725,-7.736012 -6.798688 -0.9474112,-7.870143 -6.988172 -1.18512,-8.170194 -6.275072 -1.562403,-7.922821 -5.975618 -0.7681825,-8.052373 -7.055473 -0.8476045,-8.174369 -7.008701 -1.284908,-8.517942 -6.350671 -1.367713,-8.276641 -6.139923 -0.6659254,-8.330464 -7.176232 -0.7537044,-8.446918 -7.145959 -1.059446,-8.88884 -6.504549 -1.116717,-8.595508 -6.330216 -0.7795182,-8.588564 -7.058317 -0.7524347,-8.720428 -7.098667 -0.9273985,7.210,Left Hand Closed 2
-2.758615 -8.733429 -1.273578,-3.198423 -8.48015 -0.9670549,-3.532713 -7.86618 -0.7875391,-3.482805 -7.11507 -0.6222894,-3.290829 -6.531581 -0.5170733,-3.698795 -6.781963 -1.069748,-4.041782 -5.892441 -0.8714905,-4.216108 -5.354677 -0.7873179,-4.35137 -4.858274 -0.737272,-3.397337 -6.59046 -1.014412,-3.574165 -5.446887 -0.7880278,-3.670403 -4.673831 -0.6034955,-3.746544 -4.032394 -0.4416993,-3.074429 -6.704264 -0.9197424,-3.157136 -6.310169 -0.4690357,-3.153219 -7.104298 -0.4034908,-3.128757 -7.648337 -0.4577495,-2.7658 -6.937539 -0.8015296,-2.899429 -6.577117 -0.4596604,-2.93405 -7.201883 -0.411253,-2.934902 -7.689505 -0.4702134,-8.635674 -8.600143 -1.934345,-8.104422 -8.390507 -1.509461,-7.620768 -7.75408 -1.11397,-7.479931 -6.875896 -0.6911613,-7.789084 -6.289283 -0.4197032,-7.83058 -6.335279 -1.77776,-7.56665 -5.914932 -1.192331,-7.716065 -6.743978 -1.188372,-7.850681 -6.911619 -1.459373,-8.149123 -6.230561 -1.719301,-7.900497 -5.888299 -0.9389011,-8.027592 -6.950983 -1.010029,-8.14611 -6.90175 -1.444732,-8.497841 -6.309345 -1.51504,-8.246754 -6.059026 -0.8266535,-8.302794 -7.082486 -0.9124401,-8.426132 -7.049169 -1.221485,-8.875884 -6.459629 -1.26087,-8.57393 -6.22652 -0.9397577,-8.567645 -6.945667 -0.9207107,-8.705471 -6.997092 -1.113738,7.310,Left Hand Closed 2
-2.766253 -8.696653 -1.303638,-3.207833 -8.436237 -1.000698,-3.538754 -7.82901 -0.8141246,-3.494585 -7.08267 -0.6497017,-3.302441 -6.493398 -0.5318252,-3.70467 -6.756689 -1.071494,-4.050141 -5.873676 -0.8668152,-4.218454 -5.333578 -0.7754338,-4.343758 -4.836549 -0.721969,-3.401802 -6.564772 -1.020717,-3.581067 -5.429262 -0.783245,-3.675935 -4.666215 -0.59671,-3.747173 -4.032835 -0.4374312,-3.077892 -6.687246 -0.9335859,-3.150778 -6.306379 -0.4876491,-3.14976 -7.097049 -0.4330953,-3.133149 -7.630422 -0.4938229,-2.770086 -6.933598 -0.8237465,-2.896837 -6.597524 -0.4824061,-2.936342 -7.226951 -0.4353253,-2.947721 -7.711082 -0.4979601,-8.602653 -8.546284 -2.032387,-8.088976 -8.34486 -1.619306,-7.623545 -7.697879 -1.235595,-7.482016 -6.820076 -0.8290446,-7.773931 -6.226813 -0.559942,-7.822607 -6.298381 -1.856211,-7.576181 -5.859016 -1.294999,-7.710234 -6.689447 -1.25789,-7.833564 -6.884896 -1.500689,-8.138539 -6.202512 -1.800162,-7.897868 -5.856481 -1.064048,-8.021466 -6.90368 -1.124565,-8.138714 -6.890615 -1.528952,-8.486512 -6.281724 -1.603158,-8.238475 -6.005931 -0.9578218,-8.295003 -7.014993 -1.036859,-8.418454 -7.038177 -1.324798,-8.862556 -6.434274 -1.358268,-8.574059 -6.153617 -1.057069,-8.557699 -6.859807 -1.040919,-8.678794 -6.962965 -1.228133,7.410,Left Hand Closed 2
-2.760398 -8.715857 -1.381777,-3.191971 -8.470228 -1.060102,-3.524442 -7.869817 -0.8672288,-3.480413 -7.13145 -0.6949277,-3.281888 -6.564911 -0.5820729,-3.690333 -6.797288 -1.133311,-4.039555 -5.901491 -0.9149424,-4.213179 -5.35194 -0.8124281,-4.343266 -4.850708 -0.7592171,-3.388648 -6.607988 -1.079146,-3.570482 -5.466096 -0.8335406,-3.667511 -4.689001 -0.646075,-3.737181 -4.04825 -0.4903532,-3.066427 -6.724245 -0.9868058,-3.152395 -6.316051 -0.5248528,-3.154133 -7.08883 -0.4489114,-3.127895 -7.626705 -0.5014193,-2.757126 -6.959208 -0.8701442,-2.89994 -6.597784 -0.5181163,-2.947607 -7.198114 -0.462944,-2.951625 -7.672029 -0.5204586,-8.585773 -8.456362 -2.104892,-8.08188 -8.280136 -1.660859,-7.613703 -7.645341 -1.270345,-7.470295 -6.772348 -0.8665974,-7.766483 -6.192041 -0.6142393,-7.810475 -6.238643 -1.917258,-7.572074 -5.79039 -1.330701,-7.69807 -6.608613 -1.280876,-7.817986 -6.817064 -1.507568,-8.120535 -6.133878 -1.874106,-7.890765 -5.793947 -1.117583,-8.011787 -6.838208 -1.184171,-8.128817 -6.816305 -1.592718,-8.464215 -6.2101 -1.684981,-8.234983 -5.951994 -1.01513,-8.288882 -6.962193 -1.103786,-8.407927 -6.959928 -1.402087,-8.834534 -6.365722 -1.442627,-8.556537 -6.124086 -1.122773,-8.546457 -6.826569 -1.109468,-8.671782 -6.895881 -1.291792,7.510,Left Hand Closed 2
-2.755519 -8.674835 -1.434258,-3.189272 -8.429844 -1.108418,-3.50384 -7.826429 -0.9239638,-3.458375 -7.077607 -0.769676,-3.277444 -6.472043 -0.6647871,-3.690701 -6.770931 -1.17174,-4.041637 -5.881698 -0.966025,-4.208793 -5.331802 -0.8685933,-4.330222 -4.830288 -0.8172948,-3.392566 -6.584602 -1.137636,-3.573408 -5.435035 -0.9016846,-3.662107 -4.664552 -0.7089503,-3.72644 -4.019103 -0.5443575,-3.074203 -6.703961 -1.06943,-3.133877 -6.326114 -0.6274806,-3.134373 -7.094114 -0.5728164,-3.121912 -7.612342 -0.6371613,-2.769815 -6.937046 -0.9747497,-2.882255 -6.59901 -0.6336086,-2.924826 -7.202863 -0.5912406,-2.937944 -7.66942 -0.6590661,-8.595556 -8.432339 -2.122059,-8.085131 -8.243862 -1.677085,-7.616819 -7.607193 -1.294119,-7.4691 -6.741235 -0.8980175,-7.751645 -6.141535 -0.6422225,-7.815704 -6.218675 -1.947606,-7.579275 -5.778411 -1.349881,-7.70435 -6.588193 -1.284992,-7.823326 -6.803524 -1.497606,-8.124661 -6.114332 -1.908886,-7.890606 -5.780455 -1.154063,-8.010479 -6.824071 -1.210819,-8.130982 -6.824204 -1.613938,-8.46759 -6.187948 -1.721084,-8.230515 -5.922719 -1.047214,-8.284121 -6.926151 -1.13031,-8.406484 -6.951881 -1.428605,-8.839594 -6.336826 -1.48149,-8.558109 -6.072082 -1.154888,-8.541389 -6.777737 -1.144179,-8.664013 -6.877781 -1.333495,7.610,Left Hand Closed 2
-2.753687 -8.683075 -1.410232,-3.192635 -8.432014 -1.098791,-3.516903 -7.827981 -0.9140185,-3.464487 -7.094129 -0.7491533,-3.270967 -6.537458 -0.6394268,-3.692747 -6.770907 -1.174837,-4.037689 -5.881387 -0.9626237,-4.20459 -5.334035 -0.8669938,-4.327068 -4.838611 -0.8227202,-3.391289 -6.584162 -1.125151,-3.567101 -5.440841 -0.8866768,-3.659057 -4.675727 -0.7046815,-3.72686 -4.04713 -0.5570224,-3.06884 -6.70472 -1.037009,-3.140682 -6.321942 -0.5890324,-3.142344 -7.094942 -0.513989,-3.125456 -7.620983 -0.5662159,-2.760353 -6.939934 -0.9252262,-2.891294 -6.602916 -0.5780372,-2.935653 -7.206487 -0.5240169,-2.944828 -7.672737 -0.5822319,-8.590446 -8.394016 -2.443373,-8.079133 -8.200359 -2.005477,-7.614603 -7.578369 -1.626946,-7.473548 -6.689609 -1.23947,-7.760001 -6.088417 -1.017583,-7.80157 -6.270272 -2.266063,-7.569973 -5.74658 -1.702657,-7.689128 -6.536575 -1.697259,-7.795387 -6.723939 -1.956683,-8.105134 -6.173242 -2.230653,-7.887624 -5.747581 -1.466914,-7.999595 -6.772651 -1.536974,-8.102644 -6.739305 -1.947984,-8.44483 -6.228578 -2.048613,-8.232954 -5.907702 -1.378814,-8.274766 -6.898571 -1.461084,-8.380356 -6.887487 -1.753477,-8.811902 -6.347307 -1.81502,-8.558514 -6.04442 -1.498689,-8.54369 -6.745214 -1.480256,-8.653416 -6.822576 -1.658904,7.710,Left Hand Closed 2
-2.750731 -8.691753 -1.396448,-3.184004 -8.453327 -1.072775,-3.512238 -7.847183 -0.8886337,-3.459436 -7.103319 -0.7272868,-3.255122 -6.535226 -0.6238968,-3.678843 -6.769639 -1.162728,-4.029573 -5.866567 -0.9656487,-4.199718 -5.310881 -0.876592,-4.323019 -4.807836 -0.8302815,-3.379002 -6.585601 -1.113498,-3.562562 -5.437355 -0.8881831,-3.657488 -4.657109 -0.7087728,-3.725536 -4.018524 -0.5619662,-3.058106 -6.705429 -1.026137,-3.136138 -6.303009 -0.563709,-3.136629 -7.082836 -0.4824978,-3.113941 -7.622526 -0.5399271,-2.750647 -6.938102 -0.9138576,-2.886137 -6.578871 -0.553562,-2.930763 -7.1829 -0.497329,-2.937645 -7.656156 -0.5587302,-8.627959 -8.359217 -2.633776,-8.093925 -8.192461 -2.216618,-7.607982 -7.566764 -1.839556,-7.470881 -6.673257 -1.466285,-7.759935 -6.086115 -1.259197,-7.790176 -6.292544 -2.462508,-7.567533 -5.722097 -1.904028,-7.6722 -6.510513 -1.883645,-7.773302 -6.711868 -2.138515,-8.09021 -6.206621 -2.423076,-7.87466 -5.738763 -1.66049,-7.979115 -6.750843 -1.707616,-8.08426 -6.755359 -2.095537,-8.43091 -6.259609 -2.239543,-8.217443 -5.896503 -1.574864,-8.260562 -6.879146 -1.647907,-8.373351 -6.918662 -1.93176,-8.805409 -6.375047 -2.004677,-8.554185 -6.002292 -1.698362,-8.538411 -6.698258 -1.692345,-8.646818 -6.830802 -1.877224,7.810,Left Hand Closed 2
-2.746933 -8.708721 -1.360411,-3.175351 -8.466187 -1.026112,-3.502468 -7.855572 -0.8369916,-3.464039 -7.115593 -0.6742243,-3.27741 -6.541648 -0.5756068,-3.674991 -6.776937 -1.09061,-4.021482 -5.871658 -0.8770339,-4.188971 -5.318033 -0.7831839,-4.3125 -4.810081 -0.735043,-3.372974 -6.595303 -1.047286,-3.550972 -5.442512 -0.8022149,-3.64026 -4.66629 -0.6111454,-3.703747 -4.010978 -0.4508843,-3.052524 -6.716425 -0.9673296,-3.126033 -6.317055 -0.5123332,-3.12941 -7.091699 -0.450626,-3.110775 -7.614188 -0.5072709,-2.746994 -6.95065 -0.8609446,-2.871452 -6.595801 -0.5118496,-2.917349 -7.197848 -0.4697784,-2.925755 -7.659549 -0.5349086,-8.61896 -8.341875 -2.702649,-8.100311 -8.202576 -2.29522,-7.620001 -7.566314 -1.933787,-7.464359 -6.665657 -1.561754,-7.757965 -6.088768 -1.345376,-7.796803 -6.306955 -2.552882,-7.57259 -5.726196 -2.010596,-7.68251 -6.488531 -1.969674,-7.790425 -6.708961 -2.214789,-8.089666 -6.206413 -2.504333,-7.866367 -5.711664 -1.745317,-7.976776 -6.7032 -1.758235,-8.090158 -6.772168 -2.132932,-8.429268 -6.240526 -2.32181,-8.208717 -5.849885 -1.674861,-8.260804 -6.816665 -1.735593,-8.381323 -6.908767 -2.01932,-8.808005 -6.352611 -2.087593,-8.549364 -5.973863 -1.796479,-8.536684 -6.665495 -1.79741,-8.646199 -6.834304 -1.986793,7.910,Left Hand Closed 2
-2.746667 -8.772596 -1.125898,-3.18849 -8.47801 -0.8509693,-3.519089 -7.818513 -0.6642081,-3.524745 -7.069619 -0.4630126,-3.403687 -6.458835 -0.2883473,-3.636619 -6.743959 -0.9933215,-3.976688 -5.860939 -0.7612274,-4.150186 -5.306333 -0.6290383,-4.280448 -4.798238 -0.5567668,-3.348673 -6.569694 -0.9153802,-3.522296 -5.410549 -0.6431194,-3.618914 -4.631231 -0.4290553,-3.698418 -3.943233 -0.2568297,-3.040752 -6.698713 -0.7945404,-3.153229 -6.164706 -0.3204728,-3.153733 -6.958925 -0.2484934,-3.123749 -7.508613 -0.3064632,-2.737636 -6.951684 -0.6520087,-2.89054 -6.478256 -0.2890236,-2.943525 -7.071395 -0.2360155,-2.949111 -7.556511 -0.2852048,-8.607863 -8.379086 -2.609613,-8.094216 -8.238262 -2.187027,-7.620132 -7.599893 -1.822903,-7.464857 -6.69593 -1.450904,-7.744822 -6.11157 -1.2505,-7.792657 -6.313186 -2.442036,-7.558696 -5.733723 -1.880495,-7.679716 -6.512311 -1.856482,-7.787703 -6.719511 -2.114712,-8.090717 -6.214458 -2.397736,-7.876475 -5.726345 -1.616175,-7.986112 -6.737518 -1.659899,-8.084891 -6.752334 -2.059939,-8.43259 -6.259494 -2.21111,-8.224413 -5.871593 -1.544094,-8.266288 -6.85393 -1.612562,-8.369867 -6.886766 -1.895911,-8.807938 -6.381762 -1.972204,-8.557014 -6.008829 -1.666769,-8.542118 -6.708272 -1.657313,-8.647027 -6.830678 -1.839589,8.010,Left Hand Closed 2
-2.703756 -8.811535 -0.8992649,-3.157607 -8.55427 -0.531351,-3.495359 -7.908594 -0.3029596,-3.510458 -7.147898 -0.08530927,-3.410247 -6.507459 0.1043805,-3.63522 -6.754761 -0.6569608,-3.966568 -5.896108 -0.4220026,-4.139845 -5.35596 -0.2703772,-4.270329 -4.848795 -0.1876841,-3.34073 -6.555725 -0.6418195,-3.522608 -5.424467 -0.3756952,-3.626514 -4.677291 -0.1533205,-3.71242 -4.005502 0.02436173,-3.02795 -6.682992 -0.5744144,-3.124509 -6.0707 -0.1019915,-3.13489 -6.844222 0.02390552,-3.120182 -7.393724 0.004360318,-2.71995 -6.953369 -0.4880851,-2.845411 -6.484243 -0.102847,-2.902155 -7.070339 0.0005643368,-2.919423 -7.553957 -0.01497483,-8.617082 -8.378469 -2.445213,-8.096651 -8.236227 -2.020743,-7.609739 -7.599311 -1.648488,-7.459056 -6.695012 -1.262428,-7.747406 -6.09394 -1.039484,-7.788665 -6.285699 -2.282414,-7.5421 -5.752456 -1.719639,-7.674099 -6.527863 -1.698951,-7.79263 -6.731928 -1.95368,-8.086601 -6.168285 -2.235632,-7.850175 -5.743972 -1.458688,-7.976628 -6.758943 -1.51254,-8.089564 -6.761617 -1.922034,-8.426634 -6.203397 -2.046551,-8.198439 -5.885328 -1.379343,-8.25979 -6.875598 -1.455609,-8.378154 -6.891666 -1.74121,-8.798874 -6.314094 -1.803916,-8.531436 -6.026436 -1.49746,-8.532545 -6.732756 -1.483476,-8.654192 -6.828605 -1.660294,8.110,Left Hand Closed 2
-2.675629 -8.857187 -0.9973486,-3.14855 -8.612638 -0.5708835,-3.527155 -7.937219 -0.3858148,-3.572117 -7.102062 -0.223058,-3.503336 -6.381801 -0.07999241,-3.594769 -6.867965 -0.7760018,-3.915136 -5.990995 -0.6809844,-4.062342 -5.414932 -0.5829117,-4.168025 -4.848835 -0.4959255,-3.297253 -6.618207 -0.8248771,-3.529455 -5.500494 -0.7602199,-3.664711 -4.760148 -0.5802385,-3.763364 -4.109262 -0.3849298,-3.004711 -6.644033 -0.8137237,-3.154909 -5.696456 -0.5746915,-3.272581 -5.241732 -0.305705,-3.358445 -4.873651 -0.1142486,-2.691733 -6.825819 -0.7600632,-2.853292 -6.324785 -0.38859,-2.925264 -6.564023 -0.0972538,-2.938019 -6.825352 0.08014965,-8.599509 -8.415331 -2.413435,-8.086082 -8.250978 -1.985849,-7.611586 -7.606845 -1.617087,-7.462246 -6.703784 -1.237425,-7.747716 -6.117126 -1.026973,-7.807048 -6.291151 -2.252064,-7.551278 -5.745681 -1.691565,-7.685072 -6.526563 -1.685073,-7.803303 -6.727228 -1.954353,-8.105712 -6.187416 -2.202816,-7.869484 -5.743512 -1.417349,-7.98837 -6.76094 -1.481342,-8.092163 -6.75294 -1.899084,-8.442739 -6.235759 -2.009179,-8.219763 -5.89459 -1.331737,-8.269082 -6.883267 -1.415585,-8.377639 -6.887765 -1.708666,-8.810725 -6.361028 -1.76175,-8.553282 -6.032261 -1.450284,-8.544561 -6.737628 -1.439456,-8.655304 -6.836496 -1.621812,8.210,Left Hand Closed 3
-2.701228 -8.900486 -0.5436564,-3.188673 -8.6616 -0.2039121,-3.584442 -8.206722 0.01674193,-3.81218 -7.586719 0.2541313,-3.858749 -6.932939 0.4465586,-3.586053 -6.878061 -0.4437288,-3.812025 -6.136346 -0.09095079,-3.743227 -6.306398 0.3090304,-3.624695 -6.669384 0.5423146,-3.347116 -6.529229 -0.4441386,-3.610152 -5.532971 -0.4029025,-3.759863 -4.828634 -0.2581494,-3.893402 -4.224822 -0.09386563,-3.056919 -6.407825 -0.3626332,-3.276602 -5.41634 -0.271247,-3.406791 -4.759207 -0.146638,-3.520023 -4.201536 -0.02930015,-2.70253 -6.478892 -0.2410445,-2.742108 -5.650615 -0.1710234,-2.782099 -5.129123 -0.147785,-2.825239 -4.62863 -0.1210082,-8.64131 -8.38525 -2.340092,-8.120893 -8.229204 -1.938274,-7.628265 -7.613133 -1.561883,-7.473333 -6.738571 -1.169279,-7.770609 -6.172928 -0.9241505,-7.815305 -6.259366 -2.166584,-7.551545 -5.749248 -1.614025,-7.674079 -6.530384 -1.593059,-7.798958 -6.747707 -1.838042,-8.120515 -6.144115 -2.106798,-7.866162 -5.762643 -1.370184,-7.993513 -6.777626 -1.413867,-8.1195 -6.784786 -1.79849,-8.459822 -6.195716 -1.91057,-8.205798 -5.944881 -1.264454,-8.269052 -6.920064 -1.331313,-8.397113 -6.920879 -1.595316,-8.82831 -6.317829 -1.662567,-8.5334 -6.087737 -1.367579,-8.539548 -6.792488 -1.343384,-8.676103 -6.866012 -1.497514,8.310,Left Hand Closed 4
-2.716216 -8.918413 -0.6115182,-3.185585 -8.688307 -0.2786038,-3.576108 -8.204105 -0.05873454,-3.793268 -7.586275 0.1812068,-3.808552 -6.951496 0.3706064,-3.602219 -6.916424 -0.5139371,-3.812565 -6.222183 -0.1786551,-3.734978 -6.383724 0.1998038,-3.61014 -6.743291 0.422256,-3.368933 -6.569557 -0.5020233,-3.624641 -5.573513 -0.4781099,-3.76932 -4.868213 -0.3478036,-3.896811 -4.273042 -0.1961831,-3.079478 -6.449767 -0.4053523,-3.305571 -5.44774 -0.3120919,-3.444693 -4.776788 -0.1754682,-3.57464 -4.209404 -0.05125952,-2.718259 -6.517234 -0.2658873,-2.743513 -5.674213 -0.2056128,-2.775396 -5.137701 -0.1843622,-2.811586 -4.619468 -0.1587194,-8.614475 -8.438324 -2.088431,-8.093673 -8.274031 -1.626735,-7.61459 -7.622564 -1.228717,-7.471866 -6.711321 -0.8314879,-7.776477 -6.148572 -0.6131878,-7.813036 -6.230338 -1.866429,-7.556321 -5.766588 -1.280692,-7.705727 -6.564516 -1.286577,-7.825045 -6.726758 -1.559124,-8.120369 -6.119937 -1.829691,-7.875973 -5.763595 -1.0182,-8.008953 -6.802607 -1.111183,-8.109701 -6.732689 -1.549673,-8.460099 -6.176285 -1.644826,-8.229097 -5.922168 -0.9483099,-8.284429 -6.931517 -1.055975,-8.388187 -6.875062 -1.354924,-8.823899 -6.31048 -1.401325,-8.556755 -6.078298 -1.096411,-8.554801 -6.791883 -1.089514,-8.669845 -6.830888 -1.265166,8.410,Left Hand Closed 4
-2.700923 -8.877874 -0.6301941,-3.157348 -8.629133 -0.3208415,-3.554941 -8.107477 -0.09745717,-3.763903 -7.487504 0.1616493,-3.65615 -6.949081 0.3558736,-3.535086 -6.856321 -0.5426685,-3.72477 -6.218162 -0.1678944,-3.661119 -6.480122 0.1777006,-3.550711 -6.844489 0.3538175,-3.313983 -6.524258 -0.5122643,-3.560489 -5.53749 -0.466879,-3.729649 -4.841434 -0.3448306,-3.877838 -4.20581 -0.2037992,-3.034135 -6.413316 -0.3926402,-3.243283 -5.427393 -0.2976059,-3.376245 -4.782315 -0.2087522,-3.494416 -4.220138 -0.1250941,-2.689394 -6.508434 -0.2191544,-2.714942 -5.669185 -0.167047,-2.755586 -5.153017 -0.1480345,-2.80079 -4.653132 -0.1515905,-8.599279 -8.462341 -1.965928,-8.091623 -8.304661 -1.529675,-7.607013 -7.638048 -1.148528,-7.460276 -6.755432 -0.7626506,-7.768548 -6.2049 -0.5377884,-7.823021 -6.205042 -1.757575,-7.567314 -5.786783 -1.161674,-7.697467 -6.589538 -1.109166,-7.820388 -6.799593 -1.322797,-8.132995 -6.102695 -1.703455,-7.885842 -5.802154 -0.9263057,-8.006721 -6.852867 -1.006879,-8.12595 -6.851163 -1.424362,-8.475196 -6.190253 -1.504388,-8.233111 -5.958753 -0.8196675,-8.285889 -6.979047 -0.9351846,-8.408744 -6.99495 -1.238471,-8.843566 -6.364388 -1.247266,-8.568412 -6.136052 -0.9316913,-8.552722 -6.848768 -0.9437296,-8.669754 -6.937894 -1.12957,8.510,Left Hand Closed 3
-2.690195 -8.886021 -0.6883113,-3.13899 -8.67428 -0.3569103,-3.537673 -8.171722 -0.1167447,-3.764817 -7.565939 0.1502074,-3.689844 -7.001611 0.3547148,-3.529696 -6.887796 -0.5589421,-3.736219 -6.243955 -0.1930539,-3.669137 -6.487676 0.151275,-3.555311 -6.857429 0.3278078,-3.305124 -6.552674 -0.5268877,-3.56017 -5.556774 -0.4705459,-3.728051 -4.851848 -0.3325631,-3.876169 -4.217403 -0.1708058,-3.020538 -6.446146 -0.4128784,-3.234532 -5.445623 -0.2962098,-3.374424 -4.786561 -0.1737846,-3.502756 -4.208496 -0.06194186,-2.672442 -6.555246 -0.2490112,-2.683828 -5.703174 -0.1772379,-2.708174 -5.180041 -0.1433017,-2.740092 -4.673487 -0.1213639,-8.637419 -8.41433 -2.152949,-8.12082 -8.246363 -1.744252,-7.632403 -7.63631 -1.358137,-7.477405 -6.783522 -0.9499865,-7.76653 -6.200315 -0.6801713,-7.816906 -6.240884 -1.978067,-7.563165 -5.785145 -1.405126,-7.684389 -6.557247 -1.334871,-7.810377 -6.803653 -1.530715,-8.128245 -6.115276 -1.921426,-7.880779 -5.803809 -1.206307,-8.001788 -6.820291 -1.241219,-8.127839 -6.853595 -1.610614,-8.471152 -6.176126 -1.727225,-8.222367 -5.970006 -1.095461,-8.281049 -6.953226 -1.157296,-8.405787 -6.977808 -1.420027,-8.841516 -6.31866 -1.481034,-8.549739 -6.14325 -1.183961,-8.549253 -6.846889 -1.164803,-8.680164 -6.919843 -1.323254,8.610,Left Hand Closed 3
-2.699975 -8.875275 -0.6214726,-3.149696 -8.648649 -0.2747641,-3.537004 -8.15513 -0.02782911,-3.750764 -7.564766 0.2383115,-3.681179 -7.0227 0.4444313,-3.532087 -6.843889 -0.4757579,-3.731712 -6.203782 -0.1134911,-3.665176 -6.463096 0.2348706,-3.554577 -6.839191 0.4197546,-3.304447 -6.519943 -0.4531928,-3.558704 -5.544762 -0.3900703,-3.726245 -4.847681 -0.2436492,-3.876845 -4.209406 -0.07365501,-3.016048 -6.419397 -0.3472508,-3.229776 -5.44046 -0.2298145,-3.367558 -4.788284 -0.09986371,-3.497719 -4.212721 0.02007377,-2.66417 -6.531127 -0.1918232,-2.681199 -5.692958 -0.117743,-2.706584 -5.173116 -0.07519835,-2.742427 -4.664508 -0.04116601,-8.613656 -8.446875 -2.266271,-8.100404 -8.259876 -1.812067,-7.625265 -7.62627 -1.412316,-7.482456 -6.739568 -1.008927,-7.781431 -6.159488 -0.770539,-7.823662 -6.2795 -2.044819,-7.576188 -5.778951 -1.470533,-7.711919 -6.572274 -1.475204,-7.82602 -6.754871 -1.746936,-8.136598 -6.177401 -2.005138,-7.902937 -5.792411 -1.227492,-8.025777 -6.82595 -1.312492,-8.129793 -6.783124 -1.743265,-8.481943 -6.236994 -1.821882,-8.25669 -5.949112 -1.143078,-8.305002 -6.950958 -1.240353,-8.409355 -6.927665 -1.541512,-8.850972 -6.364341 -1.584297,-8.588879 -6.100356 -1.275435,-8.579635 -6.804991 -1.26246,-8.692833 -6.865314 -1.442048,8.710,Left Hand Closed 3
-2.698419 -8.880465 -0.6024282,-3.148382 -8.661816 -0.2499623,-3.541751 -8.159008 0.001250982,-3.752145 -7.569012 0.2714,-3.661928 -7.038208 0.4831785,-3.534481 -6.852378 -0.4494615,-3.737447 -6.211875 -0.08116663,-3.670813 -6.474212 0.2665043,-3.557289 -6.845474 0.4465408,-3.305852 -6.520567 -0.4298635,-3.5588 -5.540413 -0.3664842,-3.72914 -4.836816 -0.2211993,-3.88068 -4.187189 -0.05019665,-3.015469 -6.414276 -0.3253098,-3.225615 -5.435646 -0.2172109,-3.362326 -4.78174 -0.1027965,-3.485366 -4.202698 0.01035786,-2.664646 -6.524627 -0.1693056,-2.674603 -5.682444 -0.1073694,-2.698641 -5.160831 -0.07357973,-2.729944 -4.651762 -0.04409969,-8.622046 -8.442884 -2.073486,-8.096107 -8.278774 -1.603579,-7.610671 -7.642431 -1.199602,-7.467582 -6.739048 -0.7996209,-7.773263 -6.162274 -0.5692157,-7.813259 -6.234 -1.822127,-7.565983 -5.792259 -1.268726,-7.715456 -6.604848 -1.305326,-7.833466 -6.770027 -1.587322,-8.130988 -6.121912 -1.793308,-7.892154 -5.777033 -1.019057,-8.019637 -6.815824 -1.115205,-8.12395 -6.758276 -1.5481,-8.477742 -6.187431 -1.621959,-8.247511 -5.945385 -0.9419731,-8.297365 -6.947587 -1.041665,-8.402051 -6.901517 -1.336097,-8.844562 -6.326353 -1.393381,-8.578352 -6.116971 -1.073521,-8.572243 -6.823322 -1.048551,-8.688304 -6.86256 -1.218663,8.810,Left Hand Closed 3
-2.685948 -8.894569 -0.6207888,-3.125264 -8.670685 -0.2247066,-3.52114 -8.180557 0.05035865,-3.728438 -7.578216 0.3395007,-3.614088 -7.044402 0.5688272,-3.524139 -6.872743 -0.4222852,-3.721312 -6.236993 -0.04051769,-3.645683 -6.501837 0.3054451,-3.527309 -6.875173 0.4777172,-3.293568 -6.541866 -0.4258944,-3.542948 -5.55813 -0.3494915,-3.705155 -4.85576 -0.2106103,-3.848969 -4.205888 -0.04951018,-3.003382 -6.430458 -0.3392353,-3.211987 -5.455816 -0.2199911,-3.342854 -4.809309 -0.1067997,-3.46157 -4.232452 -0.001095116,-2.654559 -6.529766 -0.1959699,-2.664148 -5.690561 -0.1296517,-2.681873 -5.172364 -0.09856796,-2.705149 -4.662841 -0.08037996,-8.644568 -8.417076 -2.230779,-8.122042 -8.248755 -1.816704,-7.634643 -7.61757 -1.439364,-7.491092 -6.721521 -1.053425,-7.790868 -6.155583 -0.824551,-7.827749 -6.254978 -2.045694,-7.567385 -5.776838 -1.523227,-7.702076 -6.551963 -1.548688,-7.820807 -6.731065 -1.822491,-8.135735 -6.141045 -1.997228,-7.884083 -5.772775 -1.257774,-8.007828 -6.778615 -1.331331,-8.116967 -6.742404 -1.733784,-8.473553 -6.192251 -1.811281,-8.229801 -5.955572 -1.162229,-8.284123 -6.925326 -1.240408,-8.395953 -6.878915 -1.509245,-8.834498 -6.310742 -1.574281,-8.553571 -6.096511 -1.28128,-8.557771 -6.795944 -1.255713,-8.682244 -6.835979 -1.410192,8.910,Left Hand Closed 3
-2.6831 -8.891693 -0.5728847,-3.122886 -8.67333 -0.2172884,-3.508051 -8.186256 0.02897859,-3.720302 -7.597768 0.2959595,-3.653528 -7.059033 0.5081183,-3.511364 -6.853364 -0.4563418,-3.719814 -6.230333 -0.116689,-3.656519 -6.471175 0.2419407,-3.539869 -6.836296 0.4487497,-3.286799 -6.519094 -0.4481413,-3.545687 -5.536646 -0.4196708,-3.707018 -4.845825 -0.286831,-3.845623 -4.222577 -0.12624,-3.003033 -6.406953 -0.3551972,-3.217861 -5.420482 -0.2765453,-3.346214 -4.772203 -0.162349,-3.462549 -4.201465 -0.04791337,-2.65546 -6.508966 -0.2117397,-2.665902 -5.666469 -0.1640261,-2.678614 -5.148853 -0.1385506,-2.699251 -4.649826 -0.111915,-8.634011 -8.41004 -2.181042,-8.110415 -8.230099 -1.715461,-7.630508 -7.606623 -1.308291,-7.488036 -6.714311 -0.9005244,-7.797898 -6.135511 -0.6557134,-7.836292 -6.232028 -1.917207,-7.586579 -5.775842 -1.348096,-7.724666 -6.567843 -1.37314,-7.838722 -6.74231 -1.65227,-8.150571 -6.120904 -1.886646,-7.902642 -5.78796 -1.100009,-8.02962 -6.816913 -1.188764,-8.136147 -6.758874 -1.611146,-8.492441 -6.175148 -1.71439,-8.255196 -5.953025 -1.024457,-8.305175 -6.940766 -1.115413,-8.411308 -6.88401 -1.402319,-8.852757 -6.300682 -1.486401,-8.584482 -6.104669 -1.166318,-8.579703 -6.807222 -1.140711,-8.695154 -6.837666 -1.30626,9.010,Left Hand Closed 3
-2.683748 -8.881601 -0.5975845,-3.124833 -8.668058 -0.2352684,-3.511078 -8.181692 0.02329457,-3.720622 -7.598859 0.3052905,-3.634356 -7.069767 0.5307722,-3.519074 -6.855118 -0.4457016,-3.719759 -6.203322 -0.08603591,-3.643735 -6.468701 0.2543905,-3.521572 -6.848703 0.4316937,-3.292027 -6.52021 -0.4286518,-3.54872 -5.52657 -0.3762936,-3.714439 -4.819025 -0.2327021,-3.858641 -4.170453 -0.06503552,-3.000441 -6.410152 -0.3264589,-3.213099 -5.419706 -0.2243735,-3.346355 -4.759954 -0.105635,-3.466369 -4.174734 0.008194625,-2.645418 -6.518952 -0.1718819,-2.652835 -5.668136 -0.1107619,-2.668149 -5.14649 -0.0768522,-2.688493 -4.639394 -0.04729742,-8.625947 -8.418573 -2.363189,-8.105347 -8.229065 -1.906178,-7.631699 -7.606899 -1.508516,-7.488575 -6.717104 -1.109509,-7.797823 -6.160758 -0.8839374,-7.827385 -6.284267 -2.122481,-7.595493 -5.774488 -1.550901,-7.719774 -6.567729 -1.565593,-7.824755 -6.745037 -1.842127,-8.137927 -6.181289 -2.090861,-7.918766 -5.783063 -1.302452,-8.03115 -6.806903 -1.387381,-8.128135 -6.756907 -1.813269,-8.47985 -6.23719 -1.913886,-8.270504 -5.931884 -1.240993,-8.309018 -6.92532 -1.349867,-8.407743 -6.891784 -1.651575,-8.846851 -6.359359 -1.682742,-8.599687 -6.081939 -1.376557,-8.586567 -6.77964 -1.36063,-8.692932 -6.831035 -1.535304,9.110,Left Hand Closed 3
-2.683508 -8.864511 -0.5747603,-3.130806 -8.644995 -0.2252021,-3.517416 -8.167408 0.0446589,-3.721741 -7.586352 0.3386849,-3.630603 -7.052846 0.5837102,-3.523489 -6.837514 -0.4487405,-3.705146 -6.258654 -0.1137774,-3.622356 -6.543509 0.2201806,-3.500344 -6.925293 0.4098386,-3.2981 -6.49636 -0.430449,-3.54189 -5.522567 -0.3913723,-3.70311 -4.82254 -0.2564367,-3.845068 -4.196592 -0.09226727,-3.011892 -6.376945 -0.3285831,-3.218063 -5.390632 -0.2365466,-3.351446 -4.736955 -0.1212041,-3.479053 -4.163311 -0.009745002,-2.664772 -6.480342 -0.1764885,-2.664052 -5.642977 -0.1092126,-2.671339 -5.132628 -0.0778158,-2.690754 -4.643573 -0.05111539,-8.639387 -8.376425 -2.418513,-8.122228 -8.221714 -1.989341,-7.632499 -7.596756 -1.609928,-7.48932 -6.705452 -1.220415,-7.792953 -6.136112 -0.9927584,-7.822039 -6.264935 -2.225796,-7.588251 -5.753549 -1.673412,-7.701495 -6.530854 -1.669307,-7.806325 -6.725481 -1.92669,-8.130619 -6.155968 -2.182178,-7.902057 -5.76285 -1.428488,-8.011814 -6.768503 -1.487976,-8.11544 -6.74554 -1.887675,-8.47208 -6.205334 -1.997945,-8.246025 -5.931951 -1.340891,-8.290089 -6.903804 -1.421022,-8.397441 -6.884796 -1.703179,-8.838148 -6.321962 -1.761079,-8.572278 -6.070253 -1.459434,-8.565366 -6.763864 -1.443607,-8.681369 -6.826364 -1.612398,9.210,Left Hand Closed 3
-2.711551 -8.865021 -0.5556391,-3.147432 -8.650631 -0.2272182,-3.539773 -8.136778 0.01465672,-3.750566 -7.534416 0.2813661,-3.63749 -7.00226 0.4884332,-3.526643 -6.812135 -0.4384999,-3.725712 -6.208295 -0.1012152,-3.650049 -6.482409 0.2212501,-3.527798 -6.863594 0.3962311,-3.301339 -6.48517 -0.4075387,-3.554218 -5.498132 -0.3674529,-3.717096 -4.790897 -0.2319406,-3.860096 -4.149801 -0.06365195,-3.013859 -6.385153 -0.2973798,-3.223283 -5.397699 -0.200334,-3.352705 -4.740715 -0.08629566,-3.470558 -4.163895 0.03058839,-2.666375 -6.510328 -0.1371315,-2.661589 -5.664226 -0.08622018,-2.664058 -5.147422 -0.05868411,-2.674809 -4.646263 -0.03309375,-8.626448 -8.393938 -2.312448,-8.112403 -8.226408 -1.854874,-7.637564 -7.598407 -1.464059,-7.496272 -6.702491 -1.077138,-7.788499 -6.124334 -0.8637819,-7.832388 -6.243518 -2.069684,-7.590447 -5.748727 -1.503238,-7.72929 -6.542305 -1.506572,-7.842888 -6.728655 -1.773386,-8.141544 -6.141206 -2.038527,-7.912573 -5.739679 -1.254747,-8.027978 -6.761554 -1.334149,-8.12392 -6.726316 -1.749735,-8.481582 -6.199487 -1.86462,-8.263282 -5.911216 -1.185808,-8.305243 -6.896146 -1.274682,-8.405719 -6.865566 -1.560714,-8.844717 -6.329832 -1.634908,-8.588078 -6.060821 -1.324685,-8.576952 -6.759791 -1.3083,-8.68516 -6.816903 -1.478609,9.310,Left Hand Closed 3
-2.700432 -8.837187 -0.5654648,-3.150739 -8.626493 -0.1933296,-3.548065 -8.145256 0.07583141,-3.746438 -7.522029 0.365546,-3.599883 -6.976509 0.595374,-3.542952 -6.786914 -0.4251229,-3.722017 -6.197254 -0.0989756,-3.637839 -6.461599 0.2339079,-3.512801 -6.827083 0.423014,-3.309085 -6.465268 -0.4129772,-3.558746 -5.490098 -0.3711824,-3.719765 -4.795954 -0.2399842,-3.859015 -4.164608 -0.07859191,-3.01675 -6.364264 -0.3124414,-3.216597 -5.390951 -0.2072088,-3.341923 -4.740577 -0.08417869,-3.45616 -4.16658 0.02898031,-2.663012 -6.481106 -0.1599517,-2.657744 -5.655381 -0.08057576,-2.661257 -5.136323 -0.03550601,-2.672815 -4.625757 -0.002198756,-8.602626 -8.405039 -2.419034,-8.099305 -8.223854 -1.958604,-7.629014 -7.590358 -1.564739,-7.492134 -6.707225 -1.173762,-7.791288 -6.149909 -0.9490209,-7.819227 -6.284114 -2.158311,-7.588954 -5.744541 -1.597337,-7.70991 -6.53046 -1.608707,-7.813733 -6.732868 -1.877819,-8.131593 -6.18309 -2.12659,-7.910518 -5.77454 -1.353134,-8.024493 -6.788739 -1.427728,-8.122399 -6.765692 -1.8375,-8.475901 -6.23632 -1.952725,-8.264145 -5.937065 -1.279749,-8.307451 -6.915863 -1.37527,-8.406782 -6.905451 -1.666741,-8.847891 -6.359344 -1.725441,-8.602483 -6.063735 -1.414423,-8.585911 -6.754907 -1.402248,-8.686406 -6.836139 -1.573678,9.410,Left Hand Closed 3
-2.690383 -8.847979 -0.5670668,-3.13488 -8.629108 -0.194105,-3.530155 -8.157454 0.08149916,-3.736752 -7.561764 0.375715,-3.610075 -7.017086 0.6062829,-3.532051 -6.815963 -0.4237263,-3.71891 -6.222366 -0.07939076,-3.621398 -6.504182 0.2480996,-3.488638 -6.88411 0.4212357,-3.299929 -6.476582 -0.4175476,-3.548836 -5.497125 -0.3799693,-3.703659 -4.806865 -0.2607662,-3.840738 -4.18802 -0.1113899,-3.007959 -6.362545 -0.3224627,-3.218025 -5.377111 -0.2282676,-3.349959 -4.730512 -0.118109,-3.472651 -4.162971 -0.0126183,-2.657423 -6.47417 -0.1731747,-2.653351 -5.631812 -0.1133932,-2.658129 -5.117525 -0.08055907,-2.672726 -4.620882 -0.05501837,-8.63306 -8.383274 -2.509287,-8.106312 -8.217203 -2.072171,-7.631251 -7.598733 -1.691144,-7.49077 -6.701519 -1.310607,-7.79178 -6.121166 -1.101318,-7.822319 -6.291872 -2.296415,-7.583755 -5.750932 -1.748117,-7.709805 -6.527323 -1.762577,-7.81362 -6.705661 -2.039631,-8.128841 -6.190179 -2.258282,-7.901905 -5.760316 -1.488385,-8.018319 -6.764701 -1.557839,-8.116299 -6.735384 -1.96911,-8.470737 -6.236922 -2.080989,-8.252246 -5.921287 -1.416831,-8.29751 -6.898929 -1.498198,-8.399967 -6.890231 -1.781926,-8.839619 -6.350503 -1.850635,-8.5877 -6.053966 -1.551838,-8.574768 -6.746656 -1.53231,-8.678457 -6.829284 -1.705642,9.510,Left Hand Closed 3
