TiagoOliveira98/HandTracking/DataLogging/JointData/Logs(1642625074)_Adam_Calculator.csv
WRIST,THUMB_CMC,THUMB_MCP,THUMB_IP,THUMB_TIP,INDEX_FINGER_MCP,INDEX_FINGER_PIP,INDEX_FINGER_DIP,INDEX_FINGER_TIP,MIDDLE_FINGER_MCP,MIDDLE_FINGER_PIP,MIDDLE_FINGER_DIP,MIDDLE_FINGER_TIP,RING_FINGER_MCP,RING_FINGER_PIP,RING_FINGER_DIP,RING_FINGER_TIP,PINKY_MCP,PINKY_PIP,PINKY_DIP,PINKY_TIP,WRIST2,THUMB_CMC2,THUMB_MCP2,THUMB_IP2,THUMB_TIP2,INDEX_FINGER_MCP2,INDEX_FINGER_PIP2,INDEX_FINGER_DIP2,INDEX_FINGER_TIP2,MIDDLE_FINGER_MCP2,MIDDLE_FINGER_PIP2,MIDDLE_FINGER_DIP2,MIDDLE_FINGER_TIP2,RING_FINGER_MCP2,RING_FINGER_PIP2,RING_FINGER_DIP2,RING_FINGER_TIP2,PINKY_MCP2,PINKY_PIP2,PINKY_DIP2,PINKY_TIP2,Timestamp,Event
10 0 0,10 7.47 0,10 7.47 0,10 7.47 0,10 7.47 0,10 7.47 0,10 7.47 0,10 7.47 0,10 7.47 0,10 7.47 0,10 7.47 0,10 7.47 0,10 7.47 0,10 7.47 0,10 7.47 0,10 7.47 0,10 7.47 0,10 7.47 0,10 7.47 0,10 7.47 0,10 7.47 0,10 0 0,10 7.47 0,10 7.47 0,10 7.47 0,10 7.47 0,10 7.47 0,10 7.47 0,10 7.47 0,10 7.47 0,10 7.47 0,10 7.47 0,10 7.47 0,10 7.47 0,10 7.47 0,10 7.47 0,10 7.47 0,10 7.47 0,10 7.47 0,10 7.47 0,10 7.47 0,10 7.47 0,0.010,
2 0 -9.652423,2 0 -9.652423,2 0 -9.652423,2 0 -9.652423,2 0 -9.652423,2 0 -9.652423,2 0 -9.652423,2 0 -9.652423,2 0 -9.652423,2 0 -9.652423,2 0 -9.652423,2 0 -9.652423,2 0 -9.652423,2 0 -9.652423,2 0 -9.652423,2 0 -9.652423,2 0 -9.652423,2 0 -9.652423,2 0 -9.652423,2 0 -9.652423,2 0 -9.652423,2 0 -10.4906,2 0 -10.4906,2 0 -10.4906,2 0 -10.4906,2 0 -10.4906,2 0 -10.4906,2 0 -10.4906,2 0 -10.4906,2 0 -10.4906,2 0 -10.4906,2 0 -10.4906,2 0 -10.4906,2 0 -10.4906,2 0 -10.4906,2 0 -10.4906,2 0 -10.4906,2 0 -10.4906,2 0 -10.4906,2 0 -10.4906,2 0 -10.4906,2 0 -10.4906,0.110,
2 0 -9.652423,2 0 -9.652423,2 0 -9.652423,2 0 -9.652423,2 0 -9.652423,2 0 -9.652423,2 0 -9.652423,2 0 -9.652423,2 0 -9.652423,2 0 -9.652423,2 0 -9.652423,2 0 -9.652423,2 0 -9.652423,2 0 -9.652423,2 0 -9.652423,2 0 -9.652423,2 0 -9.652423,2 0 -9.652423,2 0 -9.652423,2 0 -9.652423,2 0 -9.652423,2 0 -10.4906,2 0 -10.4906,2 0 -10.4906,2 0 -10.4906,2 0 -10.4906,2 0 -10.4906,2 0 -10.4906,2 0 -10.4906,2 0 -10.4906,2 0 -10.4906,2 0 -10.4906,2 0 -10.4906,2 0 -10.4906,2 0 -10.4906,2 0 -10.4906,2 0 -10.4906,2 0 -10.4906,2 0 -10.4906,2 0 -10.4906,2 0 -10.4906,2 0 -10.4906,0.210,
2 0 -9.652423,2 0 -9.652423,2 0 -9.652423,2 0 -9.652423,2 0 -9.652423,2 0 -9.652423,2 0 -9.652423,2 0 -9.652423,2 0 -9.652423,2 0 -9.652423,2 0 -9.652423,2 0 -9.652423,2 0 -9.652423,2 0 -9.652423,2 0 -9.652423,2 0 -9.652423,2 0 -9.652423,2 0 -9.652423,2 0 -9.652423,2 0 -9.652423,2 0 -9.652423,2 0 -10.4906,2 0 -10.4906,2 0 -10.4906,2 0 -10.4906,2 0 -10.4906,2 0 -10.4906,2 0 -10.4906,2 0 -10.4906,2 0 -10.4906,2 0 -10.4906,2 0 -10.4906,2 0 -10.4906,2 0 -10.4906,2 0 -10.4906,2 0 -10.4906,2 0 -10.4906,2 0 -10.4906,2 0 -10.4906,2 0 -10.4906,2 0 -10.4906,2 0 -10.4906,0.310,
2 0 -9.652423,2 0 -9.652423,2 0 -9.652423,2 0 -9.652423,2 0 -9.652423,2 0 -9.652423,2 0 -9.652423,2 0 -9.652423,2 0 -9.652423,2 0 -9.652423,2 0 -9.652423,2 0 -9.652423,2 0 -9.652423,2 0 -9.652423,2 0 -9.652423,2 0 -9.652423,2 0 -9.652423,2 0 -9.652423,2 0 -9.652423,2 0 -9.652423,2 0 -9.652423,2 0 -10.4906,2 0 -10.4906,2 0 -10.4906,2 0 -10.4906,2 0 -10.4906,2 0 -10.4906,2 0 -10.4906,2 0 -10.4906,2 0 -10.4906,2 0 -10.4906,2 0 -10.4906,2 0 -10.4906,2 0 -10.4906,2 0 -10.4906,2 0 -10.4906,2 0 -10.4906,2 0 -10.4906,2 0 -10.4906,2 0 -10.4906,2 0 -10.4906,2 0 -10.4906,0.410,
2 0 -9.652423,2 0 -9.652423,2 0 -9.652423,2 0 -9.652423,2 0 -9.652423,2 0 -9.652423,2 0 -9.652423,2 0 -9.652423,2 0 -9.652423,2 0 -9.652423,2 0 -9.652423,2 0 -9.652423,2 0 -9.652423,2 0 -9.652423,2 0 -9.652423,2 0 -9.652423,2 0 -9.652423,2 0 -9.652423,2 0 -9.652423,2 0 -9.652423,2 0 -9.652423,2 0 -10.4906,2 0 -10.4906,2 0 -10.4906,2 0 -10.4906,2 0 -10.4906,2 0 -10.4906,2 0 -10.4906,2 0 -10.4906,2 0 -10.4906,2 0 -10.4906,2 0 -10.4906,2 0 -10.4906,2 0 -10.4906,2 0 -10.4906,2 0 -10.4906,2 0 -10.4906,2 0 -10.4906,2 0 -10.4906,2 0 -10.4906,2 0 -10.4906,2 0 -10.4906,0.510,
2 0 -9.652423,2 0 -9.652423,2 0 -9.652423,2 0 -9.652423,2 0 -9.652423,2 0 -9.652423,2 0 -9.652423,2 0 -9.652423,2 0 -9.652423,2 0 -9.652423,2 0 -9.652423,2 0 -9.652423,2 0 -9.652423,2 0 -9.652423,2 0 -9.652423,2 0 -9.652423,2 0 -9.652423,2 0 -9.652423,2 0 -9.652423,2 0 -9.652423,2 0 -9.652423,2 0 -10.4906,2 0 -10.4906,2 0 -10.4906,2 0 -10.4906,2 0 -10.4906,2 0 -10.4906,2 0 -10.4906,2 0 -10.4906,2 0 -10.4906,2 0 -10.4906,2 0 -10.4906,2 0 -10.4906,2 0 -10.4906,2 0 -10.4906,2 0 -10.4906,2 0 -10.4906,2 0 -10.4906,2 0 -10.4906,2 0 -10.4906,2 0 -10.4906,2 0 -10.4906,0.610,
2 0 -9.652423,2 0 -9.652423,2 0 -9.652423,2 0 -9.652423,2 0 -9.652423,2 0 -9.652423,2 0 -9.652423,2 0 -9.652423,2 0 -9.652423,2 0 -9.652423,2 0 -9.652423,2 0 -9.652423,2 0 -9.652423,2 0 -9.652423,2 0 -9.652423,2 0 -9.652423,2 0 -9.652423,2 0 -9.652423,2 0 -9.652423,2 0 -9.652423,2 0 -9.652423,2 0 -10.4906,2 0 -10.4906,2 0 -10.4906,2 0 -10.4906,2 0 -10.4906,2 0 -10.4906,2 0 -10.4906,2 0 -10.4906,2 0 -10.4906,2 0 -10.4906,2 0 -10.4906,2 0 -10.4906,2 0 -10.4906,2 0 -10.4906,2 0 -10.4906,2 0 -10.4906,2 0 -10.4906,2 0 -10.4906,2 0 -10.4906,2 0 -10.4906,2 0 -10.4906,0.710,
2 0 -9.652423,2 0 -9.652423,2 0 -9.652423,2 0 -9.652423,2 0 -9.652423,2 0 -9.652423,2 0 -9.652423,2 0 -9.652423,2 0 -9.652423,2 0 -9.652423,2 0 -9.652423,2 0 -9.652423,2 0 -9.652423,2 0 -9.652423,2 0 -9.652423,2 0 -9.652423,2 0 -9.652423,2 0 -9.652423,2 0 -9.652423,2 0 -9.652423,2 0 -9.652423,2 0 -10.4906,2 0 -10.4906,2 0 -10.4906,2 0 -10.4906,2 0 -10.4906,2 0 -10.4906,2 0 -10.4906,2 0 -10.4906,2 0 -10.4906,2 0 -10.4906,2 0 -10.4906,2 0 -10.4906,2 0 -10.4906,2 0 -10.4906,2 0 -10.4906,2 0 -10.4906,2 0 -10.4906,2 0 -10.4906,2 0 -10.4906,2 0 -10.4906,2 0 -10.4906,0.810,
2 0 -9.652423,2 0 -9.652423,2 0 -9.652423,2 0 -9.652423,2 0 -9.652423,2 0 -9.652423,2 0 -9.652423,2 0 -9.652423,2 0 -9.652423,2 0 -9.652423,2 0 -9.652423,2 0 -9.652423,2 0 -9.652423,2 0 -9.652423,2 0 -9.652423,2 0 -9.652423,2 0 -9.652423,2 0 -9.652423,2 0 -9.652423,2 0 -9.652423,2 0 -9.652423,2 0 -10.4906,2 0 -10.4906,2 0 -10.4906,2 0 -10.4906,2 0 -10.4906,2 0 -10.4906,2 0 -10.4906,2 0 -10.4906,2 0 -10.4906,2 0 -10.4906,2 0 -10.4906,2 0 -10.4906,2 0 -10.4906,2 0 -10.4906,2 0 -10.4906,2 0 -10.4906,2 0 -10.4906,2 0 -10.4906,2 0 -10.4906,2 0 -10.4906,2 0 -10.4906,0.910,
2 0 -9.652423,2 0 -9.652423,2 0 -9.652423,2 0 -9.652423,2 0 -9.652423,2 0 -9.652423,2 0 -9.652423,2 0 -9.652423,2 0 -9.652423,2 0 -9.652423,2 0 -9.652423,2 0 -9.652423,2 0 -9.652423,2 0 -9.652423,2 0 -9.652423,2 0 -9.652423,2 0 -9.652423,2 0 -9.652423,2 0 -9.652423,2 0 -9.652423,2 0 -9.652423,2 0 -10.4906,2 0 -10.4906,2 0 -10.4906,2 0 -10.4906,2 0 -10.4906,2 0 -10.4906,2 0 -10.4906,2 0 -10.4906,2 0 -10.4906,2 0 -10.4906,2 0 -10.4906,2 0 -10.4906,2 0 -10.4906,2 0 -10.4906,2 0 -10.4906,2 0 -10.4906,2 0 -10.4906,2 0 -10.4906,2 0 -10.4906,2 0 -10.4906,2 0 -10.4906,1.010,
-3.9027 -15.22014 1.174426,-4.850115 -14.70893 1.293589,-5.525194 -13.77549 1.458978,-5.868529 -12.74528 1.489305,-5.841405 -11.87361 1.401968,-5.047873 -12.53914 2.012355,-5.30222 -10.84327 2.01403,-5.406813 -10.35578 1.709447,-5.436247 -10.28405 1.391136,-4.597136 -12.2903 1.883417,-4.899467 -10.64139 1.81398,-5.134062 -10.48555 1.346446,-5.240025 -10.61059 0.9232671,-4.209859 -12.23377 1.68076,-4.463795 -10.78925 1.559779,-4.702279 -10.72314 1.157846,-4.838044 -10.91568 0.8398998,-3.903202 -12.3323 1.491838,-4.096156 -11.19781 1.321402,-4.321054 -11.01871 1.024962,-4.469441 -11.10047 0.7538034,2 0 -10.4906,2 0 -10.4906,2 0 -10.4906,2 0 -10.4906,2 0 -10.4906,2 0 -10.4906,2 0 -10.4906,2 0 -10.4906,2 0 -10.4906,2 0 -10.4906,2 0 -10.4906,2 0 -10.4906,2 0 -10.4906,2 0 -10.4906,2 0 -10.4906,2 0 -10.4906,2 0 -10.4906,2 0 -10.4906,2 0 -10.4906,2 0 -10.4906,2 0 -10.4906,1.110,
-4.378832 -13.7792 0.02451547,-5.088831 -13.61618 0.2907984,-5.69535 -12.78019 0.4858084,-6.081369 -11.94392 0.6813129,-6.358953 -11.18001 0.8737305,-5.277438 -11.28393 0.4099119,-5.508665 -9.931736 0.5652963,-5.688463 -9.222128 0.6637759,-5.825165 -8.713364 0.7238739,-4.902246 -11.08371 0.3484629,-5.122329 -9.686407 0.3918793,-5.377091 -9.089499 0.3574054,-5.565979 -8.774889 0.3183785,-4.56294 -11.10457 0.3085979,-4.732762 -9.824015 0.3687213,-4.968931 -9.212788 0.3330993,-5.16119 -8.889906 0.3104582,-4.252951 -11.29148 0.2953868,-4.376204 -10.2804 0.3695041,-4.564016 -9.765949 0.3749249,-4.741763 -9.41321 0.3516421,-9.306547 -12.99206 1.178197,-8.453044 -12.71488 1.256466,-7.887144 -12.08526 1.507608,-7.558527 -11.50361 1.758473,-7.409945 -10.84625 1.92443,-8.195048 -9.903137 1.266249,-8.108161 -8.434029 1.305379,-8.080112 -7.901519 1.274155,-8.103104 -7.809652 1.182427,-8.584527 -9.740555 1.326353,-8.493734 -8.125866 1.312561,-8.461699 -7.644386 1.179897,-8.456288 -7.568099 0.9915829,-8.982224 -9.837835 1.378634,-8.904591 -8.359049 1.361047,-8.850893 -7.913142 1.297679,-8.805887 -7.854627 1.204627,-9.377186 -10.14439 1.445512,-9.360771 -8.995893 1.450725,-9.284031 -8.579714 1.383283,-9.197051 -8.507635 1.259703,1.210,
-4.54566 -12.54784 1.128548,-5.252419 -12.32556 1.347579,-5.822918 -11.51746 1.467643,-6.1571 -10.76621 1.667523,-6.426737 -10.05429 1.901693,-5.494431 -9.750219 0.9302599,-5.68728 -8.635118 1.0194,-5.812079 -8.05304 1.14382,-5.930807 -7.62207 1.266227,-5.144021 -9.527754 1.031374,-5.259995 -8.335787 1.189151,-5.367574 -7.755341 1.447125,-5.454458 -7.532039 1.653989,-4.815561 -9.561178 1.189245,-4.897168 -8.450489 1.391638,-4.96242 -7.898429 1.722441,-5.043396 -7.70758 1.982196,-4.469637 -9.788956 1.38451,-4.476215 -8.954494 1.612743,-4.528234 -8.499804 1.85015,-4.616024 -8.275906 2.043312,-9.283525 -11.51804 -1.070451,-8.681539 -11.34764 -1.334018,-8.427495 -10.62533 -1.391247,-8.262144 -9.882881 -1.462127,-8.148087 -9.224888 -1.615368,-8.55602 -9.187611 -0.8825604,-8.366209 -7.645416 -0.8591119,-8.424318 -6.874563 -1.034383,-8.524617 -6.468976 -1.21322,-8.939953 -8.862839 -0.7952338,-8.767669 -7.228031 -0.67764,-8.810907 -6.431862 -0.8707772,-8.885086 -6.065916 -1.149984,-9.366928 -8.779566 -0.7474654,-9.317369 -7.202061 -0.7112573,-9.341375 -6.552008 -0.8688766,-9.366575 -6.286582 -1.074056,-9.812203 -8.904903 -0.7448808,-9.85592 -7.601209 -0.691892,-9.839321 -7.037391 -0.7897253,-9.799465 -6.772968 -0.9299328,1.310,
-4.430481 -9.858917 0.8561975,-5.061522 -9.562586 1.004316,-5.558661 -8.721302 1.081756,-5.899815 -8.001345 1.205905,-6.246692 -7.493728 1.338079,-5.221716 -7.047766 0.8257662,-5.495079 -5.878026 1.064117,-5.651423 -5.252162 1.29742,-5.776433 -4.724372 1.512481,-4.905533 -6.897501 0.9962664,-5.102833 -5.569757 1.241769,-5.254244 -4.84909 1.549414,-5.388636 -4.27742 1.792077,-4.575846 -6.977085 1.210127,-4.699057 -5.692859 1.472447,-4.838064 -4.970047 1.734106,-4.980698 -4.411349 1.960119,-4.235253 -7.264778 1.449749,-4.275869 -6.224825 1.716114,-4.367426 -5.626359 1.896674,-4.478334 -5.108919 2.07128,-9.76445 -10.87748 1.192646,-8.993861 -10.20356 1.320109,-8.49366 -9.211679 1.514465,-8.158031 -8.43837 1.72583,-7.820057 -7.857524 1.984683,-9.006482 -7.644422 1.475312,-8.89509 -6.534801 1.679479,-8.808261 -5.728139 1.829064,-8.727625 -4.994913 2.003594,-9.364193 -7.591871 1.623454,-9.302951 -6.41555 1.829436,-9.221747 -5.490013 1.925871,-9.147596 -4.6678 2.009836,-9.695527 -7.742128 1.820313,-9.694601 -6.570194 1.989801,-9.643518 -5.674413 2.032507,-9.589833 -4.875015 2.051789,-10.02814 -8.100328 2.02819,-10.09483 -7.098228 2.14898,-10.10764 -6.437143 2.185493,-10.11918 -5.790512 2.221395,1.410,
-4.1782 -9.585335 1.380629,-4.854544 -9.255621 1.410905,-5.350024 -8.384109 1.402791,-5.63343 -7.618433 1.48974,-5.924084 -7.140853 1.608662,-5.065039 -6.731187 1.072518,-5.247543 -5.701535 1.200855,-5.447784 -5.105237 1.350293,-5.657135 -4.515636 1.466084,-4.759415 -6.488315 1.296815,-4.902601 -5.323171 1.479427,-5.100622 -4.625579 1.713987,-5.31156 -3.935584 1.915712,-4.444336 -6.506217 1.597347,-4.557112 -5.384802 1.793833,-4.71129 -4.693536 2.01153,-4.883444 -4.044892 2.195554,-4.110721 -6.753833 1.922319,-4.128387 -5.854415 2.132712,-4.21534 -5.257953 2.312879,-4.360487 -4.674541 2.471287,-9.811031 -10.36923 1.077079,-9.064257 -9.751671 1.227691,-8.539207 -8.846748 1.476146,-8.189415 -8.065712 1.767261,-7.866069 -7.386421 2.111354,-9.027132 -7.200275 1.214664,-8.921588 -5.975465 1.420337,-8.860682 -5.124033 1.576174,-8.826019 -4.351868 1.720111,-9.416944 -7.100913 1.366861,-9.352406 -5.731826 1.591716,-9.295246 -4.751313 1.703447,-9.255013 -3.86745 1.77364,-9.775661 -7.207912 1.555629,-9.785341 -5.857362 1.732637,-9.728009 -4.928277 1.821149,-9.652151 -4.09044 1.896181,-10.13094 -7.51691 1.774911,-10.18635 -6.454858 1.892541,-10.18647 -5.758972 1.97089,-10.16602 -5.083001 2.024756,1.510,
-3.85239 -8.950417 1.219836,-4.538387 -8.63611 1.301541,-5.086736 -7.795673 1.325797,-5.411125 -6.994747 1.438819,-5.760658 -6.403393 1.589819,-4.825736 -6.179477 0.9441606,-5.072289 -5.140539 1.045453,-5.258991 -4.53302 1.174699,-5.434633 -3.962924 1.277007,-4.512232 -5.91706 1.109799,-4.720284 -4.753508 1.255092,-4.912717 -4.06397 1.467946,-5.078857 -3.422693 1.635809,-4.182158 -5.903234 1.361879,-4.331163 -4.767257 1.526942,-4.4909 -4.119495 1.737652,-4.648183 -3.520998 1.91466,-3.816832 -6.107458 1.644993,-3.868958 -5.219308 1.829218,-3.974201 -4.669938 2.025281,-4.09613 -4.157403 2.185597,-9.638578 -9.60745 0.9072823,-8.94538 -9.169985 1.072111,-8.428988 -8.215052 1.26932,-8.108917 -7.384359 1.531079,-7.760255 -6.813144 1.807024,-8.935842 -6.500421 1.09468,-8.857373 -5.259582 1.290174,-8.786016 -4.536763 1.492448,-8.720412 -3.894754 1.631958,-9.323347 -6.386049 1.263611,-9.266978 -4.914466 1.466461,-9.203539 -3.995896 1.700641,-9.145694 -3.179108 1.874008,-9.685351 -6.521936 1.452345,-9.676988 -5.126871 1.653165,-9.612652 -4.263231 1.862165,-9.530072 -3.492506 2.028956,-10.04695 -6.868639 1.668151,-10.10288 -5.813067 1.857478,-10.09956 -5.13961 2.00136,-10.06751 -4.461866 2.095037,1.610,
-3.605324 -8.539633 0.8605944,-4.304839 -8.23682 1.018396,-4.887386 -7.558671 1.095585,-5.226006 -6.837196 1.221715,-5.551664 -6.250738 1.388759,-4.634506 -5.895723 0.7179955,-4.919518 -4.867812 0.8261405,-5.087919 -4.267589 0.9548895,-5.23614 -3.693953 1.042793,-4.309856 -5.619962 0.8360516,-4.564672 -4.440923 0.9719338,-4.747856 -3.751222 1.144416,-4.894745 -3.130334 1.269462,-3.977655 -5.58497 1.036731,-4.152416 -4.439701 1.201804,-4.314325 -3.803485 1.381833,-4.464874 -3.216793 1.526002,-3.608196 -5.749504 1.26817,-3.682919 -4.861957 1.441556,-3.789949 -4.330227 1.600947,-3.907978 -3.838641 1.726275,-9.596979 -9.360312 0.8541788,-8.894528 -9.003897 1.016618,-8.348397 -8.094561 1.199874,-8.009247 -7.260793 1.446986,-7.638981 -6.664992 1.717161,-8.821021 -6.319067 0.9818563,-8.706119 -5.059335 1.170611,-8.637567 -4.331262 1.342469,-8.586816 -3.675953 1.452669,-9.194981 -6.158067 1.152347,-9.099649 -4.689625 1.349106,-9.022421 -3.797235 1.564118,-8.965978 -3.024569 1.722634,-9.557956 -6.27353 1.366454,-9.515802 -4.894239 1.585088,-9.442663 -4.062423 1.798062,-9.360358 -3.335279 1.965937,-9.939006 -6.607489 1.595177,-9.974368 -5.541076 1.835727,-9.959736 -4.905607 1.995716,-9.907909 -4.296334 2.102511,1.710,
-3.504895 -8.402645 0.6110273,-4.192396 -8.090071 0.7994604,-4.79528 -7.479105 0.9163992,-5.181505 -6.785067 1.093336,-5.511458 -6.192159 1.311101,-4.554186 -5.833915 0.5509594,-4.851067 -4.809471 0.6850228,-5.020269 -4.219795 0.7975714,-5.164833 -3.663431 0.8799152,-4.228462 -5.561498 0.6581861,-4.486152 -4.369639 0.7777249,-4.66099 -3.68053 0.9539539,-4.798945 -3.047004 1.118128,-3.886637 -5.531219 0.8405941,-4.063114 -4.385631 1.003525,-4.223515 -3.740499 1.208794,-4.373861 -3.152613 1.393431,-3.506166 -5.708965 1.056378,-3.58758 -4.809206 1.241381,-3.694923 -4.263067 1.43747,-3.817259 -3.764067 1.591563,-9.544726 -9.284691 0.8911834,-8.851906 -8.88096 1.059684,-8.313615 -7.983642 1.252772,-7.966212 -7.179803 1.516273,-7.597248 -6.57777 1.813047,-8.797895 -6.216457 0.9996448,-8.680574 -4.968063 1.197396,-8.59057 -4.234753 1.374434,-8.511391 -3.596168 1.495461,-9.153579 -6.069091 1.175,-9.067262 -4.618021 1.370295,-8.978296 -3.747625 1.602142,-8.904385 -2.996422 1.75991,-9.504642 -6.189831 1.393524,-9.469582 -4.83428 1.624359,-9.38791 -4.020316 1.856994,-9.289047 -3.306111 2.022931,-9.873832 -6.535278 1.621356,-9.923436 -5.487846 1.899791,-9.905321 -4.853 2.098507,-9.845335 -4.254426 2.223936,1.810,
-3.442732 -8.217951 0.511232,-4.10219 -7.909271 0.70472,-4.696165 -7.321157 0.8301058,-5.082222 -6.661339 1.008822,-5.397474 -6.081279 1.226863,-4.422695 -5.66188 0.4833682,-4.724781 -4.631721 0.6212934,-4.896978 -4.027029 0.7333753,-5.034512 -3.459353 0.8177851,-4.103924 -5.391709 0.5901874,-4.371973 -4.223924 0.7215066,-4.552204 -3.527183 0.8917084,-4.688744 -2.899044 1.047029,-3.765488 -5.357179 0.7701067,-3.950374 -4.229099 0.9283662,-4.107258 -3.573619 1.118108,-4.253357 -2.985491 1.293885,-3.388317 -5.529617 0.982504,-3.477921 -4.630444 1.164778,-3.584519 -4.068037 1.352389,-3.708372 -3.551872 1.50332,-9.508849 -9.074816 0.6706854,-8.825836 -8.693352 0.7814978,-8.285442 -7.81383 0.941651,-7.939476 -7.038038 1.184225,-7.581141 -6.47315 1.456192,-8.730705 -6.074037 0.7585496,-8.605326 -4.824125 0.9509798,-8.514858 -4.08599 1.123977,-8.437166 -3.433404 1.244311,-9.074632 -5.928952 0.9585871,-8.97542 -4.491786 1.157174,-8.883281 -3.615251 1.392691,-8.813877 -2.865096 1.552479,-9.423733 -6.038803 1.195272,-9.377686 -4.686485 1.431521,-9.28906 -3.852457 1.682003,-9.189316 -3.128619 1.864838,-9.79792 -6.370481 1.430941,-9.838979 -5.304299 1.712572,-9.811515 -4.656103 1.921634,-9.744366 -4.047879 2.065241,1.910,
-3.437199 -8.140289 0.4661175,-4.088475 -7.83852 0.714341,-4.669483 -7.246272 0.8710664,-5.049061 -6.606604 1.073943,-5.360369 -6.049758 1.31517,-4.39317 -5.57653 0.5349554,-4.697319 -4.544873 0.7082847,-4.864143 -3.939019 0.8357382,-4.994431 -3.374086 0.9408243,-4.063013 -5.322698 0.6273856,-4.322769 -4.151452 0.7942872,-4.494778 -3.455842 0.9781928,-4.62054 -2.840716 1.138168,-3.717529 -5.310636 0.7911364,-3.888629 -4.18194 0.9876359,-4.040887 -3.518105 1.197859,-4.181982 -2.925327 1.379922,-3.337268 -5.500981 0.9927171,-3.402061 -4.596302 1.190851,-3.494205 -4.039185 1.38923,-3.600878 -3.519623 1.548238,-9.529387 -8.993465 0.6515065,-8.847516 -8.623505 0.7629408,-8.304373 -7.755439 0.9241031,-7.945194 -6.994873 1.169757,-7.593213 -6.457141 1.45363,-8.731736 -6.017444 0.7394484,-8.595839 -4.783832 0.9248666,-8.510452 -4.052058 1.088569,-8.448331 -3.423623 1.207761,-9.064529 -5.857275 0.9366198,-8.9433 -4.438969 1.120483,-8.858714 -3.560882 1.339362,-8.806235 -2.810667 1.497694,-9.410559 -5.956861 1.173192,-9.342318 -4.639142 1.405406,-9.252802 -3.804504 1.64276,-9.167484 -3.086611 1.818438,-9.783261 -6.293662 1.411991,-9.824136 -5.23994 1.679714,-9.80909 -4.599275 1.87966,-9.765588 -3.991693 2.022314,2.010,
-3.32978 -7.984721 0.2582504,-3.978823 -7.69358 0.5060499,-4.545503 -7.137999 0.6612271,-4.924284 -6.500456 0.8571159,-5.251117 -5.984622 1.080434,-4.259964 -5.472576 0.3171031,-4.544689 -4.45236 0.4543615,-4.701733 -3.856118 0.5525078,-4.82098 -3.299284 0.6498392,-3.927646 -5.220233 0.3886184,-4.162338 -4.042432 0.5194582,-4.305431 -3.330171 0.6733042,-4.405327 -2.711153 0.8130681,-3.588274 -5.201591 0.5279599,-3.734749 -4.073394 0.6884857,-3.86734 -3.395706 0.8588068,-3.989613 -2.800682 1.011827,-3.220879 -5.374395 0.7034648,-3.244997 -4.478582 0.8644109,-3.304934 -3.918225 1.040507,-3.382713 -3.394475 1.182216,-9.517813 -8.918354 0.8016368,-8.842025 -8.55658 0.8881854,-8.282633 -7.683349 1.030278,-7.927965 -6.917331 1.266498,-7.559414 -6.4043 1.540764,-8.733988 -5.887397 0.7928334,-8.616494 -4.654102 0.9384152,-8.53717 -3.927518 1.069662,-8.472585 -3.30075 1.159992,-9.07773 -5.729052 1.006384,-8.970777 -4.294788 1.149614,-8.889042 -3.409252 1.353836,-8.83281 -2.663299 1.491304,-9.422607 -5.844159 1.256563,-9.365909 -4.521524 1.467119,-9.290148 -3.672567 1.710369,-9.206706 -2.942077 1.896417,-9.787989 -6.205095 1.514612,-9.8402 -5.167541 1.790706,-9.827963 -4.53129 2.021778,-9.779812 -3.942731 2.184282,2.110,
-3.278413 -7.956989 0.1809943,-3.922297 -7.661935 0.4230531,-4.493575 -7.100704 0.5699368,-4.880533 -6.470092 0.7642559,-5.192013 -5.941404 0.9756378,-4.204576 -5.460851 0.2019418,-4.481966 -4.429508 0.3311014,-4.637823 -3.825735 0.4268105,-4.752938 -3.269897 0.522014,-3.885931 -5.215782 0.2752343,-4.119989 -4.035945 0.3932568,-4.256805 -3.315088 0.552907,-4.351114 -2.693283 0.7012611,-3.556221 -5.186393 0.4178252,-3.703446 -4.050361 0.5644589,-3.830969 -3.361944 0.7333696,-3.949835 -2.761514 0.8859203,-3.197862 -5.339694 0.594185,-3.21759 -4.432762 0.7392379,-3.268669 -3.860748 0.9008636,-3.335835 -3.337048 1.031719,-9.489937 -8.889954 0.7604049,-8.810815 -8.518112 0.8562003,-8.252056 -7.63725 1.009103,-7.898848 -6.871313 1.255469,-7.540113 -6.346488 1.537984,-8.698748 -5.873371 0.7898061,-8.571945 -4.630537 0.9525475,-8.482841 -3.908548 1.095241,-8.407897 -3.277452 1.194958,-9.039946 -5.716951 1.007853,-8.92789 -4.284689 1.177692,-8.837726 -3.414315 1.395803,-8.773495 -2.668935 1.544818,-9.38529 -5.827487 1.263041,-9.322157 -4.499654 1.496225,-9.23894 -3.659439 1.749789,-9.150148 -2.932544 1.939239,-9.752205 -6.182359 1.523827,-9.797466 -5.138788 1.811312,-9.781294 -4.507605 2.040108,-9.728925 -3.91617 2.201489,2.210,
-3.203888 -7.882157 0.1510636,-3.842065 -7.604436 0.3655663,-4.40835 -7.039228 0.4820188,-4.783941 -6.417612 0.6447105,-5.101763 -5.945156 0.8261558,-4.12852 -5.399231 0.1346195,-4.401928 -4.396995 0.2363823,-4.548443 -3.811627 0.3202468,-4.654527 -3.26531 0.4088473,-3.815626 -5.149559 0.205084,-4.033255 -3.991763 0.3032364,-4.148649 -3.289229 0.4447064,-4.22472 -2.666748 0.5780722,-3.493273 -5.118539 0.3419916,-3.633074 -4.01667 0.4697608,-3.747037 -3.352705 0.6129366,-3.850174 -2.772676 0.741053,-3.139428 -5.268192 0.5161351,-3.152159 -4.375907 0.6396006,-3.184125 -3.819202 0.7748138,-3.226414 -3.309017 0.8858269,-9.421246 -8.811413 0.7527522,-8.744216 -8.450808 0.8280358,-8.198641 -7.557369 0.9615123,-7.86132 -6.791235 1.188785,-7.520297 -6.286088 1.460139,-8.630999 -5.800815 0.7234477,-8.509295 -4.578449 0.8668251,-8.420847 -3.865051 1.007624,-8.343072 -3.245473 1.10838,-8.971972 -5.636741 0.9456785,-8.862495 -4.210818 1.082036,-8.767567 -3.332761 1.298235,-8.697152 -2.595553 1.448552,-9.320209 -5.74798 1.203778,-9.257431 -4.440536 1.41301,-9.172629 -3.595859 1.664743,-9.081701 -2.872584 1.849858,-9.68639 -6.107556 1.466775,-9.745064 -5.075174 1.744418,-9.733917 -4.445186 1.972011,-9.684403 -3.867262 2.122316,2.310,
-3.106958 -7.794355 -0.01631572,-3.742993 -7.529418 0.2322798,-4.305645 -7.006797 0.3767974,-4.688349 -6.396608 0.5616643,-4.987581 -5.909708 0.7624221,-4.047075 -5.365921 0.001706462,-4.324733 -4.3775 0.1159328,-4.466704 -3.803118 0.2060012,-4.564421 -3.266935 0.2934757,-3.737473 -5.115528 0.05300908,-3.952251 -3.956983 0.1462589,-4.058121 -3.261625 0.2788697,-4.12084 -2.656209 0.3933505,-3.4191 -5.080245 0.1711171,-3.556479 -3.987936 0.2927285,-3.663509 -3.325569 0.4345375,-3.753536 -2.758396 0.5534446,-3.066055 -5.229217 0.3282764,-3.070946 -4.350352 0.4431607,-3.095607 -3.806022 0.5690799,-3.125055 -3.312768 0.6672496,-9.409227 -8.800251 0.768045,-8.733047 -8.452862 0.8312081,-8.183608 -7.557222 0.95298,-7.840095 -6.792831 1.165528,-7.486549 -6.301481 1.418576,-8.608595 -5.788211 0.7253047,-8.489132 -4.555057 0.8561884,-8.39416 -3.8407 0.9918395,-8.309747 -3.221077 1.086295,-8.952226 -5.621253 0.9429844,-8.843283 -4.192083 1.072872,-8.743455 -3.32169 1.278667,-8.666148 -2.593412 1.419381,-9.303026 -5.728823 1.196353,-9.232625 -4.412454 1.395403,-9.140077 -3.567178 1.634385,-9.039322 -2.844915 1.813976,-9.670861 -6.08369 1.450632,-9.722867 -5.054025 1.723209,-9.708938 -4.417803 1.943117,-9.655486 -3.833166 2.088787,2.410,
-3.096682 -7.737264 -0.12327,-3.724325 -7.451478 0.1119071,-4.274072 -6.948009 0.2609174,-4.649427 -6.349782 0.4544779,-4.942977 -5.861825 0.664268,-3.999731 -5.319681 -0.09843691,-4.281595 -4.333515 0.01515114,-4.422117 -3.770072 0.09508567,-4.519938 -3.243382 0.1746277,-3.692249 -5.082164 -0.03962826,-3.906677 -3.914455 0.05676009,-4.009912 -3.218289 0.1896012,-4.072497 -2.614999 0.3072227,-3.377132 -5.056474 0.07685442,-3.507648 -3.956954 0.197938,-3.604733 -3.297559 0.3370535,-3.687403 -2.735476 0.453683,-3.032146 -5.213949 0.2328373,-3.029542 -4.329456 0.3577913,-3.044518 -3.783011 0.4865845,-3.067015 -3.285448 0.5837123,-9.371802 -8.823803 0.7673782,-8.697545 -8.454891 0.8155037,-8.15307 -7.578202 0.9412876,-7.808681 -6.829993 1.164107,-7.442856 -6.341131 1.43538,-8.579102 -5.799951 0.7445841,-8.453238 -4.568361 0.881958,-8.354844 -3.848488 1.020499,-8.268919 -3.224636 1.120932,-8.923294 -5.646053 0.9796615,-8.813975 -4.209997 1.128996,-8.713027 -3.326375 1.356406,-8.639121 -2.597381 1.508224,-9.271764 -5.767198 1.247204,-9.207857 -4.450716 1.453288,-9.111351 -3.599811 1.714148,-9.007385 -2.879018 1.907813,-9.636254 -6.130489 1.512551,-9.698359 -5.093227 1.799448,-9.678898 -4.440985 2.042664,-9.620066 -3.841741 2.203911,2.510,
-3.033449 -7.617519 -0.2981599,-3.649011 -7.343774 -0.008188814,-4.193122 -6.825399 0.161422,-4.556731 -6.231803 0.3615333,-4.850472 -5.771349 0.5832631,-3.941297 -5.24853 -0.1936946,-4.226393 -4.274743 -0.04848427,-4.370359 -3.701746 0.065799,-4.470338 -3.167444 0.1729265,-3.62488 -5.01465 -0.1675028,-3.835301 -3.870984 -0.0504261,-3.937457 -3.182727 0.09623274,-3.996723 -2.584485 0.2237802,-3.306721 -4.99459 -0.0758671,-3.425106 -3.916593 0.06034058,-3.521904 -3.266346 0.2186975,-3.605282 -2.70388 0.3506411,-2.963043 -5.154163 0.05460411,-2.944231 -4.298058 0.1836099,-2.953369 -3.773962 0.3204998,-2.967788 -3.293253 0.425884,-9.362343 -8.774805 0.7000405,-8.661856 -8.428101 0.8181289,-8.101929 -7.571959 0.9577804,-7.75015 -6.802859 1.181262,-7.394927 -6.288919 1.440514,-8.523271 -5.795557 0.7058707,-8.384392 -4.540314 0.8611508,-8.284977 -3.815932 1.017581,-8.19716 -3.184377 1.120714,-8.869015 -5.622436 0.9010302,-8.75385 -4.197204 1.049825,-8.656497 -3.332021 1.274116,-8.579796 -2.599523 1.420716,-9.221689 -5.720212 1.136677,-9.150144 -4.404552 1.34154,-9.059384 -3.575606 1.592897,-8.959886 -2.867642 1.774801,-9.595905 -6.053987 1.374835,-9.63892 -5.036727 1.643314,-9.616991 -4.397623 1.865235,-9.560425 -3.805187 2.009869,2.610,
-3.02471 -7.577207 -0.4083819,-3.641223 -7.299947 -0.1712304,-4.171046 -6.800789 -0.02322477,-4.519157 -6.201683 0.1628428,-4.781416 -5.724362 0.3639066,-3.90946 -5.22914 -0.3432728,-4.188795 -4.249288 -0.2059409,-4.335627 -3.682453 -0.09215236,-4.432697 -3.159075 0.007768929,-3.599419 -5.002117 -0.2937135,-3.799669 -3.850835 -0.1747853,-3.902771 -3.156566 -0.02278456,-3.959801 -2.562019 0.107606,-3.285357 -4.996126 -0.1853896,-3.391538 -3.929779 -0.05357838,-3.488739 -3.278359 0.1031606,-3.567814 -2.720358 0.2325425,-2.947005 -5.175695 -0.04609743,-2.909932 -4.336662 0.08295241,-2.916033 -3.819792 0.2135567,-2.928747 -3.351603 0.3154299,-9.316291 -8.764647 0.6981307,-8.626466 -8.410004 0.8012562,-8.071527 -7.558517 0.9267277,-7.720578 -6.793226 1.131879,-7.365796 -6.300449 1.370371,-8.486917 -5.783262 0.7019413,-8.341732 -4.527818 0.8601307,-8.235129 -3.812104 1.016365,-8.135967 -3.181056 1.129807,-8.824245 -5.613145 0.9070158,-8.699187 -4.205987 1.07358,-8.595848 -3.360464 1.310668,-8.512105 -2.624282 1.476497,-9.171853 -5.715185 1.151844,-9.087534 -4.413782 1.378256,-8.998144 -3.593969 1.637908,-8.901079 -2.881058 1.820581,-9.541117 -6.058298 1.395153,-9.583525 -5.062073 1.677011,-9.566555 -4.426647 1.907205,-9.517478 -3.818815 2.060116,2.710,
-2.9883 -7.658945 -0.4023489,-3.592878 -7.380754 -0.1783294,-4.108738 -6.851224 -0.04239446,-4.439671 -6.236795 0.1315779,-4.685984 -5.721443 0.3115358,-3.868416 -5.303617 -0.3810375,-4.143765 -4.357609 -0.2301353,-4.287632 -3.791765 -0.1015549,-4.381147 -3.259935 0.007342488,-3.562987 -5.081043 -0.3149481,-3.759012 -3.970149 -0.1834416,-3.863251 -3.277761 -0.02283654,-3.924232 -2.677688 0.1061206,-3.253703 -5.082393 -0.1813818,-3.355785 -4.031332 -0.03928784,-3.456989 -3.375561 0.1246753,-3.537228 -2.819767 0.258013,-2.922229 -5.277339 -0.02186072,-2.889566 -4.429382 0.1183893,-2.910718 -3.897038 0.2583083,-2.938068 -3.422184 0.3637041,-9.271173 -8.729408 0.6196706,-8.58762 -8.389742 0.7295132,-8.042706 -7.530469 0.8525476,-7.701272 -6.762289 1.059651,-7.331114 -6.267174 1.302665,-8.415504 -5.782879 0.5910658,-8.272919 -4.572728 0.716153,-8.161325 -3.860473 0.8515039,-8.059341 -3.242971 0.9427393,-8.749603 -5.60238 0.7765783,-8.620821 -4.216453 0.8882667,-8.515334 -3.377882 1.079218,-8.427035 -2.667787 1.211183,-9.09613 -5.685028 1.006183,-9.009077 -4.393883 1.174774,-8.919868 -3.568529 1.397873,-8.821026 -2.864329 1.559559,-9.467669 -6.00201 1.238763,-9.516019 -5.020185 1.473025,-9.512163 -4.387733 1.667373,-9.475913 -3.784 1.802465,2.810,
-2.98594 -7.64409 -0.4900604,-3.590908 -7.371721 -0.2392895,-4.105202 -6.842227 -0.09754872,-4.425074 -6.212638 0.07924956,-4.680885 -5.692054 0.2703308,-3.868877 -5.311031 -0.4246637,-4.143974 -4.349939 -0.275141,-4.288394 -3.780009 -0.1539335,-4.37738 -3.244113 -0.04975072,-3.563257 -5.093282 -0.3819431,-3.761673 -3.977046 -0.2582816,-3.861962 -3.292903 -0.1086622,-3.917299 -2.699767 0.006239235,-3.252724 -5.092268 -0.271372,-3.355249 -4.043893 -0.1357786,-3.455246 -3.405111 0.01725203,-3.534314 -2.853429 0.1423686,-2.916817 -5.272779 -0.1311725,-2.888846 -4.432929 0.00354898,-2.908263 -3.917417 0.1388441,-2.933214 -3.452358 0.2378743,-9.288146 -8.739182 0.6767279,-8.595098 -8.410673 0.7736871,-8.042945 -7.538571 0.8744757,-7.703188 -6.751644 1.062068,-7.341249 -6.265394 1.277569,-8.425974 -5.787227 0.5977135,-8.286956 -4.575315 0.7077749,-8.181933 -3.880989 0.8370806,-8.083781 -3.276954 0.9340132,-8.759698 -5.594411 0.7758738,-8.627903 -4.223164 0.861161,-8.523132 -3.397666 1.055094,-8.433894 -2.684966 1.202862,-9.100948 -5.662046 0.9991108,-9.011236 -4.394166 1.150928,-8.925308 -3.588768 1.375669,-8.831433 -2.895106 1.534457,-9.465215 -5.966603 1.224099,-9.514969 -4.989361 1.440938,-9.519081 -4.362777 1.625642,-9.49439 -3.763582 1.753023,2.910,
-2.947482 -7.633907 -0.4865614,-3.559668 -7.388904 -0.2280011,-4.077261 -6.867134 -0.09468582,-4.39921 -6.231197 0.07353294,-4.654318 -5.716808 0.2574146,-3.845667 -5.322828 -0.4520975,-4.120086 -4.379241 -0.3249124,-4.256533 -3.81907 -0.2167615,-4.33869 -3.296113 -0.1216174,-3.532846 -5.082399 -0.4225096,-3.729595 -3.977397 -0.3310075,-3.826687 -3.290676 -0.1961872,-3.872746 -2.703302 -0.08856615,-3.21983 -5.068174 -0.3265159,-3.318594 -4.032693 -0.2221319,-3.412395 -3.397996 -0.07564431,-3.482679 -2.856861 0.04153639,-2.883311 -5.238839 -0.1984193,-2.854263 -4.415552 -0.09029022,-2.868422 -3.912482 0.0326342,-2.885922 -3.460856 0.1275544,-9.235738 -8.757597 0.687124,-8.565232 -8.38571 0.7940676,-8.029467 -7.537361 0.9326681,-7.694445 -6.781529 1.157384,-7.323395 -6.276016 1.413816,-8.413528 -5.777322 0.6778729,-8.266637 -4.579873 0.8165051,-8.149042 -3.883693 0.9563559,-8.042346 -3.275491 1.057178,-8.746468 -5.607408 0.8732235,-8.619495 -4.238107 1.005618,-8.514416 -3.408424 1.217302,-8.427474 -2.698135 1.359231,-9.090574 -5.703315 1.110271,-9.000231 -4.422581 1.296587,-8.909625 -3.600159 1.534324,-8.811887 -2.896589 1.699609,-9.457646 -6.03139 1.346883,-9.497439 -5.035659 1.596486,-9.486421 -4.399261 1.801802,-9.444996 -3.794302 1.937076,3.010,
-2.951824 -7.617687 -0.5235733,-3.561507 -7.363835 -0.243092,-4.081448 -6.850267 -0.09132427,-4.40244 -6.226017 0.09148955,-4.648464 -5.70578 0.2915066,-3.833224 -5.298582 -0.454114,-4.106177 -4.347188 -0.3175426,-4.242563 -3.790636 -0.2101945,-4.324669 -3.272546 -0.1177886,-3.520357 -5.074114 -0.4308307,-3.716983 -3.968544 -0.3281789,-3.812038 -3.280399 -0.1888821,-3.855169 -2.69334 -0.08029175,-3.208339 -5.068473 -0.3405294,-3.311502 -4.03749 -0.2324927,-3.405712 -3.398725 -0.08605048,-3.47456 -2.860174 0.03043401,-2.872806 -5.244012 -0.2172033,-2.846321 -4.412913 -0.1073895,-2.8606 -3.90386 0.0162186,-2.876226 -3.450771 0.1104005,-9.233753 -8.74662 0.6526134,-8.566212 -8.404776 0.7717501,-8.033581 -7.551733 0.9023507,-7.703193 -6.784648 1.115088,-7.328359 -6.288053 1.358214,-8.407563 -5.789958 0.6183513,-8.259346 -4.59564 0.740657,-8.14325 -3.888549 0.8712431,-8.039872 -3.270852 0.9638349,-8.740788 -5.605062 0.8024653,-8.615217 -4.235639 0.9153274,-8.509296 -3.402792 1.110503,-8.421612 -2.702085 1.239468,-9.084583 -5.690334 1.032333,-8.998373 -4.412573 1.200653,-8.905205 -3.600784 1.428518,-8.804193 -2.909343 1.590824,-9.451684 -6.007512 1.266889,-9.491335 -5.026998 1.502625,-9.479454 -4.407888 1.70063,-9.436025 -3.820333 1.833947,3.110,
-2.941007 -7.603555 -0.5763581,-3.553608 -7.331477 -0.330415,-4.072311 -6.809761 -0.1943444,-4.399137 -6.186885 -0.02445537,-4.648703 -5.682083 0.1569632,-3.839989 -5.30581 -0.5093258,-4.11529 -4.35128 -0.3555097,-4.246418 -3.779898 -0.240405,-4.320988 -3.246028 -0.1430211,-3.529581 -5.080743 -0.466166,-3.721603 -3.966806 -0.3459179,-3.814747 -3.265405 -0.2009991,-3.860086 -2.678836 -0.08751312,-3.215483 -5.0692 -0.3575195,-3.317822 -4.017646 -0.2272261,-3.410465 -3.365136 -0.08299968,-3.48276 -2.822168 0.03026366,-2.875608 -5.240782 -0.2203526,-2.842978 -4.393623 -0.09804955,-2.853995 -3.874639 0.02451551,-2.870489 -3.413864 0.1137524,-9.225372 -8.707098 0.5689105,-8.557531 -8.360022 0.6876754,-8.024196 -7.50849 0.8220599,-7.688815 -6.749076 1.041264,-7.318511 -6.256353 1.296468,-8.400612 -5.769397 0.5453792,-8.257697 -4.568345 0.6772966,-8.14704 -3.860711 0.822368,-8.046982 -3.243989 0.9247421,-8.732894 -5.590314 0.7312359,-8.60564 -4.212106 0.8537535,-8.503633 -3.367531 1.058219,-8.420435 -2.651042 1.201262,-9.077121 -5.674398 0.9605852,-8.990502 -4.392669 1.139137,-8.898867 -3.568012 1.368525,-8.801421 -2.86096 1.531193,-9.446376 -5.992486 1.195176,-9.488235 -5.000919 1.436074,-9.481685 -4.367548 1.636027,-9.446669 -3.759487 1.768847,3.210,
-2.953851 -7.576752 -0.5996057,-3.561543 -7.319047 -0.3443559,-4.078014 -6.81464 -0.1957409,-4.401687 -6.198516 -0.009826899,-4.654207 -5.682892 0.1904787,-3.84374 -5.278165 -0.5368732,-4.115275 -4.326622 -0.3853425,-4.247491 -3.761611 -0.2700707,-4.324299 -3.23236 -0.1683832,-3.532757 -5.058342 -0.4938386,-3.722618 -3.951094 -0.3728027,-3.816414 -3.258468 -0.2239918,-3.8594 -2.673505 -0.1049922,-3.220667 -5.052509 -0.3852668,-3.318146 -4.004263 -0.2587832,-3.410345 -3.357568 -0.1144584,-3.478366 -2.811739 -6.896257E-05,-2.883843 -5.228834 -0.2475627,-2.848072 -4.382638 -0.1235495,-2.857072 -3.860679 0.001202166,-2.869097 -3.39141 0.09402645,-9.20932 -8.694677 0.6027496,-8.543905 -8.353783 0.7400647,-8.015213 -7.500803 0.8771021,-7.686069 -6.733499 1.094685,-7.311266 -6.237277 1.343351,-8.396621 -5.746248 0.5912835,-8.253185 -4.541554 0.726681,-8.143136 -3.835346 0.8688625,-8.045472 -3.218612 0.9696295,-8.7304 -5.565925 0.7632172,-8.607344 -4.192021 0.8878204,-8.509933 -3.352026 1.095958,-8.429204 -2.639426 1.244034,-9.071956 -5.657571 0.981361,-8.992115 -4.383483 1.155276,-8.90831 -3.56616 1.385268,-8.814696 -2.862206 1.55268,-9.43688 -5.982726 1.204303,-9.474689 -5.005516 1.449752,-9.46183 -4.377847 1.656637,-9.420515 -3.780359 1.796338,3.310,
-2.945825 -7.511526 -0.6239718,-3.553848 -7.259747 -0.3693986,-4.065669 -6.749315 -0.2269346,-4.39165 -6.124864 -0.05151165,-4.643877 -5.608789 0.1452873,-3.84327 -5.237121 -0.5537276,-4.1185 -4.298299 -0.4179215,-4.249979 -3.736416 -0.3093162,-4.327792 -3.211662 -0.2088924,-3.532948 -5.001968 -0.5218868,-3.727259 -3.89385 -0.4205357,-3.816328 -3.20091 -0.2837161,-3.856098 -2.61395 -0.1749753,-3.221688 -4.986555 -0.4259412,-3.322243 -3.942349 -0.3151892,-3.413446 -3.292231 -0.175963,-3.479556 -2.741292 -0.06099737,-2.883835 -5.155117 -0.3023699,-2.851372 -4.322095 -0.1910367,-2.861032 -3.797687 -0.06727988,-2.870321 -3.322331 0.02681744,-9.190311 -8.653606 0.4889341,-8.511288 -8.314503 0.5845155,-7.979924 -7.482424 0.7073667,-7.651728 -6.726255 0.9152377,-7.283044 -6.229989 1.155151,-8.363687 -5.74131 0.4387521,-8.216799 -4.538385 0.5675643,-8.109559 -3.841873 0.7127471,-8.016061 -3.233055 0.8125136,-8.696375 -5.559683 0.6400427,-8.571855 -4.19342 0.7665749,-8.467824 -3.354248 0.9839646,-8.380701 -2.631995 1.134358,-9.037366 -5.6366 0.8807011,-8.946869 -4.353658 1.063326,-8.856318 -3.536085 1.293568,-8.755901 -2.830287 1.453397,-9.4024 -5.94099 1.123666,-9.422201 -4.944532 1.364201,-9.395513 -4.307117 1.560801,-9.338672 -3.696924 1.686637,3.410,
-2.922822 -7.475652 -0.5795304,-3.529532 -7.237316 -0.3268963,-4.045088 -6.715311 -0.1894851,-4.375095 -6.086372 -0.01903069,-4.62413 -5.570453 0.1685377,-3.817793 -5.191847 -0.525646,-4.084251 -4.238693 -0.3964862,-4.21814 -3.671493 -0.2903133,-4.301537 -3.152609 -0.1922164,-3.508055 -4.952095 -0.4906017,-3.700382 -3.840972 -0.399905,-3.791292 -3.146738 -0.2639168,-3.831646 -2.568694 -0.1508631,-3.197135 -4.934976 -0.394057,-3.303825 -3.893097 -0.2861398,-3.392285 -3.229126 -0.1381026,-3.456559 -2.670834 -0.0152542,-2.857773 -5.104997 -0.2698756,-2.823835 -4.269773 -0.1643341,-2.826126 -3.746699 -0.04196382,-2.827178 -3.281192 0.05783355,-9.140457 -8.604471 0.4532928,-8.462767 -8.271067 0.5318394,-7.93892 -7.425495 0.634874,-7.617725 -6.667314 0.8228002,-7.250121 -6.184841 1.04364,-8.335301 -5.698146 0.3747575,-8.191391 -4.498132 0.5008636,-8.07959 -3.805128 0.6528074,-7.974761 -3.188533 0.7621676,-8.665969 -5.516743 0.5815215,-8.543307 -4.155569 0.7084202,-8.429219 -3.329526 0.9326705,-8.328341 -2.612806 1.087839,-9.003247 -5.591398 0.8281353,-8.917515 -4.311368 1.009114,-8.825224 -3.505212 1.244643,-8.718006 -2.802398 1.408401,-9.363298 -5.891416 1.07317,-9.391561 -4.902889 1.318849,-9.36434 -4.263216 1.518902,-9.303837 -3.648245 1.64194,3.510,
-2.915044 -7.487071 -0.5656806,-3.522583 -7.240381 -0.3099618,-4.034389 -6.720273 -0.1725254,-4.351778 -6.085762 -0.0008634329,-4.603674 -5.558692 0.1887215,-3.805958 -5.192167 -0.5179183,-4.077402 -4.253059 -0.3783619,-4.212538 -3.68665 -0.2622343,-4.290981 -3.160443 -0.1590617,-3.496447 -4.95832 -0.4844241,-3.690912 -3.853852 -0.3814253,-3.785608 -3.159703 -0.2374904,-3.826437 -2.574015 -0.1240236,-3.188848 -4.943843 -0.3859828,-3.290485 -3.906178 -0.2734959,-3.382811 -3.252715 -0.1284949,-3.446983 -2.701083 -0.009365499,-2.85448 -5.115453 -0.2591337,-2.818917 -4.285568 -0.1480069,-2.827747 -3.768415 -0.02662653,-2.835754 -3.30517 0.06669104,-9.141689 -8.615444 0.471189,-8.461449 -8.278288 0.5374114,-7.934204 -7.407491 0.64578,-7.611004 -6.65282 0.843454,-7.246231 -6.165503 1.076621,-8.326265 -5.698709 0.3948493,-8.19517 -4.508153 0.5300111,-8.078568 -3.804782 0.6826277,-7.973178 -3.179822 0.796973,-8.656693 -5.524608 0.6107039,-8.538391 -4.161834 0.7459285,-8.422566 -3.31517 0.964498,-8.328502 -2.594383 1.10986,-8.996807 -5.608156 0.8688114,-8.907929 -4.332977 1.052639,-8.808959 -3.511322 1.286414,-8.706305 -2.807316 1.445538,-9.358851 -5.916554 1.1259,-9.38437 -4.921331 1.377232,-9.355022 -4.27596 1.57957,-9.29866 -3.662751 1.705743,3.610,
-2.903807 -7.504072 -0.5543249,-3.511968 -7.25105 -0.2913617,-4.027235 -6.742043 -0.1499413,-4.349337 -6.119713 0.02385515,-4.590603 -5.588434 0.2128164,-3.792583 -5.202241 -0.51393,-4.064425 -4.266868 -0.3747833,-4.195988 -3.705465 -0.2639927,-4.271685 -3.190042 -0.1669295,-3.4834 -4.971256 -0.484462,-3.677081 -3.876928 -0.3857436,-3.7675 -3.188758 -0.2485955,-3.805906 -2.600765 -0.1441593,-3.176311 -4.955415 -0.3869912,-3.281742 -3.926593 -0.285244,-3.375293 -3.284169 -0.1501052,-3.440735 -2.741348 -0.04180574,-2.844217 -5.123106 -0.2605036,-2.81772 -4.288399 -0.1585557,-2.833343 -3.77216 -0.04664904,-2.847538 -3.311584 0.03586119,-9.155395 -8.608456 0.4881946,-8.46979 -8.276133 0.5659398,-7.938273 -7.41544 0.6738218,-7.612431 -6.664603 0.8688475,-7.246675 -6.193538 1.094982,-8.320852 -5.692409 0.423885,-8.188753 -4.502522 0.5510093,-8.071802 -3.808383 0.6986167,-7.965935 -3.199498 0.8081181,-8.650928 -5.515686 0.624554,-8.529693 -4.154676 0.7499715,-8.413862 -3.320302 0.9622505,-8.318727 -2.605036 1.109533,-8.990074 -5.597755 0.8685967,-8.900745 -4.321895 1.041626,-8.801062 -3.505976 1.268596,-8.699371 -2.806036 1.428807,-9.353824 -5.906614 1.112228,-9.376576 -4.917076 1.347343,-9.34983 -4.278703 1.539875,-9.299119 -3.670961 1.665377,3.710,
-2.863099 -7.530721 -0.6398882,-3.435135 -7.246803 -0.2686466,-3.916203 -6.644504 -0.09808356,-4.202559 -5.981767 0.1169336,-4.438471 -5.33583 0.3597267,-3.754339 -5.175665 -0.7623606,-3.972469 -4.270751 -0.6892931,-4.067778 -3.752221 -0.5246269,-4.121947 -3.266711 -0.3575193,-3.417257 -5.019414 -0.7668413,-3.537199 -4.090925 -0.6310732,-3.584332 -3.655636 -0.3046134,-3.580088 -3.502561 -0.06172174,-3.096607 -5.047662 -0.6954169,-3.151622 -4.175346 -0.5489023,-3.186391 -3.800689 -0.1609333,-3.206024 -3.724929 0.1125885,-2.755901 -5.224525 -0.5793918,-2.789553 -4.544532 -0.398374,-2.844447 -4.237693 -0.1292425,-2.887775 -4.158115 0.07079911,-9.177438 -8.628269 0.338223,-8.491991 -8.280977 0.4131819,-7.965792 -7.409328 0.5099868,-7.621662 -6.623661 0.6955919,-7.219753 -6.115945 0.9149488,-8.329485 -5.750928 0.2322689,-8.16929 -4.565198 0.3663904,-8.034698 -3.879968 0.5191128,-7.911415 -3.264402 0.6257176,-8.660919 -5.579337 0.4300747,-8.490195 -4.284837 0.5598491,-8.337049 -3.514883 0.7870363,-8.210322 -2.855027 0.9494166,-9.004013 -5.65307 0.6696987,-8.88414 -4.408088 0.8520219,-8.7444 -3.646327 1.098463,-8.60192 -2.994155 1.269934,-9.371273 -5.937502 0.9091107,-9.368086 -4.970981 1.157795,-9.310761 -4.34387 1.365953,-9.22432 -3.720613 1.505177,3.810,
-2.828223 -7.479766 -0.7235504,-3.406511 -7.238986 -0.3019108,-3.883249 -6.634706 -0.1195388,-4.154142 -5.962516 0.09381413,-4.387058 -5.316432 0.3244222,-3.725176 -5.156991 -0.8009402,-3.943851 -4.233346 -0.7203388,-4.038569 -3.694331 -0.5274814,-4.085365 -3.205767 -0.3305119,-3.386845 -4.992929 -0.8283076,-3.519768 -4.052461 -0.667904,-3.553841 -3.630057 -0.3161708,-3.520532 -3.525581 -0.05682707,-3.069828 -5.023388 -0.7721477,-3.156387 -4.146949 -0.6036981,-3.189379 -3.7651 -0.2045679,-3.188786 -3.708456 0.08113998,-2.727898 -5.198474 -0.6693501,-2.779798 -4.534755 -0.4736023,-2.845653 -4.241298 -0.1931181,-2.881649 -4.176985 0.02726614,-9.19655 -8.613001 0.3130883,-8.524109 -8.252283 0.395245,-7.995891 -7.400712 0.5069386,-7.645604 -6.631768 0.7098557,-7.252472 -6.115013 0.9408823,-8.35688 -5.742091 0.2302421,-8.203728 -4.561494 0.3791613,-8.074699 -3.875 0.5399249,-7.955598 -3.254197 0.6524655,-8.681504 -5.571916 0.4296604,-8.52632 -4.275087 0.5700395,-8.381321 -3.490299 0.8047734,-8.262928 -2.821485 0.9644099,-9.020787 -5.647069 0.6699492,-8.911011 -4.41116 0.849656,-8.779542 -3.648007 1.090251,-8.645034 -2.998772 1.254168,-9.384971 -5.93379 0.9116493,-9.38098 -4.965669 1.155407,-9.319273 -4.343715 1.354656,-9.229332 -3.731185 1.481776,3.910,
-2.770762 -7.56616 -0.7787075,-3.345273 -7.285577 -0.4045769,-3.804882 -6.664381 -0.2560138,-4.064291 -5.97344 -0.07130748,-4.280769 -5.300994 0.1107111,-3.662603 -5.268213 -0.9254485,-3.873306 -4.353772 -0.8843905,-3.974623 -3.81031 -0.740255,-4.030096 -3.290913 -0.5798583,-3.342026 -5.10132 -0.9383831,-3.470213 -4.185213 -0.8204121,-3.492838 -3.787499 -0.5147586,-3.449812 -3.672959 -0.2845265,-3.038553 -5.116968 -0.8726373,-3.11878 -4.272384 -0.7289633,-3.136753 -3.902193 -0.3546637,-3.121777 -3.840402 -0.07512319,-2.706343 -5.266284 -0.761993,-2.751076 -4.623554 -0.5951685,-2.814107 -4.337127 -0.3329926,-2.847097 -4.272727 -0.1154504,-9.245734 -8.648518 0.3910582,-8.587893 -8.322269 0.4922201,-8.057246 -7.453104 0.6142071,-7.716531 -6.674152 0.8267279,-7.344064 -6.149995 1.065047,-8.411055 -5.769397 0.3174267,-8.265227 -4.608243 0.4344958,-8.144378 -3.932168 0.5717287,-8.035174 -3.326288 0.6716807,-8.740262 -5.582824 0.4962718,-8.597161 -4.296884 0.5969262,-8.463986 -3.515537 0.7956886,-8.353077 -2.850336 0.9443991,-9.07917 -5.654069 0.7216339,-8.986321 -4.439567 0.8656989,-8.868566 -3.679859 1.081989,-8.741959 -3.026878 1.239394,-9.44242 -5.945354 0.9491123,-9.460025 -4.98442 1.169666,-9.417735 -4.365283 1.356583,-9.341773 -3.767371 1.48487,4.010,
-2.717718 -7.66862 -1.174017,-3.292051 -7.366178 -0.6908538,-3.717634 -6.73484 -0.4325678,-3.958452 -5.969862 -0.1941344,-4.082682 -5.264867 0.02674782,-3.619326 -5.447038 -1.002323,-3.773954 -4.517705 -0.845817,-3.845241 -3.905421 -0.5816921,-3.884071 -3.3267 -0.3386629,-3.272172 -5.314756 -1.035942,-3.32155 -4.288223 -0.5984343,-3.271326 -4.684982 -0.20546,-3.221733 -5.167549 -0.006282091,-2.947614 -5.322233 -1.023599,-2.953528 -4.433051 -0.6021371,-2.9314 -4.970619 -0.3149496,-2.916206 -5.502969 -0.2453498,-2.611215 -5.437009 -0.9627432,-2.60953 -4.717357 -0.6204353,-2.639712 -5.006002 -0.4335567,-2.644064 -5.436454 -0.3709896,-9.313361 -8.697922 0.3479837,-8.642154 -8.322227 0.4600506,-8.105326 -7.46335 0.5829264,-7.746126 -6.691041 0.7946373,-7.375424 -6.140842 1.028275,-8.483755 -5.78821 0.2865238,-8.361012 -4.621723 0.4361154,-8.247445 -3.97832 0.5793197,-8.121931 -3.39694 0.668533,-8.834037 -5.640441 0.4502656,-8.713766 -4.453807 0.582605,-8.570659 -3.781471 0.8026822,-8.434445 -3.247409 0.9452856,-9.182785 -5.724226 0.6599056,-9.117193 -4.557441 0.8077245,-8.985562 -3.911039 1.028483,-8.835093 -3.388071 1.174988,-9.543545 -6.011898 0.8774465,-9.55722 -5.095005 1.081005,-9.486864 -4.52355 1.266814,-9.371637 -3.969481 1.386483,4.110,
-2.696127 -7.70466 -1.224641,-3.232276 -7.37327 -0.784075,-3.636626 -6.73215 -0.5280583,-3.846246 -5.990171 -0.2752137,-3.967775 -5.267242 -0.05937648,-3.576506 -5.493503 -1.034114,-3.712238 -4.568799 -0.812954,-3.761036 -3.999594 -0.5968893,-3.771407 -3.467891 -0.4144711,-3.24641 -5.368391 -1.033971,-3.30149 -4.449187 -0.494163,-3.255627 -5.185014 -0.2352496,-3.216684 -5.813438 -0.1772462,-2.922671 -5.392191 -0.9858742,-2.945873 -4.577829 -0.4674188,-2.945989 -5.374427 -0.2967879,-2.929967 -5.975425 -0.3306263,-2.582402 -5.545095 -0.8945171,-2.599434 -4.825673 -0.5098107,-2.655222 -5.298841 -0.3707209,-2.668257 -5.799842 -0.3697591,-9.292973 -8.666327 0.1442836,-8.639959 -8.305639 0.225227,-8.123713 -7.442254 0.333037,-7.777937 -6.702978 0.5350536,-7.424355 -6.16163 0.7658986,-8.522335 -5.781896 0.04171536,-8.412901 -4.619641 0.1912213,-8.297037 -3.988407 0.3465855,-8.161261 -3.423391 0.449196,-8.872782 -5.658149 0.2202439,-8.770551 -4.490298 0.3898468,-8.622208 -3.863665 0.644871,-8.469273 -3.429555 0.7991447,-9.21879 -5.755252 0.4456587,-9.173452 -4.618827 0.6056012,-9.041285 -4.011993 0.8516866,-8.885416 -3.545208 1.009724,-9.57335 -6.049841 0.6804352,-9.599647 -5.152782 0.8818206,-9.528159 -4.59007 1.077144,-9.40538 -4.048303 1.205442,4.210,
-2.647518 -7.759069 -1.398637,-3.181572 -7.385752 -0.9915782,-3.573721 -6.726539 -0.7930648,-3.76759 -5.98125 -0.5849733,-3.853994 -5.262071 -0.412883,-3.493586 -5.571651 -1.275254,-3.626989 -4.647903 -1.053022,-3.668215 -4.108653 -0.8696215,-3.673676 -3.60663 -0.7073503,-3.171782 -5.462686 -1.288685,-3.200438 -4.614132 -0.7831843,-3.143019 -5.416498 -0.5756661,-3.117138 -6.061439 -0.5427258,-2.854239 -5.486099 -1.243132,-2.86506 -4.748759 -0.727479,-2.852977 -5.577281 -0.5983301,-2.848711 -6.193384 -0.6539961,-2.528238 -5.62915 -1.162459,-2.534905 -4.93935 -0.7897534,-2.580313 -5.425317 -0.6820889,-2.606253 -5.907972 -0.7004727,-9.340405 -8.65753 -0.0366348,-8.683451 -8.330627 0.08072678,-8.150176 -7.452976 0.1839495,-7.78724 -6.701952 0.3772699,-7.422383 -6.186767 0.5986805,-8.551905 -5.830539 -0.1324503,-8.443348 -4.662609 0.01290533,-8.332888 -4.014553 0.1772159,-8.201569 -3.431751 0.2890004,-8.904742 -5.703636 0.03223065,-8.791686 -4.542182 0.1900722,-8.640005 -3.90962 0.4526513,-8.48785 -3.460042 0.6152258,-9.250165 -5.796083 0.2416546,-9.189811 -4.656668 0.3995752,-9.051893 -4.048467 0.6453012,-8.895134 -3.575534 0.8022212,-9.601427 -6.086421 0.4693826,-9.620681 -5.201314 0.6602302,-9.550019 -4.640546 0.8420765,-9.435754 -4.093439 0.9656603,4.310,
-2.563385 -7.866136 -1.830192,-3.059334 -7.451179 -1.436591,-3.436817 -6.780611 -1.280909,-3.577708 -6.008575 -1.120799,-3.581882 -5.31297 -0.9830592,-3.323692 -5.767446 -1.616915,-3.418585 -4.904239 -1.281978,-3.439689 -4.438821 -1.058699,-3.44944 -4.058909 -0.8932562,-3.001167 -5.681631 -1.656203,-2.979947 -5.040543 -1.130803,-2.926046 -5.857652 -0.9654494,-2.920426 -6.519448 -0.9531115,-2.68333 -5.728078 -1.633563,-2.657614 -5.240554 -1.063792,-2.648527 -6.042052 -0.9894543,-2.664221 -6.632025 -1.062386,-2.369544 -5.88384 -1.583335,-2.350922 -5.308288 -1.165727,-2.390951 -5.799779 -1.064384,-2.4346 -6.254435 -1.077595,-9.276828 -8.63854 -0.1638862,-8.625517 -8.358829 -0.0487947,-8.109801 -7.500843 0.05909947,-7.758803 -6.760702 0.2584217,-7.386775 -6.241443 0.4846825,-8.511446 -5.850218 -0.3004254,-8.398019 -4.694382 -0.1550868,-8.28334 -4.04737 0.04597946,-8.145527 -3.474478 0.1869507,-8.867706 -5.716928 -0.1330788,-8.770832 -4.55459 0.04486983,-8.620557 -3.970777 0.3505687,-8.471333 -3.632879 0.531197,-9.212931 -5.807579 0.08166832,-9.159911 -4.677257 0.2404731,-9.021025 -4.109611 0.497543,-8.867525 -3.711421 0.6588014,-9.565722 -6.088516 0.3145317,-9.575528 -5.199661 0.4839921,-9.491646 -4.657602 0.6562732,-9.365406 -4.144235 0.774546,4.410,
-2.549759 -7.846025 -1.938886,-3.015763 -7.468858 -1.50906,-3.382723 -6.800441 -1.339507,-3.516355 -6.054349 -1.165054,-3.517118 -5.36802 -1.015521,-3.256905 -5.760679 -1.667876,-3.313298 -4.908318 -1.311572,-3.309602 -4.434632 -1.057977,-3.281345 -4.041753 -0.8654449,-2.943336 -5.688426 -1.724469,-2.895288 -5.092735 -1.1869,-2.861694 -5.909669 -1.004977,-2.862485 -6.533152 -0.9858434,-2.628764 -5.743066 -1.714888,-2.586631 -5.264667 -1.158822,-2.595484 -6.054661 -1.093579,-2.620659 -6.617521 -1.174917,-2.318967 -5.902629 -1.668355,-2.278627 -5.340379 -1.25578,-2.323979 -5.827968 -1.160216,-2.373411 -6.268184 -1.181217,-9.24428 -8.632967 -0.2016804,-8.602628 -8.354921 -0.07072893,-8.09082 -7.484766 0.05814543,-7.738708 -6.749806 0.2770322,-7.366536 -6.226554 0.5280387,-8.493109 -5.850713 -0.2962798,-8.380568 -4.698739 -0.1376578,-8.267382 -4.053728 0.07020375,-8.13107 -3.481287 0.2158103,-8.848722 -5.721189 -0.1253968,-8.759944 -4.572919 0.07849461,-8.606506 -4.000073 0.3972902,-8.451077 -3.664764 0.5859164,-9.195089 -5.81077 0.09392446,-9.154934 -4.681923 0.2785358,-9.013758 -4.117486 0.5501449,-8.853414 -3.711338 0.7231727,-9.549171 -6.09029 0.330284,-9.570443 -5.192457 0.5150901,-9.489676 -4.643493 0.695783,-9.361968 -4.107229 0.8203089,4.510,
-2.498205 -7.799695 -2.216796,-2.943127 -7.409719 -1.734631,-3.254721 -6.667268 -1.548067,-3.304458 -5.861637 -1.38218,-3.225131 -5.212455 -1.247373,-3.113264 -5.727237 -1.833098,-3.119776 -4.858903 -1.463172,-3.059958 -4.35935 -1.212541,-2.976273 -3.897384 -1.042558,-2.782713 -5.712198 -1.945008,-2.66255 -5.212688 -1.380046,-2.664207 -6.009454 -1.20347,-2.726943 -6.503948 -1.21392,-2.466879 -5.801935 -1.993624,-2.36761 -5.42777 -1.434194,-2.414991 -6.171936 -1.413602,-2.496597 -6.599578 -1.5348,-2.17474 -5.983695 -2.004698,-2.092321 -5.476752 -1.603899,-2.144573 -5.950969 -1.536996,-2.217145 -6.296927 -1.59973,-9.247605 -8.62352 -0.2436454,-8.598543 -8.34898 -0.1015632,-8.091738 -7.483516 0.04092699,-7.739035 -6.755471 0.2688628,-7.37244 -6.229915 0.5342131,-8.493498 -5.848546 -0.323139,-8.373712 -4.69761 -0.1609848,-8.271058 -4.038431 0.06198871,-8.150642 -3.457896 0.2181288,-8.863748 -5.722663 -0.1529035,-8.778349 -4.568758 0.1024552,-8.635444 -4.042264 0.4465141,-8.493988 -3.794884 0.6374884,-9.220438 -5.82275 0.0651297,-9.178069 -4.689958 0.2808347,-9.036023 -4.158223 0.5713451,-8.886602 -3.813012 0.7474597,-9.578629 -6.110091 0.2996219,-9.591728 -5.210572 0.485198,-9.508001 -4.655082 0.6688933,-9.379313 -4.134008 0.7958118,4.610,
-2.486744 -7.768806 -2.438669,-2.888563 -7.332576 -1.9297,-3.136906 -6.558685 -1.74375,-3.105844 -5.756345 -1.578124,-2.951928 -5.144928 -1.451152,-3.006361 -5.682636 -2.107101,-2.986219 -4.751432 -1.751728,-2.879408 -4.233139 -1.502812,-2.734376 -3.778509 -1.329599,-2.67463 -5.727184 -2.230454,-2.523159 -5.185793 -1.653985,-2.534431 -5.946876 -1.442465,-2.614529 -6.426462 -1.437208,-2.369917 -5.855572 -2.281361,-2.241567 -5.452303 -1.724266,-2.316106 -6.175403 -1.677561,-2.425507 -6.600767 -1.786691,-2.085813 -6.060398 -2.300188,-1.970502 -5.538026 -1.87354,-2.043432 -5.994635 -1.778558,-2.140323 -6.337126 -1.831651,-9.269189 -8.623117 -0.245625,-8.612139 -8.376829 -0.07151851,-8.095898 -7.505296 0.09366339,-7.745514 -6.753374 0.3320284,-7.389326 -6.201389 0.6045274,-8.499962 -5.851339 -0.2831968,-8.381189 -4.696378 -0.1204484,-8.280107 -4.035268 0.09924507,-8.159663 -3.455324 0.2473344,-8.873954 -5.725325 -0.127643,-8.796508 -4.573011 0.1273502,-8.655909 -4.060548 0.4708508,-8.513583 -3.823325 0.6616025,-9.232227 -5.825778 0.07716236,-9.193736 -4.692115 0.295665,-9.054031 -4.166995 0.5900404,-8.902922 -3.832845 0.7732539,-9.592961 -6.110099 0.3007683,-9.606417 -5.203051 0.4775395,-9.527502 -4.648903 0.6603357,-9.401843 -4.129409 0.7922987,4.710,
-2.344696 -7.598029 -2.298845,-2.655287 -7.097508 -1.719449,-2.805939 -6.333389 -1.459836,-2.713802 -5.60946 -1.235947,-2.541308 -5.024047 -1.008518,-2.641508 -5.412204 -1.786049,-2.518722 -4.506871 -1.358197,-2.33809 -4.04116 -1.058681,-2.131419 -3.67712 -0.8385497,-2.317536 -5.531023 -1.924225,-2.092195 -5.175891 -1.315581,-2.178518 -5.935041 -1.127284,-2.330083 -6.38299 -1.137168,-2.019217 -5.735655 -1.991749,-1.827579 -5.499094 -1.408311,-1.962918 -6.198459 -1.38133,-2.13106 -6.568391 -1.495917,-1.75662 -6.004401 -2.015327,-1.559074 -5.619603 -1.549291,-1.669008 -6.103519 -1.471436,-1.813386 -6.407216 -1.541055,-9.291319 -8.654564 -0.1338282,-8.636325 -8.407471 0.02637807,-8.124846 -7.502281 0.1798799,-7.777367 -6.755476 0.4130501,-7.411263 -6.209629 0.6952605,-8.546443 -5.846117 -0.2069207,-8.431789 -4.691923 -0.02126857,-8.317981 -4.030746 0.2437439,-8.189262 -3.463455 0.4340739,-8.920164 -5.720889 -0.0289373,-8.842568 -4.566787 0.2269777,-8.685171 -4.005258 0.6150971,-8.528518 -3.732353 0.8448352,-9.281631 -5.822005 0.2040514,-9.255688 -4.683193 0.4329041,-9.112947 -4.117427 0.7594382,-8.949532 -3.743755 0.9718319,-9.648245 -6.116252 0.4524825,-9.688754 -5.198907 0.6602169,-9.6238 -4.615921 0.8735126,-9.503266 -4.055295 1.02838,4.810,
-2.275033 -7.522216 -2.338553,-2.577945 -7.04102 -1.700348,-2.731699 -6.291 -1.412846,-2.632256 -5.566808 -1.175058,-2.430303 -4.984581 -0.9367944,-2.529742 -5.324005 -1.783348,-2.370313 -4.450164 -1.354838,-2.170869 -3.99062 -1.056011,-1.947242 -3.634082 -0.8307374,-2.204916 -5.471729 -1.942555,-1.959153 -5.182554 -1.295269,-2.061096 -5.95158 -1.097497,-2.234804 -6.402381 -1.115088,-1.909812 -5.692075 -2.032267,-1.708456 -5.493198 -1.433408,-1.853444 -6.190807 -1.402172,-2.028754 -6.560993 -1.527412,-1.651754 -5.958108 -2.067093,-1.443784 -5.614788 -1.591463,-1.561726 -6.083943 -1.518848,-1.709494 -6.376276 -1.596669,-9.277304 -8.626801 -0.1892333,-8.635305 -8.361691 -0.01265649,-8.128392 -7.46743 0.1539517,-7.775129 -6.727714 0.3988167,-7.400491 -6.192085 0.6874551,-8.549196 -5.824153 -0.2243572,-8.445077 -4.665497 -0.02340381,-8.336242 -4.015912 0.2468094,-8.210794 -3.451383 0.4392912,-8.919305 -5.70882 -0.05093212,-8.843977 -4.549411 0.2259689,-8.687335 -3.985389 0.6163323,-8.532825 -3.712659 0.8426298,-9.276954 -5.817802 0.1754474,-9.25761 -4.671598 0.4225285,-9.117652 -4.099103 0.7528353,-8.958405 -3.717045 0.9615937,-9.640262 -6.118145 0.4177557,-9.688933 -5.193073 0.6487952,-9.622077 -4.612412 0.8681074,-9.500343 -4.050275 1.022103,4.910,
-2.119164 -7.36281 -2.429209,-2.444161 -6.892719 -1.736352,-2.59885 -6.122412 -1.416517,-2.451154 -5.407419 -1.155953,-2.191766 -4.830112 -0.9044565,-2.331626 -5.143179 -1.880406,-2.12639 -4.322372 -1.468055,-1.894911 -3.902719 -1.169454,-1.650091 -3.546213 -0.9398326,-1.996448 -5.336826 -2.056514,-1.721179 -5.070953 -1.372137,-1.828335 -5.830633 -1.114863,-2.011449 -6.280052 -1.10826,-1.698458 -5.595083 -2.155208,-1.460254 -5.40304 -1.52983,-1.620184 -6.098713 -1.461646,-1.813596 -6.480726 -1.58441,-1.4355 -5.895978 -2.198192,-1.191956 -5.574955 -1.68989,-1.326802 -6.050329 -1.593458,-1.500363 -6.340629 -1.68135,-9.259903 -8.603136 -0.2160557,-8.613447 -8.363829 -0.03481276,-8.109951 -7.479381 0.1243111,-7.764016 -6.740217 0.3624676,-7.390056 -6.204041 0.6395416,-8.53148 -5.809525 -0.2504866,-8.417769 -4.649122 -0.05990359,-8.310019 -3.990856 0.2017585,-8.187428 -3.410986 0.3870686,-8.90542 -5.692237 -0.08196893,-8.827799 -4.534429 0.1777487,-8.672967 -3.974349 0.565389,-8.521284 -3.686488 0.7924016,-9.266958 -5.803241 0.1384187,-9.241764 -4.658886 0.3774213,-9.105865 -4.088095 0.7041449,-8.951495 -3.696035 0.9118695,-9.633821 -6.108303 0.3766475,-9.680905 -5.183788 0.6021132,-9.615554 -4.599113 0.8168311,-9.496599 -4.028894 0.9672464,5.010,
-2.008639 -7.310142 -2.530521,-2.326181 -6.831916 -1.837065,-2.465488 -6.042242 -1.559175,-2.310084 -5.319528 -1.336501,-2.074199 -4.715761 -1.120944,-2.203771 -5.118626 -1.973745,-2.004849 -4.262228 -1.548925,-1.773566 -3.833783 -1.254574,-1.531927 -3.481199 -1.023911,-1.87422 -5.315452 -2.152193,-1.605813 -5.034589 -1.439692,-1.715024 -5.802413 -1.19585,-1.897812 -6.252959 -1.219097,-1.576985 -5.57007 -2.249525,-1.343826 -5.387374 -1.5959,-1.508779 -6.088507 -1.546462,-1.709831 -6.458554 -1.692125,-1.316711 -5.859529 -2.293996,-1.066897 -5.544761 -1.761894,-1.206899 -6.016927 -1.678887,-1.391772 -6.298338 -1.790002,-9.285177 -8.6224 -0.1815895,-8.631324 -8.369072 -0.008486494,-8.116554 -7.493764 0.1408834,-7.762197 -6.74862 0.3742914,-7.392231 -6.188035 0.6431971,-8.532521 -5.830436 -0.2363898,-8.413212 -4.690957 -0.06127199,-8.303184 -4.043734 0.1727602,-8.177533 -3.465949 0.3385425,-8.900308 -5.704591 -0.06743293,-8.809969 -4.568841 0.1593818,-8.650108 -3.998697 0.5305784,-8.49379 -3.680765 0.7532599,-9.260231 -5.807178 0.1526452,-9.227117 -4.679132 0.3686952,-9.088609 -4.103475 0.6819168,-8.92914 -3.699661 0.8813834,-9.629261 -6.106014 0.3925856,-9.670549 -5.186176 0.6073639,-9.600584 -4.603631 0.8199131,-9.476021 -4.041425 0.9684776,5.110,
-1.797211 -7.195282 -2.360572,-2.12269 -6.768484 -1.640527,-2.270725 -5.988932 -1.316247,-2.102246 -5.273174 -1.042873,-1.850612 -4.642843 -0.7459481,-1.998486 -4.994838 -1.724691,-1.821524 -4.179595 -1.181538,-1.600603 -3.792982 -0.8168634,-1.356808 -3.425583 -0.5595393,-1.65337 -5.166816 -1.908168,-1.39125 -4.983136 -1.124689,-1.515412 -5.832752 -0.8998744,-1.701643 -6.256832 -0.9531125,-1.343801 -5.421476 -1.99128,-1.115233 -5.326084 -1.272871,-1.30859 -6.085437 -1.26504,-1.512977 -6.425758 -1.445209,-1.086047 -5.721385 -2.022475,-0.8392849 -5.511824 -1.452006,-1.006124 -6.033639 -1.410984,-1.199397 -6.279956 -1.560835,-9.293806 -8.61536 -0.2413456,-8.639655 -8.376711 -0.07972828,-8.131326 -7.491804 0.07483262,-7.775678 -6.75275 0.3110892,-7.406302 -6.212085 0.5981754,-8.538905 -5.834327 -0.3005723,-8.421616 -4.664908 -0.1068732,-8.305259 -4.005253 0.1600161,-8.174978 -3.438377 0.3499211,-8.913708 -5.714435 -0.1202641,-8.827806 -4.54239 0.1484301,-8.670739 -3.983737 0.5308568,-8.514614 -3.720612 0.7489036,-9.280634 -5.823631 0.114391,-9.247526 -4.670739 0.3599933,-9.100567 -4.092603 0.6904796,-8.935753 -3.70561 0.8999975,-9.652946 -6.128944 0.3628963,-9.696121 -5.206485 0.5944862,-9.631121 -4.606479 0.8182255,-9.51144 -4.029169 0.9739358,5.210,
-1.64471 -7.053261 -2.085202,-1.988908 -6.71911 -1.271553,-2.132202 -5.949844 -0.8639612,-1.967218 -5.25315 -0.5546449,-1.739727 -4.623924 -0.2128376,-1.835071 -4.910042 -1.208395,-1.670494 -4.213857 -0.5765392,-1.446955 -3.83465 -0.1515369,-1.205357 -3.480419 0.1589649,-1.463027 -5.004257 -1.419761,-1.226231 -5.048204 -0.5984684,-1.36131 -5.920421 -0.4044639,-1.554136 -6.342565 -0.4620546,-1.129777 -5.24838 -1.52916,-0.9363146 -5.36406 -0.8025013,-1.129401 -6.126441 -0.8872951,-1.335806 -6.443649 -1.130858,-0.8667436 -5.539693 -1.569464,-0.6710997 -5.548387 -0.9987109,-0.856535 -6.109121 -1.008742,-1.050518 -6.322177 -1.187419,-9.323401 -8.649933 -0.1127341,-8.663878 -8.402245 0.04348554,-8.144416 -7.501163 0.1913231,-7.791034 -6.750125 0.4230626,-7.418747 -6.20821 0.7011419,-8.555923 -5.837353 -0.194033,-8.445359 -4.690494 -0.01453752,-8.335588 -4.04136 0.2398375,-8.208117 -3.46908 0.4221977,-8.928799 -5.712884 -0.01794805,-8.849357 -4.570735 0.2151712,-8.695311 -4.004867 0.5847751,-8.542569 -3.704256 0.8046694,-9.291373 -5.813751 0.2098372,-9.262765 -4.677324 0.4284391,-9.124802 -4.101024 0.7382662,-8.968045 -3.70284 0.937112,-9.661133 -6.107744 0.4543633,-9.701576 -5.18814 0.667679,-9.63494 -4.604858 0.8698558,-9.514365 -4.04124 1.014792,5.310,
-1.540326 -7.00595 -2.16516,-1.904285 -6.683961 -1.379347,-2.05336 -5.891852 -0.9467851,-1.857418 -5.214777 -0.6153202,-1.5969 -4.60536 -0.2475452,-1.762887 -4.919755 -1.225892,-1.597307 -4.24694 -0.591086,-1.381095 -3.849989 -0.1642773,-1.137744 -3.48817 0.1623609,-1.386866 -5.00773 -1.417233,-1.134354 -5.081296 -0.6078924,-1.27137 -5.923793 -0.4555054,-1.459531 -6.316895 -0.5259583,-1.052038 -5.2637 -1.513546,-0.8599653 -5.406209 -0.8346472,-1.064675 -6.125188 -0.9672145,-1.269203 -6.39858 -1.207205,-0.7889137 -5.563074 -1.537502,-0.6080317 -5.623866 -1.04606,-0.8020964 -6.155569 -1.099376,-0.9939899 -6.319694 -1.264367,-9.329151 -8.650288 -0.168731,-8.668328 -8.403282 -0.006751329,-8.147731 -7.517947 0.1430523,-7.785342 -6.771214 0.37646,-7.407259 -6.22698 0.6539707,-8.560325 -5.855164 -0.2351011,-8.442119 -4.697759 -0.05779196,-8.330103 -4.041355 0.1926435,-8.199802 -3.463808 0.3728344,-8.932367 -5.729991 -0.06559415,-8.851591 -4.57044 0.1711383,-8.700083 -4.01642 0.5299124,-8.548152 -3.728638 0.7371931,-9.291677 -5.833615 0.1570314,-9.2683 -4.690392 0.3774335,-9.131614 -4.12655 0.6831024,-8.976011 -3.735979 0.8736545,-9.656564 -6.12957 0.3956956,-9.699659 -5.210931 0.607381,-9.634706 -4.636621 0.8044496,-9.515902 -4.076324 0.942234,5.410,
-1.437484 -6.856988 -2.050575,-1.812147 -6.569116 -1.15767,-1.949612 -5.869429 -0.6720518,-1.741723 -5.242666 -0.3066897,-1.456761 -4.602734 0.1127272,-1.595247 -4.730283 -1.095757,-1.391707 -4.116214 -0.3922415,-1.138784 -3.783656 0.07728815,-0.8594666 -3.442044 0.4197638,-1.211388 -4.820465 -1.330369,-0.9652929 -5.022687 -0.432797,-1.11492 -5.949865 -0.2644165,-1.291405 -6.365762 -0.3631873,-0.869741 -5.096881 -1.448554,-0.6955976 -5.319352 -0.7165728,-0.9146023 -6.106979 -0.8385949,-1.100882 -6.424041 -1.098953,-0.6060228 -5.392993 -1.486677,-0.4631224 -5.548892 -0.9480572,-0.6823931 -6.13751 -1.001963,-0.8778963 -6.353656 -1.183636,-9.333281 -8.672598 -0.08086933,-8.669489 -8.419416 0.08615135,-8.149971 -7.519111 0.2358736,-7.792908 -6.763754 0.4691001,-7.415848 -6.214516 0.7503522,-8.56772 -5.854795 -0.1510936,-8.453711 -4.700972 0.04184533,-8.335675 -4.051059 0.3200398,-8.197862 -3.491215 0.5240448,-8.941904 -5.726425 0.02751969,-8.861599 -4.567373 0.2863023,-8.703234 -4.008193 0.6886594,-8.54402 -3.742623 0.9297878,-9.305948 -5.832603 0.260743,-9.280033 -4.684609 0.4938151,-9.139742 -4.112424 0.8322594,-8.977723 -3.727411 1.050251,-9.677143 -6.139652 0.5088102,-9.724963 -5.212163 0.7329313,-9.660965 -4.627698 0.949543,-9.540137 -4.061831 1.108014,5.510,
-1.414721 -6.894603 -1.625159,-1.796944 -6.623159 -0.7105885,-1.92975 -5.929558 -0.1848335,-1.738041 -5.312568 0.202978,-1.454566 -4.655807 0.6274682,-1.608741 -4.72788 -0.5390733,-1.400219 -4.157732 0.1869928,-1.152421 -3.822918 0.6810561,-0.8753614 -3.460709 1.045712,-1.217497 -4.774325 -0.7733897,-0.9762187 -5.033309 0.1137587,-1.127544 -5.995077 0.2398684,-1.301518 -6.422378 0.1410059,-0.8689742 -5.044908 -0.9022645,-0.6785398 -5.252648 -0.1959333,-0.887558 -6.056522 -0.3795857,-1.079067 -6.379364 -0.6444678,-0.5985403 -5.346309 -0.9371576,-0.4566607 -5.526655 -0.4287862,-0.6714354 -6.13316 -0.5017811,-0.8676777 -6.361997 -0.6614825,-9.355457 -8.654531 -0.1071295,-8.692275 -8.407024 0.06277753,-8.172417 -7.510114 0.2247875,-7.803913 -6.770978 0.4702076,-7.418269 -6.229354 0.7687835,-8.575657 -5.847227 -0.1672025,-8.452482 -4.694676 0.02380729,-8.339302 -4.03526 0.3028521,-8.211707 -3.469342 0.5027983,-8.951626 -5.718008 0.0113602,-8.864689 -4.55331 0.2773023,-8.707018 -4.000144 0.6747633,-8.555119 -3.75823 0.9113866,-9.316362 -5.818799 0.2456556,-9.289602 -4.674446 0.4846799,-9.146509 -4.102746 0.8242304,-8.984368 -3.730568 1.039992,-9.686213 -6.116912 0.4934655,-9.730488 -5.195237 0.7206047,-9.665082 -4.610384 0.9396793,-9.54222 -4.053241 1.096712,5.610,
-1.532165 -6.976529 -0.7872934,-1.902718 -6.635387 0.1515016,-2.038292 -5.942521 0.7397453,-1.827074 -5.385327 1.159449,-1.480526 -4.757713 1.624549,-1.700076 -4.676033 0.5042756,-1.494246 -4.260458 1.233411,-1.247931 -3.947021 1.734492,-0.9617558 -3.580647 2.140226,-1.268004 -4.690104 0.2698995,-1.052044 -5.136623 1.153823,-1.223435 -6.067663 1.255518,-1.398907 -6.53725 1.174313,-0.8868847 -4.985948 0.1347354,-0.734879 -5.366432 0.8238583,-0.9694958 -6.126205 0.5775226,-1.167578 -6.448143 0.2822402,-0.6012602 -5.350857 0.09372485,-0.4979353 -5.618777 0.5770254,-0.7379766 -6.213932 0.4388183,-0.9369478 -6.438485 0.2431482,-9.357051 -8.668215 -0.01476718,-8.692822 -8.415703 0.1631195,-8.170821 -7.523299 0.3190759,-7.805849 -6.755488 0.5221045,-7.430914 -6.221429 0.8022219,-8.575336 -5.834998 -0.07842916,-8.454062 -4.683267 0.1117802,-8.337207 -4.025727 0.3838629,-8.205026 -3.462324 0.5793517,-8.949875 -5.705354 0.1003736,-8.869669 -4.54615 0.3594961,-8.713369 -3.996248 0.7453468,-8.558689 -3.747065 0.9790037,-9.316147 -5.80681 0.3342473,-9.287354 -4.667587 0.5704064,-9.14266 -4.105936 0.8949494,-8.978774 -3.739028 1.103484,-9.686559 -6.104985 0.5803712,-9.730897 -5.192182 0.8046451,-9.668297 -4.608216 1.018642,-9.548056 -4.046329 1.175501,5.710,
-1.505596 -7.018674 -0.9577072,-1.906288 -6.770433 0.005591929,-2.073954 -6.08502 0.587268,-1.862699 -5.43503 0.9895617,-1.571346 -4.771074 1.438577,-1.747101 -4.851899 0.4019763,-1.582883 -4.313453 1.165305,-1.353909 -3.960963 1.668898,-1.076782 -3.623806 2.045062,-1.305815 -4.802425 0.1465212,-1.128501 -5.0412 1.010059,-1.260623 -5.970121 1.107028,-1.406094 -6.503337 1.016744,-0.9174399 -5.020586 -0.002588511,-0.7896957 -5.262928 0.7339813,-0.985817 -6.07966 0.5610701,-1.173016 -6.495883 0.2970382,-0.6190062 -5.327796 -0.07636374,-0.5306396 -5.464883 0.4480954,-0.7371473 -6.092344 0.3606985,-0.9185381 -6.384845 0.1870143,-9.357474 -8.692896 -0.08421735,-8.698194 -8.429464 0.07758114,-8.179549 -7.533412 0.2312194,-7.815635 -6.789129 0.4674273,-7.43384 -6.23899 0.756313,-8.598747 -5.871965 -0.1454466,-8.480065 -4.723463 0.04400957,-8.364758 -4.064281 0.3138207,-8.233919 -3.489226 0.5110979,-8.974619 -5.746931 0.03345734,-8.895751 -4.598878 0.2924641,-8.736961 -4.037145 0.6831722,-8.577671 -3.763901 0.9152229,-9.340959 -5.848608 0.2671092,-9.31837 -4.710813 0.5096146,-9.173332 -4.140237 0.8458118,-9.004466 -3.756672 1.061202,-9.714338 -6.146673 0.5131562,-9.768382 -5.232126 0.7434236,-9.70917 -4.648054 0.9598824,-9.588345 -4.085888 1.116476,5.810,
-1.585826 -7.1457 -0.5848045,-2.037255 -6.931187 0.3995583,-2.232551 -6.368758 1.055244,-2.055599 -5.798951 1.519998,-1.806403 -5.093847 2.047209,-1.997114 -5.047952 0.9702034,-1.915977 -4.534568 1.684437,-1.744083 -4.136815 2.203904,-1.537605 -3.793531 2.609537,-1.52552 -4.910661 0.7238939,-1.405926 -5.116943 1.540753,-1.489033 -5.994007 1.664476,-1.593138 -6.59366 1.653659,-1.101061 -5.080636 0.5613642,-1.001436 -5.327363 1.277775,-1.166604 -6.108068 1.181142,-1.31451 -6.561874 1.001783,-0.7643223 -5.353779 0.4694686,-0.6736927 -5.417564 0.9858334,-0.8545084 -6.044534 0.9312918,-1.014625 -6.375448 0.7999439,-9.358356 -8.717707 -0.06294249,-8.698398 -8.463015 0.1152416,-8.186584 -7.563979 0.2760579,-7.829398 -6.816506 0.519696,-7.450334 -6.258753 0.8127615,-8.599793 -5.885615 -0.127654,-8.487325 -4.737607 0.0588939,-8.375309 -4.078914 0.3301379,-8.247715 -3.504572 0.5237638,-8.978796 -5.764863 0.046858,-8.902887 -4.609817 0.2982466,-8.747814 -4.05198 0.6922964,-8.590904 -3.785709 0.9247323,-9.345361 -5.877714 0.2783626,-9.325593 -4.733026 0.5095643,-9.185715 -4.156276 0.8509265,-9.02211 -3.769391 1.069832,-9.71805 -6.188562 0.5246423,-9.771959 -5.263015 0.7454607,-9.711063 -4.671877 0.9673357,-9.592061 -4.101724 1.126916,5.910,
-1.68679 -7.215627 -0.3483857,-2.136561 -6.955249 0.6032615,-2.364151 -6.432947 1.250602,-2.23155 -5.939345 1.725602,-1.982672 -5.240016 2.249533,-2.112503 -5.006052 1.156769,-2.080431 -4.629783 1.884008,-1.970474 -4.244787 2.423756,-1.820923 -3.888944 2.846746,-1.629574 -4.88784 0.9339894,-1.524021 -5.186491 1.771601,-1.626847 -6.082856 1.940806,-1.72905 -6.678619 1.989484,-1.189198 -5.0949 0.8051313,-1.073217 -5.402118 1.553432,-1.27025 -6.211864 1.459929,-1.423442 -6.647691 1.289195,-0.8329821 -5.435809 0.7378,-0.7259026 -5.509232 1.310841,-0.925611 -6.142529 1.289837,-1.094059 -6.477485 1.181966,-9.370301 -8.731892 -0.050023,-8.710256 -8.485125 0.1253944,-8.193083 -7.588882 0.2833715,-7.829714 -6.833931 0.5216986,-7.444713 -6.27869 0.807143,-8.59788 -5.908453 -0.1122054,-8.483862 -4.753297 0.0605102,-8.375614 -4.087518 0.3110387,-8.250897 -3.508572 0.4873728,-8.978973 -5.776609 0.05215722,-8.900432 -4.622705 0.2767422,-8.746306 -4.063262 0.6417027,-8.591432 -3.793432 0.8567152,-9.347775 -5.879219 0.2695944,-9.32453 -4.738378 0.4855506,-9.183766 -4.169796 0.8043618,-9.018962 -3.793461 1.006614,-9.722854 -6.175117 0.5051944,-9.773943 -5.255929 0.7153034,-9.709415 -4.673618 0.9214402,-9.585607 -4.12004 1.066955,6.010,
-1.779866 -7.233865 -0.3175679,-2.258255 -6.985773 0.6352569,-2.524872 -6.445691 1.286765,-2.429214 -5.870288 1.786415,-2.179854 -5.205484 2.339067,-2.271018 -4.929155 1.044834,-2.235242 -4.509361 1.856115,-2.140838 -4.124378 2.375389,-2.020031 -3.718864 2.71211,-1.761244 -4.828245 0.8338658,-1.711084 -4.99406 1.77479,-1.814025 -5.980575 1.935671,-1.908625 -6.55992 1.902168,-1.306206 -5.0272 0.7545958,-1.254972 -5.24266 1.645524,-1.455964 -6.164108 1.553826,-1.597877 -6.609774 1.314906,-0.9334583 -5.385587 0.7202913,-0.8588762 -5.238275 1.363112,-1.081393 -5.817518 1.34613,-1.269038 -6.149006 1.19259,-9.42177 -8.763098 0.009732615,-8.765098 -8.499855 0.224316,-8.246538 -7.61885 0.4122927,-7.882272 -6.882122 0.6724226,-7.504754 -6.308485 0.9901084,-8.649049 -5.923896 0.02187331,-8.522278 -4.780317 0.2290684,-8.414942 -4.122737 0.5002289,-8.294884 -3.555818 0.6903342,-9.034295 -5.793278 0.1817089,-8.957173 -4.653504 0.4616169,-8.805823 -4.100477 0.8645689,-8.650727 -3.834329 1.095786,-9.407836 -5.896619 0.3974123,-9.393817 -4.767321 0.6440493,-9.25245 -4.201509 0.9874881,-9.081741 -3.830815 1.205571,-9.786425 -6.199307 0.6320511,-9.843235 -5.300079 0.8651738,-9.785248 -4.718399 1.097273,-9.663134 -4.165281 1.261009,6.110,
-1.802844 -7.176986 -0.2052213,-2.25637 -6.947466 0.6916835,-2.521041 -6.343706 1.298691,-2.409331 -5.734672 1.78643,-2.14522 -5.075217 2.348038,-2.227314 -4.816488 1.077272,-2.235131 -4.361576 1.889539,-2.108615 -4.007465 2.423031,-1.92653 -3.674825 2.789859,-1.73678 -4.710256 0.8888384,-1.645358 -4.975811 1.817763,-1.732265 -5.994329 2.024003,-1.823209 -6.563443 2.007593,-1.291967 -4.929052 0.8336983,-1.205735 -5.185962 1.702976,-1.385447 -6.119733 1.644004,-1.536366 -6.564036 1.430161,-0.9298096 -5.295372 0.8229203,-0.8433094 -5.240245 1.478693,-1.073773 -5.889442 1.466179,-1.283076 -6.220548 1.310138,-9.450577 -8.780075 0.01457351,-8.786878 -8.519361 0.2128716,-8.265308 -7.614663 0.3871688,-7.902138 -6.865678 0.6338359,-7.52116 -6.308095 0.9369354,-8.673265 -5.937209 0.01246808,-8.551959 -4.795619 0.2203493,-8.441839 -4.138122 0.4993939,-8.314979 -3.565336 0.7025035,-9.055891 -5.809383 0.1791528,-8.983407 -4.670593 0.460246,-8.829762 -4.121622 0.8675137,-8.670297 -3.855325 1.114876,-9.426538 -5.914754 0.4002974,-9.41124 -4.78989 0.6512181,-9.265346 -4.230072 0.9941067,-9.096096 -3.862339 1.217616,-9.803533 -6.216663 0.6373938,-9.857494 -5.310792 0.8715762,-9.801785 -4.729352 1.093726,-9.688717 -4.171514 1.25796,6.210,
-1.673985 -7.068025 -0.08299357,-2.117278 -6.852117 0.8387538,-2.370355 -6.274179 1.474683,-2.229524 -5.748621 1.97356,-1.907269 -5.168363 2.523868,-2.078284 -4.757768 1.347915,-2.021648 -4.289445 2.165585,-1.856872 -3.936814 2.686404,-1.636877 -3.576876 3.06306,-1.595359 -4.621899 1.136092,-1.471514 -5.027563 2.033716,-1.580041 -5.993513 2.187522,-1.697434 -6.565134 2.143302,-1.170886 -4.844079 1.0535,-1.063445 -5.194295 1.862158,-1.237129 -5.976779 1.754855,-1.396084 -6.38281 1.52644,-0.8449588 -5.224465 1.036382,-0.7490048 -5.248537 1.630445,-0.9436026 -5.833637 1.605435,-1.11498 -6.147869 1.457249,-9.498185 -8.783131 0.01918586,-8.834261 -8.526646 0.2190532,-8.307948 -7.627428 0.3957227,-7.944284 -6.876176 0.6399631,-7.559856 -6.32443 0.9518425,-8.712699 -5.945018 0.04561269,-8.589824 -4.79874 0.2569058,-8.489834 -4.141975 0.5366616,-8.373032 -3.564447 0.7416297,-9.102561 -5.812747 0.2087093,-9.027882 -4.667394 0.4938051,-8.883082 -4.120971 0.9001159,-8.732516 -3.865039 1.151081,-9.479031 -5.915594 0.4248451,-9.457121 -4.792581 0.6771915,-9.317741 -4.2386 1.010998,-9.154803 -3.882934 1.231419,-9.863338 -6.216009 0.6553325,-9.908396 -5.303047 0.8878067,-9.85283 -4.728714 1.102544,-9.740524 -4.185312 1.26249,6.310,
-1.592144 -7.032419 0.0238931,-2.029469 -6.829948 1.006814,-2.279909 -6.254158 1.648902,-2.091805 -5.730045 2.131638,-1.75783 -5.086101 2.678897,-1.957866 -4.707452 1.484301,-1.902338 -4.249242 2.295373,-1.707142 -3.929526 2.795907,-1.451685 -3.57804 3.164475,-1.479306 -4.553771 1.243471,-1.342816 -5.052507 2.182001,-1.446041 -6.007585 2.382309,-1.554183 -6.54776 2.375122,-1.067881 -4.775484 1.134739,-0.9799552 -5.305107 1.965703,-1.145603 -6.123159 1.903905,-1.281926 -6.531383 1.702304,-0.7560282 -5.16287 1.096563,-0.6685209 -5.39446 1.701213,-0.8470631 -6.035197 1.703454,-0.9897943 -6.353232 1.570423,-9.500252 -8.826349 0.05051852,-8.835352 -8.538904 0.2344692,-8.313122 -7.624681 0.4054106,-7.952012 -6.863662 0.6398805,-7.564751 -6.309877 0.9375697,-8.735467 -5.965648 0.06364474,-8.617599 -4.832437 0.2661889,-8.515518 -4.182382 0.5334329,-8.398977 -3.596846 0.7312058,-9.119997 -5.844175 0.2280834,-9.043848 -4.714889 0.4961706,-8.901503 -4.158975 0.8854117,-8.754704 -3.859353 1.131392,-9.490476 -5.955513 0.4419498,-9.473701 -4.834373 0.6834764,-9.344233 -4.273643 1.007473,-9.196135 -3.88973 1.225527,-9.865827 -6.26345 0.6709875,-9.910254 -5.34888 0.8965001,-9.862774 -4.767923 1.108169,-9.766863 -4.204064 1.269043,6.410,
-1.501949 -6.935241 -0.4821065,-1.927025 -6.702932 0.4871936,-2.121438 -6.149877 1.121922,-1.9099 -5.632846 1.573781,-1.563372 -5.030429 2.07991,-1.77471 -4.779289 1.042839,-1.654881 -4.233095 1.772535,-1.43571 -3.887815 2.233144,-1.161005 -3.538323 2.587108,-1.315148 -4.647507 0.7811614,-1.112171 -5.119531 1.686441,-1.232119 -6.029108 1.839392,-1.37038 -6.602596 1.797248,-0.9325676 -4.85439 0.6352745,-0.7731323 -5.236145 1.398317,-0.9473248 -5.923376 1.269971,-1.113596 -6.291256 1.017301,-0.6516552 -5.184325 0.5562847,-0.4979625 -5.281276 1.133073,-0.6582146 -5.825064 1.12121,-0.8022127 -6.113302 0.9774699,-9.503352 -8.802011 0.006999132,-8.836239 -8.531649 0.1788305,-8.318234 -7.634937 0.3401295,-7.955726 -6.884312 0.574213,-7.573586 -6.316469 0.8561041,-8.744472 -5.954219 -0.0352696,-8.626469 -4.820291 0.1344729,-8.529853 -4.165279 0.3802473,-8.417571 -3.583604 0.5625349,-9.123669 -5.829257 0.1224133,-9.050096 -4.692691 0.3470239,-8.912632 -4.154884 0.7054056,-8.769786 -3.88557 0.9287444,-9.485312 -5.934669 0.3322934,-9.475547 -4.813191 0.5353764,-9.347146 -4.265235 0.8401744,-9.1938 -3.896175 1.04368,-9.852017 -6.230907 0.5580235,-9.905361 -5.324117 0.7539161,-9.854123 -4.76301 0.9529086,-9.746143 -4.216012 1.100558,6.510,
-1.41693 -6.9663 -0.2042435,-1.835961 -6.739603 0.8241204,-2.023702 -6.167417 1.480789,-1.799594 -5.631897 1.943913,-1.447185 -4.995086 2.48457,-1.681525 -4.730611 1.344949,-1.546264 -4.210063 2.105108,-1.315437 -3.874725 2.606282,-1.033802 -3.518998 2.985328,-1.210549 -4.584304 1.048995,-0.983551 -5.13146 1.958993,-1.113476 -6.054617 2.134447,-1.26658 -6.610307 2.110502,-0.8131027 -4.801854 0.8695581,-0.6601987 -5.321691 1.649462,-0.8595676 -6.091527 1.543819,-1.038444 -6.46928 1.308694,-0.5211825 -5.132278 0.7647169,-0.3878031 -5.351211 1.338109,-0.5709257 -5.977785 1.296559,-0.7225547 -6.275131 1.138195,-9.490153 -8.778427 -0.04839334,-8.826605 -8.516232 0.1192958,-8.306127 -7.620859 0.2754782,-7.940293 -6.873357 0.5036242,-7.557036 -6.315178 0.7819868,-8.731791 -5.945747 -0.09906894,-8.615099 -4.807621 0.07004732,-8.517599 -4.155551 0.3189276,-8.402679 -3.573579 0.5056795,-9.114875 -5.820795 0.05907565,-9.039448 -4.68941 0.2796446,-8.901893 -4.154117 0.6394862,-8.758215 -3.882423 0.8660122,-9.481093 -5.927372 0.2689568,-9.465186 -4.809652 0.4736611,-9.338252 -4.257316 0.774983,-9.187829 -3.880814 0.9766518,-9.8523 -6.223892 0.4934347,-9.902573 -5.317176 0.6922569,-9.848596 -4.747075 0.8894321,-9.738722 -4.187152 1.034042,6.610,
-1.354131 -6.982742 -0.3726674,-1.745775 -6.685632 0.7049756,-1.872299 -6.141916 1.36161,-1.610219 -5.606611 1.806383,-1.265859 -4.943622 2.335008,-1.526934 -4.718715 1.147207,-1.349411 -4.210414 1.890838,-1.105742 -3.896221 2.382657,-0.815834 -3.568363 2.761339,-1.056776 -4.638036 0.8288647,-0.7866421 -5.157957 1.718917,-0.933362 -6.138137 1.872683,-1.112915 -6.748789 1.834124,-0.6662855 -4.890519 0.6224493,-0.4631104 -5.328029 1.411485,-0.6953692 -6.131371 1.291994,-0.9155807 -6.552845 1.044959,-0.3843298 -5.231992 0.4991794,-0.2190704 -5.384471 1.090539,-0.4385123 -6.014862 1.017715,-0.6339617 -6.338435 0.8440255,-9.456827 -8.754431 -0.08999434,-8.794178 -8.517466 0.1036067,-8.27739 -7.631353 0.2779879,-7.915005 -6.886651 0.5246265,-7.527287 -6.323472 0.8267161,-8.696823 -5.938858 -0.09973957,-8.574893 -4.795375 0.09504566,-8.472338 -4.138759 0.3648623,-8.357349 -3.555527 0.5632575,-9.082022 -5.810665 0.06147555,-9.003126 -4.669023 0.3095783,-8.857836 -4.128143 0.6892748,-8.713566 -3.858565 0.9222865,-9.451808 -5.917859 0.2782662,-9.434168 -4.796072 0.5105731,-9.301649 -4.240123 0.8388046,-9.147046 -3.861478 1.055392,-9.826737 -6.220069 0.5099148,-9.882309 -5.305013 0.7403176,-9.825344 -4.728998 0.9588882,-9.710681 -4.17011 1.119252,6.710,
-1.288958 -6.995408 0.04197964,-1.68922 -6.705472 1.174518,-1.833382 -6.119894 1.851263,-1.545171 -5.598122 2.299293,-1.176923 -4.953814 2.840055,-1.475432 -4.646934 1.644501,-1.289822 -4.224315 2.411541,-1.038354 -3.928162 2.926873,-0.7588511 -3.601696 3.326638,-0.9841604 -4.546398 1.299632,-0.7690263 -5.169535 2.225813,-0.898994 -6.177763 2.414609,-1.062502 -6.822286 2.399728,-0.5659966 -4.806324 1.074139,-0.4176469 -5.358526 1.866274,-0.6467175 -6.204673 1.786832,-0.8657579 -6.655246 1.566264,-0.2558279 -5.166627 0.9326729,-0.1432238 -5.442663 1.524043,-0.3704095 -6.104599 1.465118,-0.5555029 -6.424169 1.313765,-9.444199 -8.725796 -0.1504806,-8.781366 -8.496584 0.05115537,-8.264589 -7.613626 0.2300295,-7.90493 -6.858573 0.4773719,-7.518034 -6.298456 0.7737724,-8.68733 -5.931457 -0.1535821,-8.560736 -4.779953 0.03064629,-8.454324 -4.125931 0.2898096,-8.335629 -3.552225 0.4718962,-9.073227 -5.798597 -0.00636524,-8.9865 -4.642617 0.2303281,-8.838153 -4.105731 0.5982885,-8.692682 -3.840471 0.8198441,-9.442819 -5.898355 0.1955376,-9.413387 -4.76218 0.4157827,-9.277531 -4.205106 0.7278967,-9.120518 -3.830357 0.9278688,-9.818235 -6.185785 0.4121643,-9.865356 -5.266084 0.6273392,-9.805649 -4.692825 0.8339459,-9.687833 -4.142136 0.9815248,6.810,
-1.253559 -7.204105 0.4335693,-1.665316 -6.848747 1.534233,-1.830515 -6.25385 2.235931,-1.588679 -5.797177 2.739283,-1.20786 -5.248319 3.309416,-1.422345 -4.662143 1.97596,-1.300194 -4.429849 2.843344,-1.089809 -4.186588 3.442746,-0.837491 -3.902593 3.87868,-0.8973274 -4.645977 1.711686,-0.8203955 -5.170801 2.718664,-0.9980068 -6.182268 2.91968,-1.153544 -6.789974 2.908792,-0.4690571 -5.00588 1.594541,-0.3917437 -5.449524 2.518087,-0.6533208 -6.305552 2.40132,-0.8536353 -6.742126 2.152233,-0.1485224 -5.507877 1.542735,-0.06328201 -5.645537 2.218689,-0.3427892 -6.247962 2.157452,-0.565608 -6.557321 1.966281,-9.43327 -8.742558 -0.1105039,-8.767848 -8.512398 0.09480381,-8.24896 -7.629447 0.2636634,-7.887911 -6.876733 0.5067626,-7.50339 -6.310337 0.8061964,-8.665142 -5.939981 -0.1113552,-8.550374 -4.79474 0.08271387,-8.443993 -4.143219 0.3436284,-8.322585 -3.577104 0.5298948,-9.051482 -5.805611 0.04225545,-8.978624 -4.663 0.2864987,-8.828449 -4.107275 0.6749778,-8.675858 -3.832289 0.9058384,-9.425861 -5.907495 0.2494762,-9.408741 -4.780756 0.479997,-9.271697 -4.213361 0.8099528,-9.106208 -3.832477 1.025362,-9.805524 -6.207681 0.4726126,-9.862592 -5.287242 0.7029533,-9.80332 -4.709392 0.9235666,-9.678704 -4.16253 1.080084,6.910,
-1.256108 -7.267376 0.4576959,-1.669127 -6.868135 1.498193,-1.885252 -6.270168 2.208366,-1.685099 -5.857485 2.732605,-1.311471 -5.371389 3.336241,-1.454755 -4.761016 2.030779,-1.354349 -4.53376 2.918431,-1.157739 -4.284906 3.537322,-0.919301 -4.057058 3.975874,-0.9235597 -4.730819 1.798998,-0.855401 -5.302265 2.744445,-1.030356 -6.306463 2.904446,-1.182445 -6.930082 2.88658,-0.4846559 -5.090722 1.701958,-0.4233375 -5.573074 2.549526,-0.6873279 -6.374397 2.407244,-0.87918 -6.784388 2.169497,-0.1514468 -5.588525 1.675945,-0.09460163 -5.763376 2.297225,-0.3751626 -6.338109 2.234823,-0.5891948 -6.62676 2.069052,-9.442633 -8.748499 -0.09153398,-8.781657 -8.513369 0.1069176,-8.263078 -7.622788 0.2806424,-7.896514 -6.877786 0.52679,-7.50602 -6.325572 0.8315889,-8.674887 -5.935686 -0.1033915,-8.559691 -4.791351 0.08875594,-8.452168 -4.13465 0.3618215,-8.329906 -3.565315 0.5558573,-9.059595 -5.805994 0.05625068,-8.98513 -4.662136 0.3051859,-8.83331 -4.117603 0.6897234,-8.678542 -3.860963 0.9192277,-9.431467 -5.912317 0.2722704,-9.412684 -4.787877 0.5042278,-9.269794 -4.231494 0.8405353,-9.101551 -3.865019 1.060324,-9.809188 -6.216256 0.5038022,-9.867162 -5.30818 0.7292575,-9.811539 -4.731747 0.9473158,-9.694147 -4.18342 1.104336,7.010,
-1.292407 -7.30045 0.4449632,-1.714415 -6.914567 1.471648,-1.936182 -6.323075 2.168221,-1.736571 -5.888491 2.691834,-1.395326 -5.400348 3.287053,-1.483741 -4.789726 1.97734,-1.403264 -4.538028 2.875769,-1.224429 -4.279727 3.457922,-0.9947691 -4.060302 3.841454,-0.9535446 -4.748554 1.747241,-0.8845897 -5.296299 2.692117,-1.063972 -6.286154 2.841408,-1.205894 -6.82777 2.819037,-0.5198889 -5.0881 1.661453,-0.4599366 -5.608075 2.540775,-0.7287092 -6.454914 2.428623,-0.9171515 -6.821104 2.210435,-0.1895881 -5.572331 1.634767,-0.1115198 -5.732953 2.261348,-0.3895407 -6.327459 2.211749,-0.6078725 -6.595066 2.049715,-9.46125 -8.798771 -0.01014256,-8.793203 -8.545853 0.1880298,-8.268929 -7.64336 0.3577915,-7.906633 -6.892388 0.6012632,-7.518225 -6.33179 0.9033735,-8.684341 -5.963293 -0.01301894,-8.569339 -4.828074 0.1766864,-8.462628 -4.176173 0.4313489,-8.343007 -3.596097 0.6159889,-9.065749 -5.834918 0.147175,-8.994769 -4.706974 0.3862959,-8.846579 -4.151472 0.7640905,-8.693769 -3.856216 0.989285,-9.435308 -5.934946 0.3601215,-9.423282 -4.820871 0.5859044,-9.284333 -4.258184 0.9152346,-9.118349 -3.870689 1.13178,-9.810594 -6.233478 0.5896943,-9.87359 -5.326646 0.8145184,-9.82319 -4.748497 1.032304,-9.711205 -4.190714 1.187607,7.110,
-1.298344 -7.419509 1.138336,-1.731832 -7.004318 2.18236,-2.003197 -6.403375 2.924848,-1.820825 -5.946284 3.474204,-1.436541 -5.465063 4.07854,-1.536807 -4.79035 2.786854,-1.446234 -4.630207 3.729688,-1.276896 -4.398274 4.295304,-1.048111 -4.093097 4.647904,-0.9755878 -4.686011 2.527112,-0.9319916 -5.430852 3.468024,-1.155148 -6.382805 3.527212,-1.287049 -6.70559 3.46417,-0.5180717 -5.012516 2.433983,-0.5067883 -5.721212 3.28748,-0.8141413 -6.542232 3.070012,-0.9905596 -6.759122 2.781218,-0.1872768 -5.523201 2.401359,-0.1408372 -5.749955 2.932402,-0.4412346 -6.328491 2.794031,-0.6428175 -6.543079 2.581573,-9.471292 -8.83662 0.05530124,-8.811001 -8.576559 0.2612159,-8.290614 -7.660316 0.4376873,-7.932866 -6.901048 0.6772038,-7.541371 -6.357164 0.9811512,-8.702943 -5.985365 0.07841697,-8.590878 -4.853258 0.2774363,-8.493499 -4.195554 0.5459443,-8.381782 -3.613614 0.7453781,-9.089623 -5.853443 0.2363815,-9.017969 -4.731063 0.4962688,-8.871794 -4.185646 0.8835919,-8.719728 -3.910818 1.129952,-9.463784 -5.95672 0.4466065,-9.450186 -4.846113 0.6882347,-9.310759 -4.299453 1.016547,-9.149784 -3.935958 1.237939,-9.84587 -6.261051 0.674378,-9.90569 -5.355484 0.901801,-9.858431 -4.784383 1.108788,-9.756149 -4.232213 1.265172,7.210,
-1.344822 -7.414617 0.7272882,-1.756596 -6.978864 1.725769,-1.978011 -6.376695 2.41848,-1.77917 -5.906692 2.940804,-1.420398 -5.419912 3.524001,-1.512893 -4.804269 2.225321,-1.436045 -4.574516 3.106013,-1.265166 -4.355555 3.653507,-1.038585 -4.135726 3.988863,-0.9733782 -4.759377 1.994766,-0.9189434 -5.414012 2.927166,-1.130772 -6.365043 3.049742,-1.274833 -6.768129 3.011456,-0.5342431 -5.105987 1.924626,-0.491231 -5.69054 2.785578,-0.770689 -6.512702 2.657463,-0.9499254 -6.797086 2.420062,-0.2111316 -5.622396 1.910106,-0.1106424 -5.7133 2.491185,-0.3895245 -6.260468 2.422461,-0.6030836 -6.499967 2.243243,-9.47823 -8.842953 0.03953668,-8.811568 -8.585794 0.2156282,-8.294098 -7.675584 0.3752907,-7.937509 -6.916465 0.6052027,-7.550016 -6.36437 0.8921192,-8.714173 -5.98731 0.004065104,-8.602114 -4.853086 0.1823175,-8.504062 -4.19676 0.4357112,-8.390263 -3.614311 0.619386,-9.099175 -5.861109 0.163676,-9.02474 -4.723583 0.3913877,-8.879934 -4.178174 0.7532876,-8.730823 -3.901145 0.9755293,-9.469088 -5.966093 0.3765764,-9.455173 -4.845565 0.5866454,-9.323006 -4.291702 0.8883749,-9.165722 -3.91576 1.089485,-9.845659 -6.26527 0.6057322,-9.902345 -5.354568 0.8111719,-9.850666 -4.783333 1.007326,-9.739978 -4.23279 1.150586,7.310,
-1.317535 -7.442838 1.16076,-1.716489 -7.026432 2.173458,-1.973031 -6.389135 2.870069,-1.784914 -5.922006 3.387442,-1.402016 -5.46791 3.929211,-1.49231 -4.777561 2.727176,-1.41126 -4.585156 3.616611,-1.235777 -4.353189 4.162441,-1.003459 -4.080023 4.508605,-0.9453106 -4.679258 2.490785,-0.9023876 -5.477714 3.401934,-1.126161 -6.446284 3.488327,-1.270204 -6.814128 3.444569,-0.4971542 -5.021749 2.408825,-0.4677477 -5.749602 3.24231,-0.7625484 -6.578543 3.075863,-0.9426727 -6.834345 2.84078,-0.1600227 -5.54483 2.397894,-0.08948708 -5.810869 2.946191,-0.3910565 -6.415215 2.850664,-0.6063643 -6.648342 2.675324,-9.500216 -8.834335 -0.005410114,-8.827592 -8.571535 0.1932775,-8.305205 -7.668756 0.3719651,-7.943353 -6.900654 0.6161944,-7.556177 -6.33778 0.9222956,-8.718091 -6.001348 0.01132776,-8.606782 -4.845619 0.2155495,-8.514794 -4.188619 0.4920499,-8.408668 -3.615606 0.6992424,-9.105907 -5.869638 0.1634417,-9.026961 -4.720228 0.4247601,-8.886427 -4.17779 0.804355,-8.738948 -3.917823 1.047598,-9.480049 -5.969248 0.3692152,-9.461258 -4.841451 0.6023585,-9.331009 -4.289863 0.9197338,-9.173553 -3.924879 1.134947,-9.863053 -6.260605 0.5903189,-9.916839 -5.349145 0.8043121,-9.866587 -4.781781 1.006143,-9.757251 -4.238667 1.158916,7.410,
-1.296913 -7.379892 0.8879095,-1.747562 -6.983485 1.861146,-2.001178 -6.356119 2.5766,-1.815845 -5.907454 3.130651,-1.439772 -5.455616 3.74975,-1.523223 -4.778646 2.450697,-1.442321 -4.558485 3.342919,-1.251884 -4.284061 3.962456,-1.00659 -4.058431 4.392846,-0.9618578 -4.710966 2.242205,-0.8974552 -5.355167 3.142257,-1.119659 -6.306852 3.264026,-1.289286 -6.780282 3.23595,-0.5097933 -5.083567 2.175335,-0.4634476 -5.725287 2.9611,-0.7630663 -6.51905 2.807542,-0.9598789 -6.810893 2.584302,-0.1819277 -5.61311 2.176138,-0.1273055 -5.953153 2.709139,-0.4263868 -6.54007 2.629936,-0.6409197 -6.736008 2.465285,-9.509676 -8.879688 0.09135803,-8.836439 -8.605093 0.2844031,-8.308836 -7.692935 0.4615633,-7.948096 -6.921873 0.7041233,-7.565121 -6.360818 1.009402,-8.729515 -6.015254 0.1130926,-8.616777 -4.880445 0.3113887,-8.52137 -4.225167 0.5772987,-8.41181 -3.641775 0.77733,-9.11776 -5.887147 0.2670355,-9.044714 -4.76127 0.5123178,-8.902451 -4.202911 0.8842366,-8.754466 -3.903374 1.123691,-9.489757 -5.989284 0.4706203,-9.481405 -4.875929 0.6871845,-9.351114 -4.320752 0.9898484,-9.198188 -3.942484 1.197927,-9.865493 -6.286805 0.6919981,-9.921012 -5.3749 0.8952631,-9.872649 -4.810232 1.086837,-9.769482 -4.270908 1.23336,7.510,
-1.446075 -7.39285 0.2660636,-1.915461 -7.118337 1.271398,-2.15669 -6.588239 1.986802,-2.021279 -6.072683 2.533502,-1.706738 -5.47095 3.136284,-1.793087 -5.125782 1.951579,-1.706204 -4.624839 2.750141,-1.516462 -4.20158 3.332484,-1.293753 -3.922405 3.763424,-1.274338 -4.965019 1.717305,-1.139456 -5.24271 2.559553,-1.247361 -6.190363 2.737044,-1.380421 -6.869349 2.767749,-0.8386502 -5.175842 1.562227,-0.7413969 -5.562316 2.329127,-0.9347754 -6.363159 2.304769,-1.105718 -6.82805 2.17219,-0.5003901 -5.527389 1.469913,-0.4403028 -5.807773 2.030509,-0.6466966 -6.448911 2.076788,-0.8103657 -6.759869 2.013847,-9.533018 -8.946632 0.1148642,-8.86447 -8.683397 0.3253515,-8.338586 -7.759996 0.5044114,-7.982403 -6.984075 0.7464095,-7.600888 -6.423368 1.047409,-8.755122 -6.07728 0.1608179,-8.63699 -4.937253 0.3636929,-8.54598 -4.280265 0.6255772,-8.444008 -3.699028 0.8220491,-9.147759 -5.9473 0.3050777,-9.074793 -4.817745 0.5648383,-8.935672 -4.261737 0.9436705,-8.789894 -3.957656 1.185977,-9.521204 -6.045445 0.4983604,-9.513892 -4.93045 0.7262992,-9.38908 -4.375066 1.028265,-9.240401 -3.991397 1.235394,-9.896579 -6.334381 0.710624,-9.949929 -5.429788 0.9172704,-9.906642 -4.871891 1.106934,-9.807207 -4.335405 1.25011,7.610,
-1.618576 -7.449095 -0.3790567,-2.063498 -7.257055 0.510714,-2.288741 -6.695302 1.138926,-2.157408 -6.120885 1.630146,-1.880217 -5.451919 2.171246,-2.016866 -5.290655 1.064745,-1.92311 -4.747386 1.75177,-1.744915 -4.263572 2.306906,-1.523479 -3.900964 2.753486,-1.533644 -5.112498 0.8670727,-1.401907 -5.29066 1.652056,-1.504596 -6.19555 1.879068,-1.630956 -6.901185 1.941034,-1.088539 -5.28593 0.7367499,-0.986516 -5.564501 1.385811,-1.147711 -6.355944 1.389128,-1.296978 -6.858823 1.287467,-0.7236104 -5.57233 0.6687151,-0.6385889 -5.790504 1.111771,-0.819356 -6.410844 1.143253,-0.9680872 -6.726587 1.092938,-9.530102 -8.965891 0.08894149,-8.854605 -8.6698 0.2844059,-8.336837 -7.764335 0.4631068,-7.980534 -6.99534 0.7089778,-7.598661 -6.426763 1.00992,-8.761575 -6.094223 0.1071682,-8.656081 -4.954866 0.3092503,-8.564539 -4.308555 0.5713613,-8.460473 -3.743843 0.7665601,-9.149768 -5.971853 0.2534619,-9.075201 -4.84238 0.5087421,-8.934969 -4.282499 0.8791285,-8.78788 -3.975902 1.121451,-9.51787 -6.075079 0.4529976,-9.517723 -4.954652 0.6719711,-9.399238 -4.400367 0.9722664,-9.255433 -4.015836 1.17582,-9.887007 -6.366564 0.6694652,-9.951371 -5.46404 0.8768476,-9.909938 -4.911617 1.067911,-9.809017 -4.377876 1.209865,7.710,
-2.000519 -7.75772 -0.5872086,-2.395626 -7.573772 0.334133,-2.571168 -7.196611 1.004587,-2.471357 -6.781526 1.520023,-2.292182 -6.164764 2.015265,-2.431606 -5.750321 0.9435459,-2.34007 -5.26312 1.634559,-2.221942 -4.870454 2.105068,-2.090179 -4.549243 2.453427,-1.986207 -5.546402 0.761011,-1.867965 -5.901662 1.571647,-1.902474 -6.764806 1.746379,-1.970609 -7.351095 1.776876,-1.572029 -5.665334 0.6215903,-1.448457 -5.989076 1.30087,-1.563415 -6.777616 1.216528,-1.657265 -7.256145 1.029369,-1.229441 -5.901971 0.5552678,-1.123084 -6.054595 1.024214,-1.254969 -6.643865 1.019422,-1.360527 -6.993867 0.9226637,-9.513325 -8.953451 -0.04115449,-8.835127 -8.704479 0.167698,-8.317537 -7.803415 0.3420203,-7.958775 -7.029953 0.5809457,-7.571399 -6.464958 0.8672259,-8.737317 -6.128431 -0.02082725,-8.627276 -4.960144 0.1766685,-8.537577 -4.310636 0.4422122,-8.431022 -3.741755 0.6379843,-9.128113 -5.997457 0.1210768,-9.063094 -4.843475 0.3703173,-8.927361 -4.290602 0.7452933,-8.783014 -3.991719 0.983824,-9.498921 -6.098412 0.3170495,-9.494823 -4.968624 0.5427022,-9.376065 -4.407197 0.8510679,-9.228065 -4.009445 1.05745,-9.870133 -6.385679 0.5317594,-9.931196 -5.478439 0.7527844,-9.887324 -4.924105 0.9532328,-9.784057 -4.379219 1.096283,7.810,
-2.153825 -7.912656 -1.368816,-2.553313 -7.846464 -0.4834002,-2.731039 -7.417094 0.08581555,-2.611609 -6.922581 0.5270228,-2.431259 -6.256015 0.9923738,-2.569964 -6.027217 -0.04995751,-2.484654 -5.469565 0.622207,-2.359123 -5.000642 1.134095,-2.199981 -4.621518 1.519885,-2.16894 -5.819892 -0.2636721,-1.969709 -6.038484 0.4811245,-1.987489 -6.938035 0.6083847,-2.056613 -7.562766 0.5806085,-1.792398 -5.936588 -0.4005142,-1.599537 -6.149753 0.2149968,-1.690616 -6.936246 0.1474377,-1.795198 -7.420005 -0.01691544,-1.481507 -6.14365 -0.466078,-1.308124 -6.232666 -0.07073951,-1.4132 -6.840133 -0.1065454,-1.527015 -7.167802 -0.209677,-9.507154 -8.976488 0.02419991,-8.832727 -8.712519 0.2393893,-8.311362 -7.814641 0.4228801,-7.952621 -7.04459 0.6718184,-7.577296 -6.471848 0.9703995,-8.731693 -6.129682 0.05230927,-8.621973 -4.972911 0.2597107,-8.528716 -4.318538 0.5185096,-8.419563 -3.747544 0.7053472,-9.121418 -6.001989 0.1909384,-9.050519 -4.859155 0.45212,-8.911288 -4.307276 0.8224791,-8.766282 -4.008014 1.056571,-9.493104 -6.103828 0.3842588,-9.485412 -4.979002 0.6141727,-9.360281 -4.423505 0.9205629,-9.210263 -4.036298 1.129749,-9.866437 -6.392366 0.5965704,-9.924064 -5.488544 0.8096535,-9.875831 -4.9354 1.006712,-9.769049 -4.400058 1.152553,7.910,
-2.250148 -8.194838 -1.496332,-2.665044 -8.196928 -0.5957271,-2.946935 -7.722695 -0.05449057,-2.904553 -7.135326 0.3515636,-2.699161 -6.465169 0.7445328,-2.78756 -6.339238 -0.1875566,-2.756519 -5.773431 0.5224605,-2.662663 -5.293284 1.049918,-2.531342 -4.884147 1.448692,-2.376886 -6.149564 -0.386923,-2.216634 -6.231008 0.4137497,-2.206296 -7.133632 0.5583172,-2.253632 -7.773077 0.5336056,-1.996624 -6.244242 -0.4986768,-1.819693 -6.273084 0.2057213,-1.89348 -7.091134 0.1519376,-1.997114 -7.610099 -0.01445127,-1.67037 -6.448403 -0.5427586,-1.498964 -6.328487 -0.008601546,-1.602496 -6.945929 0.02030945,-1.737479 -7.337526 -0.0378027,-9.49789 -8.931396 -0.03275378,-8.817317 -8.681467 0.1699942,-8.298337 -7.794057 0.3391903,-7.938695 -7.026777 0.5745032,-7.553227 -6.458761 0.8601966,-8.716197 -6.106703 -0.01003691,-8.607655 -4.945718 0.1797669,-8.515456 -4.298723 0.4344271,-8.407662 -3.729537 0.6235858,-9.10402 -5.974451 0.1350543,-9.032725 -4.82662 0.3747433,-8.89225 -4.278726 0.7479023,-8.743811 -3.988288 0.9840668,-9.476893 -6.077961 0.3305365,-9.464684 -4.950563 0.5493668,-9.340838 -4.39274 0.861887,-9.187817 -4.003757 1.072093,-9.85414 -6.373527 0.5445473,-9.913994 -5.470277 0.7591844,-9.867707 -4.909633 0.961464,-9.763435 -4.364637 1.107644,8.010,
-2.303665 -8.514984 -1.077862,-2.744678 -8.479351 -0.2467788,-3.032143 -7.997697 0.3056409,-3.012931 -7.399024 0.7324182,-2.867055 -6.694431 1.168948,-2.938437 -6.574008 0.2095942,-2.970922 -6.070594 0.8858966,-2.905391 -5.617736 1.359298,-2.806163 -5.21812 1.715256,-2.519239 -6.346832 0.04192758,-2.38549 -6.464101 0.7923594,-2.358065 -7.365633 0.8994936,-2.395772 -7.955241 0.8660471,-2.115756 -6.419975 -0.04837501,-1.982273 -6.495376 0.6468693,-2.053664 -7.357252 0.5379109,-2.156283 -7.845501 0.3535329,-1.771362 -6.633787 -0.08266109,-1.649087 -6.548187 0.443235,-1.755054 -7.204805 0.4097518,-1.88553 -7.577053 0.2988348,-9.458879 -8.98658 0.08260709,-8.779434 -8.750973 0.3061149,-8.260082 -7.858378 0.4839427,-7.906922 -7.094192 0.7304062,-7.530087 -6.520111 1.026302,-8.677922 -6.150951 0.0928877,-8.559273 -4.985288 0.3014424,-8.453379 -4.332466 0.5693868,-8.328969 -3.773197 0.7607816,-9.066642 -6.017278 0.2338595,-9.010743 -4.849489 0.4560102,-8.867297 -4.29846 0.8291442,-8.720503 -4.00357 1.059714,-9.460127 -6.095404 0.4156347,-9.44184 -4.968329 0.6358415,-9.313754 -4.407566 0.9494289,-9.160021 -4.016955 1.156434,-9.840281 -6.389772 0.6339641,-9.895205 -5.475415 0.8526284,-9.844145 -4.911211 1.056605,-9.735741 -4.368044 1.201094,8.110,
-2.349724 -8.59502 -1.592356,-2.803214 -8.573315 -0.8454219,-3.09592 -8.12923 -0.3017026,-3.099681 -7.561733 0.1268369,-2.986011 -6.893543 0.5833338,-3.072994 -6.842628 -0.3146832,-3.140105 -6.302066 0.3363007,-3.105602 -5.842897 0.7950069,-3.038761 -5.483484 1.128126,-2.639521 -6.616783 -0.4498247,-2.529617 -6.537757 0.2380768,-2.496341 -7.339193 0.323288,-2.521536 -7.930614 0.30945,-2.218579 -6.644487 -0.5222777,-2.098397 -6.53922 0.1356224,-2.172421 -7.33321 0.03832388,-2.266859 -7.846441 -0.1192535,-1.850917 -6.797956 -0.5454377,-1.763885 -6.469177 -0.04986322,-1.866012 -7.046842 -0.07422495,-1.986063 -7.459898 -0.1714408,-9.459038 -8.998444 -0.03124267,-8.771648 -8.763083 0.1587646,-8.246261 -7.875124 0.315665,-7.885137 -7.107965 0.5475358,-7.508759 -6.544967 0.823528,-8.659033 -6.175914 -0.05555534,-8.545835 -4.997397 0.1266815,-8.436817 -4.351314 0.376476,-8.304846 -3.795932 0.5484873,-9.047735 -6.041233 0.09116643,-8.97398 -4.867177 0.3292978,-8.82567 -4.326858 0.6959203,-8.668217 -4.051519 0.910553,-9.421431 -6.141195 0.290435,-9.397398 -4.984186 0.5068641,-9.260082 -4.426263 0.8121244,-9.090378 -4.049489 1.007132,-9.800237 -6.434761 0.5065512,-9.855708 -5.502562 0.7132638,-9.800294 -4.926202 0.9124665,-9.684402 -4.37264 1.047888,8.210,
-2.455833 -8.813778 -2.304625,-2.894049 -8.837061 -1.662689,-3.213535 -8.469339 -1.163386,-3.315689 -7.977476 -0.7429601,-3.322444 -7.37668 -0.3157991,-3.237762 -7.251554 -1.228317,-3.356339 -6.803445 -0.5814754,-3.380479 -6.391458 -0.1683236,-3.374622 -6.077375 0.08458436,-2.825475 -7.018001 -1.282344,-2.789205 -6.919878 -0.523285,-2.720819 -7.680398 -0.4071039,-2.691738 -8.246771 -0.4208866,-2.421688 -7.019114 -1.272672,-2.364697 -6.895494 -0.5581899,-2.389252 -7.656568 -0.5969359,-2.427377 -8.157991 -0.7348185,-2.057629 -7.150169 -1.216104,-1.995967 -6.682201 -0.7261455,-2.08453 -7.031723 -0.6723806,-2.171393 -7.342902 -0.6922733,-9.485308 -9.045357 0.1032176,-8.806308 -8.78409 0.2972788,-8.279835 -7.880344 0.4662989,-7.920291 -7.115491 0.7037231,-7.546663 -6.557617 0.9999868,-8.689661 -6.178615 0.1251362,-8.570062 -5.008298 0.3348707,-8.454575 -4.354671 0.5949449,-8.319866 -3.80923 0.7731298,-9.080513 -6.050905 0.2758411,-9.004852 -4.879341 0.5427248,-8.850228 -4.332267 0.8985255,-8.683393 -4.068597 1.107675,-9.453917 -6.152952 0.4801437,-9.442127 -5.004135 0.7089202,-9.300931 -4.45055 1.00991,-9.124818 -4.089033 1.203461,-9.830253 -6.44772 0.6996577,-9.900776 -5.521064 0.9107996,-9.854331 -4.945135 1.103637,-9.740743 -4.398889 1.240419,8.310,
-2.519431 -8.946905 -2.73254,-2.96463 -8.923153 -2.120851,-3.287932 -8.550949 -1.596238,-3.409849 -8.03388 -1.181755,-3.397315 -7.415411 -0.8105318,-3.299444 -7.604412 -1.494831,-3.413013 -7.127676 -0.8543946,-3.486186 -6.728611 -0.5025137,-3.52955 -6.457012 -0.2900456,-2.887451 -7.416275 -1.536788,-2.873684 -6.913061 -0.8310769,-2.872637 -7.180528 -0.7682047,-2.862442 -7.493255 -0.7577564,-2.477423 -7.400768 -1.528161,-2.417935 -6.947 -0.8474093,-2.505516 -7.372736 -0.9764803,-2.570729 -7.749285 -1.134172,-2.110792 -7.536314 -1.463431,-2.018571 -6.886854 -0.9576357,-2.139696 -6.977716 -0.8693253,-2.249654 -7.158746 -0.8437878,-9.510763 -9.036652 0.1284996,-8.833191 -8.769766 0.3470575,-8.30823 -7.865528 0.5325465,-7.942216 -7.103679 0.7804276,-7.562676 -6.554954 1.088153,-8.710889 -6.166212 0.1959325,-8.593023 -4.989456 0.4252534,-8.480172 -4.33599 0.7009996,-8.345308 -3.797456 0.8951493,-9.107046 -6.037385 0.342099,-9.036699 -4.860339 0.64194,-8.886765 -4.31908 1.023044,-8.722072 -4.0746 1.250284,-9.484488 -6.145512 0.5441631,-9.479852 -4.993282 0.8009195,-9.341242 -4.44972 1.116652,-9.164781 -4.100837 1.319893,-9.862817 -6.447855 0.7630769,-9.928653 -5.520934 0.9959285,-9.88065 -4.949918 1.205385,-9.761261 -4.410493 1.356434,8.410,
