TiagoOliveira98/HandTracking/DataLogging/JointData/Logs(1637027529)_topai.csv
WRIST,THUMB_CMC,THUMB_MCP,THUMB_IP,THUMB_TIP,INDEX_FINGER_MCP,INDEX_FINGER_PIP,INDEX_FINGER_DIP,INDEX_FINGER_TIP,MIDDLE_FINGER_MCP,MIDDLE_FINGER_PIP,MIDDLE_FINGER_DIP,MIDDLE_FINGER_TIP,RING_FINGER_MCP,RING_FINGER_PIP,RING_FINGER_DIP,RING_FINGER_TIP,PINKY_MCP,PINKY_PIP,PINKY_DIP,PINKY_TIP,WRIST2,THUMB_CMC2,THUMB_MCP2,THUMB_IP2,THUMB_TIP2,INDEX_FINGER_MCP2,INDEX_FINGER_PIP2,INDEX_FINGER_DIP2,INDEX_FINGER_TIP2,MIDDLE_FINGER_MCP2,MIDDLE_FINGER_PIP2,MIDDLE_FINGER_DIP2,MIDDLE_FINGER_TIP2,RING_FINGER_MCP2,RING_FINGER_PIP2,RING_FINGER_DIP2,RING_FINGER_TIP2,PINKY_MCP2,PINKY_PIP2,PINKY_DIP2,PINKY_TIP2,Timestamp,Event
-3.009047 -6.585722 2.687695,-3.724123 -6.247992 2.881779,-4.396032 -5.493706 3.137744,-4.849777 -4.946157 3.433557,-5.270765 -4.615107 3.820922,-4.153268 -3.833032 3.355234,-4.549936 -2.793036 3.850811,-4.793224 -2.15373 4.228585,-5.040003 -1.57375 4.517472,-3.772559 -3.667705 3.622711,-4.085014 -2.520455 4.271574,-4.336628 -1.831762 4.799512,-4.595823 -1.294359 5.18522,-3.352924 -3.80669 3.886896,-3.563199 -2.717208 4.490579,-3.778074 -2.057817 4.928992,-4.035396 -1.601727 5.248767,-2.900736 -4.21665 4.149268,-2.920319 -3.342582 4.746733,-3.035009 -2.771577 5.100454,-3.221683 -2.377341 5.373821,-8.934838 -8.167801 0.4589099,-8.364411 -7.877033 0.674041,-7.860736 -7.281494 0.8501886,-7.507508 -6.7075 1.066072,-7.17032 -6.443141 1.300717,-8.179765 -5.657404 0.6433436,-8.008389 -4.631149 0.7784839,-7.933428 -4.007413 0.912962,-7.878819 -3.460975 1.019614,-8.505486 -5.467056 0.7198554,-8.348891 -4.260689 0.834196,-8.252336 -3.522647 1.023996,-8.187551 -2.892932 1.171683,-8.830491 -5.508581 0.815599,-8.712515 -4.385623 0.9313682,-8.624979 -3.714226 1.082784,-8.54017 -3.150057 1.195958,-9.174287 -5.732406 0.9386127,-9.19163 -4.892923 1.094775,-9.162162 -4.369501 1.21634,-9.11008 -3.885229 1.300903,0.020,Dnf
-3.009047 -6.585722 2.687695,-3.724123 -6.247992 2.881779,-4.396032 -5.493706 3.137744,-4.849777 -4.946157 3.433557,-5.270765 -4.615107 3.820922,-4.153268 -3.833032 3.355234,-4.549936 -2.793036 3.850811,-4.793224 -2.15373 4.228585,-5.040003 -1.57375 4.517472,-3.772559 -3.667705 3.622711,-4.085014 -2.520455 4.271574,-4.336628 -1.831762 4.799512,-4.595823 -1.294359 5.18522,-3.352924 -3.80669 3.886896,-3.563199 -2.717208 4.490579,-3.778074 -2.057817 4.928992,-4.035396 -1.601727 5.248767,-2.900736 -4.21665 4.149268,-2.920319 -3.342582 4.746733,-3.035009 -2.771577 5.100454,-3.221683 -2.377341 5.373821,-8.934838 -8.167801 0.4589099,-8.364411 -7.877033 0.674041,-7.860736 -7.281494 0.8501886,-7.507508 -6.7075 1.066072,-7.17032 -6.443141 1.300717,-8.179765 -5.657404 0.6433436,-8.008389 -4.631149 0.7784839,-7.933428 -4.007413 0.912962,-7.878819 -3.460975 1.019614,-8.505486 -5.467056 0.7198554,-8.348891 -4.260689 0.834196,-8.252336 -3.522647 1.023996,-8.187551 -2.892932 1.171683,-8.830491 -5.508581 0.815599,-8.712515 -4.385623 0.9313682,-8.624979 -3.714226 1.082784,-8.54017 -3.150057 1.195958,-9.174287 -5.732406 0.9386127,-9.19163 -4.892923 1.094775,-9.162162 -4.369501 1.21634,-9.11008 -3.885229 1.300903,0.040,DnF
-2.810167 -6.522214 2.707297,-3.894411 -6.234819 2.939901,-4.281263 -5.591931 3.052013,-4.84808 -4.912905 3.409689,-5.394338 -4.505271 3.926578,-4.363794 -3.862417 3.213278,-4.678015 -2.941095 3.650658,-4.987242 -2.151842 4.106103,-5.282632 -1.40061 4.496739,-3.846352 -3.58428 3.581674,-4.098349 -2.528447 4.187928,-4.426497 -1.764483 4.760291,-4.769261 -1.090742 5.279131,-3.255638 -3.735702 3.957434,-3.410823 -2.819349 4.474662,-3.672082 -2.026502 4.934062,-4.019072 -1.459415 5.376241,-2.713703 -4.341677 4.261724,-2.756173 -3.604645 4.685555,-2.799942 -2.888101 5.211987,-3.054224 -2.360112 5.579165,-8.934838 -8.167801 0.4589099,-8.307657 -8.009598 0.7027291,-7.873858 -7.237676 0.786957,-7.278358 -6.590997 1.022697,-6.860127 -6.257223 1.418946,-7.993222 -5.717021 0.4863529,-7.840768 -4.639574 0.7283131,-7.68676 -3.750424 0.9177337,-7.709496 -3.244548 1.039184,-8.361195 -5.500276 0.6022917,-8.169709 -4.252866 0.7466341,-8.06849 -3.397838 0.9920623,-8.14675 -2.713897 1.188667,-8.673993 -5.574106 0.7254624,-8.627896 -4.245988 0.8250738,-8.601943 -3.52647 1.096321,-8.516059 -2.947487 1.219777,-9.192767 -5.85309 0.9197611,-9.218727 -5.009835 1.054686,-9.197424 -4.274256 1.246884,-9.23965 -3.777292 1.364174,0.060,DnF
-2.606692 -6.461441 2.762237,-4.023968 -6.356184 2.969919,-4.352356 -5.511123 3.011466,-4.895641 -4.779139 3.403864,-5.513451 -4.406435 4.030199,-4.579695 -3.898452 3.069072,-4.794024 -3.001532 3.528873,-5.125068 -2.142349 4.017883,-5.409544 -1.32265 4.474686,-3.920187 -3.517956 3.526366,-4.134228 -2.519681 4.122702,-4.497736 -1.726993 4.718703,-4.906721 -0.9473557 5.337808,-3.151479 -3.738631 3.975651,-3.31631 -2.861274 4.492251,-3.601647 -2.014987 4.925652,-4.026911 -1.349865 5.458445,-2.590437 -4.553886 4.241416,-2.558531 -3.735464 4.755351,-2.568017 -2.95515 5.346355,-2.953263 -2.273194 5.76542,-8.934838 -8.167801 0.4589099,-8.250904 -8.142162 0.7314172,-7.886981 -7.193859 0.7237254,-7.049207 -6.474495 0.9793219,-6.549935 -6.071304 1.537176,-7.80668 -5.776638 0.3293623,-7.673146 -4.647999 0.6781423,-7.440093 -3.493434 0.9225053,-7.540174 -3.028121 1.058753,-8.216904 -5.533497 0.484728,-7.990528 -4.245042 0.6590722,-7.884645 -3.273028 0.9601285,-8.105949 -2.534862 1.205652,-8.517495 -5.639631 0.6353258,-8.543278 -4.106352 0.7187794,-8.578907 -3.338712 1.109858,-8.491948 -2.744916 1.243595,-9.211247 -5.973774 0.9009095,-9.245824 -5.126747 1.014597,-9.232686 -4.179012 1.277427,-9.36922 -3.669354 1.427445,0.080,DnF
-2.694873 -6.668811 2.564502,-3.398691 -6.230865 2.695584,-4.027699 -5.485277 2.861699,-4.512179 -4.9119 3.092019,-4.964294 -4.510412 3.406021,-3.724506 -3.867438 3.003798,-4.066323 -2.781061 3.384795,-4.292225 -2.156075 3.695514,-4.54143 -1.609399 3.947546,-3.365623 -3.696994 3.250598,-3.641903 -2.435924 3.753126,-3.848067 -1.702231 4.204635,-4.082653 -1.048446 4.564387,-2.966445 -3.84585 3.506027,-3.15468 -2.660116 4.007672,-3.332285 -1.990176 4.457419,-3.553988 -1.428055 4.783364,-2.528321 -4.241505 3.769456,-2.501771 -3.35322 4.266261,-2.572484 -2.762203 4.623306,-2.702914 -2.250356 4.906691,-8.911897 -8.159512 0.4496014,-8.340318 -7.881259 0.6686804,-7.83334 -7.280052 0.8456907,-7.479274 -6.700225 1.058363,-7.14756 -6.421932 1.289057,-8.163064 -5.656737 0.6460209,-7.994559 -4.624367 0.788454,-7.919215 -3.992434 0.9273578,-7.866556 -3.440749 1.037007,-8.492222 -5.461174 0.7231173,-8.336025 -4.252643 0.8436732,-8.23818 -3.504163 1.036774,-8.174965 -2.873584 1.186166,-8.821603 -5.502001 0.8191667,-8.702842 -4.375431 0.9437222,-8.612147 -3.695592 1.102386,-8.525853 -3.132719 1.220867,-9.169147 -5.728537 0.9427835,-9.189697 -4.885904 1.106551,-9.15925 -4.352641 1.237446,-9.106195 -3.859966 1.328776,0.100,DnF
-2.694873 -6.668811 2.564502,-3.398691 -6.230865 2.695584,-4.027699 -5.485277 2.861699,-4.512179 -4.9119 3.092019,-4.964294 -4.510412 3.406021,-3.724506 -3.867438 3.003798,-4.066323 -2.781061 3.384795,-4.292225 -2.156075 3.695514,-4.54143 -1.609399 3.947546,-3.365623 -3.696994 3.250598,-3.641903 -2.435924 3.753126,-3.848067 -1.702231 4.204635,-4.082653 -1.048446 4.564387,-2.966445 -3.84585 3.506027,-3.15468 -2.660116 4.007672,-3.332285 -1.990176 4.457419,-3.553988 -1.428055 4.783364,-2.528321 -4.241505 3.769456,-2.501771 -3.35322 4.266261,-2.572484 -2.762203 4.623306,-2.702914 -2.250356 4.906691,-8.911897 -8.159512 0.4496014,-8.340318 -7.881259 0.6686804,-7.83334 -7.280052 0.8456907,-7.479274 -6.700225 1.058363,-7.14756 -6.421932 1.289057,-8.163064 -5.656737 0.6460209,-7.994559 -4.624367 0.788454,-7.919215 -3.992434 0.9273578,-7.866556 -3.440749 1.037007,-8.492222 -5.461174 0.7231173,-8.336025 -4.252643 0.8436732,-8.23818 -3.504163 1.036774,-8.174965 -2.873584 1.186166,-8.821603 -5.502001 0.8191667,-8.702842 -4.375431 0.9437222,-8.612147 -3.695592 1.102386,-8.525853 -3.132719 1.220867,-9.169147 -5.728537 0.9427835,-9.189697 -4.885904 1.106551,-9.15925 -4.352641 1.237446,-9.106195 -3.859966 1.328776,0.120,DnF
-2.694873 -6.668811 2.564502,-3.398691 -6.230865 2.695584,-4.027699 -5.485277 2.861699,-4.512179 -4.9119 3.092019,-4.964294 -4.510412 3.406021,-3.724506 -3.867438 3.003798,-4.066323 -2.781061 3.384795,-4.292225 -2.156075 3.695514,-4.54143 -1.609399 3.947546,-3.365623 -3.696994 3.250598,-3.641903 -2.435924 3.753126,-3.848067 -1.702231 4.204635,-4.082653 -1.048446 4.564387,-2.966445 -3.84585 3.506027,-3.15468 -2.660116 4.007672,-3.332285 -1.990176 4.457419,-3.553988 -1.428055 4.783364,-2.528321 -4.241505 3.769456,-2.501771 -3.35322 4.266261,-2.572484 -2.762203 4.623306,-2.702914 -2.250356 4.906691,-8.911897 -8.159512 0.4496014,-8.340318 -7.881259 0.6686804,-7.83334 -7.280052 0.8456907,-7.479274 -6.700225 1.058363,-7.14756 -6.421932 1.289057,-8.163064 -5.656737 0.6460209,-7.994559 -4.624367 0.788454,-7.919215 -3.992434 0.9273578,-7.866556 -3.440749 1.037007,-8.492222 -5.461174 0.7231173,-8.336025 -4.252643 0.8436732,-8.23818 -3.504163 1.036774,-8.174965 -2.873584 1.186166,-8.821603 -5.502001 0.8191667,-8.702842 -4.375431 0.9437222,-8.612147 -3.695592 1.102386,-8.525853 -3.132719 1.220867,-9.169147 -5.728537 0.9427835,-9.189697 -4.885904 1.106551,-9.15925 -4.352641 1.237446,-9.106195 -3.859966 1.328776,0.140,DnF
-2.38707 -6.781238 2.18361,-3.081369 -6.403795 2.397348,-3.707702 -5.686935 2.539139,-4.192362 -5.077497 2.706168,-4.663063 -4.721384 2.924574,-3.36487 -4.055844 2.536579,-3.689941 -2.904699 2.78818,-3.886322 -2.241313 3.024368,-4.088017 -1.662002 3.235999,-2.991907 -3.867819 2.663356,-3.253311 -2.540569 3.018518,-3.403242 -1.794248 3.360383,-3.576433 -1.08387 3.645025,-2.596816 -3.97347 2.815658,-2.765189 -2.767815 3.18456,-2.893505 -2.081242 3.523032,-3.062298 -1.431603 3.782245,-2.187286 -4.301977 2.991166,-2.15013 -3.399772 3.370424,-2.173985 -2.830802 3.640894,-2.247726 -2.282589 3.869159,-8.88873 -8.175215 0.4303409,-8.312181 -7.88886 0.6622651,-7.805711 -7.286024 0.8521763,-7.449025 -6.697628 1.073025,-7.116912 -6.406795 1.301575,-8.144017 -5.684532 0.6602585,-7.970893 -4.642009 0.8205808,-7.893066 -4.005142 0.9639724,-7.83936 -3.447955 1.07301,-8.472555 -5.48414 0.7245705,-8.313077 -4.272434 0.8610871,-8.21166 -3.519171 1.054999,-8.147627 -2.884426 1.20424,-8.80072 -5.524878 0.8075264,-8.680154 -4.383598 0.9408198,-8.587657 -3.692076 1.09673,-8.49903 -3.123722 1.210302,-9.147268 -5.750464 0.9154552,-9.162971 -4.89777 1.085818,-9.127915 -4.356645 1.219954,-9.072135 -3.864949 1.307893,0.160,DnF
-2.38707 -6.781238 2.18361,-3.081369 -6.403795 2.397348,-3.707702 -5.686935 2.539139,-4.192362 -5.077497 2.706168,-4.663063 -4.721384 2.924574,-3.36487 -4.055844 2.536579,-3.689941 -2.904699 2.78818,-3.886322 -2.241313 3.024368,-4.088017 -1.662002 3.235999,-2.991907 -3.867819 2.663356,-3.253311 -2.540569 3.018518,-3.403242 -1.794248 3.360383,-3.576433 -1.08387 3.645025,-2.596816 -3.97347 2.815658,-2.765189 -2.767815 3.18456,-2.893505 -2.081242 3.523032,-3.062298 -1.431603 3.782245,-2.187286 -4.301977 2.991166,-2.15013 -3.399772 3.370424,-2.173985 -2.830802 3.640894,-2.247726 -2.282589 3.869159,-8.88873 -8.175215 0.4303409,-8.312181 -7.88886 0.6622651,-7.805711 -7.286024 0.8521763,-7.449025 -6.697628 1.073025,-7.116912 -6.406795 1.301575,-8.144017 -5.684532 0.6602585,-7.970893 -4.642009 0.8205808,-7.893066 -4.005142 0.9639724,-7.83936 -3.447955 1.07301,-8.472555 -5.48414 0.7245705,-8.313077 -4.272434 0.8610871,-8.21166 -3.519171 1.054999,-8.147627 -2.884426 1.20424,-8.80072 -5.524878 0.8075264,-8.680154 -4.383598 0.9408198,-8.587657 -3.692076 1.09673,-8.49903 -3.123722 1.210302,-9.147268 -5.750464 0.9154552,-9.162971 -4.89777 1.085818,-9.127915 -4.356645 1.219954,-9.072135 -3.864949 1.307893,0.180,DnF
-2.38707 -6.781238 2.18361,-3.081369 -6.403795 2.397348,-3.707702 -5.686935 2.539139,-4.192362 -5.077497 2.706168,-4.663063 -4.721384 2.924574,-3.36487 -4.055844 2.536579,-3.689941 -2.904699 2.78818,-3.886322 -2.241313 3.024368,-4.088017 -1.662002 3.235999,-2.991907 -3.867819 2.663356,-3.253311 -2.540569 3.018518,-3.403242 -1.794248 3.360383,-3.576433 -1.08387 3.645025,-2.596816 -3.97347 2.815658,-2.765189 -2.767815 3.18456,-2.893505 -2.081242 3.523032,-3.062298 -1.431603 3.782245,-2.187286 -4.301977 2.991166,-2.15013 -3.399772 3.370424,-2.173985 -2.830802 3.640894,-2.247726 -2.282589 3.869159,-8.88873 -8.175215 0.4303409,-8.312181 -7.88886 0.6622651,-7.805711 -7.286024 0.8521763,-7.449025 -6.697628 1.073025,-7.116912 -6.406795 1.301575,-8.144017 -5.684532 0.6602585,-7.970893 -4.642009 0.8205808,-7.893066 -4.005142 0.9639724,-7.83936 -3.447955 1.07301,-8.472555 -5.48414 0.7245705,-8.313077 -4.272434 0.8610871,-8.21166 -3.519171 1.054999,-8.147627 -2.884426 1.20424,-8.80072 -5.524878 0.8075264,-8.680154 -4.383598 0.9408198,-8.587657 -3.692076 1.09673,-8.49903 -3.123722 1.210302,-9.147268 -5.750464 0.9154552,-9.162971 -4.89777 1.085818,-9.127915 -4.356645 1.219954,-9.072135 -3.864949 1.307893,0.200,DnF
-2.38707 -6.781238 2.18361,-3.081369 -6.403795 2.397348,-3.707702 -5.686935 2.539139,-4.192362 -5.077497 2.706168,-4.663063 -4.721384 2.924574,-3.36487 -4.055844 2.536579,-3.689941 -2.904699 2.78818,-3.886322 -2.241313 3.024368,-4.088017 -1.662002 3.235999,-2.991907 -3.867819 2.663356,-3.253311 -2.540569 3.018518,-3.403242 -1.794248 3.360383,-3.576433 -1.08387 3.645025,-2.596816 -3.97347 2.815658,-2.765189 -2.767815 3.18456,-2.893505 -2.081242 3.523032,-3.062298 -1.431603 3.782245,-2.187286 -4.301977 2.991166,-2.15013 -3.399772 3.370424,-2.173985 -2.830802 3.640894,-2.247726 -2.282589 3.869159,-8.88873 -8.175215 0.4303409,-8.312181 -7.88886 0.6622651,-7.805711 -7.286024 0.8521763,-7.449025 -6.697628 1.073025,-7.116912 -6.406795 1.301575,-8.144017 -5.684532 0.6602585,-7.970893 -4.642009 0.8205808,-7.893066 -4.005142 0.9639724,-7.83936 -3.447955 1.07301,-8.472555 -5.48414 0.7245705,-8.313077 -4.272434 0.8610871,-8.21166 -3.519171 1.054999,-8.147627 -2.884426 1.20424,-8.80072 -5.524878 0.8075264,-8.680154 -4.383598 0.9408198,-8.587657 -3.692076 1.09673,-8.49903 -3.123722 1.210302,-9.147268 -5.750464 0.9154552,-9.162971 -4.89777 1.085818,-9.127915 -4.356645 1.219954,-9.072135 -3.864949 1.307893,0.220,DnF
-2.103198 -7.059637 1.733616,-2.759678 -6.832947 2.165188,-3.354579 -6.217197 2.433408,-3.808862 -5.684341 2.687987,-4.220703 -5.33941 2.954528,-2.894518 -4.430292 2.449183,-3.168495 -3.337093 2.75567,-3.2924 -2.730913 3.022824,-3.392653 -2.152178 3.262636,-2.499359 -4.294129 2.454347,-2.692661 -2.99489 2.825243,-2.786795 -2.296305 3.156617,-2.866964 -1.643857 3.404217,-2.104965 -4.428446 2.492226,-2.199412 -3.212553 2.879996,-2.260387 -2.552771 3.17843,-2.345743 -1.922037 3.419255,-1.715389 -4.785779 2.540771,-1.653496 -3.832448 2.953814,-1.612636 -3.27104 3.20291,-1.625974 -2.731717 3.406369,-8.818824 -8.143652 0.348776,-8.230368 -7.861879 0.6169369,-7.718915 -7.274976 0.839158,-7.343488 -6.702861 1.089334,-6.983193 -6.414947 1.361087,-8.063401 -5.684228 0.5997614,-7.869573 -4.641444 0.7956473,-7.779184 -4.013321 0.9662203,-7.724704 -3.455373 1.095395,-8.389505 -5.481417 0.6695867,-8.215199 -4.274326 0.8355787,-8.114123 -3.501766 1.056389,-8.054352 -2.853657 1.23355,-8.716292 -5.520869 0.7580539,-8.59139 -4.38928 0.9413552,-8.500947 -3.674844 1.128339,-8.412564 -3.084405 1.271577,-9.068798 -5.737257 0.8836638,-9.078531 -4.892875 1.096386,-9.048915 -4.347354 1.239771,-8.993554 -3.854308 1.335302,0.240,DnF
-2.103198 -7.059637 1.733616,-2.759678 -6.832947 2.165188,-3.354579 -6.217197 2.433408,-3.808862 -5.684341 2.687987,-4.220703 -5.33941 2.954528,-2.894518 -4.430292 2.449183,-3.168495 -3.337093 2.75567,-3.2924 -2.730913 3.022824,-3.392653 -2.152178 3.262636,-2.499359 -4.294129 2.454347,-2.692661 -2.99489 2.825243,-2.786795 -2.296305 3.156617,-2.866964 -1.643857 3.404217,-2.104965 -4.428446 2.492226,-2.199412 -3.212553 2.879996,-2.260387 -2.552771 3.17843,-2.345743 -1.922037 3.419255,-1.715389 -4.785779 2.540771,-1.653496 -3.832448 2.953814,-1.612636 -3.27104 3.20291,-1.625974 -2.731717 3.406369,-8.818824 -8.143652 0.348776,-8.230368 -7.861879 0.6169369,-7.718915 -7.274976 0.839158,-7.343488 -6.702861 1.089334,-6.983193 -6.414947 1.361087,-8.063401 -5.684228 0.5997614,-7.869573 -4.641444 0.7956473,-7.779184 -4.013321 0.9662203,-7.724704 -3.455373 1.095395,-8.389505 -5.481417 0.6695867,-8.215199 -4.274326 0.8355787,-8.114123 -3.501766 1.056389,-8.054352 -2.853657 1.23355,-8.716292 -5.520869 0.7580539,-8.59139 -4.38928 0.9413552,-8.500947 -3.674844 1.128339,-8.412564 -3.084405 1.271577,-9.068798 -5.737257 0.8836638,-9.078531 -4.892875 1.096386,-9.048915 -4.347354 1.239771,-8.993554 -3.854308 1.335302,0.260,DnF
-2.103198 -7.059637 1.733616,-2.759678 -6.832947 2.165188,-3.354579 -6.217197 2.433408,-3.808862 -5.684341 2.687987,-4.220703 -5.33941 2.954528,-2.894518 -4.430292 2.449183,-3.168495 -3.337093 2.75567,-3.2924 -2.730913 3.022824,-3.392653 -2.152178 3.262636,-2.499359 -4.294129 2.454347,-2.692661 -2.99489 2.825243,-2.786795 -2.296305 3.156617,-2.866964 -1.643857 3.404217,-2.104965 -4.428446 2.492226,-2.199412 -3.212553 2.879996,-2.260387 -2.552771 3.17843,-2.345743 -1.922037 3.419255,-1.715389 -4.785779 2.540771,-1.653496 -3.832448 2.953814,-1.612636 -3.27104 3.20291,-1.625974 -2.731717 3.406369,-8.818824 -8.143652 0.348776,-8.230368 -7.861879 0.6169369,-7.718915 -7.274976 0.839158,-7.343488 -6.702861 1.089334,-6.983193 -6.414947 1.361087,-8.063401 -5.684228 0.5997614,-7.869573 -4.641444 0.7956473,-7.779184 -4.013321 0.9662203,-7.724704 -3.455373 1.095395,-8.389505 -5.481417 0.6695867,-8.215199 -4.274326 0.8355787,-8.114123 -3.501766 1.056389,-8.054352 -2.853657 1.23355,-8.716292 -5.520869 0.7580539,-8.59139 -4.38928 0.9413552,-8.500947 -3.674844 1.128339,-8.412564 -3.084405 1.271577,-9.068798 -5.737257 0.8836638,-9.078531 -4.892875 1.096386,-9.048915 -4.347354 1.239771,-8.993554 -3.854308 1.335302,0.280,DnF
-1.937551 -7.353504 1.328706,-2.564922 -7.163763 1.839196,-3.137833 -6.629133 2.143405,-3.560593 -6.111392 2.398235,-3.940933 -5.727407 2.678244,-2.711352 -4.856937 2.023736,-2.931181 -3.760418 2.328562,-3.031387 -3.126127 2.582912,-3.109597 -2.56693 2.805155,-2.315292 -4.691808 1.994584,-2.475154 -3.38604 2.323049,-2.546793 -2.659551 2.586601,-2.614062 -2.003157 2.802003,-1.93392 -4.792484 2.015651,-2.009975 -3.575374 2.339217,-2.05391 -2.905715 2.622301,-2.123083 -2.284849 2.852088,-1.548643 -5.095235 2.076343,-1.481349 -4.139854 2.405782,-1.462983 -3.579402 2.623978,-1.490148 -3.038565 2.820145,-8.781632 -8.124437 0.3215283,-8.192244 -7.852457 0.5353597,-7.675078 -7.262505 0.7130111,-7.298223 -6.696216 0.927994,-6.95378 -6.427375 1.163833,-8.00679 -5.672705 0.4898587,-7.822857 -4.643827 0.632974,-7.738814 -3.998064 0.7784986,-7.680178 -3.445405 0.8916099,-8.329107 -5.465127 0.5574831,-8.161036 -4.260811 0.662569,-8.060595 -3.493318 0.8463084,-7.995603 -2.849351 0.9946576,-8.655468 -5.487399 0.6418046,-8.528355 -4.359342 0.7606525,-8.436408 -3.665665 0.9020851,-8.347216 -3.100267 1.004464,-9.000945 -5.684793 0.7578481,-9.013021 -4.838922 0.916115,-8.983132 -4.307481 1.026066,-8.930203 -3.826562 1.093484,0.300,Object Dropped
-1.937551 -7.353504 1.328706,-2.564922 -7.163763 1.839196,-3.137833 -6.629133 2.143405,-3.560593 -6.111392 2.398235,-3.940933 -5.727407 2.678244,-2.711352 -4.856937 2.023736,-2.931181 -3.760418 2.328562,-3.031387 -3.126127 2.582912,-3.109597 -2.56693 2.805155,-2.315292 -4.691808 1.994584,-2.475154 -3.38604 2.323049,-2.546793 -2.659551 2.586601,-2.614062 -2.003157 2.802003,-1.93392 -4.792484 2.015651,-2.009975 -3.575374 2.339217,-2.05391 -2.905715 2.622301,-2.123083 -2.284849 2.852088,-1.548643 -5.095235 2.076343,-1.481349 -4.139854 2.405782,-1.462983 -3.579402 2.623978,-1.490148 -3.038565 2.820145,-8.781632 -8.124437 0.3215283,-8.192244 -7.852457 0.5353597,-7.675078 -7.262505 0.7130111,-7.298223 -6.696216 0.927994,-6.95378 -6.427375 1.163833,-8.00679 -5.672705 0.4898587,-7.822857 -4.643827 0.632974,-7.738814 -3.998064 0.7784986,-7.680178 -3.445405 0.8916099,-8.329107 -5.465127 0.5574831,-8.161036 -4.260811 0.662569,-8.060595 -3.493318 0.8463084,-7.995603 -2.849351 0.9946576,-8.655468 -5.487399 0.6418046,-8.528355 -4.359342 0.7606525,-8.436408 -3.665665 0.9020851,-8.347216 -3.100267 1.004464,-9.000945 -5.684793 0.7578481,-9.013021 -4.838922 0.916115,-8.983132 -4.307481 1.026066,-8.930203 -3.826562 1.093484,0.320,DnF
-1.937551 -7.353504 1.328706,-2.564922 -7.163763 1.839196,-3.137833 -6.629133 2.143405,-3.560593 -6.111392 2.398235,-3.940933 -5.727407 2.678244,-2.711352 -4.856937 2.023736,-2.931181 -3.760418 2.328562,-3.031387 -3.126127 2.582912,-3.109597 -2.56693 2.805155,-2.315292 -4.691808 1.994584,-2.475154 -3.38604 2.323049,-2.546793 -2.659551 2.586601,-2.614062 -2.003157 2.802003,-1.93392 -4.792484 2.015651,-2.009975 -3.575374 2.339217,-2.05391 -2.905715 2.622301,-2.123083 -2.284849 2.852088,-1.548643 -5.095235 2.076343,-1.481349 -4.139854 2.405782,-1.462983 -3.579402 2.623978,-1.490148 -3.038565 2.820145,-8.781632 -8.124437 0.3215283,-8.192244 -7.852457 0.5353597,-7.675078 -7.262505 0.7130111,-7.298223 -6.696216 0.927994,-6.95378 -6.427375 1.163833,-8.00679 -5.672705 0.4898587,-7.822857 -4.643827 0.632974,-7.738814 -3.998064 0.7784986,-7.680178 -3.445405 0.8916099,-8.329107 -5.465127 0.5574831,-8.161036 -4.260811 0.662569,-8.060595 -3.493318 0.8463084,-7.995603 -2.849351 0.9946576,-8.655468 -5.487399 0.6418046,-8.528355 -4.359342 0.7606525,-8.436408 -3.665665 0.9020851,-8.347216 -3.100267 1.004464,-9.000945 -5.684793 0.7578481,-9.013021 -4.838922 0.916115,-8.983132 -4.307481 1.026066,-8.930203 -3.826562 1.093484,0.340,DnF
-1.937551 -7.353504 1.328706,-2.564922 -7.163763 1.839196,-3.137833 -6.629133 2.143405,-3.560593 -6.111392 2.398235,-3.940933 -5.727407 2.678244,-2.711352 -4.856937 2.023736,-2.931181 -3.760418 2.328562,-3.031387 -3.126127 2.582912,-3.109597 -2.56693 2.805155,-2.315292 -4.691808 1.994584,-2.475154 -3.38604 2.323049,-2.546793 -2.659551 2.586601,-2.614062 -2.003157 2.802003,-1.93392 -4.792484 2.015651,-2.009975 -3.575374 2.339217,-2.05391 -2.905715 2.622301,-2.123083 -2.284849 2.852088,-1.548643 -5.095235 2.076343,-1.481349 -4.139854 2.405782,-1.462983 -3.579402 2.623978,-1.490148 -3.038565 2.820145,-8.781632 -8.124437 0.3215283,-8.192244 -7.852457 0.5353597,-7.675078 -7.262505 0.7130111,-7.298223 -6.696216 0.927994,-6.95378 -6.427375 1.163833,-8.00679 -5.672705 0.4898587,-7.822857 -4.643827 0.632974,-7.738814 -3.998064 0.7784986,-7.680178 -3.445405 0.8916099,-8.329107 -5.465127 0.5574831,-8.161036 -4.260811 0.662569,-8.060595 -3.493318 0.8463084,-7.995603 -2.849351 0.9946576,-8.655468 -5.487399 0.6418046,-8.528355 -4.359342 0.7606525,-8.436408 -3.665665 0.9020851,-8.347216 -3.100267 1.004464,-9.000945 -5.684793 0.7578481,-9.013021 -4.838922 0.916115,-8.983132 -4.307481 1.026066,-8.930203 -3.826562 1.093484,0.360,DnF
-1.80395 -7.64746 1.218816,-2.428588 -7.474669 1.707806,-2.990256 -6.913427 1.95545,-3.376616 -6.369918 2.146125,-3.719699 -5.989758 2.346157,-2.560477 -5.185569 1.834702,-2.750035 -4.095294 2.094413,-2.83393 -3.451915 2.308395,-2.895305 -2.879495 2.494459,-2.175424 -4.994722 1.786473,-2.309889 -3.723069 2.057787,-2.360159 -2.982341 2.273862,-2.409008 -2.318679 2.459071,-1.808894 -5.074829 1.781048,-1.854744 -3.890018 2.048614,-1.877592 -3.221224 2.280017,-1.92293 -2.619662 2.475558,-1.444007 -5.366596 1.814943,-1.352935 -4.443359 2.097914,-1.318459 -3.926443 2.28944,-1.322216 -3.440984 2.467919,-8.732172 -8.136395 0.3163037,-8.142673 -7.88557 0.5246564,-7.625617 -7.300294 0.6955411,-7.254702 -6.733479 0.8990069,-6.92256 -6.472167 1.12246,-7.95302 -5.685721 0.4722967,-7.774102 -4.653457 0.6140573,-7.688987 -4.014923 0.7597119,-7.626611 -3.46732 0.8740431,-8.276787 -5.477906 0.5385917,-8.112902 -4.264829 0.6433564,-8.013171 -3.501667 0.8239259,-7.946441 -2.866372 0.9716138,-8.606024 -5.50085 0.6222814,-8.477962 -4.371938 0.7400951,-8.384134 -3.679181 0.8799582,-8.292748 -3.118049 0.9823961,-8.955787 -5.703917 0.7363039,-8.971851 -4.855854 0.8889614,-8.94528 -4.321228 0.9973726,-8.89376 -3.837796 1.067908,0.380,DnF
-1.80395 -7.64746 1.218816,-2.428588 -7.474669 1.707806,-2.990256 -6.913427 1.95545,-3.376616 -6.369918 2.146125,-3.719699 -5.989758 2.346157,-2.560477 -5.185569 1.834702,-2.750035 -4.095294 2.094413,-2.83393 -3.451915 2.308395,-2.895305 -2.879495 2.494459,-2.175424 -4.994722 1.786473,-2.309889 -3.723069 2.057787,-2.360159 -2.982341 2.273862,-2.409008 -2.318679 2.459071,-1.808894 -5.074829 1.781048,-1.854744 -3.890018 2.048614,-1.877592 -3.221224 2.280017,-1.92293 -2.619662 2.475558,-1.444007 -5.366596 1.814943,-1.352935 -4.443359 2.097914,-1.318459 -3.926443 2.28944,-1.322216 -3.440984 2.467919,-8.732172 -8.136395 0.3163037,-8.142673 -7.88557 0.5246564,-7.625617 -7.300294 0.6955411,-7.254702 -6.733479 0.8990069,-6.92256 -6.472167 1.12246,-7.95302 -5.685721 0.4722967,-7.774102 -4.653457 0.6140573,-7.688987 -4.014923 0.7597119,-7.626611 -3.46732 0.8740431,-8.276787 -5.477906 0.5385917,-8.112902 -4.264829 0.6433564,-8.013171 -3.501667 0.8239259,-7.946441 -2.866372 0.9716138,-8.606024 -5.50085 0.6222814,-8.477962 -4.371938 0.7400951,-8.384134 -3.679181 0.8799582,-8.292748 -3.118049 0.9823961,-8.955787 -5.703917 0.7363039,-8.971851 -4.855854 0.8889614,-8.94528 -4.321228 0.9973726,-8.89376 -3.837796 1.067908,0.400,DnF
-1.80395 -7.64746 1.218816,-2.428588 -7.474669 1.707806,-2.990256 -6.913427 1.95545,-3.376616 -6.369918 2.146125,-3.719699 -5.989758 2.346157,-2.560477 -5.185569 1.834702,-2.750035 -4.095294 2.094413,-2.83393 -3.451915 2.308395,-2.895305 -2.879495 2.494459,-2.175424 -4.994722 1.786473,-2.309889 -3.723069 2.057787,-2.360159 -2.982341 2.273862,-2.409008 -2.318679 2.459071,-1.808894 -5.074829 1.781048,-1.854744 -3.890018 2.048614,-1.877592 -3.221224 2.280017,-1.92293 -2.619662 2.475558,-1.444007 -5.366596 1.814943,-1.352935 -4.443359 2.097914,-1.318459 -3.926443 2.28944,-1.322216 -3.440984 2.467919,-8.732172 -8.136395 0.3163037,-8.142673 -7.88557 0.5246564,-7.625617 -7.300294 0.6955411,-7.254702 -6.733479 0.8990069,-6.92256 -6.472167 1.12246,-7.95302 -5.685721 0.4722967,-7.774102 -4.653457 0.6140573,-7.688987 -4.014923 0.7597119,-7.626611 -3.46732 0.8740431,-8.276787 -5.477906 0.5385917,-8.112902 -4.264829 0.6433564,-8.013171 -3.501667 0.8239259,-7.946441 -2.866372 0.9716138,-8.606024 -5.50085 0.6222814,-8.477962 -4.371938 0.7400951,-8.384134 -3.679181 0.8799582,-8.292748 -3.118049 0.9823961,-8.955787 -5.703917 0.7363039,-8.971851 -4.855854 0.8889614,-8.94528 -4.321228 0.9973726,-8.89376 -3.837796 1.067908,0.420,DnF
-1.718461 -7.898441 1.262688,-2.320417 -7.695224 1.70771,-2.84584 -7.139715 1.924443,-3.201686 -6.560827 2.096359,-3.538893 -6.174842 2.275551,-2.445021 -5.420752 1.784198,-2.631984 -4.344902 2.042234,-2.716677 -3.689213 2.269204,-2.766502 -3.096694 2.467997,-2.065635 -5.213307 1.747982,-2.184222 -3.994533 2.00495,-2.225467 -3.249819 2.219751,-2.24754 -2.589463 2.40744,-1.701642 -5.274511 1.751829,-1.737497 -4.129446 1.994433,-1.757182 -3.446636 2.215886,-1.783821 -2.856946 2.410254,-1.337695 -5.551116 1.805341,-1.240065 -4.636378 2.058357,-1.198585 -4.11395 2.248873,-1.184156 -3.634029 2.431103,-8.712409 -8.136711 0.2578121,-8.125826 -7.886726 0.4743203,-7.609678 -7.321196 0.6563413,-7.237918 -6.760246 0.8715393,-6.90269 -6.486396 1.10107,-7.920179 -5.704985 0.4471693,-7.742144 -4.668184 0.6044664,-7.653957 -4.021835 0.7563296,-7.590067 -3.471185 0.8701079,-8.246136 -5.500547 0.5173519,-8.082191 -4.285361 0.6456462,-7.979635 -3.518031 0.83934,-7.912728 -2.882542 0.9965912,-8.577334 -5.526355 0.6042591,-8.452172 -4.396091 0.7374606,-8.356409 -3.702314 0.8832958,-8.26446 -3.137303 0.9881767,-8.929034 -5.734368 0.717811,-8.933583 -4.876342 0.8835049,-8.895421 -4.331789 1.000321,-8.83513 -3.834392 1.076402,0.440,DnF
-1.718461 -7.898441 1.262688,-2.320417 -7.695224 1.70771,-2.84584 -7.139715 1.924443,-3.201686 -6.560827 2.096359,-3.538893 -6.174842 2.275551,-2.445021 -5.420752 1.784198,-2.631984 -4.344902 2.042234,-2.716677 -3.689213 2.269204,-2.766502 -3.096694 2.467997,-2.065635 -5.213307 1.747982,-2.184222 -3.994533 2.00495,-2.225467 -3.249819 2.219751,-2.24754 -2.589463 2.40744,-1.701642 -5.274511 1.751829,-1.737497 -4.129446 1.994433,-1.757182 -3.446636 2.215886,-1.783821 -2.856946 2.410254,-1.337695 -5.551116 1.805341,-1.240065 -4.636378 2.058357,-1.198585 -4.11395 2.248873,-1.184156 -3.634029 2.431103,-8.712409 -8.136711 0.2578121,-8.125826 -7.886726 0.4743203,-7.609678 -7.321196 0.6563413,-7.237918 -6.760246 0.8715393,-6.90269 -6.486396 1.10107,-7.920179 -5.704985 0.4471693,-7.742144 -4.668184 0.6044664,-7.653957 -4.021835 0.7563296,-7.590067 -3.471185 0.8701079,-8.246136 -5.500547 0.5173519,-8.082191 -4.285361 0.6456462,-7.979635 -3.518031 0.83934,-7.912728 -2.882542 0.9965912,-8.577334 -5.526355 0.6042591,-8.452172 -4.396091 0.7374606,-8.356409 -3.702314 0.8832958,-8.26446 -3.137303 0.9881767,-8.929034 -5.734368 0.717811,-8.933583 -4.876342 0.8835049,-8.895421 -4.331789 1.000321,-8.83513 -3.834392 1.076402,0.460,DnF
-1.718461 -7.898441 1.262688,-2.320417 -7.695224 1.70771,-2.84584 -7.139715 1.924443,-3.201686 -6.560827 2.096359,-3.538893 -6.174842 2.275551,-2.445021 -5.420752 1.784198,-2.631984 -4.344902 2.042234,-2.716677 -3.689213 2.269204,-2.766502 -3.096694 2.467997,-2.065635 -5.213307 1.747982,-2.184222 -3.994533 2.00495,-2.225467 -3.249819 2.219751,-2.24754 -2.589463 2.40744,-1.701642 -5.274511 1.751829,-1.737497 -4.129446 1.994433,-1.757182 -3.446636 2.215886,-1.783821 -2.856946 2.410254,-1.337695 -5.551116 1.805341,-1.240065 -4.636378 2.058357,-1.198585 -4.11395 2.248873,-1.184156 -3.634029 2.431103,-8.712409 -8.136711 0.2578121,-8.125826 -7.886726 0.4743203,-7.609678 -7.321196 0.6563413,-7.237918 -6.760246 0.8715393,-6.90269 -6.486396 1.10107,-7.920179 -5.704985 0.4471693,-7.742144 -4.668184 0.6044664,-7.653957 -4.021835 0.7563296,-7.590067 -3.471185 0.8701079,-8.246136 -5.500547 0.5173519,-8.082191 -4.285361 0.6456462,-7.979635 -3.518031 0.83934,-7.912728 -2.882542 0.9965912,-8.577334 -5.526355 0.6042591,-8.452172 -4.396091 0.7374606,-8.356409 -3.702314 0.8832958,-8.26446 -3.137303 0.9881767,-8.929034 -5.734368 0.717811,-8.933583 -4.876342 0.8835049,-8.895421 -4.331789 1.000321,-8.83513 -3.834392 1.076402,0.480,DnF
-1.633643 -8.055849 1.280625,-2.230124 -7.817876 1.692213,-2.766382 -7.26313 1.905866,-3.131925 -6.672854 2.089601,-3.455032 -6.28027 2.281156,-2.362514 -5.564352 1.703809,-2.563745 -4.499383 1.953848,-2.643481 -3.859371 2.158074,-2.685536 -3.271493 2.327904,-1.992542 -5.356002 1.700421,-2.09374 -4.152111 1.972557,-2.118482 -3.381641 2.211991,-2.123583 -2.718843 2.409117,-1.633601 -5.40566 1.748024,-1.652172 -4.267148 1.996953,-1.661893 -3.548975 2.237217,-1.783821 -2.856946 2.428191,-1.337695 -5.551116 1.823278,-1.240065 -4.636378 2.076294,-1.198585 -4.11395 2.266809,-1.184156 -3.634029 2.449039,-8.712409 -8.136711 0.2578121,-8.125826 -7.886726 0.4743203,-7.609678 -7.321196 0.6563413,-7.237918 -6.760246 0.8715393,-6.90269 -6.486396 1.10107,-7.920179 -5.704985 0.4471693,-7.742144 -4.668184 0.6044664,-7.653957 -4.021835 0.7563296,-7.590067 -3.471185 0.8701079,-8.246136 -5.500547 0.5173519,-8.082191 -4.285361 0.6456462,-7.979635 -3.518031 0.83934,-7.912728 -2.882542 0.9965912,-8.577334 -5.526355 0.6042591,-8.452172 -4.396091 0.7374606,-8.356409 -3.702314 0.8832958,-8.26446 -3.137303 0.9881767,-8.929034 -5.734368 0.717811,-8.933583 -4.876342 0.8835049,-8.895421 -4.331789 1.000321,-8.83513 -3.834392 1.076402,0.500,DnF
-1.633643 -8.055849 1.280625,-2.230124 -7.817876 1.692213,-2.766382 -7.26313 1.905866,-3.131925 -6.672854 2.089601,-3.455032 -6.28027 2.281156,-2.362514 -5.564352 1.703809,-2.563745 -4.499383 1.953848,-2.643481 -3.859371 2.158074,-2.685536 -3.271493 2.327904,-1.992542 -5.356002 1.700421,-2.09374 -4.152111 1.972557,-2.118482 -3.381641 2.211991,-2.123583 -2.718843 2.409117,-1.633601 -5.40566 1.748024,-1.652172 -4.267148 1.996953,-1.661893 -3.548975 2.237217,-1.673515 -2.943605 2.44113,-1.269178 -5.669747 1.834842,-1.149259 -4.758737 2.072561,-1.089231 -4.19611 2.275534,-1.055406 -3.670107 2.458255,-8.700351 -8.123674 0.2361064,-8.120798 -7.906333 0.4436853,-7.599997 -7.332162 0.6087939,-7.227227 -6.768826 0.8051202,-6.893016 -6.516297 1.015493,-7.898179 -5.706428 0.4006258,-7.712317 -4.677701 0.5491532,-7.623484 -4.03621 0.7037759,-7.565356 -3.493299 0.821708,-8.221507 -5.49352 0.4682523,-8.051886 -4.288361 0.5848053,-7.947689 -3.514632 0.784408,-7.882715 -2.871603 0.9446756,-8.553183 -5.513425 0.5519894,-8.42858 -4.405628 0.6734645,-8.332417 -3.721303 0.8117357,-8.246159 -3.163815 0.9149853,-8.905913 -5.716733 0.6665204,-8.91253 -4.872406 0.8186811,-8.877571 -4.339204 0.9294065,-8.82444 -3.849157 1.003032,0.520,DnF
-1.633643 -8.055849 1.280625,-2.230124 -7.817876 1.692213,-2.766382 -7.26313 1.905866,-3.131925 -6.672854 2.089601,-3.455032 -6.28027 2.281156,-2.362514 -5.564352 1.703809,-2.563745 -4.499383 1.953848,-2.643481 -3.859371 2.158074,-2.685536 -3.271493 2.327904,-1.992542 -5.356002 1.700421,-2.09374 -4.152111 1.972557,-2.118482 -3.381641 2.211991,-2.123583 -2.718843 2.409117,-1.633601 -5.40566 1.748024,-1.652172 -4.267148 1.996953,-1.661893 -3.548975 2.237217,-1.673515 -2.943605 2.44113,-1.269178 -5.669747 1.834842,-1.149259 -4.758737 2.072561,-1.089231 -4.19611 2.275534,-1.055406 -3.670107 2.458255,-8.700351 -8.123674 0.2361064,-8.120798 -7.906333 0.4436853,-7.599997 -7.332162 0.6087939,-7.227227 -6.768826 0.8051202,-6.893016 -6.516297 1.015493,-7.898179 -5.706428 0.4006258,-7.712317 -4.677701 0.5491532,-7.623484 -4.03621 0.7037759,-7.565356 -3.493299 0.821708,-8.221507 -5.49352 0.4682523,-8.051886 -4.288361 0.5848053,-7.947689 -3.514632 0.784408,-7.882715 -2.871603 0.9446756,-8.553183 -5.513425 0.5519894,-8.42858 -4.405628 0.6734645,-8.332417 -3.721303 0.8117357,-8.246159 -3.163815 0.9149853,-8.905913 -5.716733 0.6665204,-8.91253 -4.872406 0.8186811,-8.877571 -4.339204 0.9294065,-8.82444 -3.849157 1.003032,0.540,DnF
-1.633643 -8.055849 1.280625,-2.230124 -7.817876 1.692213,-2.766382 -7.26313 1.905866,-3.131925 -6.672854 2.089601,-3.455032 -6.28027 2.281156,-2.362514 -5.564352 1.703809,-2.563745 -4.499383 1.953848,-2.643481 -3.859371 2.158074,-2.685536 -3.271493 2.327904,-1.992542 -5.356002 1.700421,-2.09374 -4.152111 1.972557,-2.118482 -3.381641 2.211991,-2.123583 -2.718843 2.409117,-1.633601 -5.40566 1.748024,-1.652172 -4.267148 1.996953,-1.661893 -3.548975 2.237217,-1.673515 -2.943605 2.44113,-1.269178 -5.669747 1.834842,-1.149259 -4.758737 2.072561,-1.089231 -4.19611 2.275534,-1.055406 -3.670107 2.458255,-8.700351 -8.123674 0.2361064,-8.120798 -7.906333 0.4436853,-7.599997 -7.332162 0.6087939,-7.227227 -6.768826 0.8051202,-6.893016 -6.516297 1.015493,-7.898179 -5.706428 0.4006258,-7.712317 -4.677701 0.5491532,-7.623484 -4.03621 0.7037759,-7.565356 -3.493299 0.821708,-8.221507 -5.49352 0.4682523,-8.051886 -4.288361 0.5848053,-7.947689 -3.514632 0.784408,-7.882715 -2.871603 0.9446756,-8.553183 -5.513425 0.5519894,-8.42858 -4.405628 0.6734645,-8.332417 -3.721303 0.8117357,-8.246159 -3.163815 0.9149853,-8.905913 -5.716733 0.6665204,-8.91253 -4.872406 0.8186811,-8.877571 -4.339204 0.9294065,-8.82444 -3.849157 1.003032,0.560,DnF
-1.57367 -8.147753 1.294047,-2.171134 -7.895906 1.711338,-2.711716 -7.340648 1.918,-3.067919 -6.72964 2.085313,-3.371752 -6.323912 2.248602,-2.299502 -5.649919 1.733397,-2.505542 -4.596214 1.982589,-2.582545 -3.951364 2.197912,-2.61864 -3.335748 2.374096,-1.928327 -5.444696 1.721766,-2.023063 -4.248741 2.003534,-2.04569 -3.477917 2.254615,-2.04289 -2.814239 2.458223,-1.572689 -5.48759 1.761219,-1.589155 -4.357986 2.012774,-1.592189 -3.641716 2.269457,-1.591734 -3.039171 2.480663,-1.212044 -5.7359 1.84092,-1.09678 -4.852065 2.07064,-1.034667 -4.287495 2.280381,-0.9922104 -3.74808 2.462632,-8.694844 -8.11935 0.2772788,-8.109375 -7.899137 0.488837,-7.585631 -7.32463 0.6595156,-7.216593 -6.756301 0.861684,-6.890306 -6.494087 1.074479,-7.889899 -5.69152 0.4414831,-7.703922 -4.681814 0.5858584,-7.610657 -4.046598 0.7365302,-7.545597 -3.511024 0.854552,-8.215049 -5.476579 0.5000441,-8.044137 -4.294261 0.6119368,-7.934209 -3.528086 0.808718,-7.864554 -2.888145 0.968989,-8.548369 -5.489942 0.5775918,-8.426449 -4.408027 0.6891874,-8.32775 -3.732448 0.8158373,-8.236348 -3.181854 0.9077802,-8.902431 -5.685314 0.6855639,-8.913092 -4.84715 0.8239593,-8.879492 -4.319579 0.924096,-8.827742 -3.835728 0.991085,0.580,DnF
-1.57367 -8.147753 1.294047,-2.171134 -7.895906 1.711338,-2.711716 -7.340648 1.918,-3.067919 -6.72964 2.085313,-3.371752 -6.323912 2.248602,-2.299502 -5.649919 1.733397,-2.505542 -4.596214 1.982589,-2.582545 -3.951364 2.197912,-2.61864 -3.335748 2.374096,-1.928327 -5.444696 1.721766,-2.023063 -4.248741 2.003534,-2.04569 -3.477917 2.254615,-2.04289 -2.814239 2.458223,-1.572689 -5.48759 1.761219,-1.589155 -4.357986 2.012774,-1.592189 -3.641716 2.269457,-1.591734 -3.039171 2.480663,-1.212044 -5.7359 1.84092,-1.09678 -4.852065 2.07064,-1.034667 -4.287495 2.280381,-0.9922104 -3.74808 2.462632,-8.694844 -8.11935 0.2772788,-8.109375 -7.899137 0.488837,-7.585631 -7.32463 0.6595156,-7.216593 -6.756301 0.861684,-6.890306 -6.494087 1.074479,-7.889899 -5.69152 0.4414831,-7.703922 -4.681814 0.5858584,-7.610657 -4.046598 0.7365302,-7.545597 -3.511024 0.854552,-8.215049 -5.476579 0.5000441,-8.044137 -4.294261 0.6119368,-7.934209 -3.528086 0.808718,-7.864554 -2.888145 0.968989,-8.548369 -5.489942 0.5775918,-8.426449 -4.408027 0.6891874,-8.32775 -3.732448 0.8158373,-8.236348 -3.181854 0.9077802,-8.902431 -5.685314 0.6855639,-8.913092 -4.84715 0.8239593,-8.879492 -4.319579 0.924096,-8.827742 -3.835728 0.991085,0.600,DnF
-1.57367 -8.147753 1.294047,-2.171134 -7.895906 1.711338,-2.711716 -7.340648 1.918,-3.067919 -6.72964 2.085313,-3.371752 -6.323912 2.248602,-2.299502 -5.649919 1.733397,-2.505542 -4.596214 1.982589,-2.582545 -3.951364 2.197912,-2.61864 -3.335748 2.374096,-1.928327 -5.444696 1.721766,-2.023063 -4.248741 2.003534,-2.04569 -3.477917 2.254615,-2.04289 -2.814239 2.458223,-1.572689 -5.48759 1.761219,-1.589155 -4.357986 2.012774,-1.592189 -3.641716 2.269457,-1.591734 -3.039171 2.480663,-1.212044 -5.7359 1.84092,-1.09678 -4.852065 2.07064,-1.034667 -4.287495 2.280381,-0.9922104 -3.74808 2.462632,-8.694844 -8.11935 0.2772788,-8.109375 -7.899137 0.488837,-7.585631 -7.32463 0.6595156,-7.216593 -6.756301 0.861684,-6.890306 -6.494087 1.074479,-7.889899 -5.69152 0.4414831,-7.703922 -4.681814 0.5858584,-7.610657 -4.046598 0.7365302,-7.545597 -3.511024 0.854552,-8.215049 -5.476579 0.5000441,-8.044137 -4.294261 0.6119368,-7.934209 -3.528086 0.808718,-7.864554 -2.888145 0.968989,-8.548369 -5.489942 0.5775918,-8.426449 -4.408027 0.6891874,-8.32775 -3.732448 0.8158373,-8.236348 -3.181854 0.9077802,-8.902431 -5.685314 0.6855639,-8.913092 -4.84715 0.8239593,-8.879492 -4.319579 0.924096,-8.827742 -3.835728 0.991085,0.620,DnF
-1.57367 -8.147753 1.294047,-2.171134 -7.895906 1.711338,-2.711716 -7.340648 1.918,-3.067919 -6.72964 2.085313,-3.371752 -6.323912 2.248602,-2.299502 -5.649919 1.733397,-2.505542 -4.596214 1.982589,-2.582545 -3.951364 2.197912,-2.61864 -3.335748 2.374096,-1.928327 -5.444696 1.721766,-2.023063 -4.248741 2.003534,-2.04569 -3.477917 2.254615,-2.04289 -2.814239 2.458223,-1.572689 -5.48759 1.761219,-1.589155 -4.357986 2.012774,-1.592189 -3.641716 2.269457,-1.591734 -3.039171 2.480663,-1.212044 -5.7359 1.84092,-1.09678 -4.852065 2.07064,-1.034667 -4.287495 2.280381,-0.9922104 -3.74808 2.462632,-8.694844 -8.11935 0.2772788,-8.109375 -7.899137 0.488837,-7.585631 -7.32463 0.6595156,-7.216593 -6.756301 0.861684,-6.890306 -6.494087 1.074479,-7.889899 -5.69152 0.4414831,-7.703922 -4.681814 0.5858584,-7.610657 -4.046598 0.7365302,-7.545597 -3.511024 0.854552,-8.215049 -5.476579 0.5000441,-8.044137 -4.294261 0.6119368,-7.934209 -3.528086 0.808718,-7.864554 -2.888145 0.968989,-8.548369 -5.489942 0.5775918,-8.426449 -4.408027 0.6891874,-8.32775 -3.732448 0.8158373,-8.236348 -3.181854 0.9077802,-8.902431 -5.685314 0.6855639,-8.913092 -4.84715 0.8239593,-8.879492 -4.319579 0.924096,-8.827742 -3.835728 0.991085,0.640,DnF
-1.57367 -8.147753 1.294047,-2.171134 -7.895906 1.711338,-2.711716 -7.340648 1.918,-3.067919 -6.72964 2.085313,-3.371752 -6.323912 2.248602,-2.299502 -5.649919 1.733397,-2.505542 -4.596214 1.982589,-2.582545 -3.951364 2.197912,-2.61864 -3.335748 2.374096,-1.928327 -5.444696 1.721766,-2.023063 -4.248741 2.003534,-2.04569 -3.477917 2.254615,-2.04289 -2.814239 2.458223,-1.572689 -5.48759 1.761219,-1.589155 -4.357986 2.012774,-1.592189 -3.641716 2.269457,-1.591734 -3.039171 2.480663,-1.212044 -5.7359 1.84092,-1.09678 -4.852065 2.07064,-1.034667 -4.287495 2.280381,-0.9922104 -3.74808 2.462632,-8.694844 -8.11935 0.2772788,-8.109375 -7.899137 0.488837,-7.585631 -7.32463 0.6595156,-7.216593 -6.756301 0.861684,-6.890306 -6.494087 1.074479,-7.889899 -5.69152 0.4414831,-7.703922 -4.681814 0.5858584,-7.610657 -4.046598 0.7365302,-7.545597 -3.511024 0.854552,-8.215049 -5.476579 0.5000441,-8.044137 -4.294261 0.6119368,-7.934209 -3.528086 0.808718,-7.864554 -2.888145 0.968989,-8.548369 -5.489942 0.5775918,-8.426449 -4.408027 0.6891874,-8.32775 -3.732448 0.8158373,-8.236348 -3.181854 0.9077802,-8.902431 -5.685314 0.6855639,-8.913092 -4.84715 0.8239593,-8.879492 -4.319579 0.924096,-8.827742 -3.835728 0.991085,0.660,DnF
-1.536904 -8.218409 1.421658,-2.11718 -7.943456 1.839656,-2.639934 -7.368511 2.049215,-2.975973 -6.751642 2.22156,-3.261889 -6.358726 2.389798,-2.222198 -5.682809 1.886425,-2.41201 -4.645665 2.149568,-2.476147 -4.007289 2.376292,-2.502243 -3.38781 2.557542,-1.850366 -5.477392 1.875955,-1.93997 -4.297927 2.17216,-1.95553 -3.535897 2.426569,-1.945806 -2.866102 2.631213,-1.498151 -5.528123 1.912693,-1.509752 -4.417886 2.178263,-1.507071 -3.715168 2.428562,-1.501634 -3.117525 2.63268,-1.139224 -5.787164 1.995016,-1.026472 -4.928152 2.234506,-0.9609113 -4.373369 2.444769,-0.9171114 -3.834498 2.622076,-8.689075 -8.106531 0.2463946,-8.104009 -7.894811 0.4574554,-7.575229 -7.311304 0.6310958,-7.206363 -6.744939 0.8371808,-6.878189 -6.491508 1.056567,-7.887217 -5.682733 0.4259501,-7.698843 -4.657659 0.5843046,-7.608706 -4.016145 0.7435449,-7.54686 -3.4743 0.8615471,-8.216018 -5.472925 0.485231,-8.042447 -4.275243 0.6060936,-7.933238 -3.504598 0.8028392,-7.862746 -2.857198 0.9647529,-8.554686 -5.494964 0.5629627,-8.428879 -4.392326 0.6812997,-8.327843 -3.710668 0.8087391,-8.236591 -3.150793 0.9055328,-8.91468 -5.699129 0.670531,-8.923049 -4.845029 0.8086448,-8.892391 -4.312301 0.9104808,-8.843792 -3.813647 0.9808065,0.680,DnF
-1.536904 -8.218409 1.421658,-2.11718 -7.943456 1.839656,-2.639934 -7.368511 2.049215,-2.975973 -6.751642 2.22156,-3.261889 -6.358726 2.389798,-2.222198 -5.682809 1.886425,-2.41201 -4.645665 2.149568,-2.476147 -4.007289 2.376292,-2.502243 -3.38781 2.557542,-1.850366 -5.477392 1.875955,-1.93997 -4.297927 2.17216,-1.95553 -3.535897 2.426569,-1.945806 -2.866102 2.631213,-1.498151 -5.528123 1.912693,-1.509752 -4.417886 2.178263,-1.507071 -3.715168 2.428562,-1.501634 -3.117525 2.63268,-1.139224 -5.787164 1.995016,-1.026472 -4.928152 2.234506,-0.9609113 -4.373369 2.444769,-0.9171114 -3.834498 2.622076,-8.689075 -8.106531 0.2463946,-8.104009 -7.894811 0.4574554,-7.575229 -7.311304 0.6310958,-7.206363 -6.744939 0.8371808,-6.878189 -6.491508 1.056567,-7.887217 -5.682733 0.4259501,-7.698843 -4.657659 0.5843046,-7.608706 -4.016145 0.7435449,-7.54686 -3.4743 0.8615471,-8.216018 -5.472925 0.485231,-8.042447 -4.275243 0.6060936,-7.933238 -3.504598 0.8028392,-7.862746 -2.857198 0.9647529,-8.554686 -5.494964 0.5629627,-8.428879 -4.392326 0.6812997,-8.327843 -3.710668 0.8087391,-8.236591 -3.150793 0.9055328,-8.91468 -5.699129 0.670531,-8.923049 -4.845029 0.8086448,-8.892391 -4.312301 0.9104808,-8.843792 -3.813647 0.9808065,0.700,DnF
-1.536904 -8.218409 1.421658,-2.11718 -7.943456 1.839656,-2.639934 -7.368511 2.049215,-2.975973 -6.751642 2.22156,-3.261889 -6.358726 2.389798,-2.222198 -5.682809 1.886425,-2.41201 -4.645665 2.149568,-2.476147 -4.007289 2.376292,-2.502243 -3.38781 2.557542,-1.850366 -5.477392 1.875955,-1.93997 -4.297927 2.17216,-1.95553 -3.535897 2.426569,-1.945806 -2.866102 2.631213,-1.498151 -5.528123 1.912693,-1.509752 -4.417886 2.178263,-1.507071 -3.715168 2.428562,-1.501634 -3.117525 2.63268,-1.139224 -5.787164 1.995016,-1.026472 -4.928152 2.234506,-0.9609113 -4.373369 2.444769,-0.9171114 -3.834498 2.622076,-8.689075 -8.106531 0.2463946,-8.104009 -7.894811 0.4574554,-7.575229 -7.311304 0.6310958,-7.206363 -6.744939 0.8371808,-6.878189 -6.491508 1.056567,-7.887217 -5.682733 0.4259501,-7.698843 -4.657659 0.5843046,-7.608706 -4.016145 0.7435449,-7.54686 -3.4743 0.8615471,-8.216018 -5.472925 0.485231,-8.042447 -4.275243 0.6060936,-7.933238 -3.504598 0.8028392,-7.862746 -2.857198 0.9647529,-8.554686 -5.494964 0.5629627,-8.428879 -4.392326 0.6812997,-8.327843 -3.710668 0.8087391,-8.236591 -3.150793 0.9055328,-8.91468 -5.699129 0.670531,-8.923049 -4.845029 0.8086448,-8.892391 -4.312301 0.9104808,-8.843792 -3.813647 0.9808065,0.720,DnF
-1.536904 -8.218409 1.421658,-2.11718 -7.943456 1.839656,-2.639934 -7.368511 2.049215,-2.975973 -6.751642 2.22156,-3.261889 -6.358726 2.389798,-2.222198 -5.682809 1.886425,-2.41201 -4.645665 2.149568,-2.476147 -4.007289 2.376292,-2.502243 -3.38781 2.557542,-1.850366 -5.477392 1.875955,-1.93997 -4.297927 2.17216,-1.95553 -3.535897 2.426569,-1.945806 -2.866102 2.631213,-1.498151 -5.528123 1.912693,-1.509752 -4.417886 2.178263,-1.507071 -3.715168 2.428562,-1.501634 -3.117525 2.63268,-1.139224 -5.787164 1.995016,-1.026472 -4.928152 2.234506,-0.9609113 -4.373369 2.444769,-0.9171114 -3.834498 2.622076,-8.689075 -8.106531 0.2463946,-8.104009 -7.894811 0.4574554,-7.575229 -7.311304 0.6310958,-7.206363 -6.744939 0.8371808,-6.878189 -6.491508 1.056567,-7.887217 -5.682733 0.4259501,-7.698843 -4.657659 0.5843046,-7.608706 -4.016145 0.7435449,-7.54686 -3.4743 0.8615471,-8.216018 -5.472925 0.485231,-8.042447 -4.275243 0.6060936,-7.933238 -3.504598 0.8028392,-7.862746 -2.857198 0.9647529,-8.554686 -5.494964 0.5629627,-8.428879 -4.392326 0.6812997,-8.327843 -3.710668 0.8087391,-8.236591 -3.150793 0.9055328,-8.91468 -5.699129 0.670531,-8.923049 -4.845029 0.8086448,-8.892391 -4.312301 0.9104808,-8.843792 -3.813647 0.9808065,0.740,DnF
-1.536904 -8.218409 1.421658,-2.11718 -7.943456 1.839656,-2.639934 -7.368511 2.049215,-2.975973 -6.751642 2.22156,-3.261889 -6.358726 2.389798,-2.222198 -5.682809 1.886425,-2.41201 -4.645665 2.149568,-2.476147 -4.007289 2.376292,-2.502243 -3.38781 2.557542,-1.850366 -5.477392 1.875955,-1.93997 -4.297927 2.17216,-1.95553 -3.535897 2.426569,-1.945806 -2.866102 2.631213,-1.498151 -5.528123 1.912693,-1.509752 -4.417886 2.178263,-1.507071 -3.715168 2.428562,-1.501634 -3.117525 2.63268,-1.139224 -5.787164 1.995016,-1.026472 -4.928152 2.234506,-0.9609113 -4.373369 2.444769,-0.9171114 -3.834498 2.622076,-8.689075 -8.106531 0.2463946,-8.104009 -7.894811 0.4574554,-7.575229 -7.311304 0.6310958,-7.206363 -6.744939 0.8371808,-6.878189 -6.491508 1.056567,-7.887217 -5.682733 0.4259501,-7.698843 -4.657659 0.5843046,-7.608706 -4.016145 0.7435449,-7.54686 -3.4743 0.8615471,-8.216018 -5.472925 0.485231,-8.042447 -4.275243 0.6060936,-7.933238 -3.504598 0.8028392,-7.862746 -2.857198 0.9647529,-8.554686 -5.494964 0.5629627,-8.428879 -4.392326 0.6812997,-8.327843 -3.710668 0.8087391,-8.236591 -3.150793 0.9055328,-8.91468 -5.699129 0.670531,-8.923049 -4.845029 0.8086448,-8.892391 -4.312301 0.9104808,-8.843792 -3.813647 0.9808065,0.760,DnF
-1.530756 -8.228437 1.299031,-2.096612 -7.942115 1.683826,-2.620722 -7.342744 1.894365,-2.971268 -6.730163 2.076469,-3.255383 -6.345518 2.268578,-2.209421 -5.704584 1.718165,-2.396981 -4.643643 1.960832,-2.466063 -4.004767 2.151451,-2.497778 -3.385787 2.312653,-1.850985 -5.51976 1.727363,-1.930838 -4.309598 2.004505,-1.937441 -3.525724 2.261334,-1.922253 -2.838761 2.471278,-1.503624 -5.57232 1.791431,-1.512144 -4.432716 2.041631,-1.509192 -3.708618 2.282136,-1.503971 -3.089026 2.482727,-1.146841 -5.824077 1.890571,-1.024107 -4.946487 2.103645,-0.9443712 -4.389972 2.300257,-0.8849497 -3.848702 2.476103,-8.690495 -8.101597 0.2628416,-8.109028 -7.896362 0.4764926,-7.584338 -7.318651 0.6490963,-7.214417 -6.758356 0.8543687,-6.885079 -6.501239 1.071178,-7.883052 -5.677846 0.4400638,-7.693648 -4.655184 0.5940731,-7.601264 -4.012799 0.7510024,-7.539207 -3.467699 0.8684813,-8.209206 -5.464778 0.5029144,-8.039902 -4.260801 0.6215106,-7.931672 -3.487385 0.8218464,-7.863512 -2.840383 0.9883669,-8.546111 -5.485289 0.5866537,-8.422659 -4.382627 0.707903,-8.319709 -3.698379 0.8434992,-8.227265 -3.13735 0.9486367,-8.905018 -5.691822 0.6998711,-8.916472 -4.840803 0.8460245,-8.88406 -4.30441 0.9572853,-8.832291 -3.803813 1.033351,0.780,DnF
-1.530756 -8.228437 1.299031,-2.096612 -7.942115 1.683826,-2.620722 -7.342744 1.894365,-2.971268 -6.730163 2.076469,-3.255383 -6.345518 2.268578,-2.209421 -5.704584 1.718165,-2.396981 -4.643643 1.960832,-2.466063 -4.004767 2.151451,-2.497778 -3.385787 2.312653,-1.850985 -5.51976 1.727363,-1.930838 -4.309598 2.004505,-1.937441 -3.525724 2.261334,-1.922253 -2.838761 2.471278,-1.503624 -5.57232 1.791431,-1.512144 -4.432716 2.041631,-1.509192 -3.708618 2.282136,-1.503971 -3.089026 2.482727,-1.146841 -5.824077 1.890571,-1.024107 -4.946487 2.103645,-0.9443712 -4.389972 2.300257,-0.8849497 -3.848702 2.476103,-8.690495 -8.101597 0.2628416,-8.109028 -7.896362 0.4764926,-7.584338 -7.318651 0.6490963,-7.214417 -6.758356 0.8543687,-6.885079 -6.501239 1.071178,-7.883052 -5.677846 0.4400638,-7.693648 -4.655184 0.5940731,-7.601264 -4.012799 0.7510024,-7.539207 -3.467699 0.8684813,-8.209206 -5.464778 0.5029144,-8.039902 -4.260801 0.6215106,-7.931672 -3.487385 0.8218464,-7.863512 -2.840383 0.9883669,-8.546111 -5.485289 0.5866537,-8.422659 -4.382627 0.707903,-8.319709 -3.698379 0.8434992,-8.227265 -3.13735 0.9486367,-8.905018 -5.691822 0.6998711,-8.916472 -4.840803 0.8460245,-8.88406 -4.30441 0.9572853,-8.832291 -3.803813 1.033351,0.800,DnF
-1.530756 -8.228437 1.299031,-2.096612 -7.942115 1.683826,-2.620722 -7.342744 1.894365,-2.971268 -6.730163 2.076469,-3.255383 -6.345518 2.268578,-2.209421 -5.704584 1.718165,-2.396981 -4.643643 1.960832,-2.466063 -4.004767 2.151451,-2.497778 -3.385787 2.312653,-1.850985 -5.51976 1.727363,-1.930838 -4.309598 2.004505,-1.937441 -3.525724 2.261334,-1.922253 -2.838761 2.471278,-1.503624 -5.57232 1.791431,-1.512144 -4.432716 2.041631,-1.509192 -3.708618 2.282136,-1.503971 -3.089026 2.482727,-1.146841 -5.824077 1.890571,-1.024107 -4.946487 2.103645,-0.9443712 -4.389972 2.300257,-0.8849497 -3.848702 2.476103,-8.690495 -8.101597 0.2628416,-8.109028 -7.896362 0.4764926,-7.584338 -7.318651 0.6490963,-7.214417 -6.758356 0.8543687,-6.885079 -6.501239 1.071178,-7.883052 -5.677846 0.4400638,-7.693648 -4.655184 0.5940731,-7.601264 -4.012799 0.7510024,-7.539207 -3.467699 0.8684813,-8.209206 -5.464778 0.5029144,-8.039902 -4.260801 0.6215106,-7.931672 -3.487385 0.8218464,-7.863512 -2.840383 0.9883669,-8.546111 -5.485289 0.5866537,-8.422659 -4.382627 0.707903,-8.319709 -3.698379 0.8434992,-8.227265 -3.13735 0.9486367,-8.905018 -5.691822 0.6998711,-8.916472 -4.840803 0.8460245,-8.88406 -4.30441 0.9572853,-8.832291 -3.803813 1.033351,0.820,DnF
-1.530756 -8.228437 1.299031,-2.096612 -7.942115 1.683826,-2.620722 -7.342744 1.894365,-2.971268 -6.730163 2.076469,-3.255383 -6.345518 2.268578,-2.209421 -5.704584 1.718165,-2.396981 -4.643643 1.960832,-2.466063 -4.004767 2.151451,-2.497778 -3.385787 2.312653,-1.850985 -5.51976 1.727363,-1.930838 -4.309598 2.004505,-1.937441 -3.525724 2.261334,-1.922253 -2.838761 2.471278,-1.503624 -5.57232 1.791431,-1.512144 -4.432716 2.041631,-1.509192 -3.708618 2.282136,-1.503971 -3.089026 2.482727,-1.146841 -5.824077 1.890571,-1.024107 -4.946487 2.103645,-0.9443712 -4.389972 2.300257,-0.8849497 -3.848702 2.476103,-8.690495 -8.101597 0.2628416,-8.109028 -7.896362 0.4764926,-7.584338 -7.318651 0.6490963,-7.214417 -6.758356 0.8543687,-6.885079 -6.501239 1.071178,-7.883052 -5.677846 0.4400638,-7.693648 -4.655184 0.5940731,-7.601264 -4.012799 0.7510024,-7.539207 -3.467699 0.8684813,-8.209206 -5.464778 0.5029144,-8.039902 -4.260801 0.6215106,-7.931672 -3.487385 0.8218464,-7.863512 -2.840383 0.9883669,-8.546111 -5.485289 0.5866537,-8.422659 -4.382627 0.707903,-8.319709 -3.698379 0.8434992,-8.227265 -3.13735 0.9486367,-8.905018 -5.691822 0.6998711,-8.916472 -4.840803 0.8460245,-8.88406 -4.30441 0.9572853,-8.832291 -3.803813 1.033351,0.840,DnF
-1.530756 -8.228437 1.299031,-2.096612 -7.942115 1.683826,-2.620722 -7.342744 1.894365,-2.971268 -6.730163 2.076469,-3.255383 -6.345518 2.268578,-2.209421 -5.704584 1.718165,-2.396981 -4.643643 1.960832,-2.466063 -4.004767 2.151451,-2.497778 -3.385787 2.312653,-1.850985 -5.51976 1.727363,-1.930838 -4.309598 2.004505,-1.937441 -3.525724 2.261334,-1.922253 -2.838761 2.471278,-1.503624 -5.57232 1.791431,-1.512144 -4.432716 2.041631,-1.509192 -3.708618 2.282136,-1.503971 -3.089026 2.482727,-1.146841 -5.824077 1.890571,-1.024107 -4.946487 2.103645,-0.9443712 -4.389972 2.300257,-0.8849497 -3.848702 2.476103,-8.690495 -8.101597 0.2628416,-8.109028 -7.896362 0.4764926,-7.584338 -7.318651 0.6490963,-7.214417 -6.758356 0.8543687,-6.885079 -6.501239 1.071178,-7.883052 -5.677846 0.4400638,-7.693648 -4.655184 0.5940731,-7.601264 -4.012799 0.7510024,-7.539207 -3.467699 0.8684813,-8.209206 -5.464778 0.5029144,-8.039902 -4.260801 0.6215106,-7.931672 -3.487385 0.8218464,-7.863512 -2.840383 0.9883669,-8.546111 -5.485289 0.5866537,-8.422659 -4.382627 0.707903,-8.319709 -3.698379 0.8434992,-8.227265 -3.13735 0.9486367,-8.905018 -5.691822 0.6998711,-8.916472 -4.840803 0.8460245,-8.88406 -4.30441 0.9572853,-8.832291 -3.803813 1.033351,0.860,DnF
-1.530756 -8.228437 1.299031,-2.096612 -7.942115 1.683826,-2.620722 -7.342744 1.894365,-2.971268 -6.730163 2.076469,-3.255383 -6.345518 2.268578,-2.209421 -5.704584 1.718165,-2.396981 -4.643643 1.960832,-2.466063 -4.004767 2.151451,-2.497778 -3.385787 2.312653,-1.850985 -5.51976 1.727363,-1.930838 -4.309598 2.004505,-1.937441 -3.525724 2.261334,-1.922253 -2.838761 2.471278,-1.503624 -5.57232 1.791431,-1.512144 -4.432716 2.041631,-1.509192 -3.708618 2.282136,-1.503971 -3.089026 2.482727,-1.146841 -5.824077 1.890571,-1.024107 -4.946487 2.103645,-0.9443712 -4.389972 2.300257,-0.8849497 -3.848702 2.476103,-8.690495 -8.101597 0.2628416,-8.109028 -7.896362 0.4764926,-7.584338 -7.318651 0.6490963,-7.214417 -6.758356 0.8543687,-6.885079 -6.501239 1.071178,-7.883052 -5.677846 0.4400638,-7.693648 -4.655184 0.5940731,-7.601264 -4.012799 0.7510024,-7.539207 -3.467699 0.8684813,-8.209206 -5.464778 0.5029144,-8.039902 -4.260801 0.6215106,-7.931672 -3.487385 0.8218464,-7.863512 -2.840383 0.9883669,-8.546111 -5.485289 0.5866537,-8.422659 -4.382627 0.707903,-8.319709 -3.698379 0.8434992,-8.227265 -3.13735 0.9486367,-8.905018 -5.691822 0.6998711,-8.916472 -4.840803 0.8460245,-8.88406 -4.30441 0.9572853,-8.832291 -3.803813 1.033351,0.880,DnF
-1.5328 -8.213802 1.340198,-2.093256 -7.942066 1.724151,-2.602696 -7.351063 1.937728,-2.935809 -6.731318 2.12305,-3.217821 -6.332894 2.323222,-2.206315 -5.6742 1.728529,-2.391622 -4.62283 1.956496,-2.459192 -3.99429 2.143526,-2.488312 -3.385847 2.302565,-1.844576 -5.487431 1.737374,-1.921834 -4.281505 1.999054,-1.926458 -3.507705 2.243801,-1.907912 -2.830654 2.445996,-1.497477 -5.541862 1.798296,-1.501574 -4.40772 2.035128,-1.496813 -3.690794 2.263965,-1.488647 -3.073509 2.457058,-1.140374 -5.798606 1.899981,-1.014152 -4.929771 2.101653,-0.932776 -4.373506 2.293321,-0.8726783 -3.82971 2.466064,-8.724201 -8.11412 0.2882001,-8.14034 -7.886117 0.5014182,-7.608963 -7.305742 0.6769007,-7.234323 -6.735633 0.8820252,-6.905884 -6.477142 1.097855,-7.915296 -5.686708 0.4664159,-7.733117 -4.674907 0.6077731,-7.644418 -4.041509 0.7573807,-7.578959 -3.498113 0.8764879,-8.242477 -5.469444 0.5217265,-8.069711 -4.281784 0.6478699,-7.956441 -3.516988 0.8541276,-7.874216 -2.864419 1.028142,-8.575514 -5.485183 0.5981534,-8.457539 -4.38413 0.7197855,-8.356553 -3.698871 0.8586983,-8.254534 -3.134557 0.965017,-8.929297 -5.686002 0.6952496,-8.945083 -4.82534 0.8418064,-8.915729 -4.280629 0.9519178,-8.864589 -3.778262 1.026011,0.900,DnF
-1.5328 -8.213802 1.340198,-2.093256 -7.942066 1.724151,-2.602696 -7.351063 1.937728,-2.935809 -6.731318 2.12305,-3.217821 -6.332894 2.323222,-2.206315 -5.6742 1.728529,-2.391622 -4.62283 1.956496,-2.459192 -3.99429 2.143526,-2.488312 -3.385847 2.302565,-1.844576 -5.487431 1.737374,-1.921834 -4.281505 1.999054,-1.926458 -3.507705 2.243801,-1.907912 -2.830654 2.445996,-1.497477 -5.541862 1.798296,-1.501574 -4.40772 2.035128,-1.496813 -3.690794 2.263965,-1.488647 -3.073509 2.457058,-1.140374 -5.798606 1.899981,-1.014152 -4.929771 2.101653,-0.932776 -4.373506 2.293321,-0.8726783 -3.82971 2.466064,-8.724201 -8.11412 0.2882001,-8.14034 -7.886117 0.5014182,-7.608963 -7.305742 0.6769007,-7.234323 -6.735633 0.8820252,-6.905884 -6.477142 1.097855,-7.915296 -5.686708 0.4664159,-7.733117 -4.674907 0.6077731,-7.644418 -4.041509 0.7573807,-7.578959 -3.498113 0.8764879,-8.242477 -5.469444 0.5217265,-8.069711 -4.281784 0.6478699,-7.956441 -3.516988 0.8541276,-7.874216 -2.864419 1.028142,-8.575514 -5.485183 0.5981534,-8.457539 -4.38413 0.7197855,-8.356553 -3.698871 0.8586983,-8.254534 -3.134557 0.965017,-8.929297 -5.686002 0.6952496,-8.945083 -4.82534 0.8418064,-8.915729 -4.280629 0.9519178,-8.864589 -3.778262 1.026011,0.920,DnF
-1.5328 -8.213802 1.340198,-2.093256 -7.942066 1.724151,-2.602696 -7.351063 1.937728,-2.935809 -6.731318 2.12305,-3.217821 -6.332894 2.323222,-2.206315 -5.6742 1.728529,-2.391622 -4.62283 1.956496,-2.459192 -3.99429 2.143526,-2.488312 -3.385847 2.302565,-1.844576 -5.487431 1.737374,-1.921834 -4.281505 1.999054,-1.926458 -3.507705 2.243801,-1.907912 -2.830654 2.445996,-1.497477 -5.541862 1.798296,-1.501574 -4.40772 2.035128,-1.496813 -3.690794 2.263965,-1.488647 -3.073509 2.457058,-1.140374 -5.798606 1.899981,-1.014152 -4.929771 2.101653,-0.932776 -4.373506 2.293321,-0.8726783 -3.82971 2.466064,-8.724201 -8.11412 0.2882001,-8.14034 -7.886117 0.5014182,-7.608963 -7.305742 0.6769007,-7.234323 -6.735633 0.8820252,-6.905884 -6.477142 1.097855,-7.915296 -5.686708 0.4664159,-7.733117 -4.674907 0.6077731,-7.644418 -4.041509 0.7573807,-7.578959 -3.498113 0.8764879,-8.242477 -5.469444 0.5217265,-8.069711 -4.281784 0.6478699,-7.956441 -3.516988 0.8541276,-7.874216 -2.864419 1.028142,-8.575514 -5.485183 0.5981534,-8.457539 -4.38413 0.7197855,-8.356553 -3.698871 0.8586983,-8.254534 -3.134557 0.965017,-8.929297 -5.686002 0.6952496,-8.945083 -4.82534 0.8418064,-8.915729 -4.280629 0.9519178,-8.864589 -3.778262 1.026011,0.940,DnF
-1.5328 -8.213802 1.340198,-2.093256 -7.942066 1.724151,-2.602696 -7.351063 1.937728,-2.935809 -6.731318 2.12305,-3.217821 -6.332894 2.323222,-2.206315 -5.6742 1.728529,-2.391622 -4.62283 1.956496,-2.459192 -3.99429 2.143526,-2.488312 -3.385847 2.302565,-1.844576 -5.487431 1.737374,-1.921834 -4.281505 1.999054,-1.926458 -3.507705 2.243801,-1.907912 -2.830654 2.445996,-1.497477 -5.541862 1.798296,-1.501574 -4.40772 2.035128,-1.496813 -3.690794 2.263965,-1.488647 -3.073509 2.457058,-1.140374 -5.798606 1.899981,-1.014152 -4.929771 2.101653,-0.932776 -4.373506 2.293321,-0.8726783 -3.82971 2.466064,-8.724201 -8.11412 0.2882001,-8.14034 -7.886117 0.5014182,-7.608963 -7.305742 0.6769007,-7.234323 -6.735633 0.8820252,-6.905884 -6.477142 1.097855,-7.915296 -5.686708 0.4664159,-7.733117 -4.674907 0.6077731,-7.644418 -4.041509 0.7573807,-7.578959 -3.498113 0.8764879,-8.242477 -5.469444 0.5217265,-8.069711 -4.281784 0.6478699,-7.956441 -3.516988 0.8541276,-7.874216 -2.864419 1.028142,-8.575514 -5.485183 0.5981534,-8.457539 -4.38413 0.7197855,-8.356553 -3.698871 0.8586983,-8.254534 -3.134557 0.965017,-8.929297 -5.686002 0.6952496,-8.945083 -4.82534 0.8418064,-8.915729 -4.280629 0.9519178,-8.864589 -3.778262 1.026011,0.960,DnF
-1.553735 -8.179224 1.299179,-2.11534 -7.886898 1.678664,-2.630445 -7.302999 1.889759,-2.965791 -6.690521 2.081445,-3.236063 -6.289677 2.279628,-2.220588 -5.63705 1.670516,-2.404948 -4.58547 1.893856,-2.468798 -3.960331 2.062227,-2.494056 -3.352456 2.201124,-1.861211 -5.462806 1.686051,-1.929957 -4.257371 1.949638,-1.928741 -3.495234 2.198343,-1.906357 -2.814234 2.39677,-1.518209 -5.504186 1.754773,-1.522776 -4.36837 1.986082,-1.519299 -3.664206 2.211785,-1.510656 -3.062345 2.39502,-1.165302 -5.733126 1.858562,-1.034381 -4.842999 2.055273,-0.9469147 -4.283506 2.242355,-0.8796186 -3.733655 2.408074,-8.74435 -8.08053 0.2883874,-8.15645 -7.868478 0.532102,-7.628683 -7.287229 0.7242257,-7.259705 -6.717058 0.9419796,-6.92913 -6.449486 1.171363,-7.934055 -5.656143 0.5024469,-7.750146 -4.630477 0.660448,-7.666563 -3.989837 0.8213631,-7.608536 -3.439872 0.9532306,-8.266325 -5.438776 0.5598291,-8.089412 -4.251605 0.6998933,-7.975583 -3.480864 0.9137768,-7.896735 -2.827203 1.097877,-8.602904 -5.452512 0.6386091,-8.482711 -4.350057 0.7784752,-8.376831 -3.664272 0.9317866,-8.270479 -3.094742 1.047929,-8.961102 -5.650871 0.7479357,-8.97278 -4.792025 0.9045653,-8.94366 -4.256242 1.014497,-8.892036 -3.751009 1.093087,0.980,DnF
-1.553735 -8.179224 1.299179,-2.11534 -7.886898 1.678664,-2.630445 -7.302999 1.889759,-2.965791 -6.690521 2.081445,-3.236063 -6.289677 2.279628,-2.220588 -5.63705 1.670516,-2.404948 -4.58547 1.893856,-2.468798 -3.960331 2.062227,-2.494056 -3.352456 2.201124,-1.861211 -5.462806 1.686051,-1.929957 -4.257371 1.949638,-1.928741 -3.495234 2.198343,-1.906357 -2.814234 2.39677,-1.518209 -5.504186 1.754773,-1.522776 -4.36837 1.986082,-1.519299 -3.664206 2.211785,-1.510656 -3.062345 2.39502,-1.165302 -5.733126 1.858562,-1.034381 -4.842999 2.055273,-0.9469147 -4.283506 2.242355,-0.8796186 -3.733655 2.408074,-8.74435 -8.08053 0.2883874,-8.15645 -7.868478 0.532102,-7.628683 -7.287229 0.7242257,-7.259705 -6.717058 0.9419796,-6.92913 -6.449486 1.171363,-7.934055 -5.656143 0.5024469,-7.750146 -4.630477 0.660448,-7.666563 -3.989837 0.8213631,-7.608536 -3.439872 0.9532306,-8.266325 -5.438776 0.5598291,-8.089412 -4.251605 0.6998933,-7.975583 -3.480864 0.9137768,-7.896735 -2.827203 1.097877,-8.602904 -5.452512 0.6386091,-8.482711 -4.350057 0.7784752,-8.376831 -3.664272 0.9317866,-8.270479 -3.094742 1.047929,-8.961102 -5.650871 0.7479357,-8.97278 -4.792025 0.9045653,-8.94366 -4.256242 1.014497,-8.892036 -3.751009 1.093087,1.000,DnF
-1.553735 -8.179224 1.299179,-2.11534 -7.886898 1.678664,-2.630445 -7.302999 1.889759,-2.965791 -6.690521 2.081445,-3.236063 -6.289677 2.279628,-2.220588 -5.63705 1.670516,-2.404948 -4.58547 1.893856,-2.468798 -3.960331 2.062227,-2.494056 -3.352456 2.201124,-1.861211 -5.462806 1.686051,-1.929957 -4.257371 1.949638,-1.928741 -3.495234 2.198343,-1.906357 -2.814234 2.39677,-1.518209 -5.504186 1.754773,-1.522776 -4.36837 1.986082,-1.519299 -3.664206 2.211785,-1.510656 -3.062345 2.39502,-1.165302 -5.733126 1.858562,-1.034381 -4.842999 2.055273,-0.9469147 -4.283506 2.242355,-0.8796186 -3.733655 2.408074,-8.74435 -8.08053 0.2883874,-8.15645 -7.868478 0.532102,-7.628683 -7.287229 0.7242257,-7.259705 -6.717058 0.9419796,-6.92913 -6.449486 1.171363,-7.934055 -5.656143 0.5024469,-7.750146 -4.630477 0.660448,-7.666563 -3.989837 0.8213631,-7.608536 -3.439872 0.9532306,-8.266325 -5.438776 0.5598291,-8.089412 -4.251605 0.6998933,-7.975583 -3.480864 0.9137768,-7.896735 -2.827203 1.097877,-8.602904 -5.452512 0.6386091,-8.482711 -4.350057 0.7784752,-8.376831 -3.664272 0.9317866,-8.270479 -3.094742 1.047929,-8.961102 -5.650871 0.7479357,-8.97278 -4.792025 0.9045653,-8.94366 -4.256242 1.014497,-8.892036 -3.751009 1.093087,1.020,DnF
-1.551534 -8.157463 1.255,-2.124612 -7.873491 1.634779,-2.648612 -7.298681 1.838916,-2.992395 -6.68411 2.01594,-3.263822 -6.284175 2.198053,-2.236706 -5.642298 1.634356,-2.422664 -4.597185 1.863768,-2.489185 -3.970047 2.038603,-2.516933 -3.363745 2.181272,-1.876301 -5.455777 1.641339,-1.947696 -4.257743 1.906097,-1.954553 -3.491974 2.156612,-1.941465 -2.812367 2.362194,-1.528003 -5.489751 1.705488,-1.537325 -4.362226 1.939301,-1.540751 -3.655954 2.167828,-1.539062 -3.055944 2.357041,-1.168621 -5.71525 1.801013,-1.038403 -4.820199 1.999538,-0.9559622 -4.253835 2.188883,-0.8928022 -3.707173 2.357546,-8.740459 -8.063053 0.2736073,-8.149895 -7.8538 0.4820301,-7.625595 -7.26476 0.647454,-7.260839 -6.698965 0.8472967,-6.93801 -6.449225 1.065418,-7.933661 -5.632848 0.4398507,-7.749308 -4.607519 0.5938535,-7.66219 -3.962619 0.7540947,-7.60168 -3.411245 0.8804621,-8.265662 -5.421627 0.5099317,-8.09192 -4.227934 0.6260197,-7.980616 -3.451928 0.8261477,-7.911914 -2.801672 0.9876128,-8.606075 -5.437292 0.5988474,-8.478904 -4.340847 0.7200256,-8.372909 -3.657788 0.8620546,-8.278669 -3.098778 0.9662974,-8.967381 -5.635826 0.721192,-8.977727 -4.778647 0.866854,-8.946322 -4.235063 0.9757359,-8.894506 -3.722484 1.048392,1.040,DnF
-1.551534 -8.157463 1.255,-2.124612 -7.873491 1.634779,-2.648612 -7.298681 1.838916,-2.992395 -6.68411 2.01594,-3.263822 -6.284175 2.198053,-2.236706 -5.642298 1.634356,-2.422664 -4.597185 1.863768,-2.489185 -3.970047 2.038603,-2.516933 -3.363745 2.181272,-1.876301 -5.455777 1.641339,-1.947696 -4.257743 1.906097,-1.954553 -3.491974 2.156612,-1.941465 -2.812367 2.362194,-1.528003 -5.489751 1.705488,-1.537325 -4.362226 1.939301,-1.540751 -3.655954 2.167828,-1.539062 -3.055944 2.357041,-1.168621 -5.71525 1.801013,-1.038403 -4.820199 1.999538,-0.9559622 -4.253835 2.188883,-0.8928022 -3.707173 2.357546,-8.740459 -8.063053 0.2736073,-8.149895 -7.8538 0.4820301,-7.625595 -7.26476 0.647454,-7.260839 -6.698965 0.8472967,-6.93801 -6.449225 1.065418,-7.933661 -5.632848 0.4398507,-7.749308 -4.607519 0.5938535,-7.66219 -3.962619 0.7540947,-7.60168 -3.411245 0.8804621,-8.265662 -5.421627 0.5099317,-8.09192 -4.227934 0.6260197,-7.980616 -3.451928 0.8261477,-7.911914 -2.801672 0.9876128,-8.606075 -5.437292 0.5988474,-8.478904 -4.340847 0.7200256,-8.372909 -3.657788 0.8620546,-8.278669 -3.098778 0.9662974,-8.967381 -5.635826 0.721192,-8.977727 -4.778647 0.866854,-8.946322 -4.235063 0.9757359,-8.894506 -3.722484 1.048392,1.060,DnF
-1.551534 -8.157463 1.255,-2.124612 -7.873491 1.634779,-2.648612 -7.298681 1.838916,-2.992395 -6.68411 2.01594,-3.263822 -6.284175 2.198053,-2.236706 -5.642298 1.634356,-2.422664 -4.597185 1.863768,-2.489185 -3.970047 2.038603,-2.516933 -3.363745 2.181272,-1.876301 -5.455777 1.641339,-1.947696 -4.257743 1.906097,-1.954553 -3.491974 2.156612,-1.941465 -2.812367 2.362194,-1.528003 -5.489751 1.705488,-1.537325 -4.362226 1.939301,-1.540751 -3.655954 2.167828,-1.539062 -3.055944 2.357041,-1.168621 -5.71525 1.801013,-1.038403 -4.820199 1.999538,-0.9559622 -4.253835 2.188883,-0.8928022 -3.707173 2.357546,-8.740459 -8.063053 0.2736073,-8.149895 -7.8538 0.4820301,-7.625595 -7.26476 0.647454,-7.260839 -6.698965 0.8472967,-6.93801 -6.449225 1.065418,-7.933661 -5.632848 0.4398507,-7.749308 -4.607519 0.5938535,-7.66219 -3.962619 0.7540947,-7.60168 -3.411245 0.8804621,-8.265662 -5.421627 0.5099317,-8.09192 -4.227934 0.6260197,-7.980616 -3.451928 0.8261477,-7.911914 -2.801672 0.9876128,-8.606075 -5.437292 0.5988474,-8.478904 -4.340847 0.7200256,-8.372909 -3.657788 0.8620546,-8.278669 -3.098778 0.9662974,-8.967381 -5.635826 0.721192,-8.977727 -4.778647 0.866854,-8.946322 -4.235063 0.9757359,-8.894506 -3.722484 1.048392,1.080,DnF
-1.551534 -8.157463 1.255,-2.124612 -7.873491 1.634779,-2.648612 -7.298681 1.838916,-2.992395 -6.68411 2.01594,-3.263822 -6.284175 2.198053,-2.236706 -5.642298 1.634356,-2.422664 -4.597185 1.863768,-2.489185 -3.970047 2.038603,-2.516933 -3.363745 2.181272,-1.876301 -5.455777 1.641339,-1.947696 -4.257743 1.906097,-1.954553 -3.491974 2.156612,-1.941465 -2.812367 2.362194,-1.528003 -5.489751 1.705488,-1.537325 -4.362226 1.939301,-1.540751 -3.655954 2.167828,-1.539062 -3.055944 2.357041,-1.168621 -5.71525 1.801013,-1.038403 -4.820199 1.999538,-0.9559622 -4.253835 2.188883,-0.8928022 -3.707173 2.357546,-8.740459 -8.063053 0.2736073,-8.149895 -7.8538 0.4820301,-7.625595 -7.26476 0.647454,-7.260839 -6.698965 0.8472967,-6.93801 -6.449225 1.065418,-7.933661 -5.632848 0.4398507,-7.749308 -4.607519 0.5938535,-7.66219 -3.962619 0.7540947,-7.60168 -3.411245 0.8804621,-8.265662 -5.421627 0.5099317,-8.09192 -4.227934 0.6260197,-7.980616 -3.451928 0.8261477,-7.911914 -2.801672 0.9876128,-8.606075 -5.437292 0.5988474,-8.478904 -4.340847 0.7200256,-8.372909 -3.657788 0.8620546,-8.278669 -3.098778 0.9662974,-8.967381 -5.635826 0.721192,-8.977727 -4.778647 0.866854,-8.946322 -4.235063 0.9757359,-8.894506 -3.722484 1.048392,1.100,DnF
-1.557458 -8.159182 1.241829,-2.133374 -7.89472 1.637829,-2.662575 -7.326884 1.844425,-3.01545 -6.718151 2.022395,-3.282045 -6.304359 2.200291,-2.253968 -5.651056 1.618016,-2.447379 -4.600288 1.848161,-2.515746 -3.975507 2.025365,-2.54566 -3.380214 2.170676,-1.893392 -5.461298 1.618152,-1.967557 -4.259206 1.879025,-1.97431 -3.496099 2.126247,-1.960074 -2.828224 2.32442,-1.546223 -5.495491 1.678581,-1.556588 -4.360857 1.913633,-1.559984 -3.651275 2.141306,-1.55983 -3.050031 2.323996,-1.185297 -5.724372 1.77177,-1.054882 -4.831863 1.971433,-0.9699297 -4.268714 2.155477,-0.9038496 -3.722353 2.317987,-8.760047 -8.069395 0.2937854,-8.174125 -7.867828 0.5044181,-7.649136 -7.277775 0.6762453,-7.281501 -6.713674 0.8851607,-6.950493 -6.459137 1.110763,-7.940519 -5.640525 0.4775734,-7.75383 -4.611764 0.6332475,-7.66281 -3.968055 0.7894158,-7.600527 -3.413677 0.908217,-8.270546 -5.426924 0.5530187,-8.101556 -4.225704 0.6721545,-7.993555 -3.450741 0.8734111,-7.927493 -2.799518 1.038215,-8.610534 -5.446212 0.6502312,-8.485328 -4.337448 0.7759114,-8.379638 -3.650849 0.9271522,-8.287975 -3.086929 1.0416,-8.972864 -5.649651 0.7756413,-8.980266 -4.777303 0.9343793,-8.947623 -4.22443 1.060128,-8.899361 -3.705213 1.144796,1.120,DnF
-1.557458 -8.159182 1.241829,-2.133374 -7.89472 1.637829,-2.662575 -7.326884 1.844425,-3.01545 -6.718151 2.022395,-3.282045 -6.304359 2.200291,-2.253968 -5.651056 1.618016,-2.447379 -4.600288 1.848161,-2.515746 -3.975507 2.025365,-2.54566 -3.380214 2.170676,-1.893392 -5.461298 1.618152,-1.967557 -4.259206 1.879025,-1.97431 -3.496099 2.126247,-1.960074 -2.828224 2.32442,-1.546223 -5.495491 1.678581,-1.556588 -4.360857 1.913633,-1.559984 -3.651275 2.141306,-1.55983 -3.050031 2.323996,-1.185297 -5.724372 1.77177,-1.054882 -4.831863 1.971433,-0.9699297 -4.268714 2.155477,-0.9038496 -3.722353 2.317987,-8.760047 -8.069395 0.2937854,-8.174125 -7.867828 0.5044181,-7.649136 -7.277775 0.6762453,-7.281501 -6.713674 0.8851607,-6.950493 -6.459137 1.110763,-7.940519 -5.640525 0.4775734,-7.75383 -4.611764 0.6332475,-7.66281 -3.968055 0.7894158,-7.600527 -3.413677 0.908217,-8.270546 -5.426924 0.5530187,-8.101556 -4.225704 0.6721545,-7.993555 -3.450741 0.8734111,-7.927493 -2.799518 1.038215,-8.610534 -5.446212 0.6502312,-8.485328 -4.337448 0.7759114,-8.379638 -3.650849 0.9271522,-8.287975 -3.086929 1.0416,-8.972864 -5.649651 0.7756413,-8.980266 -4.777303 0.9343793,-8.947623 -4.22443 1.060128,-8.899361 -3.705213 1.144796,1.140,DnF
-1.557458 -8.159182 1.241829,-2.133374 -7.89472 1.637829,-2.662575 -7.326884 1.844425,-3.01545 -6.718151 2.022395,-3.282045 -6.304359 2.200291,-2.253968 -5.651056 1.618016,-2.447379 -4.600288 1.848161,-2.515746 -3.975507 2.025365,-2.54566 -3.380214 2.170676,-1.893392 -5.461298 1.618152,-1.967557 -4.259206 1.879025,-1.97431 -3.496099 2.126247,-1.960074 -2.828224 2.32442,-1.546223 -5.495491 1.678581,-1.556588 -4.360857 1.913633,-1.559984 -3.651275 2.141306,-1.55983 -3.050031 2.323996,-1.185297 -5.724372 1.77177,-1.054882 -4.831863 1.971433,-0.9699297 -4.268714 2.155477,-0.9038496 -3.722353 2.317987,-8.760047 -8.069395 0.2937854,-8.174125 -7.867828 0.5044181,-7.649136 -7.277775 0.6762453,-7.281501 -6.713674 0.8851607,-6.950493 -6.459137 1.110763,-7.940519 -5.640525 0.4775734,-7.75383 -4.611764 0.6332475,-7.66281 -3.968055 0.7894158,-7.600527 -3.413677 0.908217,-8.270546 -5.426924 0.5530187,-8.101556 -4.225704 0.6721545,-7.993555 -3.450741 0.8734111,-7.927493 -2.799518 1.038215,-8.610534 -5.446212 0.6502312,-8.485328 -4.337448 0.7759114,-8.379638 -3.650849 0.9271522,-8.287975 -3.086929 1.0416,-8.972864 -5.649651 0.7756413,-8.980266 -4.777303 0.9343793,-8.947623 -4.22443 1.060128,-8.899361 -3.705213 1.144796,1.160,DnF
-1.559646 -8.227863 1.222513,-2.150064 -7.955283 1.601629,-2.686203 -7.384948 1.793276,-3.042146 -6.778162 1.95548,-3.310867 -6.380054 2.112956,-2.272658 -5.732458 1.572319,-2.463464 -4.69429 1.790746,-2.538185 -4.069641 1.961818,-2.576721 -3.47596 2.105742,-1.913813 -5.534216 1.570871,-1.990899 -4.347969 1.813868,-2.006669 -3.586305 2.056765,-2.005118 -2.919402 2.251271,-1.567149 -5.562432 1.630105,-1.583692 -4.449315 1.848776,-1.595409 -3.734475 2.076848,-1.608591 -3.126689 2.254295,-1.206237 -5.787001 1.720639,-1.082145 -4.918043 1.907455,-1.001565 -4.375651 2.078281,-0.9442205 -3.850645 2.236019,-8.776251 -8.098318 0.3284271,-8.187967 -7.874418 0.553142,-7.669 -7.289588 0.7254008,-7.307002 -6.725635 0.9316862,-6.983023 -6.467987 1.151778,-7.969795 -5.654155 0.488649,-7.778469 -4.6379 0.629462,-7.682866 -4.007327 0.7822983,-7.613575 -3.466819 0.905058,-8.298746 -5.440078 0.548986,-8.127346 -4.248472 0.6563412,-8.014354 -3.485086 0.8552715,-7.940444 -2.834203 1.021934,-8.630816 -5.453374 0.6359622,-8.514349 -4.361026 0.744408,-8.413343 -3.681234 0.884918,-8.318871 -3.121278 0.9941235,-8.983335 -5.651605 0.7502926,-8.997474 -4.791566 0.8979182,-8.967593 -4.245145 1.012523,-8.920079 -3.736966 1.089163,1.180,DnF
-1.559646 -8.227863 1.222513,-2.150064 -7.955283 1.601629,-2.686203 -7.384948 1.793276,-3.042146 -6.778162 1.95548,-3.310867 -6.380054 2.112956,-2.272658 -5.732458 1.572319,-2.463464 -4.69429 1.790746,-2.538185 -4.069641 1.961818,-2.576721 -3.47596 2.105742,-1.913813 -5.534216 1.570871,-1.990899 -4.347969 1.813868,-2.006669 -3.586305 2.056765,-2.005118 -2.919402 2.251271,-1.567149 -5.562432 1.630105,-1.583692 -4.449315 1.848776,-1.595409 -3.734475 2.076848,-1.608591 -3.126689 2.254295,-1.206237 -5.787001 1.720639,-1.082145 -4.918043 1.907455,-1.001565 -4.375651 2.078281,-0.9442205 -3.850645 2.236019,-8.776251 -8.098318 0.3284271,-8.187967 -7.874418 0.553142,-7.669 -7.289588 0.7254008,-7.307002 -6.725635 0.9316862,-6.983023 -6.467987 1.151778,-7.969795 -5.654155 0.488649,-7.778469 -4.6379 0.629462,-7.682866 -4.007327 0.7822983,-7.613575 -3.466819 0.905058,-8.298746 -5.440078 0.548986,-8.127346 -4.248472 0.6563412,-8.014354 -3.485086 0.8552715,-7.940444 -2.834203 1.021934,-8.630816 -5.453374 0.6359622,-8.514349 -4.361026 0.744408,-8.413343 -3.681234 0.884918,-8.318871 -3.121278 0.9941235,-8.983335 -5.651605 0.7502926,-8.997474 -4.791566 0.8979182,-8.967593 -4.245145 1.012523,-8.920079 -3.736966 1.089163,1.200,DnF
-1.559646 -8.227863 1.222513,-2.150064 -7.955283 1.601629,-2.686203 -7.384948 1.793276,-3.042146 -6.778162 1.95548,-3.310867 -6.380054 2.112956,-2.272658 -5.732458 1.572319,-2.463464 -4.69429 1.790746,-2.538185 -4.069641 1.961818,-2.576721 -3.47596 2.105742,-1.913813 -5.534216 1.570871,-1.990899 -4.347969 1.813868,-2.006669 -3.586305 2.056765,-2.005118 -2.919402 2.251271,-1.567149 -5.562432 1.630105,-1.583692 -4.449315 1.848776,-1.595409 -3.734475 2.076848,-1.608591 -3.126689 2.254295,-1.206237 -5.787001 1.720639,-1.082145 -4.918043 1.907455,-1.001565 -4.375651 2.078281,-0.9442205 -3.850645 2.236019,-8.776251 -8.098318 0.3284271,-8.187967 -7.874418 0.553142,-7.669 -7.289588 0.7254008,-7.307002 -6.725635 0.9316862,-6.983023 -6.467987 1.151778,-7.969795 -5.654155 0.488649,-7.778469 -4.6379 0.629462,-7.682866 -4.007327 0.7822983,-7.613575 -3.466819 0.905058,-8.298746 -5.440078 0.548986,-8.127346 -4.248472 0.6563412,-8.014354 -3.485086 0.8552715,-7.940444 -2.834203 1.021934,-8.630816 -5.453374 0.6359622,-8.514349 -4.361026 0.744408,-8.413343 -3.681234 0.884918,-8.318871 -3.121278 0.9941235,-8.983335 -5.651605 0.7502926,-8.997474 -4.791566 0.8979182,-8.967593 -4.245145 1.012523,-8.920079 -3.736966 1.089163,1.220,DnF
-1.559646 -8.227863 1.222513,-2.150064 -7.955283 1.601629,-2.686203 -7.384948 1.793276,-3.042146 -6.778162 1.95548,-3.310867 -6.380054 2.112956,-2.272658 -5.732458 1.572319,-2.463464 -4.69429 1.790746,-2.538185 -4.069641 1.961818,-2.576721 -3.47596 2.105742,-1.913813 -5.534216 1.570871,-1.990899 -4.347969 1.813868,-2.006669 -3.586305 2.056765,-2.005118 -2.919402 2.251271,-1.567149 -5.562432 1.630105,-1.583692 -4.449315 1.848776,-1.595409 -3.734475 2.076848,-1.608591 -3.126689 2.254295,-1.206237 -5.787001 1.720639,-1.082145 -4.918043 1.907455,-1.001565 -4.375651 2.078281,-0.9442205 -3.850645 2.236019,-8.776251 -8.098318 0.3284271,-8.187967 -7.874418 0.553142,-7.669 -7.289588 0.7254008,-7.307002 -6.725635 0.9316862,-6.983023 -6.467987 1.151778,-7.969795 -5.654155 0.488649,-7.778469 -4.6379 0.629462,-7.682866 -4.007327 0.7822983,-7.613575 -3.466819 0.905058,-8.298746 -5.440078 0.548986,-8.127346 -4.248472 0.6563412,-8.014354 -3.485086 0.8552715,-7.940444 -2.834203 1.021934,-8.630816 -5.453374 0.6359622,-8.514349 -4.361026 0.744408,-8.413343 -3.681234 0.884918,-8.318871 -3.121278 0.9941235,-8.983335 -5.651605 0.7502926,-8.997474 -4.791566 0.8979182,-8.967593 -4.245145 1.012523,-8.920079 -3.736966 1.089163,1.240,DnF
-1.551299 -8.237001 1.231118,-2.134416 -7.983926 1.64825,-2.668073 -7.409482 1.883241,-3.022243 -6.802015 2.082582,-3.310497 -6.397391 2.290059,-2.273568 -5.759158 1.691628,-2.468927 -4.73303 1.941606,-2.540401 -4.113388 2.137047,-2.577755 -3.515615 2.297513,-1.907058 -5.556697 1.684567,-1.995185 -4.370992 1.968256,-2.011816 -3.608404 2.223721,-2.007066 -2.939974 2.436379,-1.556557 -5.595057 1.732255,-1.574173 -4.475585 1.986845,-1.577514 -3.765274 2.231818,-1.57858 -3.157929 2.438404,-1.194612 -5.836206 1.815795,-1.075564 -4.970628 2.027794,-0.9976759 -4.418195 2.226575,-0.9408984 -3.882131 2.405864,-8.794934 -8.111303 0.3327163,-8.207672 -7.886293 0.5425235,-7.694722 -7.303928 0.7121292,-7.335284 -6.73315 0.9167051,-7.011493 -6.475088 1.132112,-7.989818 -5.672061 0.4958735,-7.791574 -4.66804 0.6388194,-7.698086 -4.037567 0.7934086,-7.6329 -3.493371 0.9147295,-8.320325 -5.451602 0.5568496,-8.147427 -4.259956 0.6601716,-8.036635 -3.496342 0.8542747,-7.966942 -2.849988 1.014002,-8.65386 -5.462074 0.6412858,-8.535333 -4.363336 0.7397698,-8.438207 -3.686556 0.8690667,-8.350405 -3.127933 0.9671842,-9.006464 -5.657154 0.7544637,-9.017901 -4.795198 0.8910034,-8.986347 -4.250957 1.000485,-8.937371 -3.743124 1.068745,1.260,DnF
-1.551299 -8.237001 1.231118,-2.134416 -7.983926 1.64825,-2.668073 -7.409482 1.883241,-3.022243 -6.802015 2.082582,-3.310497 -6.397391 2.290059,-2.273568 -5.759158 1.691628,-2.468927 -4.73303 1.941606,-2.540401 -4.113388 2.137047,-2.577755 -3.515615 2.297513,-1.907058 -5.556697 1.684567,-1.995185 -4.370992 1.968256,-2.011816 -3.608404 2.223721,-2.007066 -2.939974 2.436379,-1.556557 -5.595057 1.732255,-1.574173 -4.475585 1.986845,-1.577514 -3.765274 2.231818,-1.57858 -3.157929 2.438404,-1.194612 -5.836206 1.815795,-1.075564 -4.970628 2.027794,-0.9976759 -4.418195 2.226575,-0.9408984 -3.882131 2.405864,-8.794934 -8.111303 0.3327163,-8.207672 -7.886293 0.5425235,-7.694722 -7.303928 0.7121292,-7.335284 -6.73315 0.9167051,-7.011493 -6.475088 1.132112,-7.989818 -5.672061 0.4958735,-7.791574 -4.66804 0.6388194,-7.698086 -4.037567 0.7934086,-7.6329 -3.493371 0.9147295,-8.320325 -5.451602 0.5568496,-8.147427 -4.259956 0.6601716,-8.036635 -3.496342 0.8542747,-7.966942 -2.849988 1.014002,-8.65386 -5.462074 0.6412858,-8.535333 -4.363336 0.7397698,-8.438207 -3.686556 0.8690667,-8.350405 -3.127933 0.9671842,-9.006464 -5.657154 0.7544637,-9.017901 -4.795198 0.8910034,-8.986347 -4.250957 1.000485,-8.937371 -3.743124 1.068745,1.280,DnF
-1.551299 -8.237001 1.231118,-2.134416 -7.983926 1.64825,-2.668073 -7.409482 1.883241,-3.022243 -6.802015 2.082582,-3.310497 -6.397391 2.290059,-2.273568 -5.759158 1.691628,-2.468927 -4.73303 1.941606,-2.540401 -4.113388 2.137047,-2.577755 -3.515615 2.297513,-1.907058 -5.556697 1.684567,-1.995185 -4.370992 1.968256,-2.011816 -3.608404 2.223721,-2.007066 -2.939974 2.436379,-1.556557 -5.595057 1.732255,-1.574173 -4.475585 1.986845,-1.577514 -3.765274 2.231818,-1.57858 -3.157929 2.438404,-1.194612 -5.836206 1.815795,-1.075564 -4.970628 2.027794,-0.9976759 -4.418195 2.226575,-0.9408984 -3.882131 2.405864,-8.794934 -8.111303 0.3327163,-8.207672 -7.886293 0.5425235,-7.694722 -7.303928 0.7121292,-7.335284 -6.73315 0.9167051,-7.011493 -6.475088 1.132112,-7.989818 -5.672061 0.4958735,-7.791574 -4.66804 0.6388194,-7.698086 -4.037567 0.7934086,-7.6329 -3.493371 0.9147295,-8.320325 -5.451602 0.5568496,-8.147427 -4.259956 0.6601716,-8.036635 -3.496342 0.8542747,-7.966942 -2.849988 1.014002,-8.65386 -5.462074 0.6412858,-8.535333 -4.363336 0.7397698,-8.438207 -3.686556 0.8690667,-8.350405 -3.127933 0.9671842,-9.006464 -5.657154 0.7544637,-9.017901 -4.795198 0.8910034,-8.986347 -4.250957 1.000485,-8.937371 -3.743124 1.068745,1.300,DnF
-1.54366 -8.247278 1.293265,-2.122869 -7.993608 1.690111,-2.649761 -7.41069 1.904908,-2.997187 -6.803913 2.086702,-3.290561 -6.417865 2.277878,-2.254886 -5.740331 1.692321,-2.444894 -4.734174 1.924067,-2.512391 -4.125021 2.119655,-2.545445 -3.532872 2.2813,-1.885717 -5.538758 1.694322,-1.966563 -4.371597 1.95444,-1.977858 -3.629987 2.199083,-1.967606 -2.983909 2.402673,-1.534731 -5.588701 1.748699,-1.541168 -4.487983 1.989975,-1.53594 -3.797864 2.232649,-1.528533 -3.204177 2.433728,-1.176229 -5.847747 1.843342,-1.048364 -5.010091 2.053995,-0.9675493 -4.478363 2.249007,-0.9072347 -3.955526 2.423042,-8.794934 -8.111303 0.3327163,-8.207672 -7.886293 0.5425235,-7.694722 -7.303928 0.7121292,-7.335284 -6.73315 0.9167051,-7.011493 -6.475088 1.132112,-7.989818 -5.672061 0.4958735,-7.791574 -4.66804 0.6388194,-7.698086 -4.037567 0.7934086,-7.6329 -3.493371 0.9147295,-8.320325 -5.451602 0.5568496,-8.147427 -4.259956 0.6601716,-8.036635 -3.496342 0.8542747,-7.966942 -2.849988 1.014002,-8.65386 -5.462074 0.6412858,-8.535333 -4.363336 0.7397698,-8.438207 -3.686556 0.8690667,-8.350405 -3.127933 0.9671842,-9.006464 -5.657154 0.7544637,-9.017901 -4.795198 0.8910034,-8.986347 -4.250957 1.000485,-8.937371 -3.743124 1.068745,1.320,DnF
-1.54366 -8.247278 1.293265,-2.122869 -7.993608 1.690111,-2.649761 -7.41069 1.904908,-2.997187 -6.803913 2.086702,-3.290561 -6.417865 2.277878,-2.254886 -5.740331 1.692321,-2.444894 -4.734174 1.924067,-2.512391 -4.125021 2.119655,-2.545445 -3.532872 2.2813,-1.885717 -5.538758 1.694322,-1.966563 -4.371597 1.95444,-1.977858 -3.629987 2.199083,-1.967606 -2.983909 2.402673,-1.534731 -5.588701 1.748699,-1.541168 -4.487983 1.989975,-1.53594 -3.797864 2.232649,-1.528533 -3.204177 2.433728,-1.176229 -5.847747 1.843342,-1.048364 -5.010091 2.053995,-0.9675493 -4.478363 2.249007,-0.9072347 -3.955526 2.423042,-8.850821 -8.108418 0.3682253,-8.275385 -7.874521 0.6051308,-7.763109 -7.317601 0.8023908,-7.398411 -6.760228 1.033409,-7.071848 -6.478094 1.276129,-8.040799 -5.674959 0.5995973,-7.836653 -4.669393 0.7687972,-7.746832 -4.042198 0.936792,-7.684681 -3.492909 1.06653,-8.372459 -5.446434 0.6677219,-8.189168 -4.25805 0.8030654,-8.078834 -3.50817 1.013736,-8.010375 -2.867998 1.187525,-8.709641 -5.464302 0.7618891,-8.581626 -4.36107 0.8923867,-8.480505 -3.679138 1.057489,-8.388252 -3.106199 1.184788,-9.071088 -5.675523 0.8810568,-9.071942 -4.807138 1.048604,-9.035896 -4.259566 1.186327,-8.981327 -3.745109 1.281135,1.340,DnF
-1.54366 -8.247278 1.293265,-2.122869 -7.993608 1.690111,-2.649761 -7.41069 1.904908,-2.997187 -6.803913 2.086702,-3.290561 -6.417865 2.277878,-2.254886 -5.740331 1.692321,-2.444894 -4.734174 1.924067,-2.512391 -4.125021 2.119655,-2.545445 -3.532872 2.2813,-1.885717 -5.538758 1.694322,-1.966563 -4.371597 1.95444,-1.977858 -3.629987 2.199083,-1.967606 -2.983909 2.402673,-1.534731 -5.588701 1.748699,-1.541168 -4.487983 1.989975,-1.53594 -3.797864 2.232649,-1.528533 -3.204177 2.433728,-1.176229 -5.847747 1.843342,-1.048364 -5.010091 2.053995,-0.9675493 -4.478363 2.249007,-0.9072347 -3.955526 2.423042,-8.850821 -8.108418 0.3682253,-8.275385 -7.874521 0.6051308,-7.763109 -7.317601 0.8023908,-7.398411 -6.760228 1.033409,-7.071848 -6.478094 1.276129,-8.040799 -5.674959 0.5995973,-7.836653 -4.669393 0.7687972,-7.746832 -4.042198 0.936792,-7.684681 -3.492909 1.06653,-8.372459 -5.446434 0.6677219,-8.189168 -4.25805 0.8030654,-8.078834 -3.50817 1.013736,-8.010375 -2.867998 1.187525,-8.709641 -5.464302 0.7618891,-8.581626 -4.36107 0.8923867,-8.480505 -3.679138 1.057489,-8.388252 -3.106199 1.184788,-9.071088 -5.675523 0.8810568,-9.071942 -4.807138 1.048604,-9.035896 -4.259566 1.186327,-8.981327 -3.745109 1.281135,1.360,DnF
-1.54366 -8.247278 1.293265,-2.122869 -7.993608 1.690111,-2.649761 -7.41069 1.904908,-2.997187 -6.803913 2.086702,-3.290561 -6.417865 2.277878,-2.254886 -5.740331 1.692321,-2.444894 -4.734174 1.924067,-2.512391 -4.125021 2.119655,-2.545445 -3.532872 2.2813,-1.885717 -5.538758 1.694322,-1.966563 -4.371597 1.95444,-1.977858 -3.629987 2.199083,-1.967606 -2.983909 2.402673,-1.534731 -5.588701 1.748699,-1.541168 -4.487983 1.989975,-1.53594 -3.797864 2.232649,-1.528533 -3.204177 2.433728,-1.176229 -5.847747 1.843342,-1.048364 -5.010091 2.053995,-0.9675493 -4.478363 2.249007,-0.9072347 -3.955526 2.423042,-8.850821 -8.108418 0.3682253,-8.275385 -7.874521 0.6051308,-7.763109 -7.317601 0.8023908,-7.398411 -6.760228 1.033409,-7.071848 -6.478094 1.276129,-8.040799 -5.674959 0.5995973,-7.836653 -4.669393 0.7687972,-7.746832 -4.042198 0.936792,-7.684681 -3.492909 1.06653,-8.372459 -5.446434 0.6677219,-8.189168 -4.25805 0.8030654,-8.078834 -3.50817 1.013736,-8.010375 -2.867998 1.187525,-8.709641 -5.464302 0.7618891,-8.581626 -4.36107 0.8923867,-8.480505 -3.679138 1.057489,-8.388252 -3.106199 1.184788,-9.071088 -5.675523 0.8810568,-9.071942 -4.807138 1.048604,-9.035896 -4.259566 1.186327,-8.981327 -3.745109 1.281135,1.380,DnF
-1.508533 -8.277611 1.253647,-2.090056 -8.013374 1.644242,-2.625684 -7.433374 1.859611,-2.97626 -6.825746 2.041942,-3.26274 -6.435037 2.236129,-2.232058 -5.792018 1.661551,-2.420374 -4.779848 1.898374,-2.487292 -4.175254 2.090091,-2.519636 -3.587081 2.253448,-1.865814 -5.585279 1.672292,-1.955334 -4.422409 1.936728,-1.967602 -3.668864 2.187365,-1.959821 -3.007855 2.396972,-1.512417 -5.627899 1.738118,-1.537158 -4.525824 1.981037,-1.541641 -3.824875 2.224899,-1.544517 -3.229001 2.429913,-1.148191 -5.877615 1.841639,-1.030208 -5.027149 2.053727,-0.9550095 -4.483288 2.253326,-0.9027224 -3.954298 2.438687,-8.898087 -8.099958 0.4184928,-8.323026 -7.85992 0.7039062,-7.812583 -7.312507 0.9334608,-7.45904 -6.752993 1.185193,-7.145236 -6.444522 1.443732,-8.109637 -5.663463 0.7456136,-7.901203 -4.652751 0.9622583,-7.815757 -4.022413 1.15231,-7.756608 -3.455683 1.289341,-8.448208 -5.430072 0.8085468,-8.265183 -4.240976 0.9938949,-8.155066 -3.49514 1.227071,-8.081717 -2.847689 1.414638,-8.790596 -5.454356 0.8991207,-8.667851 -4.345727 1.074676,-8.5694 -3.66254 1.268362,-8.470533 -3.080382 1.415111,-9.159401 -5.674905 1.016288,-9.163636 -4.809829 1.221065,-9.129189 -4.257547 1.375681,-9.067899 -3.739336 1.485889,1.400,DnF
-1.508533 -8.277611 1.253647,-2.090056 -8.013374 1.644242,-2.625684 -7.433374 1.859611,-2.97626 -6.825746 2.041942,-3.26274 -6.435037 2.236129,-2.232058 -5.792018 1.661551,-2.420374 -4.779848 1.898374,-2.487292 -4.175254 2.090091,-2.519636 -3.587081 2.253448,-1.865814 -5.585279 1.672292,-1.955334 -4.422409 1.936728,-1.967602 -3.668864 2.187365,-1.959821 -3.007855 2.396972,-1.512417 -5.627899 1.738118,-1.537158 -4.525824 1.981037,-1.541641 -3.824875 2.224899,-1.544517 -3.229001 2.429913,-1.148191 -5.877615 1.841639,-1.030208 -5.027149 2.053727,-0.9550095 -4.483288 2.253326,-0.9027224 -3.954298 2.438687,-8.898087 -8.099958 0.4184928,-8.323026 -7.85992 0.7039062,-7.812583 -7.312507 0.9334608,-7.45904 -6.752993 1.185193,-7.145236 -6.444522 1.443732,-8.109637 -5.663463 0.7456136,-7.901203 -4.652751 0.9622583,-7.815757 -4.022413 1.15231,-7.756608 -3.455683 1.289341,-8.448208 -5.430072 0.8085468,-8.265183 -4.240976 0.9938949,-8.155066 -3.49514 1.227071,-8.081717 -2.847689 1.414638,-8.790596 -5.454356 0.8991207,-8.667851 -4.345727 1.074676,-8.5694 -3.66254 1.268362,-8.470533 -3.080382 1.415111,-9.159401 -5.674905 1.016288,-9.163636 -4.809829 1.221065,-9.129189 -4.257547 1.375681,-9.067899 -3.739336 1.485889,1.420,DnF
-1.508533 -8.277611 1.253647,-2.090056 -8.013374 1.644242,-2.625684 -7.433374 1.859611,-2.97626 -6.825746 2.041942,-3.26274 -6.435037 2.236129,-2.232058 -5.792018 1.661551,-2.420374 -4.779848 1.898374,-2.487292 -4.175254 2.090091,-2.519636 -3.587081 2.253448,-1.865814 -5.585279 1.672292,-1.955334 -4.422409 1.936728,-1.967602 -3.668864 2.187365,-1.959821 -3.007855 2.396972,-1.512417 -5.627899 1.738118,-1.537158 -4.525824 1.981037,-1.541641 -3.824875 2.224899,-1.544517 -3.229001 2.429913,-1.148191 -5.877615 1.841639,-1.030208 -5.027149 2.053727,-0.9550095 -4.483288 2.253326,-0.9027224 -3.954298 2.438687,-8.898087 -8.099958 0.4184928,-8.323026 -7.85992 0.7039062,-7.812583 -7.312507 0.9334608,-7.45904 -6.752993 1.185193,-7.145236 -6.444522 1.443732,-8.109637 -5.663463 0.7456136,-7.901203 -4.652751 0.9622583,-7.815757 -4.022413 1.15231,-7.756608 -3.455683 1.289341,-8.448208 -5.430072 0.8085468,-8.265183 -4.240976 0.9938949,-8.155066 -3.49514 1.227071,-8.081717 -2.847689 1.414638,-8.790596 -5.454356 0.8991207,-8.667851 -4.345727 1.074676,-8.5694 -3.66254 1.268362,-8.470533 -3.080382 1.415111,-9.159401 -5.674905 1.016288,-9.163636 -4.809829 1.221065,-9.129189 -4.257547 1.375681,-9.067899 -3.739336 1.485889,1.440,DnF
-1.503709 -8.297918 1.251123,-2.072769 -8.032314 1.647058,-2.596751 -7.468738 1.869733,-2.93944 -6.857211 2.063444,-3.22722 -6.452861 2.271212,-2.220154 -5.805227 1.644264,-2.411679 -4.801132 1.874479,-2.478034 -4.206729 2.062116,-2.510224 -3.622939 2.218486,-1.856729 -5.602697 1.649572,-1.942875 -4.446491 1.897443,-1.951222 -3.714082 2.14151,-1.93697 -3.066627 2.345064,-1.507125 -5.650123 1.710911,-1.522252 -4.552398 1.935766,-1.519026 -3.875424 2.177496,-1.515133 -3.287105 2.377346,-1.14443 -5.903139 1.81307,-1.026723 -5.070043 2.008082,-0.9473686 -4.543014 2.203273,-0.8895483 -4.020875 2.378294,-8.992601 -8.111181 0.367177,-8.420623 -7.901872 0.67309,-7.906456 -7.361313 0.9138175,-7.552331 -6.791992 1.176859,-7.258574 -6.431671 1.433255,-8.191875 -5.697385 0.6765009,-7.986903 -4.673353 0.8916687,-7.903927 -4.034671 1.079905,-7.844071 -3.464334 1.210656,-8.5253 -5.455943 0.7333405,-8.343971 -4.26099 0.912825,-8.241828 -3.502499 1.136894,-8.174921 -2.840415 1.319579,-8.863983 -5.476794 0.8273327,-8.741465 -4.359907 0.9941551,-8.648693 -3.654265 1.19737,-8.556897 -3.049516 1.351375,-9.23031 -5.700281 0.9471274,-9.238321 -4.820587 1.148966,-9.211155 -4.248529 1.314765,-9.158477 -3.71453 1.437957,1.460,DnF
-1.503709 -8.297918 1.251123,-2.072769 -8.032314 1.647058,-2.596751 -7.468738 1.869733,-2.93944 -6.857211 2.063444,-3.22722 -6.452861 2.271212,-2.220154 -5.805227 1.644264,-2.411679 -4.801132 1.874479,-2.478034 -4.206729 2.062116,-2.510224 -3.622939 2.218486,-1.856729 -5.602697 1.649572,-1.942875 -4.446491 1.897443,-1.951222 -3.714082 2.14151,-1.93697 -3.066627 2.345064,-1.507125 -5.650123 1.710911,-1.522252 -4.552398 1.935766,-1.519026 -3.875424 2.177496,-1.515133 -3.287105 2.377346,-1.14443 -5.903139 1.81307,-1.026723 -5.070043 2.008082,-0.9473686 -4.543014 2.203273,-0.8895483 -4.020875 2.378294,-8.992601 -8.111181 0.367177,-8.420623 -7.901872 0.67309,-7.906456 -7.361313 0.9138175,-7.552331 -6.791992 1.176859,-7.258574 -6.431671 1.433255,-8.191875 -5.697385 0.6765009,-7.986903 -4.673353 0.8916687,-7.903927 -4.034671 1.079905,-7.844071 -3.464334 1.210656,-8.5253 -5.455943 0.7333405,-8.343971 -4.26099 0.912825,-8.241828 -3.502499 1.136894,-8.174921 -2.840415 1.319579,-8.863983 -5.476794 0.8273327,-8.741465 -4.359907 0.9941551,-8.648693 -3.654265 1.19737,-8.556897 -3.049516 1.351375,-9.23031 -5.700281 0.9471274,-9.238321 -4.820587 1.148966,-9.211155 -4.248529 1.314765,-9.158477 -3.71453 1.437957,1.480,DnF
-1.503709 -8.297918 1.251123,-2.072769 -8.032314 1.647058,-2.596751 -7.468738 1.869733,-2.93944 -6.857211 2.063444,-3.22722 -6.452861 2.271212,-2.220154 -5.805227 1.644264,-2.411679 -4.801132 1.874479,-2.478034 -4.206729 2.062116,-2.510224 -3.622939 2.218486,-1.856729 -5.602697 1.649572,-1.942875 -4.446491 1.897443,-1.951222 -3.714082 2.14151,-1.93697 -3.066627 2.345064,-1.507125 -5.650123 1.710911,-1.522252 -4.552398 1.935766,-1.519026 -3.875424 2.177496,-1.515133 -3.287105 2.377346,-1.14443 -5.903139 1.81307,-1.026723 -5.070043 2.008082,-0.9473686 -4.543014 2.203273,-0.8895483 -4.020875 2.378294,-8.992601 -8.111181 0.367177,-8.420623 -7.901872 0.67309,-7.906456 -7.361313 0.9138175,-7.552331 -6.791992 1.176859,-7.258574 -6.431671 1.433255,-8.191875 -5.697385 0.6765009,-7.986903 -4.673353 0.8916687,-7.903927 -4.034671 1.079905,-7.844071 -3.464334 1.210656,-8.5253 -5.455943 0.7333405,-8.343971 -4.26099 0.912825,-8.241828 -3.502499 1.136894,-8.174921 -2.840415 1.319579,-8.863983 -5.476794 0.8273327,-8.741465 -4.359907 0.9941551,-8.648693 -3.654265 1.19737,-8.556897 -3.049516 1.351375,-9.23031 -5.700281 0.9471274,-9.238321 -4.820587 1.148966,-9.211155 -4.248529 1.314765,-9.158477 -3.71453 1.437957,1.500,DnF
-1.503709 -8.297918 1.251123,-2.072769 -8.032314 1.647058,-2.596751 -7.468738 1.869733,-2.93944 -6.857211 2.063444,-3.22722 -6.452861 2.271212,-2.220154 -5.805227 1.644264,-2.411679 -4.801132 1.874479,-2.478034 -4.206729 2.062116,-2.510224 -3.622939 2.218486,-1.856729 -5.602697 1.649572,-1.942875 -4.446491 1.897443,-1.951222 -3.714082 2.14151,-1.93697 -3.066627 2.345064,-1.507125 -5.650123 1.710911,-1.522252 -4.552398 1.935766,-1.519026 -3.875424 2.177496,-1.515133 -3.287105 2.377346,-1.14443 -5.903139 1.81307,-1.026723 -5.070043 2.008082,-0.9473686 -4.543014 2.203273,-0.8895483 -4.020875 2.378294,-8.992601 -8.111181 0.367177,-8.420623 -7.901872 0.67309,-7.906456 -7.361313 0.9138175,-7.552331 -6.791992 1.176859,-7.258574 -6.431671 1.433255,-8.191875 -5.697385 0.6765009,-7.986903 -4.673353 0.8916687,-7.903927 -4.034671 1.079905,-7.844071 -3.464334 1.210656,-8.5253 -5.455943 0.7333405,-8.343971 -4.26099 0.912825,-8.241828 -3.502499 1.136894,-8.174921 -2.840415 1.319579,-8.863983 -5.476794 0.8273327,-8.741465 -4.359907 0.9941551,-8.648693 -3.654265 1.19737,-8.556897 -3.049516 1.351375,-9.23031 -5.700281 0.9471274,-9.238321 -4.820587 1.148966,-9.211155 -4.248529 1.314765,-9.158477 -3.71453 1.437957,1.520,DnF
-1.503709 -8.297918 1.251123,-2.072769 -8.032314 1.647058,-2.596751 -7.468738 1.869733,-2.93944 -6.857211 2.063444,-3.22722 -6.452861 2.271212,-2.220154 -5.805227 1.644264,-2.411679 -4.801132 1.874479,-2.478034 -4.206729 2.062116,-2.510224 -3.622939 2.218486,-1.856729 -5.602697 1.649572,-1.942875 -4.446491 1.897443,-1.951222 -3.714082 2.14151,-1.93697 -3.066627 2.345064,-1.507125 -5.650123 1.710911,-1.522252 -4.552398 1.935766,-1.519026 -3.875424 2.177496,-1.515133 -3.287105 2.377346,-1.14443 -5.903139 1.81307,-1.026723 -5.070043 2.008082,-0.9473686 -4.543014 2.203273,-0.8895483 -4.020875 2.378294,-8.992601 -8.111181 0.367177,-8.420623 -7.901872 0.67309,-7.906456 -7.361313 0.9138175,-7.552331 -6.791992 1.176859,-7.258574 -6.431671 1.433255,-8.191875 -5.697385 0.6765009,-7.986903 -4.673353 0.8916687,-7.903927 -4.034671 1.079905,-7.844071 -3.464334 1.210656,-8.5253 -5.455943 0.7333405,-8.343971 -4.26099 0.912825,-8.241828 -3.502499 1.136894,-8.174921 -2.840415 1.319579,-8.863983 -5.476794 0.8273327,-8.741465 -4.359907 0.9941551,-8.648693 -3.654265 1.19737,-8.556897 -3.049516 1.351375,-9.23031 -5.700281 0.9471274,-9.238321 -4.820587 1.148966,-9.211155 -4.248529 1.314765,-9.158477 -3.71453 1.437957,1.540,DnF
-1.503709 -8.297918 1.251123,-2.072769 -8.032314 1.647058,-2.596751 -7.468738 1.869733,-2.93944 -6.857211 2.063444,-3.22722 -6.452861 2.271212,-2.220154 -5.805227 1.644264,-2.411679 -4.801132 1.874479,-2.478034 -4.206729 2.062116,-2.510224 -3.622939 2.218486,-1.856729 -5.602697 1.649572,-1.942875 -4.446491 1.897443,-1.951222 -3.714082 2.14151,-1.93697 -3.066627 2.345064,-1.507125 -5.650123 1.710911,-1.522252 -4.552398 1.935766,-1.519026 -3.875424 2.177496,-1.515133 -3.287105 2.377346,-1.14443 -5.903139 1.81307,-1.026723 -5.070043 2.008082,-0.9473686 -4.543014 2.203273,-0.8895483 -4.020875 2.378294,-8.992601 -8.111181 0.367177,-8.420623 -7.901872 0.67309,-7.906456 -7.361313 0.9138175,-7.552331 -6.791992 1.176859,-7.258574 -6.431671 1.433255,-8.191875 -5.697385 0.6765009,-7.986903 -4.673353 0.8916687,-7.903927 -4.034671 1.079905,-7.844071 -3.464334 1.210656,-8.5253 -5.455943 0.7333405,-8.343971 -4.26099 0.912825,-8.241828 -3.502499 1.136894,-8.174921 -2.840415 1.319579,-8.863983 -5.476794 0.8273327,-8.741465 -4.359907 0.9941551,-8.648693 -3.654265 1.19737,-8.556897 -3.049516 1.351375,-9.23031 -5.700281 0.9471274,-9.238321 -4.820587 1.148966,-9.211155 -4.248529 1.314765,-9.158477 -3.71453 1.437957,1.560,DnF
-1.49582 -8.326702 1.219696,-2.068386 -8.077244 1.60099,-2.602961 -7.509883 1.800884,-2.945118 -6.888746 1.975782,-3.226738 -6.486358 2.157928,-2.220477 -5.840381 1.560447,-2.401213 -4.845753 1.763784,-2.46367 -4.260496 1.934646,-2.493701 -3.692551 2.080104,-1.85822 -5.633461 1.55602,-1.93774 -4.494785 1.772892,-1.941355 -3.781598 2.004215,-1.925035 -3.140491 2.199694,-1.51078 -5.671667 1.610577,-1.531042 -4.612863 1.803234,-1.532957 -3.967123 2.028847,-1.533844 -3.403976 2.211221,-1.150601 -5.906154 1.700407,-1.037554 -5.100635 1.873057,-0.9632874 -4.602317 2.046401,-0.9128885 -4.107296 2.204414,-9.087934 -8.129026 0.3468875,-8.51869 -7.938497 0.7126663,-7.998528 -7.40076 0.9833859,-7.645855 -6.821908 1.263545,-7.348159 -6.434571 1.53068,-8.279847 -5.742858 0.7317342,-8.086488 -4.698896 0.9624246,-8.009361 -4.05824 1.156929,-7.950167 -3.486209 1.288317,-8.614693 -5.488605 0.765601,-8.439636 -4.270807 0.9837526,-8.345576 -3.502653 1.228769,-8.281597 -2.834064 1.43154,-8.954379 -5.500639 0.8368723,-8.834878 -4.359159 1.035127,-8.748282 -3.632053 1.255816,-8.656876 -3.00795 1.430225,-9.322995 -5.719648 0.9339759,-9.328886 -4.821559 1.144856,-9.300325 -4.25524 1.316182,-9.246347 -3.734013 1.453642,1.580,DnF
-1.49582 -8.326702 1.219696,-2.068386 -8.077244 1.60099,-2.602961 -7.509883 1.800884,-2.945118 -6.888746 1.975782,-3.226738 -6.486358 2.157928,-2.220477 -5.840381 1.560447,-2.401213 -4.845753 1.763784,-2.46367 -4.260496 1.934646,-2.493701 -3.692551 2.080104,-1.85822 -5.633461 1.55602,-1.93774 -4.494785 1.772892,-1.941355 -3.781598 2.004215,-1.925035 -3.140491 2.199694,-1.51078 -5.671667 1.610577,-1.531042 -4.612863 1.803234,-1.532957 -3.967123 2.028847,-1.533844 -3.403976 2.211221,-1.150601 -5.906154 1.700407,-1.037554 -5.100635 1.873057,-0.9632874 -4.602317 2.046401,-0.9128885 -4.107296 2.204414,-9.087934 -8.129026 0.3468875,-8.51869 -7.938497 0.7126663,-7.998528 -7.40076 0.9833859,-7.645855 -6.821908 1.263545,-7.348159 -6.434571 1.53068,-8.279847 -5.742858 0.7317342,-8.086488 -4.698896 0.9624246,-8.009361 -4.05824 1.156929,-7.950167 -3.486209 1.288317,-8.614693 -5.488605 0.765601,-8.439636 -4.270807 0.9837526,-8.345576 -3.502653 1.228769,-8.281597 -2.834064 1.43154,-8.954379 -5.500639 0.8368723,-8.834878 -4.359159 1.035127,-8.748282 -3.632053 1.255816,-8.656876 -3.00795 1.430225,-9.322995 -5.719648 0.9339759,-9.328886 -4.821559 1.144856,-9.300325 -4.25524 1.316182,-9.246347 -3.734013 1.453642,1.600,DnF
