TiagoOliveira98/HandTracking/DataLogging/JointData/Logs(1635248384)_Tiago.csv
WRIST,THUMB_CMC,THUMB_MCP,THUMB_IP,THUMB_TIP,INDEX_FINGER_MCP,INDEX_FINGER_PIP,INDEX_FINGER_DIP,INDEX_FINGER_TIP,MIDDLE_FINGER_MCP,MIDDLE_FINGER_PIP,MIDDLE_FINGER_DIP,MIDDLE_FINGER_TIP,RING_FINGER_MCP,RING_FINGER_PIP,RING_FINGER_DIP,RING_FINGER_TIP,PINKY_MCP,PINKY_PIP,PINKY_DIP,PINKY_TIP,WRIST2,THUMB_CMC2,THUMB_MCP2,THUMB_IP2,THUMB_TIP2,INDEX_FINGER_MCP2,INDEX_FINGER_PIP2,INDEX_FINGER_DIP2,INDEX_FINGER_TIP2,MIDDLE_FINGER_MCP2,MIDDLE_FINGER_PIP2,MIDDLE_FINGER_DIP2,MIDDLE_FINGER_TIP2,RING_FINGER_MCP2,RING_FINGER_PIP2,RING_FINGER_DIP2,RING_FINGER_TIP2,PINKY_MCP2,PINKY_PIP2,PINKY_DIP2,PINKY_TIP2,Timestamp,Event
10 0 0,10 7.47 0,10 7.47 0,10 7.47 0,10 7.47 0,10 7.47 0,10 7.47 0,10 7.47 0,10 7.47 0,10 7.47 0,10 7.47 0,10 7.47 0,10 7.47 0,10 7.47 0,10 7.47 0,10 7.47 0,10 7.47 0,10 7.47 0,10 7.47 0,10 7.47 0,10 7.47 0,10 0 0,10 7.47 0,10 7.47 0,10 7.47 0,10 7.47 0,10 7.47 0,10 7.47 0,10 7.47 0,10 7.47 0,10 7.47 0,10 7.47 0,10 7.47 0,10 7.47 0,10 7.47 0,10 7.47 0,10 7.47 0,10 7.47 0,10 7.47 0,10 7.47 0,10 7.47 0,10 7.47 0,0.020,Dnf
2 0 -8.095517,2 0 -8.095517,2 0 -8.095517,2 0 -8.095517,2 0 -8.095517,2 0 -8.095517,2 0 -8.095517,2 0 -8.095517,2 0 -8.095517,2 0 -8.095517,2 0 -8.095517,2 0 -8.095517,2 0 -8.095517,2 0 -8.095517,2 0 -8.095517,2 0 -8.095517,2 0 -8.095517,2 0 -8.095517,2 0 -8.095517,2 0 -8.095517,2 0 -8.095517,2 0 -8.686614,2 0 -8.686614,2 0 -8.686614,2 0 -8.686614,2 0 -8.686614,2 0 -8.686614,2 0 -8.686614,2 0 -8.686614,2 0 -8.686614,2 0 -8.686614,2 0 -8.686614,2 0 -8.686614,2 0 -8.686614,2 0 -8.686614,2 0 -8.686614,2 0 -8.686614,2 0 -8.686614,2 0 -8.686614,2 0 -8.686614,2 0 -8.686614,2 0 -8.686614,0.040,DnF
2 0 -8.095517,2 0 -8.095517,2 0 -8.095517,2 0 -8.095517,2 0 -8.095517,2 0 -8.095517,2 0 -8.095517,2 0 -8.095517,2 0 -8.095517,2 0 -8.095517,2 0 -8.095517,2 0 -8.095517,2 0 -8.095517,2 0 -8.095517,2 0 -8.095517,2 0 -8.095517,2 0 -8.095517,2 0 -8.095517,2 0 -8.095517,2 0 -8.095517,2 0 -8.095517,2 0 -8.686614,2 0 -8.686614,2 0 -8.686614,2 0 -8.686614,2 0 -8.686614,2 0 -8.686614,2 0 -8.686614,2 0 -8.686614,2 0 -8.686614,2 0 -8.686614,2 0 -8.686614,2 0 -8.686614,2 0 -8.686614,2 0 -8.686614,2 0 -8.686614,2 0 -8.686614,2 0 -8.686614,2 0 -8.686614,2 0 -8.686614,2 0 -8.686614,2 0 -8.686614,0.060,DnF
-3.511953 -5.694404 1.368553,-4.120028 -5.438394 1.447249,-4.656062 -4.871871 1.504506,-5.066118 -4.411536 1.610447,-5.455965 -4.244179 1.749244,-4.428141 -3.297758 1.355278,-4.699304 -2.35041 1.496686,-4.903503 -1.789164 1.650818,-5.10429 -1.285122 1.793915,-4.13632 -3.068679 1.532853,-4.359228 -1.962133 1.755446,-4.551468 -1.290885 1.99452,-4.725293 -0.685288 2.196012,-3.812422 -3.079009 1.756686,-3.993761 -2.032678 2.006157,-4.175097 -1.406806 2.233702,-4.351956 -0.8533692 2.411055,-3.460913 -3.297624 1.99829,-3.46882 -2.456293 2.265263,-3.546743 -1.921855 2.470533,-3.644833 -1.41862 2.637921,-9.316571 -7.109884 0.3202397,-8.781866 -6.81421 0.5581616,-8.302719 -6.278678 0.7334315,-7.969383 -5.752595 0.9420832,-7.668175 -5.504741 1.15523,-8.632799 -4.747824 0.470183,-8.493089 -3.757555 0.6076586,-8.431684 -3.137131 0.7665337,-8.382368 -2.607873 0.8735413,-8.941051 -4.570201 0.4948293,-8.829221 -3.42776 0.6086192,-8.75513 -2.69869 0.7980934,-8.691406 -2.075674 0.957746,-9.245188 -4.608863 0.5463156,-9.166309 -3.541445 0.6474753,-9.107437 -2.883709 0.7581092,-9.041182 -2.317707 0.8335121,-9.558318 -4.829152 0.632329,-9.601255 -4.014961 0.7263744,-9.601675 -3.503875 0.7941129,-9.578301 -3.012725 0.8357382,0.080,DnF
-3.511953 -5.694404 1.368553,-4.120028 -5.438394 1.447249,-4.656062 -4.871871 1.504506,-5.066118 -4.411536 1.610447,-5.455965 -4.244179 1.749244,-4.428141 -3.297758 1.355278,-4.699304 -2.35041 1.496686,-4.903503 -1.789164 1.650818,-5.10429 -1.285122 1.793915,-4.13632 -3.068679 1.532853,-4.359228 -1.962133 1.755446,-4.551468 -1.290885 1.99452,-4.725293 -0.685288 2.196012,-3.812422 -3.079009 1.756686,-3.993761 -2.032678 2.006157,-4.175097 -1.406806 2.233702,-4.351956 -0.8533692 2.411055,-3.460913 -3.297624 1.99829,-3.46882 -2.456293 2.265263,-3.546743 -1.921855 2.470533,-3.644833 -1.41862 2.637921,-9.316571 -7.109884 0.3202397,-8.781866 -6.81421 0.5581616,-8.302719 -6.278678 0.7334315,-7.969383 -5.752595 0.9420832,-7.668175 -5.504741 1.15523,-8.632799 -4.747824 0.470183,-8.493089 -3.757555 0.6076586,-8.431684 -3.137131 0.7665337,-8.382368 -2.607873 0.8735413,-8.941051 -4.570201 0.4948293,-8.829221 -3.42776 0.6086192,-8.75513 -2.69869 0.7980934,-8.691406 -2.075674 0.957746,-9.245188 -4.608863 0.5463156,-9.166309 -3.541445 0.6474753,-9.107437 -2.883709 0.7581092,-9.041182 -2.317707 0.8335121,-9.558318 -4.829152 0.632329,-9.601255 -4.014961 0.7263744,-9.601675 -3.503875 0.7941129,-9.578301 -3.012725 0.8357382,0.100,DnF
-3.511953 -5.694404 1.368553,-4.120028 -5.438394 1.447249,-4.656062 -4.871871 1.504506,-5.066118 -4.411536 1.610447,-5.455965 -4.244179 1.749244,-4.428141 -3.297758 1.355278,-4.699304 -2.35041 1.496686,-4.903503 -1.789164 1.650818,-5.10429 -1.285122 1.793915,-4.13632 -3.068679 1.532853,-4.359228 -1.962133 1.755446,-4.551468 -1.290885 1.99452,-4.725293 -0.685288 2.196012,-3.812422 -3.079009 1.756686,-3.993761 -2.032678 2.006157,-4.175097 -1.406806 2.233702,-4.351956 -0.8533692 2.411055,-3.460913 -3.297624 1.99829,-3.46882 -2.456293 2.265263,-3.546743 -1.921855 2.470533,-3.644833 -1.41862 2.637921,-9.316571 -7.109884 0.3202397,-8.781866 -6.81421 0.5581616,-8.302719 -6.278678 0.7334315,-7.969383 -5.752595 0.9420832,-7.668175 -5.504741 1.15523,-8.632799 -4.747824 0.470183,-8.493089 -3.757555 0.6076586,-8.431684 -3.137131 0.7665337,-8.382368 -2.607873 0.8735413,-8.941051 -4.570201 0.4948293,-8.829221 -3.42776 0.6086192,-8.75513 -2.69869 0.7980934,-8.691406 -2.075674 0.957746,-9.245188 -4.608863 0.5463156,-9.166309 -3.541445 0.6474753,-9.107437 -2.883709 0.7581092,-9.041182 -2.317707 0.8335121,-9.558318 -4.829152 0.632329,-9.601255 -4.014961 0.7263744,-9.601675 -3.503875 0.7941129,-9.578301 -3.012725 0.8357382,0.120,DnF
-3.382906 -5.671152 1.289644,-3.992028 -5.397546 1.384097,-4.528627 -4.836639 1.453578,-4.938281 -4.368427 1.561439,-5.31565 -4.180242 1.692122,-4.262864 -3.29069 1.287261,-4.536877 -2.350045 1.421246,-4.742111 -1.791654 1.574539,-4.939745 -1.294758 1.719334,-3.970688 -3.059334 1.439878,-4.203638 -1.945592 1.670665,-4.398083 -1.268276 1.90434,-4.574055 -0.6646361 2.099179,-3.654599 -3.056713 1.640388,-3.828377 -2.00685 1.882608,-3.995897 -1.378152 2.092213,-4.158262 -0.8222651 2.257918,-3.317464 -3.253917 1.855618,-3.330919 -2.414993 2.111826,-3.402411 -1.877324 2.298309,-3.49261 -1.369239 2.45763,-9.283566 -7.102863 0.3323448,-8.750125 -6.797304 0.621753,-8.272451 -6.274768 0.8265314,-7.938521 -5.747215 1.052623,-7.645136 -5.471796 1.279342,-8.608228 -4.738424 0.5551947,-8.465336 -3.745079 0.715263,-8.399697 -3.123744 0.8832713,-8.348178 -2.588226 0.9959003,-8.917695 -4.562349 0.5583298,-8.803616 -3.417776 0.6891621,-8.728425 -2.693853 0.889888,-8.666716 -2.074318 1.056279,-9.221518 -4.603481 0.5881564,-9.142037 -3.537015 0.7054403,-9.081099 -2.88138 0.8343288,-9.012697 -2.318484 0.920468,-9.533111 -4.828498 0.6572385,-9.582937 -4.024093 0.7640154,-9.588518 -3.514909 0.8504619,-9.566504 -3.023456 0.9052649,0.140,DnF
-3.382906 -5.671152 1.289644,-3.992028 -5.397546 1.384097,-4.528627 -4.836639 1.453578,-4.938281 -4.368427 1.561439,-5.31565 -4.180242 1.692122,-4.262864 -3.29069 1.287261,-4.536877 -2.350045 1.421246,-4.742111 -1.791654 1.574539,-4.939745 -1.294758 1.719334,-3.970688 -3.059334 1.439878,-4.203638 -1.945592 1.670665,-4.398083 -1.268276 1.90434,-4.574055 -0.6646361 2.099179,-3.654599 -3.056713 1.640388,-3.828377 -2.00685 1.882608,-3.995897 -1.378152 2.092213,-4.158262 -0.8222651 2.257918,-3.317464 -3.253917 1.855618,-3.330919 -2.414993 2.111826,-3.402411 -1.877324 2.298309,-3.49261 -1.369239 2.45763,-9.283566 -7.102863 0.3323448,-8.750125 -6.797304 0.621753,-8.272451 -6.274768 0.8265314,-7.938521 -5.747215 1.052623,-7.645136 -5.471796 1.279342,-8.608228 -4.738424 0.5551947,-8.465336 -3.745079 0.715263,-8.399697 -3.123744 0.8832713,-8.348178 -2.588226 0.9959003,-8.917695 -4.562349 0.5583298,-8.803616 -3.417776 0.6891621,-8.728425 -2.693853 0.889888,-8.666716 -2.074318 1.056279,-9.221518 -4.603481 0.5881564,-9.142037 -3.537015 0.7054403,-9.081099 -2.88138 0.8343288,-9.012697 -2.318484 0.920468,-9.533111 -4.828498 0.6572385,-9.582937 -4.024093 0.7640154,-9.588518 -3.514909 0.8504619,-9.566504 -3.023456 0.9052649,0.160,DnF
-3.382906 -5.671152 1.289644,-3.992028 -5.397546 1.384097,-4.528627 -4.836639 1.453578,-4.938281 -4.368427 1.561439,-5.31565 -4.180242 1.692122,-4.262864 -3.29069 1.287261,-4.536877 -2.350045 1.421246,-4.742111 -1.791654 1.574539,-4.939745 -1.294758 1.719334,-3.970688 -3.059334 1.439878,-4.203638 -1.945592 1.670665,-4.398083 -1.268276 1.90434,-4.574055 -0.6646361 2.099179,-3.654599 -3.056713 1.640388,-3.828377 -2.00685 1.882608,-3.995897 -1.378152 2.092213,-4.158262 -0.8222651 2.257918,-3.317464 -3.253917 1.855618,-3.330919 -2.414993 2.111826,-3.402411 -1.877324 2.298309,-3.49261 -1.369239 2.45763,-9.283566 -7.102863 0.3323448,-8.750125 -6.797304 0.621753,-8.272451 -6.274768 0.8265314,-7.938521 -5.747215 1.052623,-7.645136 -5.471796 1.279342,-8.608228 -4.738424 0.5551947,-8.465336 -3.745079 0.715263,-8.399697 -3.123744 0.8832713,-8.348178 -2.588226 0.9959003,-8.917695 -4.562349 0.5583298,-8.803616 -3.417776 0.6891621,-8.728425 -2.693853 0.889888,-8.666716 -2.074318 1.056279,-9.221518 -4.603481 0.5881564,-9.142037 -3.537015 0.7054403,-9.081099 -2.88138 0.8343288,-9.012697 -2.318484 0.920468,-9.533111 -4.828498 0.6572385,-9.582937 -4.024093 0.7640154,-9.588518 -3.514909 0.8504619,-9.566504 -3.023456 0.9052649,0.180,DnF
-3.289822 -5.619928 1.161179,-3.891212 -5.379076 1.362156,-4.428329 -4.797079 1.460451,-4.838235 -4.288412 1.578312,-5.232006 -4.119038 1.714381,-4.146185 -3.290052 1.271631,-4.416967 -2.329328 1.434752,-4.613316 -1.751122 1.599936,-4.802628 -1.222497 1.751261,-3.845997 -3.041942 1.357933,-4.082554 -1.914611 1.622942,-4.268251 -1.217434 1.880649,-4.442863 -0.5848336 2.085924,-3.530779 -3.025093 1.498819,-3.704344 -1.965389 1.77074,-3.864452 -1.321998 1.99502,-4.022686 -0.7291923 2.168617,-3.199246 -3.207222 1.663754,-3.214094 -2.371259 1.942571,-3.278077 -1.839028 2.146119,-3.363234 -1.30971 2.318716,-9.283566 -7.102863 0.3323448,-8.750125 -6.797304 0.621753,-8.272451 -6.274768 0.8265314,-7.938521 -5.747215 1.052623,-7.645136 -5.471796 1.279342,-8.608228 -4.738424 0.5551947,-8.465336 -3.745079 0.715263,-8.399697 -3.123744 0.8832713,-8.348178 -2.588226 0.9959003,-8.917695 -4.562349 0.5583298,-8.803616 -3.417776 0.6891621,-8.728425 -2.693853 0.889888,-8.666716 -2.074318 1.056279,-9.221518 -4.603481 0.5881564,-9.142037 -3.537015 0.7054403,-9.081099 -2.88138 0.8343288,-9.012697 -2.318484 0.920468,-9.533111 -4.828498 0.6572385,-9.582937 -4.024093 0.7640154,-9.588518 -3.514909 0.8504619,-9.566504 -3.023456 0.9052649,0.200,DnF
-3.289822 -5.619928 1.161179,-3.891212 -5.379076 1.362156,-4.428329 -4.797079 1.460451,-4.838235 -4.288412 1.578312,-5.232006 -4.119038 1.714381,-4.146185 -3.290052 1.271631,-4.416967 -2.329328 1.434752,-4.613316 -1.751122 1.599936,-4.802628 -1.222497 1.751261,-3.845997 -3.041942 1.357933,-4.082554 -1.914611 1.622942,-4.268251 -1.217434 1.880649,-4.442863 -0.5848336 2.085924,-3.530779 -3.025093 1.498819,-3.704344 -1.965389 1.77074,-3.864452 -1.321998 1.99502,-4.022686 -0.7291923 2.168617,-3.199246 -3.207222 1.663754,-3.214094 -2.371259 1.942571,-3.278077 -1.839028 2.146119,-3.363234 -1.30971 2.318716,-9.262855 -7.105117 0.3481118,-8.726384 -6.798954 0.6090237,-8.24987 -6.270622 0.7968049,-7.913144 -5.741701 1.011364,-7.612057 -5.472671 1.2259,-8.58316 -4.738802 0.552275,-8.445286 -3.747105 0.7067367,-8.378874 -3.12379 0.8701596,-8.322737 -2.589684 0.9767317,-8.890567 -4.560383 0.5676131,-8.778653 -3.417216 0.7002635,-8.703403 -2.690056 0.9024953,-8.636961 -2.06967 1.067577,-9.194751 -4.601402 0.607023,-9.116042 -3.534462 0.7274119,-9.05255 -2.872882 0.8546282,-8.978364 -2.310544 0.9380706,-9.506682 -4.824214 0.6810244,-9.557326 -4.011489 0.7978944,-9.558142 -3.486887 0.89047,-9.530349 -2.983037 0.9455045,0.220,DnF
-3.289822 -5.619928 1.161179,-3.891212 -5.379076 1.362156,-4.428329 -4.797079 1.460451,-4.838235 -4.288412 1.578312,-5.232006 -4.119038 1.714381,-4.146185 -3.290052 1.271631,-4.416967 -2.329328 1.434752,-4.613316 -1.751122 1.599936,-4.802628 -1.222497 1.751261,-3.845997 -3.041942 1.357933,-4.082554 -1.914611 1.622942,-4.268251 -1.217434 1.880649,-4.442863 -0.5848336 2.085924,-3.530779 -3.025093 1.498819,-3.704344 -1.965389 1.77074,-3.864452 -1.321998 1.99502,-4.022686 -0.7291923 2.168617,-3.199246 -3.207222 1.663754,-3.214094 -2.371259 1.942571,-3.278077 -1.839028 2.146119,-3.363234 -1.30971 2.318716,-9.262855 -7.105117 0.3481118,-8.726384 -6.798954 0.6090237,-8.24987 -6.270622 0.7968049,-7.913144 -5.741701 1.011364,-7.612057 -5.472671 1.2259,-8.58316 -4.738802 0.552275,-8.445286 -3.747105 0.7067367,-8.378874 -3.12379 0.8701596,-8.322737 -2.589684 0.9767317,-8.890567 -4.560383 0.5676131,-8.778653 -3.417216 0.7002635,-8.703403 -2.690056 0.9024953,-8.636961 -2.06967 1.067577,-9.194751 -4.601402 0.607023,-9.116042 -3.534462 0.7274119,-9.05255 -2.872882 0.8546282,-8.978364 -2.310544 0.9380706,-9.506682 -4.824214 0.6810244,-9.557326 -4.011489 0.7978944,-9.558142 -3.486887 0.89047,-9.530349 -2.983037 0.9455045,0.240,DnF
-3.289822 -5.619928 1.161179,-3.891212 -5.379076 1.362156,-4.428329 -4.797079 1.460451,-4.838235 -4.288412 1.578312,-5.232006 -4.119038 1.714381,-4.146185 -3.290052 1.271631,-4.416967 -2.329328 1.434752,-4.613316 -1.751122 1.599936,-4.802628 -1.222497 1.751261,-3.845997 -3.041942 1.357933,-4.082554 -1.914611 1.622942,-4.268251 -1.217434 1.880649,-4.442863 -0.5848336 2.085924,-3.530779 -3.025093 1.498819,-3.704344 -1.965389 1.77074,-3.864452 -1.321998 1.99502,-4.022686 -0.7291923 2.168617,-3.199246 -3.207222 1.663754,-3.214094 -2.371259 1.942571,-3.278077 -1.839028 2.146119,-3.363234 -1.30971 2.318716,-9.262855 -7.105117 0.3481118,-8.726384 -6.798954 0.6090237,-8.24987 -6.270622 0.7968049,-7.913144 -5.741701 1.011364,-7.612057 -5.472671 1.2259,-8.58316 -4.738802 0.552275,-8.445286 -3.747105 0.7067367,-8.378874 -3.12379 0.8701596,-8.322737 -2.589684 0.9767317,-8.890567 -4.560383 0.5676131,-8.778653 -3.417216 0.7002635,-8.703403 -2.690056 0.9024953,-8.636961 -2.06967 1.067577,-9.194751 -4.601402 0.607023,-9.116042 -3.534462 0.7274119,-9.05255 -2.872882 0.8546282,-8.978364 -2.310544 0.9380706,-9.506682 -4.824214 0.6810244,-9.557326 -4.011489 0.7978944,-9.558142 -3.486887 0.89047,-9.530349 -2.983037 0.9455045,0.260,DnF
-3.265437 -5.617334 1.228546,-3.862581 -5.364147 1.432485,-4.387761 -4.754009 1.531834,-4.799077 -4.238756 1.658862,-5.200001 -4.087869 1.810112,-4.105364 -3.241115 1.390105,-4.384209 -2.26301 1.577136,-4.582115 -1.66883 1.741404,-4.763374 -1.127377 1.889573,-3.800974 -3.020107 1.480964,-4.004791 -1.898496 1.779109,-4.18021 -1.203237 2.041309,-4.342934 -0.5697246 2.245522,-3.481272 -3.027482 1.626228,-3.63269 -1.973946 1.930747,-3.791619 -1.336067 2.175523,-3.940989 -0.7415204 2.357594,-3.14537 -3.225376 1.79153,-3.152802 -2.388813 2.088562,-3.206625 -1.86387 2.321759,-3.277674 -1.317436 2.514047,-9.257146 -7.086025 0.3186359,-8.720528 -6.781162 0.5870609,-8.240082 -6.256391 0.7844394,-7.901297 -5.741741 1.007708,-7.599849 -5.495172 1.230126,-8.563875 -4.731163 0.5557128,-8.423779 -3.730791 0.7209351,-8.36072 -3.103961 0.8914086,-8.308592 -2.568645 0.997827,-8.869534 -4.554882 0.5676523,-8.756166 -3.405293 0.7146852,-8.682292 -2.686408 0.919723,-8.614879 -2.067277 1.08212,-9.172824 -4.590234 0.6048921,-9.097376 -3.521123 0.7326547,-9.040623 -2.864793 0.8607898,-8.970625 -2.305112 0.9443389,-9.482334 -4.805841 0.6749401,-9.537159 -3.997203 0.7868292,-9.542212 -3.483191 0.8719764,-9.517302 -2.989112 0.9236702,0.280,DnF
-3.265437 -5.617334 1.228546,-3.862581 -5.364147 1.432485,-4.387761 -4.754009 1.531834,-4.799077 -4.238756 1.658862,-5.200001 -4.087869 1.810112,-4.105364 -3.241115 1.390105,-4.384209 -2.26301 1.577136,-4.582115 -1.66883 1.741404,-4.763374 -1.127377 1.889573,-3.800974 -3.020107 1.480964,-4.004791 -1.898496 1.779109,-4.18021 -1.203237 2.041309,-4.342934 -0.5697246 2.245522,-3.481272 -3.027482 1.626228,-3.63269 -1.973946 1.930747,-3.791619 -1.336067 2.175523,-3.940989 -0.7415204 2.357594,-3.14537 -3.225376 1.79153,-3.152802 -2.388813 2.088562,-3.206625 -1.86387 2.321759,-3.277674 -1.317436 2.514047,-9.257146 -7.086025 0.3186359,-8.720528 -6.781162 0.5870609,-8.240082 -6.256391 0.7844394,-7.901297 -5.741741 1.007708,-7.599849 -5.495172 1.230126,-8.563875 -4.731163 0.5557128,-8.423779 -3.730791 0.7209351,-8.36072 -3.103961 0.8914086,-8.308592 -2.568645 0.997827,-8.869534 -4.554882 0.5676523,-8.756166 -3.405293 0.7146852,-8.682292 -2.686408 0.919723,-8.614879 -2.067277 1.08212,-9.172824 -4.590234 0.6048921,-9.097376 -3.521123 0.7326547,-9.040623 -2.864793 0.8607898,-8.970625 -2.305112 0.9443389,-9.482334 -4.805841 0.6749401,-9.537159 -3.997203 0.7868292,-9.542212 -3.483191 0.8719764,-9.517302 -2.989112 0.9236702,0.300,DnF
-3.265437 -5.617334 1.228546,-3.862581 -5.364147 1.432485,-4.387761 -4.754009 1.531834,-4.799077 -4.238756 1.658862,-5.200001 -4.087869 1.810112,-4.105364 -3.241115 1.390105,-4.384209 -2.26301 1.577136,-4.582115 -1.66883 1.741404,-4.763374 -1.127377 1.889573,-3.800974 -3.020107 1.480964,-4.004791 -1.898496 1.779109,-4.18021 -1.203237 2.041309,-4.342934 -0.5697246 2.245522,-3.481272 -3.027482 1.626228,-3.63269 -1.973946 1.930747,-3.791619 -1.336067 2.175523,-3.940989 -0.7415204 2.357594,-3.14537 -3.225376 1.79153,-3.152802 -2.388813 2.088562,-3.206625 -1.86387 2.321759,-3.277674 -1.317436 2.514047,-9.257146 -7.086025 0.3186359,-8.720528 -6.781162 0.5870609,-8.240082 -6.256391 0.7844394,-7.901297 -5.741741 1.007708,-7.599849 -5.495172 1.230126,-8.563875 -4.731163 0.5557128,-8.423779 -3.730791 0.7209351,-8.36072 -3.103961 0.8914086,-8.308592 -2.568645 0.997827,-8.869534 -4.554882 0.5676523,-8.756166 -3.405293 0.7146852,-8.682292 -2.686408 0.919723,-8.614879 -2.067277 1.08212,-9.172824 -4.590234 0.6048921,-9.097376 -3.521123 0.7326547,-9.040623 -2.864793 0.8607898,-8.970625 -2.305112 0.9443389,-9.482334 -4.805841 0.6749401,-9.537159 -3.997203 0.7868292,-9.542212 -3.483191 0.8719764,-9.517302 -2.989112 0.9236702,0.320,DnF
-3.261477 -5.637161 1.269946,-3.844801 -5.402463 1.490255,-4.372072 -4.815977 1.606444,-4.791521 -4.322717 1.744744,-5.181026 -4.157125 1.91069,-4.085813 -3.273 1.442212,-4.366974 -2.32641 1.664002,-4.568933 -1.73849 1.844836,-4.756243 -1.202593 1.992747,-3.781274 -3.026007 1.536387,-3.989458 -1.920711 1.845226,-4.171062 -1.231496 2.104835,-4.344014 -0.6064801 2.291821,-3.463966 -3.02654 1.693066,-3.61009 -1.981736 2.00547,-3.765863 -1.343638 2.253307,-3.91972 -0.76858 2.420712,-3.13096 -3.228396 1.866197,-3.131443 -2.389787 2.154012,-3.183226 -1.862487 2.367433,-3.258133 -1.334822 2.529895,-9.248721 -7.087013 0.3138278,-8.710019 -6.769899 0.5684968,-8.231661 -6.251768 0.7671254,-7.89422 -5.734657 0.992635,-7.594546 -5.480815 1.223849,-8.555037 -4.730364 0.5405709,-8.421081 -3.723383 0.7053525,-8.361586 -3.10429 0.8729118,-8.313068 -2.568883 0.9794704,-8.864882 -4.556673 0.5629451,-8.75149 -3.401765 0.7191449,-8.671207 -2.68521 0.9279194,-8.600816 -2.073045 1.088362,-9.17259 -4.595216 0.6108971,-9.092832 -3.525185 0.7442471,-9.027118 -2.872578 0.8811949,-8.954618 -2.32017 0.9695181,-9.485741 -4.812924 0.6881889,-9.538329 -4.003589 0.8078383,-9.538192 -3.488484 0.9067752,-9.512344 -2.993711 0.9649196,0.340,DnF
-3.261477 -5.637161 1.269946,-3.844801 -5.402463 1.490255,-4.372072 -4.815977 1.606444,-4.791521 -4.322717 1.744744,-5.181026 -4.157125 1.91069,-4.085813 -3.273 1.442212,-4.366974 -2.32641 1.664002,-4.568933 -1.73849 1.844836,-4.756243 -1.202593 1.992747,-3.781274 -3.026007 1.536387,-3.989458 -1.920711 1.845226,-4.171062 -1.231496 2.104835,-4.344014 -0.6064801 2.291821,-3.463966 -3.02654 1.693066,-3.61009 -1.981736 2.00547,-3.765863 -1.343638 2.253307,-3.91972 -0.76858 2.420712,-3.13096 -3.228396 1.866197,-3.131443 -2.389787 2.154012,-3.183226 -1.862487 2.367433,-3.258133 -1.334822 2.529895,-9.248721 -7.087013 0.3138278,-8.710019 -6.769899 0.5684968,-8.231661 -6.251768 0.7671254,-7.89422 -5.734657 0.992635,-7.594546 -5.480815 1.223849,-8.555037 -4.730364 0.5405709,-8.421081 -3.723383 0.7053525,-8.361586 -3.10429 0.8729118,-8.313068 -2.568883 0.9794704,-8.864882 -4.556673 0.5629451,-8.75149 -3.401765 0.7191449,-8.671207 -2.68521 0.9279194,-8.600816 -2.073045 1.088362,-9.17259 -4.595216 0.6108971,-9.092832 -3.525185 0.7442471,-9.027118 -2.872578 0.8811949,-8.954618 -2.32017 0.9695181,-9.485741 -4.812924 0.6881889,-9.538329 -4.003589 0.8078383,-9.538192 -3.488484 0.9067752,-9.512344 -2.993711 0.9649196,0.360,DnF
-3.261477 -5.637161 1.269946,-3.844801 -5.402463 1.490255,-4.372072 -4.815977 1.606444,-4.791521 -4.322717 1.744744,-5.181026 -4.157125 1.91069,-4.085813 -3.273 1.442212,-4.366974 -2.32641 1.664002,-4.568933 -1.73849 1.844836,-4.756243 -1.202593 1.992747,-3.781274 -3.026007 1.536387,-3.989458 -1.920711 1.845226,-4.171062 -1.231496 2.104835,-4.344014 -0.6064801 2.291821,-3.463966 -3.02654 1.693066,-3.61009 -1.981736 2.00547,-3.765863 -1.343638 2.253307,-3.91972 -0.76858 2.420712,-3.13096 -3.228396 1.866197,-3.131443 -2.389787 2.154012,-3.183226 -1.862487 2.367433,-3.258133 -1.334822 2.529895,-9.248721 -7.087013 0.3138278,-8.710019 -6.769899 0.5684968,-8.231661 -6.251768 0.7671254,-7.89422 -5.734657 0.992635,-7.594546 -5.480815 1.223849,-8.555037 -4.730364 0.5405709,-8.421081 -3.723383 0.7053525,-8.361586 -3.10429 0.8729118,-8.313068 -2.568883 0.9794704,-8.864882 -4.556673 0.5629451,-8.75149 -3.401765 0.7191449,-8.671207 -2.68521 0.9279194,-8.600816 -2.073045 1.088362,-9.17259 -4.595216 0.6108971,-9.092832 -3.525185 0.7442471,-9.027118 -2.872578 0.8811949,-8.954618 -2.32017 0.9695181,-9.485741 -4.812924 0.6881889,-9.538329 -4.003589 0.8078383,-9.538192 -3.488484 0.9067752,-9.512344 -2.993711 0.9649196,0.380,DnF
-3.261477 -5.637161 1.269946,-3.844801 -5.402463 1.490255,-4.372072 -4.815977 1.606444,-4.791521 -4.322717 1.744744,-5.181026 -4.157125 1.91069,-4.085813 -3.273 1.442212,-4.366974 -2.32641 1.664002,-4.568933 -1.73849 1.844836,-4.756243 -1.202593 1.992747,-3.781274 -3.026007 1.536387,-3.989458 -1.920711 1.845226,-4.171062 -1.231496 2.104835,-4.344014 -0.6064801 2.291821,-3.463966 -3.02654 1.693066,-3.61009 -1.981736 2.00547,-3.765863 -1.343638 2.253307,-3.91972 -0.76858 2.420712,-3.13096 -3.228396 1.866197,-3.131443 -2.389787 2.154012,-3.183226 -1.862487 2.367433,-3.258133 -1.334822 2.529895,-9.248721 -7.087013 0.3138278,-8.710019 -6.769899 0.5684968,-8.231661 -6.251768 0.7671254,-7.89422 -5.734657 0.992635,-7.594546 -5.480815 1.223849,-8.555037 -4.730364 0.5405709,-8.421081 -3.723383 0.7053525,-8.361586 -3.10429 0.8729118,-8.313068 -2.568883 0.9794704,-8.864882 -4.556673 0.5629451,-8.75149 -3.401765 0.7191449,-8.671207 -2.68521 0.9279194,-8.600816 -2.073045 1.088362,-9.17259 -4.595216 0.6108971,-9.092832 -3.525185 0.7442471,-9.027118 -2.872578 0.8811949,-8.954618 -2.32017 0.9695181,-9.485741 -4.812924 0.6881889,-9.538329 -4.003589 0.8078383,-9.538192 -3.488484 0.9067752,-9.512344 -2.993711 0.9649196,0.400,DnF
-3.261477 -5.637161 1.269946,-3.844801 -5.402463 1.490255,-4.372072 -4.815977 1.606444,-4.791521 -4.322717 1.744744,-5.181026 -4.157125 1.91069,-4.085813 -3.273 1.442212,-4.366974 -2.32641 1.664002,-4.568933 -1.73849 1.844836,-4.756243 -1.202593 1.992747,-3.781274 -3.026007 1.536387,-3.989458 -1.920711 1.845226,-4.171062 -1.231496 2.104835,-4.344014 -0.6064801 2.291821,-3.463966 -3.02654 1.693066,-3.61009 -1.981736 2.00547,-3.765863 -1.343638 2.253307,-3.91972 -0.76858 2.420712,-3.13096 -3.228396 1.866197,-3.131443 -2.389787 2.154012,-3.183226 -1.862487 2.367433,-3.258133 -1.334822 2.529895,-9.248721 -7.087013 0.3138278,-8.710019 -6.769899 0.5684968,-8.231661 -6.251768 0.7671254,-7.89422 -5.734657 0.992635,-7.594546 -5.480815 1.223849,-8.555037 -4.730364 0.5405709,-8.421081 -3.723383 0.7053525,-8.361586 -3.10429 0.8729118,-8.313068 -2.568883 0.9794704,-8.864882 -4.556673 0.5629451,-8.75149 -3.401765 0.7191449,-8.671207 -2.68521 0.9279194,-8.600816 -2.073045 1.088362,-9.17259 -4.595216 0.6108971,-9.092832 -3.525185 0.7442471,-9.027118 -2.872578 0.8811949,-8.954618 -2.32017 0.9695181,-9.485741 -4.812924 0.6881889,-9.538329 -4.003589 0.8078383,-9.538192 -3.488484 0.9067752,-9.512344 -2.993711 0.9649196,0.420,DnF
-3.26709 -5.705284 1.273893,-3.862591 -5.465663 1.487668,-4.397382 -4.883572 1.602833,-4.824537 -4.413118 1.75085,-5.209352 -4.247549 1.930239,-4.109266 -3.339263 1.36848,-4.390547 -2.401332 1.582702,-4.589564 -1.806135 1.767075,-4.772505 -1.277526 1.916127,-3.795975 -3.088569 1.469664,-4.0045 -2.006818 1.75123,-4.184313 -1.321826 2.004278,-4.356414 -0.7070041 2.185286,-3.473145 -3.084365 1.641448,-3.619189 -2.065971 1.931807,-3.775558 -1.433963 2.184549,-3.935532 -0.8798738 2.353736,-3.135378 -3.276293 1.82845,-3.12875 -2.454611 2.109338,-3.180011 -1.925546 2.324903,-3.260183 -1.406465 2.485898,-9.263026 -7.11115 0.3725612,-8.727766 -6.803133 0.6124781,-8.252217 -6.282749 0.8074659,-7.91506 -5.778632 1.031945,-7.608509 -5.548049 1.264801,-8.55392 -4.737941 0.587262,-8.422116 -3.737625 0.7377214,-8.363545 -3.122863 0.8956982,-8.312572 -2.597341 0.9956931,-8.863426 -4.566151 0.6212727,-8.754704 -3.410716 0.7654227,-8.677835 -2.691843 0.9618262,-8.608374 -2.083438 1.109422,-9.171129 -4.613426 0.6815479,-9.09734 -3.541148 0.8115329,-9.032116 -2.875791 0.9457307,-8.95931 -2.319751 1.030432,-9.48379 -4.844989 0.7679075,-9.541194 -4.03138 0.8938994,-9.54298 -3.501473 0.9991791,-9.52116 -3.002892 1.059694,0.440,DnF
-3.26709 -5.705284 1.273893,-3.862591 -5.465663 1.487668,-4.397382 -4.883572 1.602833,-4.824537 -4.413118 1.75085,-5.209352 -4.247549 1.930239,-4.109266 -3.339263 1.36848,-4.390547 -2.401332 1.582702,-4.589564 -1.806135 1.767075,-4.772505 -1.277526 1.916127,-3.795975 -3.088569 1.469664,-4.0045 -2.006818 1.75123,-4.184313 -1.321826 2.004278,-4.356414 -0.7070041 2.185286,-3.473145 -3.084365 1.641448,-3.619189 -2.065971 1.931807,-3.775558 -1.433963 2.184549,-3.935532 -0.8798738 2.353736,-3.135378 -3.276293 1.82845,-3.12875 -2.454611 2.109338,-3.180011 -1.925546 2.324903,-3.260183 -1.406465 2.485898,-9.263026 -7.11115 0.3725612,-8.727766 -6.803133 0.6124781,-8.252217 -6.282749 0.8074659,-7.91506 -5.778632 1.031945,-7.608509 -5.548049 1.264801,-8.55392 -4.737941 0.587262,-8.422116 -3.737625 0.7377214,-8.363545 -3.122863 0.8956982,-8.312572 -2.597341 0.9956931,-8.863426 -4.566151 0.6212727,-8.754704 -3.410716 0.7654227,-8.677835 -2.691843 0.9618262,-8.608374 -2.083438 1.109422,-9.171129 -4.613426 0.6815479,-9.09734 -3.541148 0.8115329,-9.032116 -2.875791 0.9457307,-8.95931 -2.319751 1.030432,-9.48379 -4.844989 0.7679075,-9.541194 -4.03138 0.8938994,-9.54298 -3.501473 0.9991791,-9.52116 -3.002892 1.059694,0.460,DnF
-3.26709 -5.705284 1.273893,-3.862591 -5.465663 1.487668,-4.397382 -4.883572 1.602833,-4.824537 -4.413118 1.75085,-5.209352 -4.247549 1.930239,-4.109266 -3.339263 1.36848,-4.390547 -2.401332 1.582702,-4.589564 -1.806135 1.767075,-4.772505 -1.277526 1.916127,-3.795975 -3.088569 1.469664,-4.0045 -2.006818 1.75123,-4.184313 -1.321826 2.004278,-4.356414 -0.7070041 2.185286,-3.473145 -3.084365 1.641448,-3.619189 -2.065971 1.931807,-3.775558 -1.433963 2.184549,-3.935532 -0.8798738 2.353736,-3.135378 -3.276293 1.82845,-3.12875 -2.454611 2.109338,-3.180011 -1.925546 2.324903,-3.260183 -1.406465 2.485898,-9.263026 -7.11115 0.3725612,-8.727766 -6.803133 0.6124781,-8.252217 -6.282749 0.8074659,-7.91506 -5.778632 1.031945,-7.608509 -5.548049 1.264801,-8.55392 -4.737941 0.587262,-8.422116 -3.737625 0.7377214,-8.363545 -3.122863 0.8956982,-8.312572 -2.597341 0.9956931,-8.863426 -4.566151 0.6212727,-8.754704 -3.410716 0.7654227,-8.677835 -2.691843 0.9618262,-8.608374 -2.083438 1.109422,-9.171129 -4.613426 0.6815479,-9.09734 -3.541148 0.8115329,-9.032116 -2.875791 0.9457307,-8.95931 -2.319751 1.030432,-9.48379 -4.844989 0.7679075,-9.541194 -4.03138 0.8938994,-9.54298 -3.501473 0.9991791,-9.52116 -3.002892 1.059694,0.480,DnF
-3.264183 -5.722759 1.205463,-3.863915 -5.510214 1.415616,-4.401558 -4.937186 1.52277,-4.823711 -4.442058 1.659023,-5.21557 -4.244554 1.82157,-4.109408 -3.373913 1.300143,-4.381903 -2.427045 1.512129,-4.583805 -1.84665 1.693517,-4.774569 -1.321451 1.840113,-3.796963 -3.127042 1.403874,-3.991851 -2.037279 1.701281,-4.17293 -1.3578 1.958005,-4.34476 -0.7484965 2.144933,-3.472631 -3.129005 1.576347,-3.612496 -2.103514 1.875266,-3.768803 -1.477315 2.123925,-3.920792 -0.9224877 2.295863,-3.133683 -3.3253 1.765691,-3.131975 -2.500637 2.041893,-3.183493 -1.97343 2.259233,-3.256167 -1.446907 2.428237,-9.281816 -7.135826 0.4482337,-8.74353 -6.823162 0.7032537,-8.261967 -6.295731 0.9024689,-7.924408 -5.775325 1.126754,-7.622637 -5.5261 1.356554,-8.572453 -4.746088 0.6658751,-8.440126 -3.740117 0.8130861,-8.385063 -3.130079 0.9702504,-8.338877 -2.605486 1.075339,-8.884346 -4.567674 0.6883525,-8.768167 -3.412729 0.8302108,-8.688189 -2.695497 1.030533,-8.617944 -2.085357 1.191262,-9.194863 -4.608604 0.7372549,-9.112906 -3.532498 0.8572384,-9.047666 -2.867364 0.9894236,-8.975862 -2.309467 1.079376,-9.511678 -4.835178 0.8140217,-9.561557 -4.020989 0.9285351,-9.560389 -3.501246 1.02899,-9.534976 -3.016491 1.090638,0.500,DnF
-3.264183 -5.722759 1.205463,-3.863915 -5.510214 1.415616,-4.401558 -4.937186 1.52277,-4.823711 -4.442058 1.659023,-5.21557 -4.244554 1.82157,-4.109408 -3.373913 1.300143,-4.381903 -2.427045 1.512129,-4.583805 -1.84665 1.693517,-4.774569 -1.321451 1.840113,-3.796963 -3.127042 1.403874,-3.991851 -2.037279 1.701281,-4.17293 -1.3578 1.958005,-4.34476 -0.7484965 2.144933,-3.472631 -3.129005 1.576347,-3.612496 -2.103514 1.875266,-3.768803 -1.477315 2.123925,-3.920792 -0.9224877 2.295863,-3.133683 -3.3253 1.765691,-3.131975 -2.500637 2.041893,-3.183493 -1.97343 2.259233,-3.256167 -1.446907 2.428237,-9.281816 -7.135826 0.4482337,-8.74353 -6.823162 0.7032537,-8.261967 -6.295731 0.9024689,-7.924408 -5.775325 1.126754,-7.622637 -5.5261 1.356554,-8.572453 -4.746088 0.6658751,-8.440126 -3.740117 0.8130861,-8.385063 -3.130079 0.9702504,-8.338877 -2.605486 1.075339,-8.884346 -4.567674 0.6883525,-8.768167 -3.412729 0.8302108,-8.688189 -2.695497 1.030533,-8.617944 -2.085357 1.191262,-9.194863 -4.608604 0.7372549,-9.112906 -3.532498 0.8572384,-9.047666 -2.867364 0.9894236,-8.975862 -2.309467 1.079376,-9.511678 -4.835178 0.8140217,-9.561557 -4.020989 0.9285351,-9.560389 -3.501246 1.02899,-9.534976 -3.016491 1.090638,0.520,DnF
-3.264183 -5.722759 1.205463,-3.863915 -5.510214 1.415616,-4.401558 -4.937186 1.52277,-4.823711 -4.442058 1.659023,-5.21557 -4.244554 1.82157,-4.109408 -3.373913 1.300143,-4.381903 -2.427045 1.512129,-4.583805 -1.84665 1.693517,-4.774569 -1.321451 1.840113,-3.796963 -3.127042 1.403874,-3.991851 -2.037279 1.701281,-4.17293 -1.3578 1.958005,-4.34476 -0.7484965 2.144933,-3.472631 -3.129005 1.576347,-3.612496 -2.103514 1.875266,-3.768803 -1.477315 2.123925,-3.920792 -0.9224877 2.295863,-3.133683 -3.3253 1.765691,-3.131975 -2.500637 2.041893,-3.183493 -1.97343 2.259233,-3.256167 -1.446907 2.428237,-9.281816 -7.135826 0.4482337,-8.74353 -6.823162 0.7032537,-8.261967 -6.295731 0.9024689,-7.924408 -5.775325 1.126754,-7.622637 -5.5261 1.356554,-8.572453 -4.746088 0.6658751,-8.440126 -3.740117 0.8130861,-8.385063 -3.130079 0.9702504,-8.338877 -2.605486 1.075339,-8.884346 -4.567674 0.6883525,-8.768167 -3.412729 0.8302108,-8.688189 -2.695497 1.030533,-8.617944 -2.085357 1.191262,-9.194863 -4.608604 0.7372549,-9.112906 -3.532498 0.8572384,-9.047666 -2.867364 0.9894236,-8.975862 -2.309467 1.079376,-9.511678 -4.835178 0.8140217,-9.561557 -4.020989 0.9285351,-9.560389 -3.501246 1.02899,-9.534976 -3.016491 1.090638,0.540,DnF
-3.264183 -5.722759 1.205463,-3.863915 -5.510214 1.415616,-4.401558 -4.937186 1.52277,-4.823711 -4.442058 1.659023,-5.21557 -4.244554 1.82157,-4.109408 -3.373913 1.300143,-4.381903 -2.427045 1.512129,-4.583805 -1.84665 1.693517,-4.774569 -1.321451 1.840113,-3.796963 -3.127042 1.403874,-3.991851 -2.037279 1.701281,-4.17293 -1.3578 1.958005,-4.34476 -0.7484965 2.144933,-3.472631 -3.129005 1.576347,-3.612496 -2.103514 1.875266,-3.768803 -1.477315 2.123925,-3.920792 -0.9224877 2.295863,-3.133683 -3.3253 1.765691,-3.131975 -2.500637 2.041893,-3.183493 -1.97343 2.259233,-3.256167 -1.446907 2.428237,-9.281816 -7.135826 0.4482337,-8.74353 -6.823162 0.7032537,-8.261967 -6.295731 0.9024689,-7.924408 -5.775325 1.126754,-7.622637 -5.5261 1.356554,-8.572453 -4.746088 0.6658751,-8.440126 -3.740117 0.8130861,-8.385063 -3.130079 0.9702504,-8.338877 -2.605486 1.075339,-8.884346 -4.567674 0.6883525,-8.768167 -3.412729 0.8302108,-8.688189 -2.695497 1.030533,-8.617944 -2.085357 1.191262,-9.194863 -4.608604 0.7372549,-9.112906 -3.532498 0.8572384,-9.047666 -2.867364 0.9894236,-8.975862 -2.309467 1.079376,-9.511678 -4.835178 0.8140217,-9.561557 -4.020989 0.9285351,-9.560389 -3.501246 1.02899,-9.534976 -3.016491 1.090638,0.560,DnF
-3.264114 -5.73674 1.179271,-3.853435 -5.531883 1.409744,-4.394096 -4.964829 1.525106,-4.82114 -4.475559 1.662622,-5.211246 -4.291234 1.824475,-4.099375 -3.399934 1.310065,-4.374358 -2.460614 1.520679,-4.575569 -1.881226 1.707219,-4.770286 -1.353513 1.861492,-3.783937 -3.147693 1.398168,-3.985579 -2.06853 1.687418,-4.163834 -1.381799 1.949394,-4.331738 -0.7652364 2.145578,-3.456682 -3.145616 1.553356,-3.606163 -2.127086 1.843485,-3.760866 -1.499123 2.090521,-3.911207 -0.9431157 2.263805,-3.114075 -3.339145 1.727339,-3.115524 -2.522232 1.997999,-3.162949 -2.006939 2.210546,-3.231146 -1.488877 2.381277,-9.298232 -7.150646 0.4586444,-8.76028 -6.82657 0.7202089,-8.277236 -6.299617 0.926535,-7.938481 -5.770786 1.158836,-7.627968 -5.506261 1.399065,-8.587629 -4.762584 0.6980978,-8.453384 -3.747693 0.8576874,-8.397021 -3.131238 1.019359,-8.353333 -2.600538 1.12099,-8.899557 -4.58229 0.7250345,-8.78357 -3.416851 0.8799097,-8.703761 -2.695764 1.080514,-8.635004 -2.07923 1.233788,-9.208593 -4.621351 0.7784468,-9.131745 -3.536037 0.919921,-9.066402 -2.864989 1.064631,-8.992109 -2.298464 1.156322,-9.524697 -4.843618 0.8582698,-9.581205 -4.021354 0.9981778,-9.581622 -3.490324 1.109341,-9.554257 -2.992825 1.173676,0.580,DnF
-3.264114 -5.73674 1.179271,-3.853435 -5.531883 1.409744,-4.394096 -4.964829 1.525106,-4.82114 -4.475559 1.662622,-5.211246 -4.291234 1.824475,-4.099375 -3.399934 1.310065,-4.374358 -2.460614 1.520679,-4.575569 -1.881226 1.707219,-4.770286 -1.353513 1.861492,-3.783937 -3.147693 1.398168,-3.985579 -2.06853 1.687418,-4.163834 -1.381799 1.949394,-4.331738 -0.7652364 2.145578,-3.456682 -3.145616 1.553356,-3.606163 -2.127086 1.843485,-3.760866 -1.499123 2.090521,-3.911207 -0.9431157 2.263805,-3.114075 -3.339145 1.727339,-3.115524 -2.522232 1.997999,-3.162949 -2.006939 2.210546,-3.231146 -1.488877 2.381277,-9.298232 -7.150646 0.4586444,-8.76028 -6.82657 0.7202089,-8.277236 -6.299617 0.926535,-7.938481 -5.770786 1.158836,-7.627968 -5.506261 1.399065,-8.587629 -4.762584 0.6980978,-8.453384 -3.747693 0.8576874,-8.397021 -3.131238 1.019359,-8.353333 -2.600538 1.12099,-8.899557 -4.58229 0.7250345,-8.78357 -3.416851 0.8799097,-8.703761 -2.695764 1.080514,-8.635004 -2.07923 1.233788,-9.208593 -4.621351 0.7784468,-9.131745 -3.536037 0.919921,-9.066402 -2.864989 1.064631,-8.992109 -2.298464 1.156322,-9.524697 -4.843618 0.8582698,-9.581205 -4.021354 0.9981778,-9.581622 -3.490324 1.109341,-9.554257 -2.992825 1.173676,0.600,DnF
-3.264114 -5.73674 1.179271,-3.853435 -5.531883 1.409744,-4.394096 -4.964829 1.525106,-4.82114 -4.475559 1.662622,-5.211246 -4.291234 1.824475,-4.099375 -3.399934 1.310065,-4.374358 -2.460614 1.520679,-4.575569 -1.881226 1.707219,-4.770286 -1.353513 1.861492,-3.783937 -3.147693 1.398168,-3.985579 -2.06853 1.687418,-4.163834 -1.381799 1.949394,-4.331738 -0.7652364 2.145578,-3.456682 -3.145616 1.553356,-3.606163 -2.127086 1.843485,-3.760866 -1.499123 2.090521,-3.911207 -0.9431157 2.263805,-3.114075 -3.339145 1.727339,-3.115524 -2.522232 1.997999,-3.162949 -2.006939 2.210546,-3.231146 -1.488877 2.381277,-9.298232 -7.150646 0.4586444,-8.76028 -6.82657 0.7202089,-8.277236 -6.299617 0.926535,-7.938481 -5.770786 1.158836,-7.627968 -5.506261 1.399065,-8.587629 -4.762584 0.6980978,-8.453384 -3.747693 0.8576874,-8.397021 -3.131238 1.019359,-8.353333 -2.600538 1.12099,-8.899557 -4.58229 0.7250345,-8.78357 -3.416851 0.8799097,-8.703761 -2.695764 1.080514,-8.635004 -2.07923 1.233788,-9.208593 -4.621351 0.7784468,-9.131745 -3.536037 0.919921,-9.066402 -2.864989 1.064631,-8.992109 -2.298464 1.156322,-9.524697 -4.843618 0.8582698,-9.581205 -4.021354 0.9981778,-9.581622 -3.490324 1.109341,-9.554257 -2.992825 1.173676,0.620,DnF
-3.247108 -5.72405 1.124611,-3.836992 -5.533065 1.369624,-4.383341 -4.984924 1.496993,-4.813744 -4.501207 1.640767,-5.206102 -4.316189 1.808945,-4.098566 -3.40706 1.284851,-4.362993 -2.467565 1.487726,-4.556444 -1.889452 1.673019,-4.745485 -1.364637 1.834362,-3.777544 -3.155015 1.364501,-3.970667 -2.07208 1.643345,-4.142521 -1.380446 1.901216,-4.30147 -0.7602096 2.101782,-3.445978 -3.158014 1.509955,-3.582634 -2.132455 1.788026,-3.729546 -1.50352 2.034445,-3.869429 -0.9443812 2.213359,-3.101699 -3.360213 1.6753,-3.10111 -2.544914 1.933925,-3.142756 -2.034107 2.141899,-3.202065 -1.512601 2.313528,-9.307273 -7.173549 0.4609978,-8.768291 -6.833694 0.6999875,-8.278296 -6.283501 0.8891796,-7.928664 -5.76411 1.107371,-7.607981 -5.529371 1.329645,-8.606223 -4.769226 0.6702954,-8.468542 -3.760915 0.8204787,-8.407379 -3.151097 0.9752569,-8.358502 -2.622913 1.076772,-8.916923 -4.601196 0.7068796,-8.799672 -3.428998 0.857718,-8.721877 -2.706096 1.056242,-8.656466 -2.086163 1.213866,-9.223558 -4.648263 0.7690096,-9.148193 -3.561414 0.9061039,-9.081066 -2.888773 1.041107,-9.007988 -2.318138 1.130597,-9.538156 -4.877558 0.8550814,-9.594818 -4.054651 0.9953935,-9.59318 -3.526567 1.100704,-9.568674 -3.034957 1.161836,0.640,DnF
-3.247108 -5.72405 1.124611,-3.836992 -5.533065 1.369624,-4.383341 -4.984924 1.496993,-4.813744 -4.501207 1.640767,-5.206102 -4.316189 1.808945,-4.098566 -3.40706 1.284851,-4.362993 -2.467565 1.487726,-4.556444 -1.889452 1.673019,-4.745485 -1.364637 1.834362,-3.777544 -3.155015 1.364501,-3.970667 -2.07208 1.643345,-4.142521 -1.380446 1.901216,-4.30147 -0.7602096 2.101782,-3.445978 -3.158014 1.509955,-3.582634 -2.132455 1.788026,-3.729546 -1.50352 2.034445,-3.869429 -0.9443812 2.213359,-3.101699 -3.360213 1.6753,-3.10111 -2.544914 1.933925,-3.142756 -2.034107 2.141899,-3.202065 -1.512601 2.313528,-9.307273 -7.173549 0.4609978,-8.768291 -6.833694 0.6999875,-8.278296 -6.283501 0.8891796,-7.928664 -5.76411 1.107371,-7.607981 -5.529371 1.329645,-8.606223 -4.769226 0.6702954,-8.468542 -3.760915 0.8204787,-8.407379 -3.151097 0.9752569,-8.358502 -2.622913 1.076772,-8.916923 -4.601196 0.7068796,-8.799672 -3.428998 0.857718,-8.721877 -2.706096 1.056242,-8.656466 -2.086163 1.213866,-9.223558 -4.648263 0.7690096,-9.148193 -3.561414 0.9061039,-9.081066 -2.888773 1.041107,-9.007988 -2.318138 1.130597,-9.538156 -4.877558 0.8550814,-9.594818 -4.054651 0.9953935,-9.59318 -3.526567 1.100704,-9.568674 -3.034957 1.161836,0.660,DnF
-3.247108 -5.72405 1.124611,-3.836992 -5.533065 1.369624,-4.383341 -4.984924 1.496993,-4.813744 -4.501207 1.640767,-5.206102 -4.316189 1.808945,-4.098566 -3.40706 1.284851,-4.362993 -2.467565 1.487726,-4.556444 -1.889452 1.673019,-4.745485 -1.364637 1.834362,-3.777544 -3.155015 1.364501,-3.970667 -2.07208 1.643345,-4.142521 -1.380446 1.901216,-4.30147 -0.7602096 2.101782,-3.445978 -3.158014 1.509955,-3.582634 -2.132455 1.788026,-3.729546 -1.50352 2.034445,-3.869429 -0.9443812 2.213359,-3.101699 -3.360213 1.6753,-3.10111 -2.544914 1.933925,-3.142756 -2.034107 2.141899,-3.202065 -1.512601 2.313528,-9.307273 -7.173549 0.4609978,-8.768291 -6.833694 0.6999875,-8.278296 -6.283501 0.8891796,-7.928664 -5.76411 1.107371,-7.607981 -5.529371 1.329645,-8.606223 -4.769226 0.6702954,-8.468542 -3.760915 0.8204787,-8.407379 -3.151097 0.9752569,-8.358502 -2.622913 1.076772,-8.916923 -4.601196 0.7068796,-8.799672 -3.428998 0.857718,-8.721877 -2.706096 1.056242,-8.656466 -2.086163 1.213866,-9.223558 -4.648263 0.7690096,-9.148193 -3.561414 0.9061039,-9.081066 -2.888773 1.041107,-9.007988 -2.318138 1.130597,-9.538156 -4.877558 0.8550814,-9.594818 -4.054651 0.9953935,-9.59318 -3.526567 1.100704,-9.568674 -3.034957 1.161836,0.680,DnF
-3.205208 -5.746014 1.027875,-3.808125 -5.557443 1.276994,-4.359446 -5.047483 1.397196,-4.778096 -4.565362 1.525428,-5.153321 -4.370147 1.684935,-4.023158 -3.443694 1.149382,-4.284126 -2.491292 1.326506,-4.469704 -1.902476 1.510657,-4.647963 -1.365705 1.672777,-3.695097 -3.191728 1.200465,-3.891957 -2.093012 1.42835,-4.050084 -1.375263 1.655377,-4.192166 -0.7368979 1.833424,-3.36424 -3.173057 1.312118,-3.506347 -2.137716 1.527357,-3.644091 -1.495403 1.727497,-3.769655 -0.9345689 1.881803,-3.018159 -3.337575 1.451334,-3.020839 -2.50095 1.664174,-3.061346 -1.981514 1.836054,-3.119684 -1.469682 1.986618,-9.306926 -7.145915 0.4880287,-8.777532 -6.823358 0.7129766,-8.288774 -6.281085 0.895797,-7.949851 -5.764512 1.114518,-7.65279 -5.530506 1.337026,-8.610969 -4.731332 0.6491587,-8.47833 -3.73237 0.7830087,-8.427307 -3.12807 0.9396931,-8.388119 -2.607139 1.047075,-8.922475 -4.561452 0.6954803,-8.804031 -3.402694 0.8247224,-8.730105 -2.683097 1.020452,-8.665458 -2.065647 1.176009,-9.231983 -4.604396 0.7682959,-9.153716 -3.523403 0.8870254,-9.092809 -2.856189 1.016412,-9.023501 -2.287257 1.105994,-9.551648 -4.825874 0.867151,-9.601423 -4.00745 0.9839295,-9.602706 -3.479234 1.068744,-9.580775 -2.977334 1.119478,0.700,DnF
-3.205208 -5.746014 1.027875,-3.808125 -5.557443 1.276994,-4.359446 -5.047483 1.397196,-4.778096 -4.565362 1.525428,-5.153321 -4.370147 1.684935,-4.023158 -3.443694 1.149382,-4.284126 -2.491292 1.326506,-4.469704 -1.902476 1.510657,-4.647963 -1.365705 1.672777,-3.695097 -3.191728 1.200465,-3.891957 -2.093012 1.42835,-4.050084 -1.375263 1.655377,-4.192166 -0.7368979 1.833424,-3.36424 -3.173057 1.312118,-3.506347 -2.137716 1.527357,-3.644091 -1.495403 1.727497,-3.769655 -0.9345689 1.881803,-3.018159 -3.337575 1.451334,-3.020839 -2.50095 1.664174,-3.061346 -1.981514 1.836054,-3.119684 -1.469682 1.986618,-9.306926 -7.145915 0.4880287,-8.777532 -6.823358 0.7129766,-8.288774 -6.281085 0.895797,-7.949851 -5.764512 1.114518,-7.65279 -5.530506 1.337026,-8.610969 -4.731332 0.6491587,-8.47833 -3.73237 0.7830087,-8.427307 -3.12807 0.9396931,-8.388119 -2.607139 1.047075,-8.922475 -4.561452 0.6954803,-8.804031 -3.402694 0.8247224,-8.730105 -2.683097 1.020452,-8.665458 -2.065647 1.176009,-9.231983 -4.604396 0.7682959,-9.153716 -3.523403 0.8870254,-9.092809 -2.856189 1.016412,-9.023501 -2.287257 1.105994,-9.551648 -4.825874 0.867151,-9.601423 -4.00745 0.9839295,-9.602706 -3.479234 1.068744,-9.580775 -2.977334 1.119478,0.720,DnF
-3.205208 -5.746014 1.027875,-3.808125 -5.557443 1.276994,-4.359446 -5.047483 1.397196,-4.778096 -4.565362 1.525428,-5.153321 -4.370147 1.684935,-4.023158 -3.443694 1.149382,-4.284126 -2.491292 1.326506,-4.469704 -1.902476 1.510657,-4.647963 -1.365705 1.672777,-3.695097 -3.191728 1.200465,-3.891957 -2.093012 1.42835,-4.050084 -1.375263 1.655377,-4.192166 -0.7368979 1.833424,-3.36424 -3.173057 1.312118,-3.506347 -2.137716 1.527357,-3.644091 -1.495403 1.727497,-3.769655 -0.9345689 1.881803,-3.018159 -3.337575 1.451334,-3.020839 -2.50095 1.664174,-3.061346 -1.981514 1.836054,-3.119684 -1.469682 1.986618,-9.306926 -7.145915 0.4880287,-8.777532 -6.823358 0.7129766,-8.288774 -6.281085 0.895797,-7.949851 -5.764512 1.114518,-7.65279 -5.530506 1.337026,-8.610969 -4.731332 0.6491587,-8.47833 -3.73237 0.7830087,-8.427307 -3.12807 0.9396931,-8.388119 -2.607139 1.047075,-8.922475 -4.561452 0.6954803,-8.804031 -3.402694 0.8247224,-8.730105 -2.683097 1.020452,-8.665458 -2.065647 1.176009,-9.231983 -4.604396 0.7682959,-9.153716 -3.523403 0.8870254,-9.092809 -2.856189 1.016412,-9.023501 -2.287257 1.105994,-9.551648 -4.825874 0.867151,-9.601423 -4.00745 0.9839295,-9.602706 -3.479234 1.068744,-9.580775 -2.977334 1.119478,0.740,DnF
-3.205208 -5.746014 1.027875,-3.808125 -5.557443 1.276994,-4.359446 -5.047483 1.397196,-4.778096 -4.565362 1.525428,-5.153321 -4.370147 1.684935,-4.023158 -3.443694 1.149382,-4.284126 -2.491292 1.326506,-4.469704 -1.902476 1.510657,-4.647963 -1.365705 1.672777,-3.695097 -3.191728 1.200465,-3.891957 -2.093012 1.42835,-4.050084 -1.375263 1.655377,-4.192166 -0.7368979 1.833424,-3.36424 -3.173057 1.312118,-3.506347 -2.137716 1.527357,-3.644091 -1.495403 1.727497,-3.769655 -0.9345689 1.881803,-3.018159 -3.337575 1.451334,-3.020839 -2.50095 1.664174,-3.061346 -1.981514 1.836054,-3.119684 -1.469682 1.986618,-9.306926 -7.145915 0.4880287,-8.777532 -6.823358 0.7129766,-8.288774 -6.281085 0.895797,-7.949851 -5.764512 1.114518,-7.65279 -5.530506 1.337026,-8.610969 -4.731332 0.6491587,-8.47833 -3.73237 0.7830087,-8.427307 -3.12807 0.9396931,-8.388119 -2.607139 1.047075,-8.922475 -4.561452 0.6954803,-8.804031 -3.402694 0.8247224,-8.730105 -2.683097 1.020452,-8.665458 -2.065647 1.176009,-9.231983 -4.604396 0.7682959,-9.153716 -3.523403 0.8870254,-9.092809 -2.856189 1.016412,-9.023501 -2.287257 1.105994,-9.551648 -4.825874 0.867151,-9.601423 -4.00745 0.9839295,-9.602706 -3.479234 1.068744,-9.580775 -2.977334 1.119478,0.760,DnF
-3.178461 -5.723049 1.051553,-3.779649 -5.540051 1.291636,-4.327181 -5.038515 1.410957,-4.742965 -4.57003 1.541309,-5.110766 -4.368206 1.694142,-3.984649 -3.397808 1.129044,-4.245581 -2.444457 1.280447,-4.422097 -1.86175 1.444299,-4.580273 -1.342606 1.588227,-3.649128 -3.155693 1.181029,-3.832198 -2.042533 1.371754,-3.976614 -1.317075 1.576849,-4.100705 -0.6924701 1.73075,-3.314829 -3.149393 1.291137,-3.442566 -2.10838 1.478384,-3.571009 -1.459565 1.657842,-3.687006 -0.9090524 1.789652,-2.967129 -3.32382 1.431606,-2.962523 -2.489593 1.619576,-2.997159 -1.971585 1.776537,-3.050833 -1.4691 1.910294,-9.317954 -7.134684 0.4741597,-8.77776 -6.790361 0.6986781,-8.28644 -6.257954 0.8803201,-7.938155 -5.738424 1.100671,-7.632055 -5.482374 1.331357,-8.618396 -4.721967 0.6280752,-8.478575 -3.717149 0.7644037,-8.415812 -3.098481 0.9183537,-8.363725 -2.567542 1.019809,-8.926363 -4.554166 0.6667347,-8.811923 -3.399207 0.7944564,-8.73601 -2.679414 0.9902696,-8.668544 -2.064714 1.141403,-9.230868 -4.599014 0.7319686,-9.15722 -3.534317 0.8443261,-9.094411 -2.880138 0.9733084,-9.022373 -2.325698 1.057213,-9.541967 -4.820238 0.8269483,-9.600174 -4.014717 0.9369559,-9.603701 -3.496855 1.033315,-9.581221 -3.002304 1.091973,0.780,DnF
-3.178461 -5.723049 1.051553,-3.779649 -5.540051 1.291636,-4.327181 -5.038515 1.410957,-4.742965 -4.57003 1.541309,-5.110766 -4.368206 1.694142,-3.984649 -3.397808 1.129044,-4.245581 -2.444457 1.280447,-4.422097 -1.86175 1.444299,-4.580273 -1.342606 1.588227,-3.649128 -3.155693 1.181029,-3.832198 -2.042533 1.371754,-3.976614 -1.317075 1.576849,-4.100705 -0.6924701 1.73075,-3.314829 -3.149393 1.291137,-3.442566 -2.10838 1.478384,-3.571009 -1.459565 1.657842,-3.687006 -0.9090524 1.789652,-2.967129 -3.32382 1.431606,-2.962523 -2.489593 1.619576,-2.997159 -1.971585 1.776537,-3.050833 -1.4691 1.910294,-9.317954 -7.134684 0.4741597,-8.77776 -6.790361 0.6986781,-8.28644 -6.257954 0.8803201,-7.938155 -5.738424 1.100671,-7.632055 -5.482374 1.331357,-8.618396 -4.721967 0.6280752,-8.478575 -3.717149 0.7644037,-8.415812 -3.098481 0.9183537,-8.363725 -2.567542 1.019809,-8.926363 -4.554166 0.6667347,-8.811923 -3.399207 0.7944564,-8.73601 -2.679414 0.9902696,-8.668544 -2.064714 1.141403,-9.230868 -4.599014 0.7319686,-9.15722 -3.534317 0.8443261,-9.094411 -2.880138 0.9733084,-9.022373 -2.325698 1.057213,-9.541967 -4.820238 0.8269483,-9.600174 -4.014717 0.9369559,-9.603701 -3.496855 1.033315,-9.581221 -3.002304 1.091973,0.800,DnF
-3.178461 -5.723049 1.051553,-3.779649 -5.540051 1.291636,-4.327181 -5.038515 1.410957,-4.742965 -4.57003 1.541309,-5.110766 -4.368206 1.694142,-3.984649 -3.397808 1.129044,-4.245581 -2.444457 1.280447,-4.422097 -1.86175 1.444299,-4.580273 -1.342606 1.588227,-3.649128 -3.155693 1.181029,-3.832198 -2.042533 1.371754,-3.976614 -1.317075 1.576849,-4.100705 -0.6924701 1.73075,-3.314829 -3.149393 1.291137,-3.442566 -2.10838 1.478384,-3.571009 -1.459565 1.657842,-3.687006 -0.9090524 1.789652,-2.967129 -3.32382 1.431606,-2.962523 -2.489593 1.619576,-2.997159 -1.971585 1.776537,-3.050833 -1.4691 1.910294,-9.317954 -7.134684 0.4741597,-8.77776 -6.790361 0.6986781,-8.28644 -6.257954 0.8803201,-7.938155 -5.738424 1.100671,-7.632055 -5.482374 1.331357,-8.618396 -4.721967 0.6280752,-8.478575 -3.717149 0.7644037,-8.415812 -3.098481 0.9183537,-8.363725 -2.567542 1.019809,-8.926363 -4.554166 0.6667347,-8.811923 -3.399207 0.7944564,-8.73601 -2.679414 0.9902696,-8.668544 -2.064714 1.141403,-9.230868 -4.599014 0.7319686,-9.15722 -3.534317 0.8443261,-9.094411 -2.880138 0.9733084,-9.022373 -2.325698 1.057213,-9.541967 -4.820238 0.8269483,-9.600174 -4.014717 0.9369559,-9.603701 -3.496855 1.033315,-9.581221 -3.002304 1.091973,0.820,DnF
-3.129816 -5.726374 1.030088,-3.743465 -5.537421 1.25212,-4.293716 -5.033048 1.356547,-4.70401 -4.551639 1.472198,-5.053598 -4.327861 1.602107,-3.917646 -3.404281 1.080279,-4.172196 -2.443543 1.209755,-4.345222 -1.845373 1.358056,-4.496026 -1.316103 1.491203,-3.579771 -3.160274 1.131642,-3.758932 -2.029488 1.302078,-3.896418 -1.287903 1.493651,-4.013731 -0.6633878 1.633345,-3.24798 -3.148414 1.242037,-3.358553 -2.082933 1.408336,-3.473442 -1.41941 1.574467,-3.580235 -0.8697991 1.697269,-2.905018 -3.322477 1.382517,-2.884874 -2.468496 1.559369,-2.908802 -1.932906 1.714627,-2.955296 -1.421221 1.842549,-9.301462 -7.092147 0.3932934,-8.765855 -6.777032 0.61659,-8.277395 -6.236957 0.7917508,-7.92776 -5.710723 1.005842,-7.618078 -5.452802 1.227017,-8.610713 -4.708683 0.5549287,-8.466152 -3.700242 0.6908782,-8.4045 -3.083505 0.8433838,-8.354347 -2.548945 0.9431978,-8.920071 -4.534021 0.5926065,-8.799371 -3.371033 0.7203912,-8.719802 -2.649994 0.9124039,-8.648356 -2.032386 1.064375,-9.226509 -4.567882 0.6573402,-9.146432 -3.485173 0.7726722,-9.082897 -2.82418 0.8964349,-9.008599 -2.262068 0.9813053,-9.540814 -4.772706 0.7489256,-9.592924 -3.9537 0.8596842,-9.592484 -3.433685 0.9465283,-9.564937 -2.939792 0.9966024,0.840,DnF
-3.129816 -5.726374 1.030088,-3.743465 -5.537421 1.25212,-4.293716 -5.033048 1.356547,-4.70401 -4.551639 1.472198,-5.053598 -4.327861 1.602107,-3.917646 -3.404281 1.080279,-4.172196 -2.443543 1.209755,-4.345222 -1.845373 1.358056,-4.496026 -1.316103 1.491203,-3.579771 -3.160274 1.131642,-3.758932 -2.029488 1.302078,-3.896418 -1.287903 1.493651,-4.013731 -0.6633878 1.633345,-3.24798 -3.148414 1.242037,-3.358553 -2.082933 1.408336,-3.473442 -1.41941 1.574467,-3.580235 -0.8697991 1.697269,-2.905018 -3.322477 1.382517,-2.884874 -2.468496 1.559369,-2.908802 -1.932906 1.714627,-2.955296 -1.421221 1.842549,-9.301462 -7.092147 0.3932934,-8.765855 -6.777032 0.61659,-8.277395 -6.236957 0.7917508,-7.92776 -5.710723 1.005842,-7.618078 -5.452802 1.227017,-8.610713 -4.708683 0.5549287,-8.466152 -3.700242 0.6908782,-8.4045 -3.083505 0.8433838,-8.354347 -2.548945 0.9431978,-8.920071 -4.534021 0.5926065,-8.799371 -3.371033 0.7203912,-8.719802 -2.649994 0.9124039,-8.648356 -2.032386 1.064375,-9.226509 -4.567882 0.6573402,-9.146432 -3.485173 0.7726722,-9.082897 -2.82418 0.8964349,-9.008599 -2.262068 0.9813053,-9.540814 -4.772706 0.7489256,-9.592924 -3.9537 0.8596842,-9.592484 -3.433685 0.9465283,-9.564937 -2.939792 0.9966024,0.860,DnF
-3.129816 -5.726374 1.030088,-3.743465 -5.537421 1.25212,-4.293716 -5.033048 1.356547,-4.70401 -4.551639 1.472198,-5.053598 -4.327861 1.602107,-3.917646 -3.404281 1.080279,-4.172196 -2.443543 1.209755,-4.345222 -1.845373 1.358056,-4.496026 -1.316103 1.491203,-3.579771 -3.160274 1.131642,-3.758932 -2.029488 1.302078,-3.896418 -1.287903 1.493651,-4.013731 -0.6633878 1.633345,-3.24798 -3.148414 1.242037,-3.358553 -2.082933 1.408336,-3.473442 -1.41941 1.574467,-3.580235 -0.8697991 1.697269,-2.905018 -3.322477 1.382517,-2.884874 -2.468496 1.559369,-2.908802 -1.932906 1.714627,-2.955296 -1.421221 1.842549,-9.301462 -7.092147 0.3932934,-8.765855 -6.777032 0.61659,-8.277395 -6.236957 0.7917508,-7.92776 -5.710723 1.005842,-7.618078 -5.452802 1.227017,-8.610713 -4.708683 0.5549287,-8.466152 -3.700242 0.6908782,-8.4045 -3.083505 0.8433838,-8.354347 -2.548945 0.9431978,-8.920071 -4.534021 0.5926065,-8.799371 -3.371033 0.7203912,-8.719802 -2.649994 0.9124039,-8.648356 -2.032386 1.064375,-9.226509 -4.567882 0.6573402,-9.146432 -3.485173 0.7726722,-9.082897 -2.82418 0.8964349,-9.008599 -2.262068 0.9813053,-9.540814 -4.772706 0.7489256,-9.592924 -3.9537 0.8596842,-9.592484 -3.433685 0.9465283,-9.564937 -2.939792 0.9966024,0.880,DnF
-3.087357 -5.744833 1.067816,-3.70011 -5.551066 1.287445,-4.25779 -5.027521 1.390885,-4.67429 -4.539706 1.503744,-5.026031 -4.316942 1.632555,-3.86496 -3.406425 1.131017,-4.108427 -2.437243 1.265472,-4.26988 -1.828681 1.415366,-4.407867 -1.29004 1.550705,-3.524335 -3.166132 1.183188,-3.690033 -2.033952 1.36283,-3.818067 -1.290342 1.556289,-3.923648 -0.6584611 1.695136,-3.188241 -3.154004 1.292161,-3.287071 -2.089965 1.463485,-3.391556 -1.421882 1.623767,-3.484712 -0.8696752 1.73935,-2.837631 -3.325151 1.429096,-2.812237 -2.457613 1.61224,-2.827297 -1.919227 1.760843,-2.863671 -1.406626 1.883905,-9.297526 -7.055339 0.3833761,-8.754605 -6.743028 0.6075824,-8.269438 -6.210843 0.789827,-7.929712 -5.689538 1.010657,-7.633174 -5.428731 1.237851,-8.59993 -4.674236 0.5361425,-8.456818 -3.664962 0.6804417,-8.395015 -3.038682 0.8459135,-8.345017 -2.498445 0.9590763,-8.910793 -4.500122 0.572741,-8.790459 -3.343802 0.6956192,-8.709656 -2.624543 0.8902132,-8.637633 -2.004138 1.050363,-9.220692 -4.530328 0.6374153,-9.138247 -3.456174 0.7405563,-9.076775 -2.799308 0.8549488,-9.007854 -2.237855 0.9348984,-9.538672 -4.732904 0.7321877,-9.57969 -3.906255 0.8255874,-9.574445 -3.383786 0.8946594,-9.546156 -2.885604 0.9374366,0.900,DnF
-3.087357 -5.744833 1.067816,-3.70011 -5.551066 1.287445,-4.25779 -5.027521 1.390885,-4.67429 -4.539706 1.503744,-5.026031 -4.316942 1.632555,-3.86496 -3.406425 1.131017,-4.108427 -2.437243 1.265472,-4.26988 -1.828681 1.415366,-4.407867 -1.29004 1.550705,-3.524335 -3.166132 1.183188,-3.690033 -2.033952 1.36283,-3.818067 -1.290342 1.556289,-3.923648 -0.6584611 1.695136,-3.188241 -3.154004 1.292161,-3.287071 -2.089965 1.463485,-3.391556 -1.421882 1.623767,-3.484712 -0.8696752 1.73935,-2.837631 -3.325151 1.429096,-2.812237 -2.457613 1.61224,-2.827297 -1.919227 1.760843,-2.863671 -1.406626 1.883905,-9.297526 -7.055339 0.3833761,-8.754605 -6.743028 0.6075824,-8.269438 -6.210843 0.789827,-7.929712 -5.689538 1.010657,-7.633174 -5.428731 1.237851,-8.59993 -4.674236 0.5361425,-8.456818 -3.664962 0.6804417,-8.395015 -3.038682 0.8459135,-8.345017 -2.498445 0.9590763,-8.910793 -4.500122 0.572741,-8.790459 -3.343802 0.6956192,-8.709656 -2.624543 0.8902132,-8.637633 -2.004138 1.050363,-9.220692 -4.530328 0.6374153,-9.138247 -3.456174 0.7405563,-9.076775 -2.799308 0.8549488,-9.007854 -2.237855 0.9348984,-9.538672 -4.732904 0.7321877,-9.57969 -3.906255 0.8255874,-9.574445 -3.383786 0.8946594,-9.546156 -2.885604 0.9374366,0.920,DnF
-3.087357 -5.744833 1.067816,-3.70011 -5.551066 1.287445,-4.25779 -5.027521 1.390885,-4.67429 -4.539706 1.503744,-5.026031 -4.316942 1.632555,-3.86496 -3.406425 1.131017,-4.108427 -2.437243 1.265472,-4.26988 -1.828681 1.415366,-4.407867 -1.29004 1.550705,-3.524335 -3.166132 1.183188,-3.690033 -2.033952 1.36283,-3.818067 -1.290342 1.556289,-3.923648 -0.6584611 1.695136,-3.188241 -3.154004 1.292161,-3.287071 -2.089965 1.463485,-3.391556 -1.421882 1.623767,-3.484712 -0.8696752 1.73935,-2.837631 -3.325151 1.429096,-2.812237 -2.457613 1.61224,-2.827297 -1.919227 1.760843,-2.863671 -1.406626 1.883905,-9.297526 -7.055339 0.3833761,-8.754605 -6.743028 0.6075824,-8.269438 -6.210843 0.789827,-7.929712 -5.689538 1.010657,-7.633174 -5.428731 1.237851,-8.59993 -4.674236 0.5361425,-8.456818 -3.664962 0.6804417,-8.395015 -3.038682 0.8459135,-8.345017 -2.498445 0.9590763,-8.910793 -4.500122 0.572741,-8.790459 -3.343802 0.6956192,-8.709656 -2.624543 0.8902132,-8.637633 -2.004138 1.050363,-9.220692 -4.530328 0.6374153,-9.138247 -3.456174 0.7405563,-9.076775 -2.799308 0.8549488,-9.007854 -2.237855 0.9348984,-9.538672 -4.732904 0.7321877,-9.57969 -3.906255 0.8255874,-9.574445 -3.383786 0.8946594,-9.546156 -2.885604 0.9374366,0.940,DnF
-3.042126 -5.77333 1.092388,-3.649811 -5.573255 1.310777,-4.202478 -5.035284 1.407757,-4.610054 -4.536394 1.511359,-4.955777 -4.311079 1.62574,-3.797735 -3.42221 1.162149,-4.034124 -2.45499 1.29612,-4.190026 -1.841329 1.447314,-4.320561 -1.292481 1.5844,-3.457865 -3.184135 1.210922,-3.615934 -2.044003 1.39018,-3.734632 -1.299489 1.581253,-3.832461 -0.661324 1.718969,-3.125932 -3.178215 1.314838,-3.216635 -2.106128 1.486702,-3.314593 -1.432226 1.647723,-3.403203 -0.8694835 1.762764,-2.780985 -3.359837 1.446311,-2.746762 -2.490581 1.631121,-2.755351 -1.950132 1.779387,-2.785264 -1.431967 1.905599,-9.287679 -7.021068 0.3729406,-8.742619 -6.711565 0.6089995,-8.255629 -6.176204 0.8018883,-7.913889 -5.647201 1.03095,-7.607943 -5.369739 1.268012,-8.59197 -4.642219 0.5483096,-8.452574 -3.620621 0.7019749,-8.39092 -2.991281 0.871847,-8.340792 -2.450439 0.9847755,-8.901075 -4.470703 0.5857107,-8.782594 -3.302521 0.7235816,-8.701754 -2.587363 0.9195625,-8.627822 -1.97078 1.074006,-9.209167 -4.504924 0.6530607,-9.129071 -3.417045 0.7718476,-9.0697 -2.758339 0.8926883,-8.999211 -2.191082 0.9733233,-9.525011 -4.713853 0.750326,-9.574225 -3.884957 0.85728,-9.573027 -3.362739 0.932155,-9.544271 -2.866472 0.974569,0.960,DnF
-3.042126 -5.77333 1.092388,-3.649811 -5.573255 1.310777,-4.202478 -5.035284 1.407757,-4.610054 -4.536394 1.511359,-4.955777 -4.311079 1.62574,-3.797735 -3.42221 1.162149,-4.034124 -2.45499 1.29612,-4.190026 -1.841329 1.447314,-4.320561 -1.292481 1.5844,-3.457865 -3.184135 1.210922,-3.615934 -2.044003 1.39018,-3.734632 -1.299489 1.581253,-3.832461 -0.661324 1.718969,-3.125932 -3.178215 1.314838,-3.216635 -2.106128 1.486702,-3.314593 -1.432226 1.647723,-3.403203 -0.8694835 1.762764,-2.780985 -3.359837 1.446311,-2.746762 -2.490581 1.631121,-2.755351 -1.950132 1.779387,-2.785264 -1.431967 1.905599,-9.287679 -7.021068 0.3729406,-8.742619 -6.711565 0.6089995,-8.255629 -6.176204 0.8018883,-7.913889 -5.647201 1.03095,-7.607943 -5.369739 1.268012,-8.59197 -4.642219 0.5483096,-8.452574 -3.620621 0.7019749,-8.39092 -2.991281 0.871847,-8.340792 -2.450439 0.9847755,-8.901075 -4.470703 0.5857107,-8.782594 -3.302521 0.7235816,-8.701754 -2.587363 0.9195625,-8.627822 -1.97078 1.074006,-9.209167 -4.504924 0.6530607,-9.129071 -3.417045 0.7718476,-9.0697 -2.758339 0.8926883,-8.999211 -2.191082 0.9733233,-9.525011 -4.713853 0.750326,-9.574225 -3.884957 0.85728,-9.573027 -3.362739 0.932155,-9.544271 -2.866472 0.974569,0.980,DnF
-3.042126 -5.77333 1.092388,-3.649811 -5.573255 1.310777,-4.202478 -5.035284 1.407757,-4.610054 -4.536394 1.511359,-4.955777 -4.311079 1.62574,-3.797735 -3.42221 1.162149,-4.034124 -2.45499 1.29612,-4.190026 -1.841329 1.447314,-4.320561 -1.292481 1.5844,-3.457865 -3.184135 1.210922,-3.615934 -2.044003 1.39018,-3.734632 -1.299489 1.581253,-3.832461 -0.661324 1.718969,-3.125932 -3.178215 1.314838,-3.216635 -2.106128 1.486702,-3.314593 -1.432226 1.647723,-3.403203 -0.8694835 1.762764,-2.780985 -3.359837 1.446311,-2.746762 -2.490581 1.631121,-2.755351 -1.950132 1.779387,-2.785264 -1.431967 1.905599,-9.287679 -7.021068 0.3729406,-8.742619 -6.711565 0.6089995,-8.255629 -6.176204 0.8018883,-7.913889 -5.647201 1.03095,-7.607943 -5.369739 1.268012,-8.59197 -4.642219 0.5483096,-8.452574 -3.620621 0.7019749,-8.39092 -2.991281 0.871847,-8.340792 -2.450439 0.9847755,-8.901075 -4.470703 0.5857107,-8.782594 -3.302521 0.7235816,-8.701754 -2.587363 0.9195625,-8.627822 -1.97078 1.074006,-9.209167 -4.504924 0.6530607,-9.129071 -3.417045 0.7718476,-9.0697 -2.758339 0.8926883,-8.999211 -2.191082 0.9733233,-9.525011 -4.713853 0.750326,-9.574225 -3.884957 0.85728,-9.573027 -3.362739 0.932155,-9.544271 -2.866472 0.974569,1.000,DnF
-3.042126 -5.77333 1.092388,-3.649811 -5.573255 1.310777,-4.202478 -5.035284 1.407757,-4.610054 -4.536394 1.511359,-4.955777 -4.311079 1.62574,-3.797735 -3.42221 1.162149,-4.034124 -2.45499 1.29612,-4.190026 -1.841329 1.447314,-4.320561 -1.292481 1.5844,-3.457865 -3.184135 1.210922,-3.615934 -2.044003 1.39018,-3.734632 -1.299489 1.581253,-3.832461 -0.661324 1.718969,-3.125932 -3.178215 1.314838,-3.216635 -2.106128 1.486702,-3.314593 -1.432226 1.647723,-3.403203 -0.8694835 1.762764,-2.780985 -3.359837 1.446311,-2.746762 -2.490581 1.631121,-2.755351 -1.950132 1.779387,-2.785264 -1.431967 1.905599,-9.287679 -7.021068 0.3729406,-8.742619 -6.711565 0.6089995,-8.255629 -6.176204 0.8018883,-7.913889 -5.647201 1.03095,-7.607943 -5.369739 1.268012,-8.59197 -4.642219 0.5483096,-8.452574 -3.620621 0.7019749,-8.39092 -2.991281 0.871847,-8.340792 -2.450439 0.9847755,-8.901075 -4.470703 0.5857107,-8.782594 -3.302521 0.7235816,-8.701754 -2.587363 0.9195625,-8.627822 -1.97078 1.074006,-9.209167 -4.504924 0.6530607,-9.129071 -3.417045 0.7718476,-9.0697 -2.758339 0.8926883,-8.999211 -2.191082 0.9733233,-9.525011 -4.713853 0.750326,-9.574225 -3.884957 0.85728,-9.573027 -3.362739 0.932155,-9.544271 -2.866472 0.974569,1.020,DnF
-2.994007 -5.8066 1.105706,-3.603132 -5.595815 1.334948,-4.155882 -5.051126 1.436089,-4.557117 -4.528478 1.538627,-4.898197 -4.285621 1.650353,-3.754303 -3.44492 1.194174,-3.977638 -2.462372 1.324008,-4.126395 -1.840859 1.476193,-4.250711 -1.284051 1.620037,-3.410828 -3.214181 1.233463,-3.551831 -2.066918 1.408552,-3.6612 -1.324069 1.594704,-3.747093 -0.6833577 1.735589,-3.07867 -3.211379 1.328454,-3.157545 -2.140373 1.49517,-3.246401 -1.462241 1.659723,-3.32246 -0.8938584 1.780962,-2.734072 -3.390481 1.450722,-2.695081 -2.519384 1.622189,-2.700722 -1.977468 1.768825,-2.724989 -1.4591 1.89662,-9.270788 -6.971113 0.3860703,-8.727847 -6.659187 0.6370785,-8.241299 -6.131524 0.8410342,-7.894714 -5.614729 1.078788,-7.581676 -5.363088 1.327235,-8.576131 -4.592418 0.5900013,-8.434665 -3.580827 0.7452626,-8.372819 -2.959211 0.9198774,-8.321073 -2.420268 1.039487,-8.888793 -4.418006 0.6191463,-8.768955 -3.259862 0.7560141,-8.689628 -2.546804 0.9569776,-8.61646 -1.924561 1.120201,-9.198954 -4.45085 0.6767169,-9.116496 -3.370923 0.7943754,-9.056099 -2.711292 0.9195585,-8.986302 -2.138132 1.004304,-9.516445 -4.660114 0.7653787,-9.563813 -3.83806 0.8715733,-9.562851 -3.320941 0.9469493,-9.535881 -2.821833 0.9938645,1.040,DnF
-2.994007 -5.8066 1.105706,-3.603132 -5.595815 1.334948,-4.155882 -5.051126 1.436089,-4.557117 -4.528478 1.538627,-4.898197 -4.285621 1.650353,-3.754303 -3.44492 1.194174,-3.977638 -2.462372 1.324008,-4.126395 -1.840859 1.476193,-4.250711 -1.284051 1.620037,-3.410828 -3.214181 1.233463,-3.551831 -2.066918 1.408552,-3.6612 -1.324069 1.594704,-3.747093 -0.6833577 1.735589,-3.07867 -3.211379 1.328454,-3.157545 -2.140373 1.49517,-3.246401 -1.462241 1.659723,-3.32246 -0.8938584 1.780962,-2.734072 -3.390481 1.450722,-2.695081 -2.519384 1.622189,-2.700722 -1.977468 1.768825,-2.724989 -1.4591 1.89662,-9.270788 -6.971113 0.3860703,-8.727847 -6.659187 0.6370785,-8.241299 -6.131524 0.8410342,-7.894714 -5.614729 1.078788,-7.581676 -5.363088 1.327235,-8.576131 -4.592418 0.5900013,-8.434665 -3.580827 0.7452626,-8.372819 -2.959211 0.9198774,-8.321073 -2.420268 1.039487,-8.888793 -4.418006 0.6191463,-8.768955 -3.259862 0.7560141,-8.689628 -2.546804 0.9569776,-8.61646 -1.924561 1.120201,-9.198954 -4.45085 0.6767169,-9.116496 -3.370923 0.7943754,-9.056099 -2.711292 0.9195585,-8.986302 -2.138132 1.004304,-9.516445 -4.660114 0.7653787,-9.563813 -3.83806 0.8715733,-9.562851 -3.320941 0.9469493,-9.535881 -2.821833 0.9938645,1.060,DnF
-2.994007 -5.8066 1.105706,-3.603132 -5.595815 1.334948,-4.155882 -5.051126 1.436089,-4.557117 -4.528478 1.538627,-4.898197 -4.285621 1.650353,-3.754303 -3.44492 1.194174,-3.977638 -2.462372 1.324008,-4.126395 -1.840859 1.476193,-4.250711 -1.284051 1.620037,-3.410828 -3.214181 1.233463,-3.551831 -2.066918 1.408552,-3.6612 -1.324069 1.594704,-3.747093 -0.6833577 1.735589,-3.07867 -3.211379 1.328454,-3.157545 -2.140373 1.49517,-3.246401 -1.462241 1.659723,-3.32246 -0.8938584 1.780962,-2.734072 -3.390481 1.450722,-2.695081 -2.519384 1.622189,-2.700722 -1.977468 1.768825,-2.724989 -1.4591 1.89662,-9.270788 -6.971113 0.3860703,-8.727847 -6.659187 0.6370785,-8.241299 -6.131524 0.8410342,-7.894714 -5.614729 1.078788,-7.581676 -5.363088 1.327235,-8.576131 -4.592418 0.5900013,-8.434665 -3.580827 0.7452626,-8.372819 -2.959211 0.9198774,-8.321073 -2.420268 1.039487,-8.888793 -4.418006 0.6191463,-8.768955 -3.259862 0.7560141,-8.689628 -2.546804 0.9569776,-8.61646 -1.924561 1.120201,-9.198954 -4.45085 0.6767169,-9.116496 -3.370923 0.7943754,-9.056099 -2.711292 0.9195585,-8.986302 -2.138132 1.004304,-9.516445 -4.660114 0.7653787,-9.563813 -3.83806 0.8715733,-9.562851 -3.320941 0.9469493,-9.535881 -2.821833 0.9938645,1.080,DnF
-2.948364 -5.84049 1.089031,-3.557854 -5.619646 1.312348,-4.109646 -5.072563 1.409639,-4.508432 -4.5587 1.510109,-4.83967 -4.314387 1.613105,-3.708714 -3.474703 1.17462,-3.925877 -2.491451 1.308871,-4.066184 -1.867625 1.465141,-4.180189 -1.309904 1.607055,-3.360836 -3.252265 1.217419,-3.498212 -2.101594 1.395771,-3.599393 -1.356044 1.587976,-3.676176 -0.7201314 1.733816,-3.024552 -3.253331 1.314059,-3.09758 -2.179449 1.484403,-3.177059 -1.502513 1.646268,-3.244484 -0.9417415 1.764222,-2.676403 -3.434176 1.436241,-2.628383 -2.562789 1.613948,-2.626085 -2.023777 1.757087,-2.645287 -1.509353 1.879187,-9.277634 -6.937476 0.3982534,-8.735283 -6.637109 0.6642178,-8.241971 -6.11049 0.8657334,-7.88592 -5.595627 1.099347,-7.570179 -5.33789 1.340529,-8.567392 -4.560836 0.591159,-8.424906 -3.552517 0.7470729,-8.360725 -2.928109 0.9180071,-8.308214 -2.388942 1.030318,-8.876676 -4.382196 0.6134917,-8.756388 -3.230918 0.7514589,-8.676037 -2.514611 0.9509056,-8.603888 -1.894432 1.108271,-9.186703 -4.414411 0.6688528,-9.104765 -3.339473 0.7928926,-9.042439 -2.673828 0.9245337,-8.97039 -2.102906 1.006902,-9.505488 -4.628269 0.7576432,-9.558414 -3.818476 0.872301,-9.559484 -3.304203 0.9590619,-9.532754 -2.80925 1.008812,1.100,DnF
-2.948364 -5.84049 1.089031,-3.557854 -5.619646 1.312348,-4.109646 -5.072563 1.409639,-4.508432 -4.5587 1.510109,-4.83967 -4.314387 1.613105,-3.708714 -3.474703 1.17462,-3.925877 -2.491451 1.308871,-4.066184 -1.867625 1.465141,-4.180189 -1.309904 1.607055,-3.360836 -3.252265 1.217419,-3.498212 -2.101594 1.395771,-3.599393 -1.356044 1.587976,-3.676176 -0.7201314 1.733816,-3.024552 -3.253331 1.314059,-3.09758 -2.179449 1.484403,-3.177059 -1.502513 1.646268,-3.244484 -0.9417415 1.764222,-2.676403 -3.434176 1.436241,-2.628383 -2.562789 1.613948,-2.626085 -2.023777 1.757087,-2.645287 -1.509353 1.879187,-9.277634 -6.937476 0.3982534,-8.735283 -6.637109 0.6642178,-8.241971 -6.11049 0.8657334,-7.88592 -5.595627 1.099347,-7.570179 -5.33789 1.340529,-8.567392 -4.560836 0.591159,-8.424906 -3.552517 0.7470729,-8.360725 -2.928109 0.9180071,-8.308214 -2.388942 1.030318,-8.876676 -4.382196 0.6134917,-8.756388 -3.230918 0.7514589,-8.676037 -2.514611 0.9509056,-8.603888 -1.894432 1.108271,-9.186703 -4.414411 0.6688528,-9.104765 -3.339473 0.7928926,-9.042439 -2.673828 0.9245337,-8.97039 -2.102906 1.006902,-9.505488 -4.628269 0.7576432,-9.558414 -3.818476 0.872301,-9.559484 -3.304203 0.9590619,-9.532754 -2.80925 1.008812,1.120,DnF
-2.948364 -5.84049 1.089031,-3.557854 -5.619646 1.312348,-4.109646 -5.072563 1.409639,-4.508432 -4.5587 1.510109,-4.83967 -4.314387 1.613105,-3.708714 -3.474703 1.17462,-3.925877 -2.491451 1.308871,-4.066184 -1.867625 1.465141,-4.180189 -1.309904 1.607055,-3.360836 -3.252265 1.217419,-3.498212 -2.101594 1.395771,-3.599393 -1.356044 1.587976,-3.676176 -0.7201314 1.733816,-3.024552 -3.253331 1.314059,-3.09758 -2.179449 1.484403,-3.177059 -1.502513 1.646268,-3.244484 -0.9417415 1.764222,-2.676403 -3.434176 1.436241,-2.628383 -2.562789 1.613948,-2.626085 -2.023777 1.757087,-2.645287 -1.509353 1.879187,-9.277634 -6.937476 0.3982534,-8.735283 -6.637109 0.6642178,-8.241971 -6.11049 0.8657334,-7.88592 -5.595627 1.099347,-7.570179 -5.33789 1.340529,-8.567392 -4.560836 0.591159,-8.424906 -3.552517 0.7470729,-8.360725 -2.928109 0.9180071,-8.308214 -2.388942 1.030318,-8.876676 -4.382196 0.6134917,-8.756388 -3.230918 0.7514589,-8.676037 -2.514611 0.9509056,-8.603888 -1.894432 1.108271,-9.186703 -4.414411 0.6688528,-9.104765 -3.339473 0.7928926,-9.042439 -2.673828 0.9245337,-8.97039 -2.102906 1.006902,-9.505488 -4.628269 0.7576432,-9.558414 -3.818476 0.872301,-9.559484 -3.304203 0.9590619,-9.532754 -2.80925 1.008812,1.140,DnF
-2.898644 -5.898839 1.088405,-3.505559 -5.677675 1.325675,-4.053391 -5.118759 1.429617,-4.445703 -4.599628 1.532384,-4.770414 -4.352033 1.633547,-3.647953 -3.529968 1.21575,-3.857929 -2.532695 1.362281,-3.988567 -1.895154 1.517205,-4.091076 -1.330288 1.658196,-3.299622 -3.311174 1.254989,-3.434019 -2.15149 1.449053,-3.529623 -1.396537 1.642266,-3.600109 -0.7609324 1.790343,-2.962676 -3.315671 1.348016,-3.031636 -2.224061 1.53905,-3.107378 -1.534765 1.707201,-3.174421 -0.9641376 1.827125,-2.614245 -3.504268 1.466842,-2.561146 -2.620053 1.668398,-2.554974 -2.071521 1.820757,-2.571636 -1.555528 1.948139,-9.275931 -6.91423 0.4165324,-8.7236 -6.618415 0.6743949,-8.224201 -6.101068 0.8675874,-7.863799 -5.586794 1.093497,-7.554288 -5.323329 1.323096,-8.557139 -4.532278 0.567165,-8.419314 -3.521104 0.7083955,-8.358075 -2.892255 0.8704098,-8.306301 -2.353487 0.979831,-8.868178 -4.350904 0.5805106,-8.745845 -3.203714 0.6991346,-8.663373 -2.488903 0.8925938,-8.587879 -1.873364 1.053981,-9.180056 -4.381315 0.6275287,-9.092237 -3.31652 0.7285399,-9.028319 -2.657825 0.8509701,-8.957016 -2.094268 0.9322305,-9.501868 -4.594106 0.7086647,-9.54944 -3.785508 0.7973237,-9.548676 -3.2767 0.8774681,-9.522111 -2.78874 0.9283097,1.160,DnF
-2.898644 -5.898839 1.088405,-3.505559 -5.677675 1.325675,-4.053391 -5.118759 1.429617,-4.445703 -4.599628 1.532384,-4.770414 -4.352033 1.633547,-3.647953 -3.529968 1.21575,-3.857929 -2.532695 1.362281,-3.988567 -1.895154 1.517205,-4.091076 -1.330288 1.658196,-3.299622 -3.311174 1.254989,-3.434019 -2.15149 1.449053,-3.529623 -1.396537 1.642266,-3.600109 -0.7609324 1.790343,-2.962676 -3.315671 1.348016,-3.031636 -2.224061 1.53905,-3.107378 -1.534765 1.707201,-3.174421 -0.9641376 1.827125,-2.614245 -3.504268 1.466842,-2.561146 -2.620053 1.668398,-2.554974 -2.071521 1.820757,-2.571636 -1.555528 1.948139,-9.275931 -6.91423 0.4165324,-8.7236 -6.618415 0.6743949,-8.224201 -6.101068 0.8675874,-7.863799 -5.586794 1.093497,-7.554288 -5.323329 1.323096,-8.557139 -4.532278 0.567165,-8.419314 -3.521104 0.7083955,-8.358075 -2.892255 0.8704098,-8.306301 -2.353487 0.979831,-8.868178 -4.350904 0.5805106,-8.745845 -3.203714 0.6991346,-8.663373 -2.488903 0.8925938,-8.587879 -1.873364 1.053981,-9.180056 -4.381315 0.6275287,-9.092237 -3.31652 0.7285399,-9.028319 -2.657825 0.8509701,-8.957016 -2.094268 0.9322305,-9.501868 -4.594106 0.7086647,-9.54944 -3.785508 0.7973237,-9.548676 -3.2767 0.8774681,-9.522111 -2.78874 0.9283097,1.180,DnF
-2.898644 -5.898839 1.088405,-3.505559 -5.677675 1.325675,-4.053391 -5.118759 1.429617,-4.445703 -4.599628 1.532384,-4.770414 -4.352033 1.633547,-3.647953 -3.529968 1.21575,-3.857929 -2.532695 1.362281,-3.988567 -1.895154 1.517205,-4.091076 -1.330288 1.658196,-3.299622 -3.311174 1.254989,-3.434019 -2.15149 1.449053,-3.529623 -1.396537 1.642266,-3.600109 -0.7609324 1.790343,-2.962676 -3.315671 1.348016,-3.031636 -2.224061 1.53905,-3.107378 -1.534765 1.707201,-3.174421 -0.9641376 1.827125,-2.614245 -3.504268 1.466842,-2.561146 -2.620053 1.668398,-2.554974 -2.071521 1.820757,-2.571636 -1.555528 1.948139,-9.275931 -6.91423 0.4165324,-8.7236 -6.618415 0.6743949,-8.224201 -6.101068 0.8675874,-7.863799 -5.586794 1.093497,-7.554288 -5.323329 1.323096,-8.557139 -4.532278 0.567165,-8.419314 -3.521104 0.7083955,-8.358075 -2.892255 0.8704098,-8.306301 -2.353487 0.979831,-8.868178 -4.350904 0.5805106,-8.745845 -3.203714 0.6991346,-8.663373 -2.488903 0.8925938,-8.587879 -1.873364 1.053981,-9.180056 -4.381315 0.6275287,-9.092237 -3.31652 0.7285399,-9.028319 -2.657825 0.8509701,-8.957016 -2.094268 0.9322305,-9.501868 -4.594106 0.7086647,-9.54944 -3.785508 0.7973237,-9.548676 -3.2767 0.8774681,-9.522111 -2.78874 0.9283097,1.200,DnF
-2.843941 -5.966331 1.078455,-3.45187 -5.739604 1.324998,-3.988705 -5.186896 1.434558,-4.35839 -4.647857 1.541877,-4.662395 -4.368236 1.643117,-3.584261 -3.593931 1.206482,-3.791227 -2.59344 1.346565,-3.913507 -1.955418 1.500162,-4.00386 -1.384552 1.642648,-3.23608 -3.379827 1.239535,-3.367478 -2.208805 1.416704,-3.453991 -1.453436 1.604685,-3.512918 -0.8155227 1.754694,-2.902393 -3.388908 1.328082,-2.964112 -2.282026 1.505128,-3.033278 -1.587746 1.674227,-3.094337 -1.011696 1.801624,-2.556892 -3.578908 1.442343,-2.494378 -2.684368 1.630793,-2.485725 -2.133482 1.782484,-2.500696 -1.621978 1.909347,-9.263185 -6.924758 0.4754046,-8.712415 -6.625314 0.7427641,-8.216196 -6.095371 0.9356652,-7.860929 -5.576389 1.155507,-7.54913 -5.318653 1.380518,-8.535771 -4.53059 0.6566526,-8.400635 -3.521327 0.8026424,-8.341427 -2.898647 0.9634833,-8.28881 -2.359558 1.069071,-8.846274 -4.34806 0.6711149,-8.731414 -3.200679 0.807706,-8.652832 -2.48783 1.009015,-8.578142 -1.870699 1.166335,-9.156732 -4.383678 0.7192931,-9.078469 -3.315549 0.845654,-9.018233 -2.653483 0.9855804,-8.94893 -2.086754 1.073998,-9.477387 -4.606966 0.7989993,-9.539134 -3.805647 0.9152279,-9.545792 -3.293763 1.01595,-9.525646 -2.799506 1.074293,1.220,DnF
-2.843941 -5.966331 1.078455,-3.45187 -5.739604 1.324998,-3.988705 -5.186896 1.434558,-4.35839 -4.647857 1.541877,-4.662395 -4.368236 1.643117,-3.584261 -3.593931 1.206482,-3.791227 -2.59344 1.346565,-3.913507 -1.955418 1.500162,-4.00386 -1.384552 1.642648,-3.23608 -3.379827 1.239535,-3.367478 -2.208805 1.416704,-3.453991 -1.453436 1.604685,-3.512918 -0.8155227 1.754694,-2.902393 -3.388908 1.328082,-2.964112 -2.282026 1.505128,-3.033278 -1.587746 1.674227,-3.094337 -1.011696 1.801624,-2.556892 -3.578908 1.442343,-2.494378 -2.684368 1.630793,-2.485725 -2.133482 1.782484,-2.500696 -1.621978 1.909347,-9.263185 -6.924758 0.4754046,-8.712415 -6.625314 0.7427641,-8.216196 -6.095371 0.9356652,-7.860929 -5.576389 1.155507,-7.54913 -5.318653 1.380518,-8.535771 -4.53059 0.6566526,-8.400635 -3.521327 0.8026424,-8.341427 -2.898647 0.9634833,-8.28881 -2.359558 1.069071,-8.846274 -4.34806 0.6711149,-8.731414 -3.200679 0.807706,-8.652832 -2.48783 1.009015,-8.578142 -1.870699 1.166335,-9.156732 -4.383678 0.7192931,-9.078469 -3.315549 0.845654,-9.018233 -2.653483 0.9855804,-8.94893 -2.086754 1.073998,-9.477387 -4.606966 0.7989993,-9.539134 -3.805647 0.9152279,-9.545792 -3.293763 1.01595,-9.525646 -2.799506 1.074293,1.240,DnF
-2.843941 -5.966331 1.078455,-3.45187 -5.739604 1.324998,-3.988705 -5.186896 1.434558,-4.35839 -4.647857 1.541877,-4.662395 -4.368236 1.643117,-3.584261 -3.593931 1.206482,-3.791227 -2.59344 1.346565,-3.913507 -1.955418 1.500162,-4.00386 -1.384552 1.642648,-3.23608 -3.379827 1.239535,-3.367478 -2.208805 1.416704,-3.453991 -1.453436 1.604685,-3.512918 -0.8155227 1.754694,-2.902393 -3.388908 1.328082,-2.964112 -2.282026 1.505128,-3.033278 -1.587746 1.674227,-3.094337 -1.011696 1.801624,-2.556892 -3.578908 1.442343,-2.494378 -2.684368 1.630793,-2.485725 -2.133482 1.782484,-2.500696 -1.621978 1.909347,-9.263185 -6.924758 0.4754046,-8.712415 -6.625314 0.7427641,-8.216196 -6.095371 0.9356652,-7.860929 -5.576389 1.155507,-7.54913 -5.318653 1.380518,-8.535771 -4.53059 0.6566526,-8.400635 -3.521327 0.8026424,-8.341427 -2.898647 0.9634833,-8.28881 -2.359558 1.069071,-8.846274 -4.34806 0.6711149,-8.731414 -3.200679 0.807706,-8.652832 -2.48783 1.009015,-8.578142 -1.870699 1.166335,-9.156732 -4.383678 0.7192931,-9.078469 -3.315549 0.845654,-9.018233 -2.653483 0.9855804,-8.94893 -2.086754 1.073998,-9.477387 -4.606966 0.7989993,-9.539134 -3.805647 0.9152279,-9.545792 -3.293763 1.01595,-9.525646 -2.799506 1.074293,1.260,DnF
-2.843941 -5.966331 1.078455,-3.45187 -5.739604 1.324998,-3.988705 -5.186896 1.434558,-4.35839 -4.647857 1.541877,-4.662395 -4.368236 1.643117,-3.584261 -3.593931 1.206482,-3.791227 -2.59344 1.346565,-3.913507 -1.955418 1.500162,-4.00386 -1.384552 1.642648,-3.23608 -3.379827 1.239535,-3.367478 -2.208805 1.416704,-3.453991 -1.453436 1.604685,-3.512918 -0.8155227 1.754694,-2.902393 -3.388908 1.328082,-2.964112 -2.282026 1.505128,-3.033278 -1.587746 1.674227,-3.094337 -1.011696 1.801624,-2.556892 -3.578908 1.442343,-2.494378 -2.684368 1.630793,-2.485725 -2.133482 1.782484,-2.500696 -1.621978 1.909347,-9.263185 -6.924758 0.4754046,-8.712415 -6.625314 0.7427641,-8.216196 -6.095371 0.9356652,-7.860929 -5.576389 1.155507,-7.54913 -5.318653 1.380518,-8.535771 -4.53059 0.6566526,-8.400635 -3.521327 0.8026424,-8.341427 -2.898647 0.9634833,-8.28881 -2.359558 1.069071,-8.846274 -4.34806 0.6711149,-8.731414 -3.200679 0.807706,-8.652832 -2.48783 1.009015,-8.578142 -1.870699 1.166335,-9.156732 -4.383678 0.7192931,-9.078469 -3.315549 0.845654,-9.018233 -2.653483 0.9855804,-8.94893 -2.086754 1.073998,-9.477387 -4.606966 0.7989993,-9.539134 -3.805647 0.9152279,-9.545792 -3.293763 1.01595,-9.525646 -2.799506 1.074293,1.280,DnF
-2.765419 -6.00934 1.046142,-3.371104 -5.794315 1.303052,-3.907815 -5.264284 1.419662,-4.268374 -4.715055 1.530414,-4.568422 -4.409706 1.630878,-3.518137 -3.651573 1.197523,-3.71987 -2.652632 1.335409,-3.833995 -2.013868 1.482782,-3.913141 -1.444995 1.620692,-3.17057 -3.434947 1.218735,-3.301282 -2.262403 1.387354,-3.38475 -1.506988 1.566791,-3.43557 -0.8725019 1.71122,-2.837667 -3.438113 1.29473,-2.891531 -2.341019 1.463214,-2.951145 -1.653233 1.626365,-3.001808 -1.083652 1.748533,-2.495021 -3.617856 1.395311,-2.432393 -2.742921 1.569809,-2.421443 -2.203998 1.710384,-2.434931 -1.705352 1.830354,-9.251975 -6.928962 0.5205145,-8.702746 -6.618621 0.7882084,-8.204445 -6.087785 0.991822,-7.846683 -5.581188 1.225866,-7.53371 -5.324427 1.469699,-8.527102 -4.518396 0.7186292,-8.390192 -3.50833 0.875495,-8.331189 -2.886663 1.044212,-8.27817 -2.346969 1.154413,-8.838662 -4.340866 0.7444005,-8.719842 -3.194241 0.8905686,-8.63971 -2.480072 1.094841,-8.565178 -1.863752 1.253265,-9.150501 -4.383905 0.8030406,-9.068689 -3.316562 0.9350149,-9.004248 -2.65003 1.075859,-8.931964 -2.084107 1.164171,-9.473654 -4.616703 0.8944125,-9.528408 -3.806625 1.021224,-9.528497 -3.283708 1.124578,-9.502142 -2.784923 1.182608,1.300,DnF
-2.765419 -6.00934 1.046142,-3.371104 -5.794315 1.303052,-3.907815 -5.264284 1.419662,-4.268374 -4.715055 1.530414,-4.568422 -4.409706 1.630878,-3.518137 -3.651573 1.197523,-3.71987 -2.652632 1.335409,-3.833995 -2.013868 1.482782,-3.913141 -1.444995 1.620692,-3.17057 -3.434947 1.218735,-3.301282 -2.262403 1.387354,-3.38475 -1.506988 1.566791,-3.43557 -0.8725019 1.71122,-2.837667 -3.438113 1.29473,-2.891531 -2.341019 1.463214,-2.951145 -1.653233 1.626365,-3.001808 -1.083652 1.748533,-2.495021 -3.617856 1.395311,-2.432393 -2.742921 1.569809,-2.421443 -2.203998 1.710384,-2.434931 -1.705352 1.830354,-9.251975 -6.928962 0.5205145,-8.702746 -6.618621 0.7882084,-8.204445 -6.087785 0.991822,-7.846683 -5.581188 1.225866,-7.53371 -5.324427 1.469699,-8.527102 -4.518396 0.7186292,-8.390192 -3.50833 0.875495,-8.331189 -2.886663 1.044212,-8.27817 -2.346969 1.154413,-8.838662 -4.340866 0.7444005,-8.719842 -3.194241 0.8905686,-8.63971 -2.480072 1.094841,-8.565178 -1.863752 1.253265,-9.150501 -4.383905 0.8030406,-9.068689 -3.316562 0.9350149,-9.004248 -2.65003 1.075859,-8.931964 -2.084107 1.164171,-9.473654 -4.616703 0.8944125,-9.528408 -3.806625 1.021224,-9.528497 -3.283708 1.124578,-9.502142 -2.784923 1.182608,1.320,DnF
-2.765419 -6.00934 1.046142,-3.371104 -5.794315 1.303052,-3.907815 -5.264284 1.419662,-4.268374 -4.715055 1.530414,-4.568422 -4.409706 1.630878,-3.518137 -3.651573 1.197523,-3.71987 -2.652632 1.335409,-3.833995 -2.013868 1.482782,-3.913141 -1.444995 1.620692,-3.17057 -3.434947 1.218735,-3.301282 -2.262403 1.387354,-3.38475 -1.506988 1.566791,-3.43557 -0.8725019 1.71122,-2.837667 -3.438113 1.29473,-2.891531 -2.341019 1.463214,-2.951145 -1.653233 1.626365,-3.001808 -1.083652 1.748533,-2.495021 -3.617856 1.395311,-2.432393 -2.742921 1.569809,-2.421443 -2.203998 1.710384,-2.434931 -1.705352 1.830354,-9.251975 -6.928962 0.5205145,-8.702746 -6.618621 0.7882084,-8.204445 -6.087785 0.991822,-7.846683 -5.581188 1.225866,-7.53371 -5.324427 1.469699,-8.527102 -4.518396 0.7186292,-8.390192 -3.50833 0.875495,-8.331189 -2.886663 1.044212,-8.27817 -2.346969 1.154413,-8.838662 -4.340866 0.7444005,-8.719842 -3.194241 0.8905686,-8.63971 -2.480072 1.094841,-8.565178 -1.863752 1.253265,-9.150501 -4.383905 0.8030406,-9.068689 -3.316562 0.9350149,-9.004248 -2.65003 1.075859,-8.931964 -2.084107 1.164171,-9.473654 -4.616703 0.8944125,-9.528408 -3.806625 1.021224,-9.528497 -3.283708 1.124578,-9.502142 -2.784923 1.182608,1.340,DnF
-2.724489 -6.067849 1.079409,-3.3234 -5.835626 1.326518,-3.853945 -5.299188 1.443294,-4.21158 -4.747034 1.558272,-4.500727 -4.42 1.659895,-3.458753 -3.691186 1.224493,-3.655969 -2.68865 1.36376,-3.769442 -2.052174 1.50553,-3.845266 -1.490721 1.636959,-3.109821 -3.481 1.255179,-3.233643 -2.308125 1.418121,-3.310615 -1.557254 1.589887,-3.353668 -0.9332204 1.72815,-2.776496 -3.491374 1.336472,-2.826108 -2.395726 1.498514,-2.878992 -1.703361 1.658233,-2.924984 -1.134655 1.77656,-2.435604 -3.682224 1.443742,-2.369395 -2.806371 1.609088,-2.353892 -2.262604 1.74562,-2.365041 -1.762502 1.86354,-9.257296 -6.913611 0.5126646,-8.702293 -6.610255 0.7937501,-8.195615 -6.081489 0.9990702,-7.837772 -5.558132 1.230525,-7.529587 -5.288368 1.467692,-8.512391 -4.513488 0.7182472,-8.374849 -3.499834 0.8732584,-8.316494 -2.877771 1.036089,-8.263502 -2.342353 1.14034,-8.828652 -4.32983 0.7311329,-8.706737 -3.178619 0.8784636,-8.628093 -2.463373 1.083407,-8.554055 -1.845611 1.241227,-9.145966 -4.366271 0.7766966,-9.056198 -3.294947 0.9092133,-8.992794 -2.631727 1.047435,-8.920204 -2.066386 1.135227,-9.473992 -4.58743 0.8541846,-9.519336 -3.778307 0.9784445,-9.5187 -3.264136 1.077423,-9.492071 -2.768488 1.132901,1.360,DnF
-2.724489 -6.067849 1.079409,-3.3234 -5.835626 1.326518,-3.853945 -5.299188 1.443294,-4.21158 -4.747034 1.558272,-4.500727 -4.42 1.659895,-3.458753 -3.691186 1.224493,-3.655969 -2.68865 1.36376,-3.769442 -2.052174 1.50553,-3.845266 -1.490721 1.636959,-3.109821 -3.481 1.255179,-3.233643 -2.308125 1.418121,-3.310615 -1.557254 1.589887,-3.353668 -0.9332204 1.72815,-2.776496 -3.491374 1.336472,-2.826108 -2.395726 1.498514,-2.878992 -1.703361 1.658233,-2.924984 -1.134655 1.77656,-2.435604 -3.682224 1.443742,-2.369395 -2.806371 1.609088,-2.353892 -2.262604 1.74562,-2.365041 -1.762502 1.86354,-9.257296 -6.913611 0.5126646,-8.702293 -6.610255 0.7937501,-8.195615 -6.081489 0.9990702,-7.837772 -5.558132 1.230525,-7.529587 -5.288368 1.467692,-8.512391 -4.513488 0.7182472,-8.374849 -3.499834 0.8732584,-8.316494 -2.877771 1.036089,-8.263502 -2.342353 1.14034,-8.828652 -4.32983 0.7311329,-8.706737 -3.178619 0.8784636,-8.628093 -2.463373 1.083407,-8.554055 -1.845611 1.241227,-9.145966 -4.366271 0.7766966,-9.056198 -3.294947 0.9092133,-8.992794 -2.631727 1.047435,-8.920204 -2.066386 1.135227,-9.473992 -4.58743 0.8541846,-9.519336 -3.778307 0.9784445,-9.5187 -3.264136 1.077423,-9.492071 -2.768488 1.132901,1.380,DnF
-2.724489 -6.067849 1.079409,-3.3234 -5.835626 1.326518,-3.853945 -5.299188 1.443294,-4.21158 -4.747034 1.558272,-4.500727 -4.42 1.659895,-3.458753 -3.691186 1.224493,-3.655969 -2.68865 1.36376,-3.769442 -2.052174 1.50553,-3.845266 -1.490721 1.636959,-3.109821 -3.481 1.255179,-3.233643 -2.308125 1.418121,-3.310615 -1.557254 1.589887,-3.353668 -0.9332204 1.72815,-2.776496 -3.491374 1.336472,-2.826108 -2.395726 1.498514,-2.878992 -1.703361 1.658233,-2.924984 -1.134655 1.77656,-2.435604 -3.682224 1.443742,-2.369395 -2.806371 1.609088,-2.353892 -2.262604 1.74562,-2.365041 -1.762502 1.86354,-9.257296 -6.913611 0.5126646,-8.702293 -6.610255 0.7937501,-8.195615 -6.081489 0.9990702,-7.837772 -5.558132 1.230525,-7.529587 -5.288368 1.467692,-8.512391 -4.513488 0.7182472,-8.374849 -3.499834 0.8732584,-8.316494 -2.877771 1.036089,-8.263502 -2.342353 1.14034,-8.828652 -4.32983 0.7311329,-8.706737 -3.178619 0.8784636,-8.628093 -2.463373 1.083407,-8.554055 -1.845611 1.241227,-9.145966 -4.366271 0.7766966,-9.056198 -3.294947 0.9092133,-8.992794 -2.631727 1.047435,-8.920204 -2.066386 1.135227,-9.473992 -4.58743 0.8541846,-9.519336 -3.778307 0.9784445,-9.5187 -3.264136 1.077423,-9.492071 -2.768488 1.132901,1.400,DnF
-2.724489 -6.067849 1.079409,-3.3234 -5.835626 1.326518,-3.853945 -5.299188 1.443294,-4.21158 -4.747034 1.558272,-4.500727 -4.42 1.659895,-3.458753 -3.691186 1.224493,-3.655969 -2.68865 1.36376,-3.769442 -2.052174 1.50553,-3.845266 -1.490721 1.636959,-3.109821 -3.481 1.255179,-3.233643 -2.308125 1.418121,-3.310615 -1.557254 1.589887,-3.353668 -0.9332204 1.72815,-2.776496 -3.491374 1.336472,-2.826108 -2.395726 1.498514,-2.878992 -1.703361 1.658233,-2.924984 -1.134655 1.77656,-2.435604 -3.682224 1.443742,-2.369395 -2.806371 1.609088,-2.353892 -2.262604 1.74562,-2.365041 -1.762502 1.86354,-9.257296 -6.913611 0.5126646,-8.702293 -6.610255 0.7937501,-8.195615 -6.081489 0.9990702,-7.837772 -5.558132 1.230525,-7.529587 -5.288368 1.467692,-8.512391 -4.513488 0.7182472,-8.374849 -3.499834 0.8732584,-8.316494 -2.877771 1.036089,-8.263502 -2.342353 1.14034,-8.828652 -4.32983 0.7311329,-8.706737 -3.178619 0.8784636,-8.628093 -2.463373 1.083407,-8.554055 -1.845611 1.241227,-9.145966 -4.366271 0.7766966,-9.056198 -3.294947 0.9092133,-8.992794 -2.631727 1.047435,-8.920204 -2.066386 1.135227,-9.473992 -4.58743 0.8541846,-9.519336 -3.778307 0.9784445,-9.5187 -3.264136 1.077423,-9.492071 -2.768488 1.132901,1.420,DnF
-2.602293 -6.154649 1.140731,-3.199585 -5.900241 1.376638,-3.723331 -5.339332 1.484282,-4.068767 -4.758293 1.599265,-4.360862 -4.411855 1.714885,-3.342777 -3.763614 1.237992,-3.543062 -2.742848 1.355053,-3.650412 -2.112059 1.492202,-3.722151 -1.550386 1.625243,-2.996756 -3.548826 1.272685,-3.118893 -2.390607 1.414153,-3.1828 -1.664104 1.581181,-3.216532 -1.045436 1.719916,-2.663943 -3.562754 1.356195,-2.712576 -2.489197 1.500529,-2.756421 -1.815556 1.674092,-2.802292 -1.249791 1.809278,-2.321828 -3.762907 1.465924,-2.246034 -2.9127 1.643866,-2.225237 -2.402392 1.797284,-2.23509 -1.936881 1.925963,-9.24923 -6.881086 0.5559998,-8.700603 -6.574821 0.8320792,-8.198415 -6.050723 1.044653,-7.843926 -5.542216 1.28491,-7.529413 -5.292532 1.532735,-8.504482 -4.467557 0.7502952,-8.370414 -3.456132 0.9016631,-8.321598 -2.834769 1.067663,-8.279432 -2.297704 1.176595,-8.820667 -4.28449 0.7719564,-8.695038 -3.135002 0.9228876,-8.617207 -2.427099 1.13028,-8.54244 -1.812922 1.295029,-9.138616 -4.318862 0.8279403,-9.049824 -3.246265 0.9610436,-8.989218 -2.581887 1.100108,-8.916438 -2.007153 1.19245,-9.468471 -4.538173 0.916038,-9.514831 -3.735881 1.038869,-9.513652 -3.227441 1.130781,-9.483312 -2.736319 1.185561,1.440,DnF
-2.602293 -6.154649 1.140731,-3.199585 -5.900241 1.376638,-3.723331 -5.339332 1.484282,-4.068767 -4.758293 1.599265,-4.360862 -4.411855 1.714885,-3.342777 -3.763614 1.237992,-3.543062 -2.742848 1.355053,-3.650412 -2.112059 1.492202,-3.722151 -1.550386 1.625243,-2.996756 -3.548826 1.272685,-3.118893 -2.390607 1.414153,-3.1828 -1.664104 1.581181,-3.216532 -1.045436 1.719916,-2.663943 -3.562754 1.356195,-2.712576 -2.489197 1.500529,-2.756421 -1.815556 1.674092,-2.802292 -1.249791 1.809278,-2.321828 -3.762907 1.465924,-2.246034 -2.9127 1.643866,-2.225237 -2.402392 1.797284,-2.23509 -1.936881 1.925963,-9.24923 -6.881086 0.5559998,-8.700603 -6.574821 0.8320792,-8.198415 -6.050723 1.044653,-7.843926 -5.542216 1.28491,-7.529413 -5.292532 1.532735,-8.504482 -4.467557 0.7502952,-8.370414 -3.456132 0.9016631,-8.321598 -2.834769 1.067663,-8.279432 -2.297704 1.176595,-8.820667 -4.28449 0.7719564,-8.695038 -3.135002 0.9228876,-8.617207 -2.427099 1.13028,-8.54244 -1.812922 1.295029,-9.138616 -4.318862 0.8279403,-9.049824 -3.246265 0.9610436,-8.989218 -2.581887 1.100108,-8.916438 -2.007153 1.19245,-9.468471 -4.538173 0.916038,-9.514831 -3.735881 1.038869,-9.513652 -3.227441 1.130781,-9.483312 -2.736319 1.185561,1.460,DnF
-2.602293 -6.154649 1.140731,-3.199585 -5.900241 1.376638,-3.723331 -5.339332 1.484282,-4.068767 -4.758293 1.599265,-4.360862 -4.411855 1.714885,-3.342777 -3.763614 1.237992,-3.543062 -2.742848 1.355053,-3.650412 -2.112059 1.492202,-3.722151 -1.550386 1.625243,-2.996756 -3.548826 1.272685,-3.118893 -2.390607 1.414153,-3.1828 -1.664104 1.581181,-3.216532 -1.045436 1.719916,-2.663943 -3.562754 1.356195,-2.712576 -2.489197 1.500529,-2.756421 -1.815556 1.674092,-2.802292 -1.249791 1.809278,-2.321828 -3.762907 1.465924,-2.246034 -2.9127 1.643866,-2.225237 -2.402392 1.797284,-2.23509 -1.936881 1.925963,-9.24923 -6.881086 0.5559998,-8.700603 -6.574821 0.8320792,-8.198415 -6.050723 1.044653,-7.843926 -5.542216 1.28491,-7.529413 -5.292532 1.532735,-8.504482 -4.467557 0.7502952,-8.370414 -3.456132 0.9016631,-8.321598 -2.834769 1.067663,-8.279432 -2.297704 1.176595,-8.820667 -4.28449 0.7719564,-8.695038 -3.135002 0.9228876,-8.617207 -2.427099 1.13028,-8.54244 -1.812922 1.295029,-9.138616 -4.318862 0.8279403,-9.049824 -3.246265 0.9610436,-8.989218 -2.581887 1.100108,-8.916438 -2.007153 1.19245,-9.468471 -4.538173 0.916038,-9.514831 -3.735881 1.038869,-9.513652 -3.227441 1.130781,-9.483312 -2.736319 1.185561,1.480,DnF
-2.519239 -6.238681 1.39655,-3.104389 -5.940364 1.675942,-3.628261 -5.350889 1.789423,-3.939231 -4.700798 1.912859,-4.190806 -4.257354 2.02758,-3.322937 -3.780568 1.433897,-3.489433 -2.837069 1.524835,-3.563603 -2.249632 1.644881,-3.616884 -1.723197 1.769435,-2.980824 -3.566564 1.419088,-3.084118 -2.499706 1.465152,-3.139059 -1.838691 1.600084,-3.171021 -1.280825 1.724384,-2.651921 -3.580464 1.465801,-2.690651 -2.604338 1.521969,-2.725213 -2.020034 1.672688,-2.761865 -1.539499 1.7828,-2.311642 -3.776166 1.554232,-2.254662 -3.003015 1.63621,-2.238901 -2.533646 1.758976,-2.245592 -2.107744 1.8647,-9.239784 -6.865831 0.5639802,-8.692987 -6.562141 0.8170998,-8.197691 -6.039323 1.014672,-7.847292 -5.531037 1.243217,-7.53413 -5.284935 1.476143,-8.495951 -4.450321 0.7596678,-8.357983 -3.439614 0.9080872,-8.306176 -2.820024 1.071352,-8.26088 -2.285526 1.178189,-8.811689 -4.267694 0.7899162,-8.690969 -3.107458 0.9414431,-8.614436 -2.391649 1.150934,-8.543196 -1.776871 1.31172,-9.129081 -4.307721 0.8502797,-9.046144 -3.231225 0.9846386,-8.984342 -2.557416 1.131906,-8.913468 -1.984775 1.229738,-9.457751 -4.537443 0.9394284,-9.511839 -3.729475 1.066326,-9.512051 -3.211405 1.169091,-9.486033 -2.712989 1.23143,1.500,DnF
-2.519239 -6.238681 1.39655,-3.104389 -5.940364 1.675942,-3.628261 -5.350889 1.789423,-3.939231 -4.700798 1.912859,-4.190806 -4.257354 2.02758,-3.322937 -3.780568 1.433897,-3.489433 -2.837069 1.524835,-3.563603 -2.249632 1.644881,-3.616884 -1.723197 1.769435,-2.980824 -3.566564 1.419088,-3.084118 -2.499706 1.465152,-3.139059 -1.838691 1.600084,-3.171021 -1.280825 1.724384,-2.651921 -3.580464 1.465801,-2.690651 -2.604338 1.521969,-2.725213 -2.020034 1.672688,-2.761865 -1.539499 1.7828,-2.311642 -3.776166 1.554232,-2.254662 -3.003015 1.63621,-2.238901 -2.533646 1.758976,-2.245592 -2.107744 1.8647,-9.239784 -6.865831 0.5639802,-8.692987 -6.562141 0.8170998,-8.197691 -6.039323 1.014672,-7.847292 -5.531037 1.243217,-7.53413 -5.284935 1.476143,-8.495951 -4.450321 0.7596678,-8.357983 -3.439614 0.9080872,-8.306176 -2.820024 1.071352,-8.26088 -2.285526 1.178189,-8.811689 -4.267694 0.7899162,-8.690969 -3.107458 0.9414431,-8.614436 -2.391649 1.150934,-8.543196 -1.776871 1.31172,-9.129081 -4.307721 0.8502797,-9.046144 -3.231225 0.9846386,-8.984342 -2.557416 1.131906,-8.913468 -1.984775 1.229738,-9.457751 -4.537443 0.9394284,-9.511839 -3.729475 1.066326,-9.512051 -3.211405 1.169091,-9.486033 -2.712989 1.23143,1.520,DnF
-2.519239 -6.238681 1.39655,-3.104389 -5.940364 1.675942,-3.628261 -5.350889 1.789423,-3.939231 -4.700798 1.912859,-4.190806 -4.257354 2.02758,-3.322937 -3.780568 1.433897,-3.489433 -2.837069 1.524835,-3.563603 -2.249632 1.644881,-3.616884 -1.723197 1.769435,-2.980824 -3.566564 1.419088,-3.084118 -2.499706 1.465152,-3.139059 -1.838691 1.600084,-3.171021 -1.280825 1.724384,-2.651921 -3.580464 1.465801,-2.690651 -2.604338 1.521969,-2.725213 -2.020034 1.672688,-2.761865 -1.539499 1.7828,-2.311642 -3.776166 1.554232,-2.254662 -3.003015 1.63621,-2.238901 -2.533646 1.758976,-2.245592 -2.107744 1.8647,-9.239784 -6.865831 0.5639802,-8.692987 -6.562141 0.8170998,-8.197691 -6.039323 1.014672,-7.847292 -5.531037 1.243217,-7.53413 -5.284935 1.476143,-8.495951 -4.450321 0.7596678,-8.357983 -3.439614 0.9080872,-8.306176 -2.820024 1.071352,-8.26088 -2.285526 1.178189,-8.811689 -4.267694 0.7899162,-8.690969 -3.107458 0.9414431,-8.614436 -2.391649 1.150934,-8.543196 -1.776871 1.31172,-9.129081 -4.307721 0.8502797,-9.046144 -3.231225 0.9846386,-8.984342 -2.557416 1.131906,-8.913468 -1.984775 1.229738,-9.457751 -4.537443 0.9394284,-9.511839 -3.729475 1.066326,-9.512051 -3.211405 1.169091,-9.486033 -2.712989 1.23143,1.540,DnF
-2.504668 -6.306993 1.66765,-3.071783 -5.927783 1.960969,-3.568213 -5.265076 2.096219,-3.837928 -4.560326 2.268163,-4.072298 -3.983196 2.466092,-3.331631 -3.745139 1.498818,-3.460108 -2.895801 1.567421,-3.500225 -2.413827 1.71103,-3.526947 -2.027453 1.863134,-2.989816 -3.566432 1.483352,-3.066195 -2.642408 1.447957,-3.10724 -2.116013 1.616294,-3.136107 -1.762624 1.793548,-2.658752 -3.608984 1.54116,-2.670529 -2.73 1.544434,-2.705947 -2.252306 1.743468,-2.755058 -1.916235 1.893328,-2.314243 -3.828335 1.653185,-2.26639 -3.135423 1.723442,-2.27704 -2.732938 1.871181,-2.318327 -2.411368 1.995928,-9.242418 -6.860515 0.5909628,-8.696853 -6.54264 0.8628773,-8.199781 -6.019323 1.066113,-7.838932 -5.508163 1.299589,-7.52364 -5.253157 1.540444,-8.49741 -4.437356 0.7864986,-8.35446 -3.426997 0.9394447,-8.298263 -2.797863 1.106115,-8.249857 -2.254734 1.216021,-8.807882 -4.255073 0.8105538,-8.683525 -3.099303 0.9600824,-8.603883 -2.379285 1.167623,-8.530105 -1.760294 1.324079,-9.12237 -4.294786 0.8699096,-9.037769 -3.21253 1.002329,-8.972511 -2.540046 1.146498,-8.898193 -1.970437 1.238258,-9.449641 -4.526653 0.9614466,-9.506188 -3.70963 1.091778,-9.506391 -3.188339 1.197533,-9.478555 -2.687223 1.259952,1.560,DnF
-2.504668 -6.306993 1.66765,-3.071783 -5.927783 1.960969,-3.568213 -5.265076 2.096219,-3.837928 -4.560326 2.268163,-4.072298 -3.983196 2.466092,-3.331631 -3.745139 1.498818,-3.460108 -2.895801 1.567421,-3.500225 -2.413827 1.71103,-3.526947 -2.027453 1.863134,-2.989816 -3.566432 1.483352,-3.066195 -2.642408 1.447957,-3.10724 -2.116013 1.616294,-3.136107 -1.762624 1.793548,-2.658752 -3.608984 1.54116,-2.670529 -2.73 1.544434,-2.705947 -2.252306 1.743468,-2.755058 -1.916235 1.893328,-2.314243 -3.828335 1.653185,-2.26639 -3.135423 1.723442,-2.27704 -2.732938 1.871181,-2.318327 -2.411368 1.995928,-9.242418 -6.860515 0.5909628,-8.696853 -6.54264 0.8628773,-8.199781 -6.019323 1.066113,-7.838932 -5.508163 1.299589,-7.52364 -5.253157 1.540444,-8.49741 -4.437356 0.7864986,-8.35446 -3.426997 0.9394447,-8.298263 -2.797863 1.106115,-8.249857 -2.254734 1.216021,-8.807882 -4.255073 0.8105538,-8.683525 -3.099303 0.9600824,-8.603883 -2.379285 1.167623,-8.530105 -1.760294 1.324079,-9.12237 -4.294786 0.8699096,-9.037769 -3.21253 1.002329,-8.972511 -2.540046 1.146498,-8.898193 -1.970437 1.238258,-9.449641 -4.526653 0.9614466,-9.506188 -3.70963 1.091778,-9.506391 -3.188339 1.197533,-9.478555 -2.687223 1.259952,1.580,DnF
-2.504668 -6.306993 1.66765,-3.071783 -5.927783 1.960969,-3.568213 -5.265076 2.096219,-3.837928 -4.560326 2.268163,-4.072298 -3.983196 2.466092,-3.331631 -3.745139 1.498818,-3.460108 -2.895801 1.567421,-3.500225 -2.413827 1.71103,-3.526947 -2.027453 1.863134,-2.989816 -3.566432 1.483352,-3.066195 -2.642408 1.447957,-3.10724 -2.116013 1.616294,-3.136107 -1.762624 1.793548,-2.658752 -3.608984 1.54116,-2.670529 -2.73 1.544434,-2.705947 -2.252306 1.743468,-2.755058 -1.916235 1.893328,-2.314243 -3.828335 1.653185,-2.26639 -3.135423 1.723442,-2.27704 -2.732938 1.871181,-2.318327 -2.411368 1.995928,-9.242418 -6.860515 0.5909628,-8.696853 -6.54264 0.8628773,-8.199781 -6.019323 1.066113,-7.838932 -5.508163 1.299589,-7.52364 -5.253157 1.540444,-8.49741 -4.437356 0.7864986,-8.35446 -3.426997 0.9394447,-8.298263 -2.797863 1.106115,-8.249857 -2.254734 1.216021,-8.807882 -4.255073 0.8105538,-8.683525 -3.099303 0.9600824,-8.603883 -2.379285 1.167623,-8.530105 -1.760294 1.324079,-9.12237 -4.294786 0.8699096,-9.037769 -3.21253 1.002329,-8.972511 -2.540046 1.146498,-8.898193 -1.970437 1.238258,-9.449641 -4.526653 0.9614466,-9.506188 -3.70963 1.091778,-9.506391 -3.188339 1.197533,-9.478555 -2.687223 1.259952,1.600,DnF
-2.504668 -6.306993 1.66765,-3.071783 -5.927783 1.960969,-3.568213 -5.265076 2.096219,-3.837928 -4.560326 2.268163,-4.072298 -3.983196 2.466092,-3.331631 -3.745139 1.498818,-3.460108 -2.895801 1.567421,-3.500225 -2.413827 1.71103,-3.526947 -2.027453 1.863134,-2.989816 -3.566432 1.483352,-3.066195 -2.642408 1.447957,-3.10724 -2.116013 1.616294,-3.136107 -1.762624 1.793548,-2.658752 -3.608984 1.54116,-2.670529 -2.73 1.544434,-2.705947 -2.252306 1.743468,-2.755058 -1.916235 1.893328,-2.314243 -3.828335 1.653185,-2.26639 -3.135423 1.723442,-2.27704 -2.732938 1.871181,-2.318327 -2.411368 1.995928,-9.242418 -6.860515 0.5909628,-8.696853 -6.54264 0.8628773,-8.199781 -6.019323 1.066113,-7.838932 -5.508163 1.299589,-7.52364 -5.253157 1.540444,-8.49741 -4.437356 0.7864986,-8.35446 -3.426997 0.9394447,-8.298263 -2.797863 1.106115,-8.249857 -2.254734 1.216021,-8.807882 -4.255073 0.8105538,-8.683525 -3.099303 0.9600824,-8.603883 -2.379285 1.167623,-8.530105 -1.760294 1.324079,-9.12237 -4.294786 0.8699096,-9.037769 -3.21253 1.002329,-8.972511 -2.540046 1.146498,-8.898193 -1.970437 1.238258,-9.449641 -4.526653 0.9614466,-9.506188 -3.70963 1.091778,-9.506391 -3.188339 1.197533,-9.478555 -2.687223 1.259952,1.620,DnF
-2.527988 -6.160279 1.388222,-3.076668 -5.804155 1.701861,-3.554304 -5.137925 1.903956,-3.806921 -4.438097 2.143263,-3.989719 -3.821158 2.418601,-3.35008 -3.688154 1.206505,-3.470022 -2.899482 1.442996,-3.478992 -2.46297 1.81795,-3.462134 -2.379678 2.112227,-2.999729 -3.4958 1.250484,-3.046693 -2.509861 1.500929,-3.071886 -2.15826 1.93625,-3.053553 -2.381184 2.250532,-2.662331 -3.520614 1.368439,-2.683828 -2.569909 1.604622,-2.709851 -2.365222 2.001812,-2.725203 -2.60838 2.251672,-2.30649 -3.72939 1.526338,-2.304284 -2.947074 1.784147,-2.366319 -2.735422 2.085169,-2.438022 -2.893709 2.315868,-9.237453 -6.870243 0.6042717,-8.691213 -6.547903 0.891601,-8.194597 -6.023872 1.097491,-7.835346 -5.515024 1.329332,-7.519968 -5.271459 1.56518,-8.49388 -4.44307 0.8090674,-8.350861 -3.43195 0.962662,-8.293542 -2.804648 1.12868,-8.244142 -2.260549 1.23693,-8.804725 -4.260629 0.823831,-8.679581 -3.103334 0.9762707,-8.598839 -2.386493 1.186413,-8.522282 -1.763254 1.343129,-9.117293 -4.296508 0.8751705,-9.035255 -3.216405 1.009369,-8.972099 -2.542305 1.152524,-8.897714 -1.969254 1.239833,-9.442683 -4.520925 0.9590921,-9.500573 -3.707215 1.092221,-9.500795 -3.185954 1.196693,-9.472357 -2.688716 1.255383,1.640,DnF
