TiagoOliveira98/HandTracking/DataLogging/JointData/Logs(1642688234)_SAI_Calculator.csv
WRIST,THUMB_CMC,THUMB_MCP,THUMB_IP,THUMB_TIP,INDEX_FINGER_MCP,INDEX_FINGER_PIP,INDEX_FINGER_DIP,INDEX_FINGER_TIP,MIDDLE_FINGER_MCP,MIDDLE_FINGER_PIP,MIDDLE_FINGER_DIP,MIDDLE_FINGER_TIP,RING_FINGER_MCP,RING_FINGER_PIP,RING_FINGER_DIP,RING_FINGER_TIP,PINKY_MCP,PINKY_PIP,PINKY_DIP,PINKY_TIP,WRIST2,THUMB_CMC2,THUMB_MCP2,THUMB_IP2,THUMB_TIP2,INDEX_FINGER_MCP2,INDEX_FINGER_PIP2,INDEX_FINGER_DIP2,INDEX_FINGER_TIP2,MIDDLE_FINGER_MCP2,MIDDLE_FINGER_PIP2,MIDDLE_FINGER_DIP2,MIDDLE_FINGER_TIP2,RING_FINGER_MCP2,RING_FINGER_PIP2,RING_FINGER_DIP2,RING_FINGER_TIP2,PINKY_MCP2,PINKY_PIP2,PINKY_DIP2,PINKY_TIP2,Timestamp,Event
10 0 0,10 7.47 0,10 7.47 0,10 7.47 0,10 7.47 0,10 7.47 0,10 7.47 0,10 7.47 0,10 7.47 0,10 7.47 0,10 7.47 0,10 7.47 0,10 7.47 0,10 7.47 0,10 7.47 0,10 7.47 0,10 7.47 0,10 7.47 0,10 7.47 0,10 7.47 0,10 7.47 0,10 0 0,10 7.47 0,10 7.47 0,10 7.47 0,10 7.47 0,10 7.47 0,10 7.47 0,10 7.47 0,10 7.47 0,10 7.47 0,10 7.47 0,10 7.47 0,10 7.47 0,10 7.47 0,10 7.47 0,10 7.47 0,10 7.47 0,10 7.47 0,10 7.47 0,10 7.47 0,10 7.47 0,0.010,
2 0 -11.39013,2 0 -11.39013,2 0 -11.39013,2 0 -11.39013,2 0 -11.39013,2 0 -11.39013,2 0 -11.39013,2 0 -11.39013,2 0 -11.39013,2 0 -11.39013,2 0 -11.39013,2 0 -11.39013,2 0 -11.39013,2 0 -11.39013,2 0 -11.39013,2 0 -11.39013,2 0 -11.39013,2 0 -11.39013,2 0 -11.39013,2 0 -11.39013,2 0 -11.39013,2 0 -9.984734,2 0 -9.984734,2 0 -9.984734,2 0 -9.984734,2 0 -9.984734,2 0 -9.984734,2 0 -9.984734,2 0 -9.984734,2 0 -9.984734,2 0 -9.984734,2 0 -9.984734,2 0 -9.984734,2 0 -9.984734,2 0 -9.984734,2 0 -9.984734,2 0 -9.984734,2 0 -9.984734,2 0 -9.984734,2 0 -9.984734,2 0 -9.984734,2 0 -9.984734,0.110,
2 0 -11.39013,2 0 -11.39013,2 0 -11.39013,2 0 -11.39013,2 0 -11.39013,2 0 -11.39013,2 0 -11.39013,2 0 -11.39013,2 0 -11.39013,2 0 -11.39013,2 0 -11.39013,2 0 -11.39013,2 0 -11.39013,2 0 -11.39013,2 0 -11.39013,2 0 -11.39013,2 0 -11.39013,2 0 -11.39013,2 0 -11.39013,2 0 -11.39013,2 0 -11.39013,2 0 -9.984734,2 0 -9.984734,2 0 -9.984734,2 0 -9.984734,2 0 -9.984734,2 0 -9.984734,2 0 -9.984734,2 0 -9.984734,2 0 -9.984734,2 0 -9.984734,2 0 -9.984734,2 0 -9.984734,2 0 -9.984734,2 0 -9.984734,2 0 -9.984734,2 0 -9.984734,2 0 -9.984734,2 0 -9.984734,2 0 -9.984734,2 0 -9.984734,2 0 -9.984734,0.210,
2 0 -11.39013,2 0 -11.39013,2 0 -11.39013,2 0 -11.39013,2 0 -11.39013,2 0 -11.39013,2 0 -11.39013,2 0 -11.39013,2 0 -11.39013,2 0 -11.39013,2 0 -11.39013,2 0 -11.39013,2 0 -11.39013,2 0 -11.39013,2 0 -11.39013,2 0 -11.39013,2 0 -11.39013,2 0 -11.39013,2 0 -11.39013,2 0 -11.39013,2 0 -11.39013,2 0 -9.984734,2 0 -9.984734,2 0 -9.984734,2 0 -9.984734,2 0 -9.984734,2 0 -9.984734,2 0 -9.984734,2 0 -9.984734,2 0 -9.984734,2 0 -9.984734,2 0 -9.984734,2 0 -9.984734,2 0 -9.984734,2 0 -9.984734,2 0 -9.984734,2 0 -9.984734,2 0 -9.984734,2 0 -9.984734,2 0 -9.984734,2 0 -9.984734,2 0 -9.984734,0.310,
2 0 -11.39013,2 0 -11.39013,2 0 -11.39013,2 0 -11.39013,2 0 -11.39013,2 0 -11.39013,2 0 -11.39013,2 0 -11.39013,2 0 -11.39013,2 0 -11.39013,2 0 -11.39013,2 0 -11.39013,2 0 -11.39013,2 0 -11.39013,2 0 -11.39013,2 0 -11.39013,2 0 -11.39013,2 0 -11.39013,2 0 -11.39013,2 0 -11.39013,2 0 -11.39013,2 0 -9.984734,2 0 -9.984734,2 0 -9.984734,2 0 -9.984734,2 0 -9.984734,2 0 -9.984734,2 0 -9.984734,2 0 -9.984734,2 0 -9.984734,2 0 -9.984734,2 0 -9.984734,2 0 -9.984734,2 0 -9.984734,2 0 -9.984734,2 0 -9.984734,2 0 -9.984734,2 0 -9.984734,2 0 -9.984734,2 0 -9.984734,2 0 -9.984734,2 0 -9.984734,0.410,
2 0 -11.39013,2 0 -11.39013,2 0 -11.39013,2 0 -11.39013,2 0 -11.39013,2 0 -11.39013,2 0 -11.39013,2 0 -11.39013,2 0 -11.39013,2 0 -11.39013,2 0 -11.39013,2 0 -11.39013,2 0 -11.39013,2 0 -11.39013,2 0 -11.39013,2 0 -11.39013,2 0 -11.39013,2 0 -11.39013,2 0 -11.39013,2 0 -11.39013,2 0 -11.39013,2 0 -9.984734,2 0 -9.984734,2 0 -9.984734,2 0 -9.984734,2 0 -9.984734,2 0 -9.984734,2 0 -9.984734,2 0 -9.984734,2 0 -9.984734,2 0 -9.984734,2 0 -9.984734,2 0 -9.984734,2 0 -9.984734,2 0 -9.984734,2 0 -9.984734,2 0 -9.984734,2 0 -9.984734,2 0 -9.984734,2 0 -9.984734,2 0 -9.984734,2 0 -9.984734,0.510,
2 0 -11.39013,2 0 -11.39013,2 0 -11.39013,2 0 -11.39013,2 0 -11.39013,2 0 -11.39013,2 0 -11.39013,2 0 -11.39013,2 0 -11.39013,2 0 -11.39013,2 0 -11.39013,2 0 -11.39013,2 0 -11.39013,2 0 -11.39013,2 0 -11.39013,2 0 -11.39013,2 0 -11.39013,2 0 -11.39013,2 0 -11.39013,2 0 -11.39013,2 0 -11.39013,2 0 -9.984734,2 0 -9.984734,2 0 -9.984734,2 0 -9.984734,2 0 -9.984734,2 0 -9.984734,2 0 -9.984734,2 0 -9.984734,2 0 -9.984734,2 0 -9.984734,2 0 -9.984734,2 0 -9.984734,2 0 -9.984734,2 0 -9.984734,2 0 -9.984734,2 0 -9.984734,2 0 -9.984734,2 0 -9.984734,2 0 -9.984734,2 0 -9.984734,2 0 -9.984734,0.610,
-2.771046 -13.31364 -2.12812,-3.393792 -12.72276 -2.008007,-3.762938 -11.76517 -1.924742,-3.903384 -10.89817 -1.772153,-4.002748 -10.06035 -1.599524,-3.359402 -10.68472 -2.377199,-3.447586 -9.765093 -2.3981,-3.527413 -9.237009 -2.37287,-3.611729 -8.751318 -2.323109,-3.013302 -10.6832 -2.283358,-3.032354 -9.702114 -2.219487,-3.102403 -9.239704 -2.079952,-3.183578 -8.958839 -2.00786,-2.692914 -10.78267 -2.158788,-2.691747 -9.859007 -2.002012,-2.791652 -9.465168 -1.779873,-2.906691 -9.30154 -1.656156,-2.389866 -10.98587 -2.000421,-2.352121 -10.16322 -1.894143,-2.377776 -9.590656 -1.753893,-2.43872 -9.113941 -1.655432,-8.6537 -13.33003 -0.5985585,-7.897803 -13.16233 -0.3221641,-7.359611 -12.5945 -0.0312131,-7.162293 -11.85225 0.1915092,-7.225314 -11.17167 0.4145006,-7.65449 -10.92872 -0.2609715,-7.461649 -10.16187 -0.1750199,-7.350805 -9.95171 -0.04699844,-7.315457 -10.0689 0.0740028,-8.004531 -10.74848 -0.2739048,-7.715516 -9.94257 -0.1627965,-7.565984 -9.89678 -0.05896664,-7.535293 -10.05379 0.01470423,-8.374454 -10.804 -0.2715071,-8.06101 -10.09206 -0.1687254,-7.890151 -10.19217 -0.04911447,-7.87818 -10.48969 0.04230821,-8.762134 -11.02831 -0.2276226,-8.461775 -10.43441 -0.1020998,-8.269882 -10.456 0.02819276,-8.207088 -10.64168 0.1059003,0.710,
-2.741944 -12.02319 -2.041254,-3.342684 -11.39072 -1.928107,-3.723843 -10.54566 -1.832398,-3.870243 -9.737858 -1.662187,-3.967949 -8.917767 -1.471195,-3.348753 -9.389599 -2.222621,-3.439693 -8.398777 -2.111836,-3.548295 -7.825633 -1.994517,-3.653399 -7.312006 -1.91055,-3.012129 -9.366711 -2.102407,-3.00715 -8.323566 -1.99685,-3.044762 -7.684083 -1.84066,-3.078333 -7.173259 -1.729966,-2.700602 -9.489815 -1.936083,-2.66105 -8.491552 -1.802933,-2.676353 -7.885828 -1.61245,-2.704445 -7.423496 -1.465597,-2.404624 -9.768379 -1.728266,-2.351695 -8.938997 -1.563089,-2.360109 -8.401062 -1.396745,-2.385922 -7.943406 -1.27626,-8.634449 -11.96338 0.7225077,-7.955572 -11.72749 0.8816801,-7.561866 -11.00775 1.054832,-7.380239 -10.27061 1.197203,-7.285895 -9.523607 1.264179,-7.812755 -9.173843 0.8969803,-7.670918 -7.957719 0.9971302,-7.540013 -7.486511 1.12471,-7.484138 -7.418729 1.220134,-8.167364 -8.944374 0.8793768,-8.068395 -7.553652 0.8491024,-7.908218 -7.451316 0.8473917,-7.852373 -7.679439 0.8502608,-8.503016 -9.001202 0.8752918,-8.438557 -7.751184 0.7783988,-8.299559 -7.688354 0.7081985,-8.254426 -7.867132 0.6685379,-8.835112 -9.253283 0.8759531,-8.824916 -8.285934 0.7937174,-8.689528 -8.10161 0.6852502,-8.596077 -8.128204 0.5966319,0.810,
-2.593932 -10.92408 -1.401175,-3.202218 -10.4725 -1.184477,-3.611551 -9.693247 -1.058695,-3.771101 -8.996395 -0.8891326,-3.880129 -8.35766 -0.7038547,-3.294712 -8.207907 -1.518056,-3.435547 -7.18811 -1.438933,-3.53039 -6.608668 -1.31407,-3.611765 -6.118179 -1.205347,-2.969419 -8.095266 -1.438173,-3.036425 -6.97701 -1.346381,-3.10663 -6.358087 -1.199301,-3.178164 -5.88564 -1.111873,-2.655544 -8.143814 -1.292367,-2.688378 -7.085506 -1.184099,-2.747538 -6.4721 -1.023486,-2.807406 -6.009921 -0.8929155,-2.336793 -8.369173 -1.105889,-2.303057 -7.514971 -0.9446006,-2.324391 -6.980041 -0.7949272,-2.366013 -6.519207 -0.6740965,-8.597886 -10.4939 1.67449,-8.017987 -10.27724 2.118875,-7.65699 -9.556927 2.574873,-7.495887 -8.904867 2.933394,-7.437292 -8.223022 3.22139,-7.940347 -7.408506 2.552079,-7.887609 -5.852176 2.927637,-7.693605 -5.901149 3.236525,-7.602959 -6.338766 3.411906,-8.296385 -7.294754 2.552284,-8.21975 -5.597725 2.845453,-7.940604 -5.804662 3.087836,-7.797267 -6.332954 3.259225,-8.631421 -7.469329 2.550625,-8.621917 -5.926094 2.781343,-8.411149 -6.025857 2.861506,-8.306699 -6.453342 2.903083,-8.953385 -7.836464 2.564075,-9.02409 -6.583681 2.712365,-8.888171 -6.546039 2.701243,-8.780323 -6.823165 2.643713,0.910,Left Hand Closed
-2.481168 -10.43639 -0.8136289,-3.147223 -9.650084 -0.7613353,-3.547792 -8.745085 -0.6672349,-3.741667 -7.944879 -0.4940059,-3.915237 -7.262933 -0.2983614,-3.196131 -7.556222 -1.115176,-3.322502 -6.743526 -1.040134,-3.457599 -6.233858 -0.8534033,-3.586851 -5.718917 -0.7294616,-2.880355 -7.44621 -0.9899856,-2.957871 -6.577513 -0.9701909,-3.083958 -6.031413 -0.8177769,-3.193577 -5.564023 -0.7028635,-2.583792 -7.471669 -0.8291818,-2.607095 -6.556098 -0.8251238,-2.695119 -6.020525 -0.7312575,-2.794416 -5.587783 -0.6535228,-2.294188 -7.640766 -0.6232461,-2.260595 -6.874345 -0.621078,-2.294982 -6.321962 -0.5690829,-2.360055 -5.796665 -0.4979837,-8.940035 -10.49254 1.338621,-8.258987 -10.00031 1.510904,-7.804083 -9.087152 1.686125,-7.576475 -8.188503 1.857179,-7.421158 -7.39686 1.975172,-8.134135 -7.472156 1.272515,-7.979879 -6.265338 1.288915,-7.906176 -5.770051 1.260567,-7.879742 -5.521451 1.244548,-8.483448 -7.290388 1.275849,-8.326045 -5.894732 1.285583,-8.247237 -5.304413 1.220095,-8.190724 -4.997865 1.150248,-8.795648 -7.355814 1.31881,-8.699108 -6.100611 1.336058,-8.646244 -5.515331 1.324633,-8.565935 -5.123962 1.32564,-9.113214 -7.65093 1.374537,-9.169633 -6.734412 1.3736,-9.164083 -6.210685 1.378646,-9.103629 -5.791065 1.359741,1.010,
-2.569348 -8.795662 -0.5820235,-3.23559 -8.194304 -0.5706108,-3.751015 -7.41184 -0.5415649,-4.02835 -6.62244 -0.4457529,-4.232004 -5.951362 -0.3441412,-3.508818 -6.004518 -0.8611742,-3.757542 -4.993762 -0.7564322,-3.868658 -4.506588 -0.7011583,-3.965242 -4.146511 -0.6646668,-3.190193 -5.773706 -0.7105349,-3.368815 -4.612274 -0.6578275,-3.490271 -4.063961 -0.5851294,-3.588584 -3.671033 -0.5412407,-2.876672 -5.746896 -0.5145854,-2.972087 -4.643194 -0.4017944,-3.084155 -4.067813 -0.3098871,-3.198697 -3.664578 -0.2285057,-2.546432 -5.936308 -0.2937793,-2.545803 -5.101827 -0.1881951,-2.614305 -4.60335 -0.06835425,-2.721893 -4.19568 0.02423686,-8.991111 -9.215504 0.1815643,-8.366157 -8.713028 0.2780128,-7.927346 -7.888288 0.3993424,-7.736556 -7.087362 0.5769534,-7.592432 -6.487081 0.7273279,-8.274508 -6.47676 0.1292593,-8.175027 -5.443149 0.2257909,-8.116884 -4.870229 0.3273035,-8.066673 -4.376251 0.4099469,-8.586339 -6.339989 0.2403789,-8.477537 -5.158366 0.2925691,-8.418619 -4.487354 0.469444,-8.371276 -3.864761 0.6012943,-8.880873 -6.412735 0.3789415,-8.816201 -5.314765 0.4567136,-8.773219 -4.657416 0.6146215,-8.708904 -4.072878 0.7363744,-9.188496 -6.684076 0.5218883,-9.252303 -5.854372 0.6161909,-9.276369 -5.33076 0.7271487,-9.261573 -4.820856 0.8190581,1.110,
-2.609743 -8.31967 -1.805857,-3.223698 -7.874252 -1.742646,-3.728659 -7.138436 -1.703401,-4.004718 -6.347094 -1.59899,-4.19001 -5.728808 -1.467698,-3.502357 -5.856689 -2.022226,-3.739014 -4.960013 -1.973906,-3.860393 -4.454615 -1.927939,-3.953198 -3.99296 -1.901619,-3.199459 -5.647617 -1.902568,-3.391592 -4.60548 -1.888851,-3.516291 -4.007446 -1.792226,-3.612281 -3.467071 -1.702936,-2.903774 -5.614762 -1.725851,-3.013396 -4.619857 -1.680201,-3.106559 -4.055213 -1.56493,-3.200778 -3.549634 -1.458665,-2.587993 -5.743757 -1.515949,-2.615024 -4.942191 -1.460599,-2.659949 -4.479551 -1.367871,-2.716969 -4.0275 -1.277846,-8.931629 -8.783318 -0.4814818,-8.336814 -8.399508 -0.3431472,-7.892412 -7.605894 -0.1909603,-7.674253 -6.84564 0.0248307,-7.458422 -6.305416 0.2552773,-8.236658 -6.249471 -0.408664,-8.134909 -5.218505 -0.2340494,-8.09153 -4.631849 -0.07934871,-8.058176 -4.124792 0.0266,-8.538578 -6.10423 -0.2828556,-8.428411 -4.952826 -0.1590052,-8.363975 -4.261493 0.03391683,-8.312255 -3.629072 0.1910579,-8.829263 -6.172847 -0.12308,-8.762512 -5.10917 0.0159393,-8.711144 -4.451837 0.1974832,-8.645388 -3.854234 0.3389563,-9.135475 -6.424231 0.04194599,-9.175541 -5.597908 0.1942634,-9.188758 -5.089256 0.3096786,-9.16913 -4.583627 0.4078895,1.210,
-2.606112 -8.275129 -2.088285,-3.203831 -7.880423 -2.002623,-3.680483 -7.150923 -1.971321,-3.931319 -6.376733 -1.880624,-4.137009 -5.787525 -1.767702,-3.460433 -5.887445 -2.276928,-3.688219 -4.986663 -2.201585,-3.814664 -4.458324 -2.149834,-3.9111 -3.965417 -2.105268,-3.155621 -5.676361 -2.167333,-3.329988 -4.634549 -2.115165,-3.456496 -4.017104 -2.010952,-3.543728 -3.45692 -1.917757,-2.859721 -5.646081 -1.994269,-2.95975 -4.648794 -1.91542,-3.064135 -4.058633 -1.781541,-3.154952 -3.521117 -1.655027,-2.546609 -5.784934 -1.79374,-2.570885 -4.975801 -1.692957,-2.622576 -4.505133 -1.568951,-2.683232 -4.05128 -1.454378,-8.882065 -8.699074 -0.6354533,-8.307463 -8.344553 -0.4769228,-7.88098 -7.570982 -0.3223008,-7.673743 -6.828414 -0.1086473,-7.45268 -6.324121 0.1126152,-8.218076 -6.212877 -0.5453092,-8.114921 -5.197096 -0.3671524,-8.061228 -4.612066 -0.2059833,-8.021656 -4.106264 -0.09565091,-8.517041 -6.060778 -0.4335619,-8.407689 -4.921215 -0.3006551,-8.337385 -4.221961 -0.09525055,-8.283341 -3.58525 0.06651336,-8.810653 -6.127067 -0.2856784,-8.750683 -5.072782 -0.1402511,-8.697702 -4.401653 0.04634249,-8.636125 -3.802043 0.1885373,-9.121966 -6.376148 -0.1307204,-9.167652 -5.546492 0.03503054,-9.178581 -5.023841 0.1659449,-9.162061 -4.511091 0.2643503,1.310,
-2.564245 -8.17911 -2.384275,-3.147373 -7.863597 -2.269663,-3.617157 -7.153685 -2.240791,-3.878047 -6.409732 -2.15789,-4.084099 -5.824697 -2.0577,-3.38975 -5.884696 -2.553058,-3.619221 -5.001873 -2.498611,-3.746734 -4.462939 -2.457999,-3.839435 -3.968148 -2.41269,-3.091719 -5.662673 -2.477185,-3.262224 -4.649648 -2.450051,-3.394026 -4.022769 -2.361913,-3.489609 -3.475029 -2.283995,-2.798741 -5.624511 -2.333732,-2.898142 -4.643593 -2.282737,-3.004091 -4.042289 -2.171622,-3.097548 -3.506812 -2.057549,-2.487553 -5.757082 -2.163202,-2.500114 -4.949426 -2.089251,-2.542171 -4.467122 -1.973714,-2.586765 -4.020441 -1.866845,-8.776833 -8.658909 -0.7188032,-8.22694 -8.317108 -0.5505301,-7.818966 -7.561963 -0.3949562,-7.621672 -6.858865 -0.1888615,-7.402177 -6.39816 0.02600837,-8.164812 -6.191499 -0.5774915,-8.070615 -5.199905 -0.3821886,-8.025818 -4.619943 -0.2208737,-7.99831 -4.11112 -0.1060873,-8.450836 -6.04451 -0.460844,-8.347329 -4.928507 -0.295275,-8.285704 -4.231874 -0.08534801,-8.244453 -3.604064 0.07949066,-8.737372 -6.11897 -0.3076616,-8.675209 -5.068807 -0.1305107,-8.627817 -4.391614 0.0650019,-8.575623 -3.793115 0.2204354,-9.047005 -6.383762 -0.1475421,-9.083767 -5.556741 0.04622209,-9.091941 -5.029741 0.1905226,-9.076582 -4.519737 0.3052813,1.410,
-2.511626 -8.043974 -2.50304,-3.084515 -7.769488 -2.397465,-3.552752 -7.048707 -2.381786,-3.81293 -6.311706 -2.310685,-4.021813 -5.7444 -2.221209,-3.327178 -5.7882 -2.67362,-3.563033 -4.91015 -2.625656,-3.69642 -4.370424 -2.594527,-3.790611 -3.88452 -2.556591,-3.02984 -5.560365 -2.598141,-3.207418 -4.550546 -2.576706,-3.339419 -3.924037 -2.501219,-3.429184 -3.378014 -2.435503,-2.737813 -5.518287 -2.457506,-2.847909 -4.543901 -2.403826,-2.963685 -3.948131 -2.311147,-3.057493 -3.414711 -2.214865,-2.425318 -5.642728 -2.291442,-2.441119 -4.851102 -2.224672,-2.483818 -4.374687 -2.122354,-2.521005 -3.929055 -2.024057,-8.753557 -8.637981 -0.7781688,-8.192924 -8.319834 -0.5984762,-7.783337 -7.555385 -0.447062,-7.587425 -6.846323 -0.2530623,-7.373362 -6.404848 -0.05900067,-8.133635 -6.190108 -0.6145383,-8.038464 -5.199064 -0.4124179,-7.99479 -4.61556 -0.2547617,-7.97136 -4.099235 -0.1351698,-8.421638 -6.042933 -0.506285,-8.316442 -4.942527 -0.3264182,-8.259246 -4.249285 -0.1106256,-8.226112 -3.61695 0.06363207,-8.707139 -6.120563 -0.36157,-8.644583 -5.08381 -0.1700062,-8.601381 -4.413518 0.03496337,-8.557615 -3.813278 0.2014142,-9.013926 -6.393719 -0.2104855,-9.047067 -5.584291 -0.00138092,-9.05825 -5.063077 0.1590014,-9.049064 -4.550964 0.2913852,1.510,
-2.467259 -8.003647 -2.537209,-3.047908 -7.721267 -2.415087,-3.517739 -7.010007 -2.387215,-3.782881 -6.279234 -2.309739,-3.994606 -5.706086 -2.215734,-3.290107 -5.7618 -2.667674,-3.531101 -4.87785 -2.603011,-3.665138 -4.337129 -2.560751,-3.761775 -3.854269 -2.515857,-2.99478 -5.530843 -2.596226,-3.172043 -4.517147 -2.56178,-3.306486 -3.885496 -2.475426,-3.399841 -3.333421 -2.399604,-2.703691 -5.489406 -2.456894,-2.814056 -4.510559 -2.395363,-2.931913 -3.902642 -2.289423,-3.026415 -3.36082 -2.178036,-2.390801 -5.621854 -2.29329,-2.401567 -4.828666 -2.215758,-2.447979 -4.337275 -2.096766,-2.491156 -3.882402 -1.986846,-8.719424 -8.518641 -0.9641197,-8.151371 -8.236862 -0.771467,-7.731466 -7.497308 -0.5910804,-7.522629 -6.793579 -0.3677669,-7.309929 -6.282274 -0.1418849,-8.084769 -6.137005 -0.7793435,-7.978846 -5.148294 -0.5587413,-7.927999 -4.552663 -0.3794989,-7.899747 -4.033745 -0.2489405,-8.372198 -5.982362 -0.6665573,-8.259337 -4.876178 -0.4681259,-8.193392 -4.173389 -0.2499669,-8.147041 -3.537878 -0.081025,-8.659581 -6.047901 -0.5164127,-8.585056 -5.006637 -0.3226416,-8.528728 -4.330276 -0.1241707,-8.469742 -3.726037 0.03837526,-8.968708 -6.304513 -0.3577491,-9.000565 -5.483231 -0.1522577,-9.012294 -4.95199 0.001067698,-9.004663 -4.426061 0.1307617,1.610,
-2.406447 -7.953366 -2.570919,-2.989592 -7.689765 -2.44518,-3.470976 -6.977966 -2.418549,-3.738974 -6.240085 -2.348087,-3.946089 -5.672412 -2.26435,-3.250431 -5.727844 -2.663727,-3.489828 -4.827653 -2.608884,-3.625376 -4.275878 -2.571379,-3.717995 -3.778629 -2.524437,-2.950883 -5.493567 -2.602128,-3.134294 -4.469018 -2.567602,-3.266961 -3.827728 -2.483505,-3.353248 -3.266943 -2.410595,-2.654846 -5.443861 -2.480585,-2.768607 -4.469429 -2.416005,-2.883588 -3.85938 -2.313423,-2.973479 -3.306909 -2.20199,-2.337628 -5.564095 -2.334619,-2.356352 -4.770093 -2.252027,-2.399735 -4.286802 -2.1345,-2.439906 -3.836921 -2.023966,-8.70044 -8.419489 -1.080219,-8.138056 -8.169281 -0.8696581,-7.726321 -7.436424 -0.6754836,-7.517197 -6.735281 -0.4412673,-7.30894 -6.23487 -0.2082696,-8.075068 -6.07065 -0.864662,-7.966586 -5.074737 -0.6444241,-7.90792 -4.482129 -0.4656289,-7.870422 -3.966787 -0.3463171,-8.365499 -5.917482 -0.7643203,-8.259987 -4.793491 -0.5733535,-8.191015 -4.087743 -0.3638136,-8.136591 -3.446272 -0.2011264,-8.656101 -5.982713 -0.6310486,-8.586525 -4.92657 -0.4489127,-8.530212 -4.249607 -0.2655612,-8.467256 -3.63561 -0.1154997,-8.963927 -6.236512 -0.4879482,-9.002337 -5.409316 -0.293138,-9.019108 -4.877781 -0.1515812,-9.013986 -4.348512 -0.03371561,1.710,
-2.17659 -7.73547 -2.616038,-2.762568 -7.458825 -2.483209,-3.24476 -6.808393 -2.451735,-3.517006 -6.09835 -2.383213,-3.730862 -5.531953 -2.302368,-3.043646 -5.547513 -2.714746,-3.307964 -4.654208 -2.647368,-3.457554 -4.103353 -2.606537,-3.564401 -3.609392 -2.555955,-2.746369 -5.294698 -2.65099,-2.953775 -4.274887 -2.604823,-3.095142 -3.629156 -2.510148,-3.194501 -3.069757 -2.436889,-2.447414 -5.233567 -2.528061,-2.586507 -4.260219 -2.452687,-2.707747 -3.634564 -2.34203,-2.808016 -3.073646 -2.229793,-2.11654 -5.339103 -2.37874,-2.148242 -4.541829 -2.291334,-2.199081 -4.044546 -2.163932,-2.253526 -3.586635 -2.052019,-8.68423 -8.3825 -1.009695,-8.13343 -8.125401 -0.7829741,-7.731771 -7.420716 -0.596181,-7.524988 -6.732233 -0.3732179,-7.323772 -6.226184 -0.1653453,-8.093675 -6.007967 -0.8175899,-7.987317 -5.018505 -0.6091726,-7.926855 -4.410825 -0.431217,-7.881759 -3.864637 -0.3080606,-8.38421 -5.851831 -0.7259024,-8.287215 -4.737026 -0.5386136,-8.221741 -4.011026 -0.3135078,-8.172298 -3.367015 -0.1504509,-8.677155 -5.926153 -0.5971552,-8.614775 -4.864929 -0.4167938,-8.556536 -4.173177 -0.2160862,-8.493616 -3.569486 -0.05363786,-8.986874 -6.193717 -0.4544857,-9.02503 -5.357068 -0.2480516,-9.027537 -4.810054 -0.07598859,-9.009695 -4.282125 0.05454385,1.810,
-2.091001 -7.652769 -2.671638,-2.688435 -7.357713 -2.529033,-3.171041 -6.743845 -2.484057,-3.445486 -6.049506 -2.404437,-3.646461 -5.478739 -2.309632,-2.973238 -5.478046 -2.760429,-3.246866 -4.568351 -2.698635,-3.394583 -4.013149 -2.647609,-3.49608 -3.517434 -2.58541,-2.669311 -5.2303 -2.703298,-2.883384 -4.192781 -2.674776,-3.020815 -3.540591 -2.573701,-3.109943 -2.974683 -2.485312,-2.365582 -5.164514 -2.5882,-2.512433 -4.17991 -2.529735,-2.637968 -3.549306 -2.418933,-2.738023 -2.984211 -2.307423,-2.028829 -5.257045 -2.445704,-2.070429 -4.449172 -2.362252,-2.130668 -3.951929 -2.241969,-2.192488 -3.498997 -2.135565,-8.658807 -8.404661 -1.009569,-8.116731 -8.129419 -0.7891307,-7.719121 -7.417497 -0.6058488,-7.518917 -6.731126 -0.3840135,-7.324196 -6.23128 -0.1779997,-8.087459 -6.024797 -0.8154312,-7.978802 -5.027507 -0.5872889,-7.913909 -4.424946 -0.4022998,-7.869284 -3.885576 -0.2684676,-8.370394 -5.874088 -0.7128034,-8.2651 -4.74257 -0.5025406,-8.194518 -4.014466 -0.2627876,-8.14271 -3.357076 -0.08807456,-8.657434 -5.949731 -0.575268,-8.595282 -4.881935 -0.3740035,-8.54186 -4.18058 -0.1625861,-8.483198 -3.558351 0.01281655,-8.962327 -6.21774 -0.4229999,-9.007307 -5.373791 -0.2037012,-9.018922 -4.82361 -0.02801603,-9.007989 -4.28133 0.1086667,1.910,
-1.96963 -7.596922 -2.654845,-2.572976 -7.325758 -2.450454,-3.068866 -6.747121 -2.383217,-3.35276 -6.033532 -2.295216,-3.542704 -5.398208 -2.196477,-2.876864 -5.435316 -2.740407,-3.151077 -4.524363 -2.694704,-3.29212 -3.966425 -2.630681,-3.393198 -3.46872 -2.547083,-2.567184 -5.174717 -2.715763,-2.779729 -4.136218 -2.717792,-2.910218 -3.478525 -2.608467,-2.996188 -2.916166 -2.510079,-2.258926 -5.103439 -2.629635,-2.41703 -4.130762 -2.605374,-2.541014 -3.497188 -2.484449,-2.641527 -2.946642 -2.362609,-1.917024 -5.186042 -2.506996,-1.969365 -4.38782 -2.437591,-2.028328 -3.887292 -2.310029,-2.08581 -3.441874 -2.195617,-8.644888 -8.410215 -0.9704308,-8.100573 -8.140532 -0.7311045,-7.704863 -7.435709 -0.5439893,-7.506551 -6.750834 -0.3217775,-7.310067 -6.236666 -0.1186935,-8.05341 -6.024509 -0.7554742,-7.932692 -5.021715 -0.5238936,-7.866799 -4.418779 -0.3492342,-7.822322 -3.880026 -0.2256239,-8.339426 -5.872022 -0.6593107,-8.234478 -4.740058 -0.4438681,-8.169737 -4.004076 -0.2116735,-8.12239 -3.355145 -0.04328251,-8.629907 -5.950674 -0.5236448,-8.567305 -4.881124 -0.3125169,-8.519136 -4.176574 -0.09416378,-8.463725 -3.56301 0.08907139,-8.940373 -6.217646 -0.3714938,-8.9763 -5.377996 -0.1380965,-8.985053 -4.830705 0.05246592,-8.968693 -4.298724 0.1969163,2.010,
-1.690989 -7.577201 -2.629755,-2.307896 -7.323422 -2.390553,-2.80678 -6.731408 -2.320067,-3.093126 -6.01646 -2.241269,-3.298289 -5.36861 -2.145058,-2.591865 -5.403587 -2.648382,-2.878107 -4.415475 -2.579728,-3.030584 -3.811927 -2.48951,-3.136773 -3.280847 -2.377191,-2.264735 -5.141155 -2.647792,-2.480569 -4.041875 -2.616121,-2.612826 -3.344457 -2.487649,-2.698157 -2.743238 -2.369462,-1.938334 -5.073225 -2.580189,-2.098253 -4.056066 -2.530212,-2.220095 -3.384519 -2.380438,-2.310987 -2.80228 -2.230809,-1.583234 -5.156707 -2.483706,-1.639573 -4.322384 -2.395198,-1.703999 -3.800217 -2.233707,-1.765324 -3.330559 -2.104567,-8.595176 -8.410007 -0.9411782,-8.032967 -8.14152 -0.7149113,-7.635531 -7.409061 -0.5400077,-7.436703 -6.706069 -0.3318928,-7.231952 -6.207059 -0.1350839,-7.985992 -6.017531 -0.7326553,-7.858635 -4.992035 -0.5078695,-7.772448 -4.380861 -0.3359383,-7.709216 -3.835102 -0.2176126,-8.281501 -5.86333 -0.6384819,-8.170377 -4.709701 -0.4295548,-8.087072 -3.97339 -0.2010273,-8.02367 -3.32711 -0.03607041,-8.576055 -5.944603 -0.5074652,-8.510662 -4.864016 -0.3000338,-8.446182 -4.15727 -0.08525741,-8.376322 -3.536702 0.09147573,-8.885778 -6.218887 -0.3633727,-8.92668 -5.370342 -0.1254829,-8.932325 -4.812044 0.06898558,-8.913995 -4.262685 0.2148818,2.110,
-1.592047 -7.504577 -2.36115,-2.18872 -7.265743 -2.031215,-2.679228 -6.657301 -1.905846,-2.953611 -5.918556 -1.78552,-3.165209 -5.233884 -1.650264,-2.499331 -5.245297 -2.285905,-2.775221 -4.250229 -2.191412,-2.913328 -3.646082 -2.086672,-3.004683 -3.09578 -1.965086,-2.160372 -4.988954 -2.311116,-2.362932 -3.867855 -2.265933,-2.47903 -3.164964 -2.139534,-2.544734 -2.555446 -2.026669,-1.82685 -4.940012 -2.265504,-1.970181 -3.894864 -2.197348,-2.087049 -3.216096 -2.045353,-2.170245 -2.617103 -1.89674,-1.462089 -5.058335 -2.17994,-1.506425 -4.208751 -2.073725,-1.563152 -3.676918 -1.906967,-1.611639 -3.182031 -1.768383,-8.5599 -8.425592 -0.8088754,-7.999043 -8.134748 -0.5957142,-7.607232 -7.379461 -0.4286699,-7.412992 -6.675523 -0.2279536,-7.201229 -6.191362 -0.04292965,-7.957232 -5.992403 -0.5851589,-7.823439 -4.965119 -0.3453216,-7.734323 -4.350936 -0.1652416,-7.670536 -3.795456 -0.04286456,-8.252712 -5.843206 -0.4785699,-8.147527 -4.684727 -0.2469549,-8.062755 -3.936648 -0.006699443,-7.998994 -3.278183 0.1678622,-8.548562 -5.928797 -0.3370576,-8.489954 -4.83918 -0.1093533,-8.428322 -4.123966 0.1104891,-8.361006 -3.496147 0.2880458,-8.858882 -6.208885 -0.1847235,-8.906268 -5.35079 0.06891632,-8.915942 -4.782392 0.2633734,-8.901781 -4.224145 0.4066129,2.210,
-1.566834 -7.520097 -2.274329,-2.180519 -7.242471 -1.982025,-2.66255 -6.600166 -1.891713,-2.936954 -5.854846 -1.794181,-3.133142 -5.171964 -1.684236,-2.435193 -5.214895 -2.285757,-2.728723 -4.194082 -2.211969,-2.879013 -3.58136 -2.131488,-2.971615 -3.046419 -2.032725,-2.098297 -4.970827 -2.306896,-2.307655 -3.812382 -2.296751,-2.425119 -3.093627 -2.191482,-2.490013 -2.490881 -2.092873,-1.76983 -4.927641 -2.253621,-1.916743 -3.848499 -2.214788,-2.035061 -3.148506 -2.080455,-2.118948 -2.546167 -1.941147,-1.416403 -5.053074 -2.162087,-1.458048 -4.172973 -2.077834,-1.511244 -3.62465 -1.921109,-1.552999 -3.126226 -1.79055,-8.554264 -8.42584 -0.7671095,-7.98784 -8.128679 -0.5694401,-7.589684 -7.374015 -0.4034254,-7.385402 -6.667954 -0.1974382,-7.169244 -6.174714 0.001038253,-7.941965 -5.974446 -0.5960035,-7.807213 -4.946455 -0.3768678,-7.716894 -4.335962 -0.2035204,-7.650408 -3.793602 -0.08579105,-8.233185 -5.827904 -0.4798176,-8.1242 -4.671318 -0.2733177,-8.038754 -3.931954 -0.04777628,-7.96867 -3.284522 0.1118928,-8.524796 -5.91533 -0.32491,-8.459455 -4.817633 -0.1136146,-8.400561 -4.097414 0.1020257,-8.331161 -3.468562 0.2766353,-8.832791 -6.197191 -0.1583444,-8.877026 -5.333391 0.08725113,-8.889189 -4.761292 0.2813233,-8.874246 -4.20584 0.4223377,2.310,
-1.500348 -7.585559 -2.066319,-2.122028 -7.305696 -1.766833,-2.614812 -6.66165 -1.660467,-2.895939 -5.908859 -1.552179,-3.103104 -5.208747 -1.426436,-2.383556 -5.23634 -2.008714,-2.671669 -4.173435 -1.918305,-2.823895 -3.53386 -1.819015,-2.917119 -2.978087 -1.703437,-2.041208 -4.977457 -2.043074,-2.251163 -3.789091 -2.012589,-2.368608 -3.049918 -1.902697,-2.432972 -2.429229 -1.793669,-1.706784 -4.931661 -2.003369,-1.852567 -3.831472 -1.94929,-1.967182 -3.114685 -1.805032,-2.04233 -2.498367 -1.65428,-1.349823 -5.067588 -1.933334,-1.389371 -4.168005 -1.83619,-1.44101 -3.613744 -1.667935,-1.479492 -3.11175 -1.529532,-8.519242 -8.441317 -0.693446,-7.960968 -8.14287 -0.5018234,-7.560688 -7.36984 -0.3428877,-7.352255 -6.659822 -0.1443828,-7.124554 -6.192304 0.04770625,-7.905522 -5.970777 -0.4938255,-7.771119 -4.923377 -0.2533924,-7.685637 -4.300546 -0.06916374,-7.625409 -3.739642 0.06139344,-8.20043 -5.826106 -0.3690843,-8.081917 -4.660118 -0.1349485,-7.993558 -3.917965 0.105009,-7.925184 -3.252203 0.2740057,-8.496161 -5.916837 -0.2081169,-8.424913 -4.807899 0.03297853,-8.360996 -4.086156 0.2615378,-8.293246 -3.450099 0.4414214,-8.806745 -6.202793 -0.04113984,-8.845507 -5.331108 0.223525,-8.854541 -4.759904 0.4219935,-8.842611 -4.196388 0.5652567,2.410,
-1.464073 -7.581394 -2.058598,-2.135693 -7.254594 -1.785048,-2.617119 -6.619445 -1.708572,-2.883515 -5.875906 -1.631881,-3.083197 -5.177183 -1.542054,-2.365041 -5.212165 -2.078025,-2.649007 -4.13033 -2.033867,-2.799927 -3.480947 -1.962501,-2.88769 -2.937145 -1.863714,-2.003378 -4.971408 -2.124475,-2.212106 -3.751397 -2.144519,-2.325409 -3.002976 -2.056806,-2.384979 -2.385367 -1.961134,-1.660344 -4.918372 -2.101168,-1.802346 -3.805051 -2.091528,-1.913059 -3.089042 -1.964126,-1.986856 -2.477716 -1.822723,-1.308064 -5.021106 -2.046875,-1.344749 -4.117132 -1.987153,-1.393636 -3.564394 -1.837461,-1.430986 -3.065404 -1.709535,-8.517884 -8.451918 -0.6618268,-7.953629 -8.158241 -0.4856227,-7.549097 -7.376491 -0.3432044,-7.341434 -6.670051 -0.1587135,-7.115529 -6.208883 0.01438665,-7.898431 -5.970376 -0.4996626,-7.763525 -4.930355 -0.2752298,-7.671208 -4.303626 -0.09738415,-7.602256 -3.739179 0.02867126,-8.193772 -5.823753 -0.3755752,-8.079926 -4.657646 -0.1576369,-7.98758 -3.911933 0.08177811,-7.915351 -3.252149 0.2509659,-8.489957 -5.907043 -0.2164134,-8.420745 -4.805254 0.01118022,-8.351774 -4.086101 0.233562,-8.278026 -3.458814 0.4073143,-8.800894 -6.183223 -0.05221343,-8.841477 -5.313785 0.2057872,-8.84859 -4.736213 0.4014475,-8.833923 -4.172326 0.5415068,2.510,
-1.422682 -7.638256 -1.796484,-2.080685 -7.304351 -1.488322,-2.568395 -6.62432 -1.393642,-2.825216 -5.859167 -1.293728,-3.017817 -5.154615 -1.182581,-2.310651 -5.177825 -1.799879,-2.581048 -4.086742 -1.719513,-2.727724 -3.423026 -1.613765,-2.816398 -2.853084 -1.486326,-1.942186 -4.94732 -1.829004,-2.136751 -3.730031 -1.823105,-2.246933 -2.967735 -1.708893,-2.304761 -2.342829 -1.589468,-1.592992 -4.921361 -1.781137,-1.725238 -3.805232 -1.742384,-1.831314 -3.066198 -1.593636,-1.903084 -2.439274 -1.436183,-1.23049 -5.064797 -1.695117,-1.251561 -4.154308 -1.615933,-1.29745 -3.585089 -1.458258,-1.332064 -3.067519 -1.319315,-8.524528 -8.476068 -0.6340737,-7.956718 -8.185734 -0.4361657,-7.546802 -7.41883 -0.2688357,-7.336989 -6.704506 -0.05968684,-7.121622 -6.209299 0.1389701,-7.895738 -5.995288 -0.4418734,-7.762209 -4.961345 -0.2092894,-7.670667 -4.337343 -0.02614993,-7.597303 -3.77702 0.1056174,-8.19106 -5.843542 -0.3258505,-8.074336 -4.682104 -0.1012335,-7.981058 -3.935281 0.1414379,-7.900356 -3.274326 0.3134248,-8.485786 -5.921657 -0.1746749,-8.414089 -4.81957 0.04886132,-8.343861 -4.101352 0.2674216,-8.261814 -3.474584 0.4384235,-8.794446 -6.189826 -0.01636744,-8.836023 -5.314408 0.2360058,-8.843983 -4.736476 0.423203,-8.825792 -4.174623 0.5539328,2.610,
-1.389066 -7.739019 -1.688313,-2.049917 -7.436278 -1.369544,-2.544411 -6.744731 -1.268816,-2.806875 -5.981862 -1.164191,-3.019137 -5.278509 -1.050896,-2.301529 -5.268495 -1.609799,-2.565856 -4.157251 -1.4921,-2.709211 -3.468076 -1.37195,-2.792676 -2.864181 -1.235098,-1.934879 -5.02205 -1.637614,-2.126303 -3.788035 -1.582407,-2.234852 -3.021814 -1.457652,-2.289963 -2.386171 -1.334413,-1.581408 -4.987995 -1.590758,-1.717019 -3.851963 -1.515977,-1.821803 -3.10386 -1.361875,-1.888119 -2.468541 -1.20113,-1.209762 -5.130512 -1.510763,-1.228801 -4.204527 -1.404178,-1.275334 -3.628226 -1.236731,-1.311123 -3.103958 -1.094185,-8.521545 -8.527636 -0.5612783,-7.952237 -8.222446 -0.4033895,-7.546404 -7.439783 -0.2634389,-7.33602 -6.731695 -0.07860947,-7.105507 -6.26699 0.09551382,-7.891856 -6.015389 -0.3925788,-7.759837 -4.969823 -0.1688603,-7.666252 -4.341636 0.009085298,-7.593468 -3.773948 0.135532,-8.190007 -5.873338 -0.2567438,-8.078712 -4.703962 -0.03467625,-7.98142 -3.954107 0.2078072,-7.902729 -3.294404 0.3788247,-8.487106 -5.968084 -0.08998787,-8.424128 -4.861274 0.1443543,-8.35269 -4.133258 0.3744415,-8.275429 -3.501588 0.549701,-8.795468 -6.25675 0.07898593,-8.840892 -5.387073 0.3447229,-8.846516 -4.804568 0.5493649,-8.828963 -4.238622 0.6915224,2.710,
-1.372601 -7.781772 -1.642082,-2.038008 -7.482372 -1.307775,-2.537215 -6.800988 -1.198863,-2.796155 -6.035318 -1.093915,-3.008581 -5.334058 -0.9814819,-2.301041 -5.307374 -1.541264,-2.563982 -4.19561 -1.418704,-2.700816 -3.501042 -1.288928,-2.778152 -2.888134 -1.145195,-1.92921 -5.053748 -1.57963,-2.120649 -3.816705 -1.516902,-2.224084 -3.050943 -1.385285,-2.277283 -2.411475 -1.259015,-1.571472 -5.014173 -1.541544,-1.707672 -3.876639 -1.458816,-1.807678 -3.137918 -1.301227,-1.870862 -2.509645 -1.14342,-1.195543 -5.148987 -1.470994,-1.21345 -4.22047 -1.358384,-1.258948 -3.651699 -1.192362,-1.296435 -3.13508 -1.053499,-8.509954 -8.555399 -0.523954,-7.941903 -8.248249 -0.3601215,-7.535779 -7.459341 -0.2128837,-7.325508 -6.746997 -0.02147263,-7.093098 -6.283621 0.1628709,-7.892908 -6.03343 -0.3628025,-7.764242 -4.989355 -0.1420694,-7.672279 -4.367171 0.03807867,-7.598238 -3.801462 0.1696062,-8.191483 -5.887651 -0.2286542,-8.082678 -4.719633 -0.01048231,-7.984411 -3.971914 0.2344607,-7.902724 -3.309578 0.4098463,-8.486488 -5.978342 -0.06327513,-8.425063 -4.872183 0.1625748,-8.353739 -4.148026 0.3912391,-8.273827 -3.514803 0.5660092,-8.792258 -6.265058 0.1065896,-8.841685 -5.397089 0.3655649,-8.84698 -4.817848 0.5631374,-8.828248 -4.255538 0.6993706,2.810,
-1.328574 -7.911615 -1.401207,-1.990487 -7.626094 -1.091629,-2.499102 -6.916389 -0.9942893,-2.760451 -6.100954 -0.893912,-2.980012 -5.3951 -0.7852852,-2.234398 -5.344472 -1.380582,-2.491562 -4.221866 -1.314298,-2.627648 -3.543037 -1.228617,-2.709339 -2.948179 -1.1109,-1.851986 -5.106282 -1.411736,-2.034387 -3.8495 -1.403697,-2.133175 -3.079457 -1.309288,-2.182552 -2.444616 -1.202486,-1.486221 -5.099201 -1.373295,-1.602124 -3.949259 -1.337424,-1.69809 -3.212867 -1.195937,-1.762178 -2.589317 -1.050903,-1.104763 -5.281765 -1.295153,-1.113968 -4.343801 -1.202987,-1.152111 -3.761241 -1.041863,-1.190212 -3.219986 -0.8984305,-8.474201 -8.576939 -0.4739303,-7.915713 -8.261999 -0.3109933,-7.502692 -7.465854 -0.1680097,-7.282583 -6.758539 0.01985222,-7.037587 -6.31376 0.2067228,-7.853413 -6.036623 -0.3176755,-7.711403 -4.990959 -0.09691674,-7.619231 -4.369631 0.07744026,-7.549788 -3.81068 0.2086633,-8.141989 -5.896533 -0.1770953,-8.015073 -4.743576 0.0436554,-7.91538 -4.003431 0.2845634,-7.837452 -3.341895 0.460291,-8.433256 -5.991437 -0.002778202,-8.358234 -4.882572 0.236685,-8.286881 -4.152211 0.4703478,-8.21009 -3.510423 0.654321,-8.742358 -6.281511 0.1761083,-8.786605 -5.407712 0.4489525,-8.790992 -4.827264 0.6522154,-8.770627 -4.259828 0.7977653,2.910,
-1.289856 -8.002615 -1.33596,-1.970867 -7.710664 -1.038344,-2.482277 -6.989503 -0.9424039,-2.739278 -6.147737 -0.8505535,-2.961345 -5.43777 -0.7574363,-2.222482 -5.432146 -1.276645,-2.46337 -4.291095 -1.202253,-2.593986 -3.595678 -1.108567,-2.674067 -2.984941 -0.9874957,-1.835594 -5.182595 -1.313652,-2.006048 -3.922706 -1.285848,-2.099308 -3.149869 -1.190539,-2.144327 -2.492132 -1.078004,-1.466292 -5.166639 -1.285623,-1.576804 -4.009653 -1.234729,-1.66774 -3.260662 -1.096631,-1.724763 -2.611339 -0.9575264,-1.083375 -5.347826 -1.225282,-1.098443 -4.401342 -1.126989,-1.138222 -3.818959 -0.9606931,-1.171257 -3.276668 -0.8192958,-8.473245 -8.576977 -0.4782408,-7.898987 -8.265173 -0.3200888,-7.482602 -7.462242 -0.1705354,-7.260301 -6.749716 0.02145743,-7.024767 -6.283151 0.2083386,-7.838001 -6.039932 -0.3047559,-7.716677 -4.995684 -0.0773429,-7.626752 -4.371515 0.1055957,-7.555775 -3.809514 0.2375184,-8.135659 -5.900413 -0.1647283,-8.024243 -4.732683 0.06047291,-7.92564 -3.985665 0.3064625,-7.845181 -3.321995 0.4801137,-8.432566 -5.996658 0.005988508,-8.369457 -4.875592 0.2415569,-8.29381 -4.151871 0.4707773,-8.212392 -3.520543 0.643653,-8.742062 -6.28911 0.1775621,-8.791058 -5.410661 0.4433371,-8.7961 -4.828342 0.6401705,-8.779263 -4.259948 0.7768209,3.010,
-1.27698 -8.048141 -1.155787,-1.95583 -7.75335 -0.8259401,-2.469286 -7.037324 -0.724501,-2.728226 -6.222124 -0.6193756,-2.962532 -5.50506 -0.5113999,-2.215275 -5.41529 -1.149599,-2.457539 -4.292697 -1.072276,-2.588069 -3.605958 -0.9732205,-2.670242 -3.008615 -0.8497549,-1.824059 -5.176048 -1.185833,-1.996515 -3.928079 -1.177462,-2.08391 -3.163703 -1.080992,-2.12409 -2.528109 -0.9784396,-1.452618 -5.170213 -1.14659,-1.563349 -4.014924 -1.104546,-1.654134 -3.262599 -0.9717719,-1.718347 -2.624099 -0.8396767,-1.064518 -5.354606 -1.065337,-1.078808 -4.41764 -0.987193,-1.117838 -3.833574 -0.845135,-1.150914 -3.298608 -0.724192,-8.477418 -8.6 -0.454522,-7.908969 -8.285686 -0.2679056,-7.493569 -7.482 -0.1023437,-7.269198 -6.761409 0.1056686,-7.033251 -6.287409 0.3054287,-7.844304 -6.057125 -0.2945088,-7.724931 -5.027986 -0.08343852,-7.633336 -4.409542 0.09292114,-7.559472 -3.857883 0.2200589,-8.144839 -5.9125 -0.1718943,-8.038006 -4.758887 0.02631074,-7.940544 -4.022598 0.2643719,-7.860409 -3.368246 0.433787,-8.440455 -6.003557 -0.01365972,-8.380445 -4.897932 0.1952485,-8.30395 -4.189777 0.4148668,-8.22026 -3.569107 0.5784076,-8.747072 -6.289129 0.1511724,-8.804366 -5.426264 0.3984069,-8.812644 -4.852033 0.5834367,-8.796993 -4.286891 0.7137843,3.110,
-1.269982 -8.130581 -1.110675,-1.949017 -7.839856 -0.7971611,-2.467847 -7.098365 -0.6962658,-2.727787 -6.248569 -0.5930635,-2.963626 -5.53263 -0.4822034,-2.200229 -5.485391 -1.068697,-2.439866 -4.346547 -0.9780838,-2.567191 -3.649055 -0.8738512,-2.647449 -3.033688 -0.7489202,-1.808667 -5.243673 -1.097401,-1.966563 -3.978929 -1.065481,-2.049866 -3.201898 -0.9629893,-2.088441 -2.540672 -0.852016,-1.436296 -5.238012 -1.056136,-1.535992 -4.070406 -1.001415,-1.620987 -3.324846 -0.872536,-1.67642 -2.685579 -0.7445192,-1.049732 -5.425516 -0.9755933,-1.058144 -4.471657 -0.8777747,-1.09551 -3.886083 -0.7290968,-1.128123 -3.33765 -0.6056743,-8.468062 -8.591747 -0.4455523,-7.904359 -8.279907 -0.2502944,-7.498376 -7.468685 -0.077402,-7.271565 -6.754175 0.1343007,-7.026096 -6.290752 0.3418351,-7.855433 -6.034129 -0.2392478,-7.741659 -4.987131 -0.01098603,-7.647663 -4.362139 0.1778029,-7.571919 -3.798301 0.3114704,-8.15812 -5.904769 -0.1120194,-8.059492 -4.734668 0.1117831,-7.958125 -3.986915 0.354557,-7.874105 -3.326218 0.5252297,-8.456168 -6.015825 0.04916388,-8.410633 -4.892463 0.2801827,-8.329708 -4.16971 0.5078899,-8.241564 -3.535518 0.6742381,-8.762232 -6.320034 0.2157047,-8.827235 -5.445758 0.4844352,-8.833884 -4.858654 0.6832098,-8.816633 -4.280197 0.8155636,3.210,
-1.280002 -8.239346 -0.927909,-1.957606 -7.915816 -0.6539891,-2.47337 -7.15117 -0.577734,-2.730603 -6.303209 -0.48674,-2.974996 -5.615039 -0.3909556,-2.190712 -5.525154 -0.9503696,-2.427822 -4.39864 -0.8611633,-2.550617 -3.694479 -0.7577868,-2.623909 -3.062589 -0.6325506,-1.80483 -5.296947 -0.9550691,-1.968153 -4.049699 -0.9200415,-2.052835 -3.279202 -0.8176847,-2.088161 -2.612849 -0.7131091,-1.431254 -5.308185 -0.8866267,-1.53335 -4.148152 -0.8290495,-1.616376 -3.407362 -0.7025497,-1.667591 -2.761383 -0.5791417,-1.03941 -5.515556 -0.7799815,-1.035343 -4.575934 -0.6876746,-1.065154 -3.987367 -0.5450708,-1.087829 -3.429163 -0.4285585,-8.461235 -8.664955 -0.3962473,-7.903125 -8.354599 -0.2170211,-7.491399 -7.551476 -0.06802502,-7.262246 -6.845631 0.1261876,-7.031497 -6.400289 0.3114135,-7.849835 -6.100909 -0.2202717,-7.720288 -5.048362 0.004721105,-7.628094 -4.426271 0.1839526,-7.553454 -3.86663 0.318051,-8.146944 -5.961459 -0.08572391,-8.02651 -4.798279 0.1401395,-7.921467 -4.050925 0.3912994,-7.836277 -3.389577 0.5676826,-8.446239 -6.06118 0.08155105,-8.373579 -4.942487 0.3248078,-8.290004 -4.211145 0.5633074,-8.203466 -3.576476 0.7457284,-8.759044 -6.361434 0.2536733,-8.808207 -5.483661 0.5268468,-8.808011 -4.89809 0.7341975,-8.78536 -4.328533 0.8809301,3.310,
-1.301556 -8.310837 -0.8696905,-1.974326 -7.967611 -0.5953311,-2.480206 -7.188062 -0.5109233,-2.736686 -6.339773 -0.4095102,-2.992716 -5.635108 -0.2922339,-2.193443 -5.577756 -0.8601917,-2.427015 -4.446494 -0.7422404,-2.549777 -3.733619 -0.6191065,-2.625507 -3.089909 -0.4824946,-1.809434 -5.348508 -0.8554609,-1.959862 -4.094673 -0.7872831,-2.039777 -3.314838 -0.6653921,-2.076686 -2.637308 -0.5498717,-1.438721 -5.358167 -0.7759706,-1.528437 -4.19338 -0.6903877,-1.607001 -3.440778 -0.5488223,-1.658282 -2.781525 -0.4165585,-1.051223 -5.568767 -0.6632686,-1.03629 -4.62853 -0.5416793,-1.063199 -4.034553 -0.3807878,-1.087149 -3.473368 -0.2574746,-8.48947 -8.693106 -0.3935252,-7.911777 -8.402788 -0.2176077,-7.494887 -7.615122 -0.06649339,-7.262775 -6.904151 0.1255429,-7.024254 -6.451035 0.3036176,-7.845082 -6.13167 -0.2133124,-7.713446 -5.078802 0.01041397,-7.621475 -4.459998 0.1964756,-7.550089 -3.903697 0.3355629,-8.145806 -5.993692 -0.07190084,-8.019001 -4.828765 0.1486193,-7.913265 -4.079889 0.3918731,-7.826588 -3.428438 0.5624589,-8.450851 -6.099977 0.1013163,-8.37701 -4.972766 0.3444511,-8.295154 -4.23614 0.5871194,-8.208029 -3.600135 0.7726027,-8.769523 -6.408363 0.281051,-8.820538 -5.523925 0.5553977,-8.820655 -4.935054 0.7726747,-8.794822 -4.358731 0.9282874,3.410,
-1.303956 -8.316671 -0.8192348,-1.974046 -7.957302 -0.5277159,-2.483609 -7.192029 -0.4342043,-2.744935 -6.374027 -0.3151675,-3.005493 -5.680658 -0.1818663,-2.209497 -5.560674 -0.8311122,-2.443454 -4.439158 -0.7070995,-2.566166 -3.735804 -0.5806539,-2.640733 -3.098652 -0.4435633,-1.821925 -5.341426 -0.8205168,-1.973185 -4.089956 -0.7551304,-2.050811 -3.322213 -0.62942,-2.088506 -2.664105 -0.5143042,-1.448482 -5.359843 -0.7273029,-1.539513 -4.202573 -0.6371586,-1.612714 -3.445802 -0.4800335,-1.663916 -2.78926 -0.3394797,-1.053393 -5.575763 -0.5978476,-1.042591 -4.652416 -0.4809302,-1.068978 -4.064796 -0.3182725,-1.091353 -3.515334 -0.1937445,-8.506615 -8.747078 -0.2913232,-7.926702 -8.443014 -0.114857,-7.50808 -7.644163 0.04644999,-7.263712 -6.938242 0.2509761,-7.029024 -6.475882 0.4521047,-7.884203 -6.157093 -0.1263884,-7.756663 -5.12371 0.08554876,-7.654846 -4.503547 0.268795,-7.570024 -3.938325 0.4007406,-8.18906 -6.012334 0.007673532,-8.083679 -4.85422 0.2048765,-7.973252 -4.097379 0.441125,-7.879403 -3.437545 0.603721,-8.49347 -6.113198 0.1738634,-8.440891 -5.010161 0.3827446,-8.353346 -4.278184 0.6030345,-8.257504 -3.642684 0.7682757,-8.805475 -6.417848 0.3488739,-8.868647 -5.532488 0.6005979,-8.865572 -4.933729 0.7991488,-8.836835 -4.354759 0.9308733,3.510,
-1.336363 -8.341909 -0.7889872,-2.014335 -8.005281 -0.4976825,-2.535599 -7.223644 -0.4047992,-2.799219 -6.393599 -0.293191,-3.076834 -5.72359 -0.1604791,-2.248831 -5.581901 -0.7402172,-2.48591 -4.467454 -0.5788493,-2.611907 -3.76636 -0.4340923,-2.694536 -3.118511 -0.2889146,-1.858865 -5.359338 -0.7263152,-2.003659 -4.116321 -0.5863101,-2.081725 -3.351307 -0.4256466,-2.120859 -2.676195 -0.2874705,-1.48392 -5.375409 -0.6322441,-1.572007 -4.224121 -0.4806134,-1.644673 -3.483715 -0.2912942,-1.689124 -2.823745 -0.1306273,-1.087465 -5.592861 -0.5093156,-1.069627 -4.68062 -0.3450228,-1.091386 -4.09163 -0.1495621,-1.108087 -3.528141 -0.007036626,-8.514307 -8.805471 -0.2887758,-7.935414 -8.480738 -0.09931104,-7.518905 -7.681968 0.06510153,-7.275961 -6.962638 0.2647368,-7.030599 -6.494619 0.4584544,-7.912282 -6.207143 -0.06096639,-7.774521 -5.130094 0.1907005,-7.678398 -4.491667 0.385599,-7.606696 -3.910944 0.5250827,-8.22156 -6.075464 0.07808578,-8.112139 -4.880157 0.3229996,-8.009484 -4.109785 0.5907134,-7.928786 -3.42556 0.7766254,-8.530116 -6.195714 0.2483574,-8.480803 -5.069887 0.5074456,-8.410401 -4.314891 0.7700825,-8.334127 -3.644663 0.9732476,-8.843803 -6.523424 0.4246158,-8.926686 -5.649545 0.7141898,-8.941475 -5.050094 0.9478365,-8.928258 -4.453447 1.116512,3.610,
-1.380498 -8.342888 -0.8522801,-2.050846 -8.009342 -0.575058,-2.573038 -7.224819 -0.4907039,-2.855979 -6.404232 -0.3835568,-3.143661 -5.7608 -0.2590738,-2.294488 -5.60646 -0.8061628,-2.547835 -4.480442 -0.6676331,-2.671848 -3.774421 -0.5559467,-2.741964 -3.138544 -0.4337975,-1.907215 -5.379343 -0.7946692,-2.07928 -4.110479 -0.6812043,-2.171517 -3.342575 -0.5521052,-2.217455 -2.682951 -0.4394124,-1.531679 -5.385902 -0.705412,-1.631586 -4.211546 -0.5765862,-1.709934 -3.470402 -0.4141445,-1.756036 -2.818141 -0.2693119,-1.135661 -5.595518 -0.5886976,-1.122484 -4.673881 -0.4460684,-1.145792 -4.088441 -0.2682076,-1.164257 -3.529842 -0.1338559,-8.498709 -8.895866 -0.2211992,-7.902593 -8.570322 -0.05491917,-7.465383 -7.775674 0.09139693,-7.201859 -7.05226 0.2766628,-6.940314 -6.582961 0.4546496,-7.85434 -6.286022 -0.01538441,-7.706696 -5.210674 0.2257278,-7.612231 -4.581295 0.4114333,-7.543423 -4.009287 0.540737,-8.167546 -6.148442 0.1286574,-8.045382 -4.959105 0.3614384,-7.940112 -4.201159 0.6218188,-7.857863 -3.53573 0.8038653,-8.480611 -6.271097 0.3028603,-8.420553 -5.14553 0.5659106,-8.349325 -4.391253 0.8330173,-8.272723 -3.731596 1.038123,-8.80037 -6.604318 0.4790601,-8.87576 -5.740602 0.7715203,-8.887578 -5.135211 1.011707,-8.868839 -4.535865 1.185626,3.710,
-1.389046 -8.380795 -0.8588992,-2.055676 -8.023256 -0.5427222,-2.589796 -7.260481 -0.4264103,-2.886534 -6.443265 -0.2880893,-3.181086 -5.781721 -0.1298871,-2.30888 -5.645717 -0.7640322,-2.56279 -4.519554 -0.5641675,-2.697221 -3.811698 -0.3974294,-2.783064 -3.153185 -0.2369283,-1.92521 -5.422319 -0.7488497,-2.096726 -4.161758 -0.5515463,-2.18832 -3.386096 -0.3500751,-2.237207 -2.696298 -0.1925666,-1.551252 -5.425021 -0.65195,-1.654524 -4.260287 -0.4566791,-1.738512 -3.523313 -0.236743,-1.792304 -2.861247 -0.05891156,-1.157784 -5.623405 -0.5293254,-1.149727 -4.70302 -0.3341755,-1.178717 -4.11833 -0.1199913,-1.203027 -3.553923 0.03415179,-8.492798 -8.948278 -0.1804844,-7.894474 -8.639414 -0.01273963,-7.447167 -7.840215 0.1402477,-7.179778 -7.119351 0.3342623,-6.922972 -6.635331 0.5180674,-7.837825 -6.329689 0.02383132,-7.700278 -5.258659 0.2547791,-7.601776 -4.624711 0.4443218,-7.526549 -4.047953 0.5750695,-8.153512 -6.189592 0.1657932,-8.03847 -5.008551 0.392036,-7.931602 -4.249378 0.6512656,-7.84441 -3.587407 0.8257631,-8.46896 -6.308933 0.3395751,-8.418344 -5.188146 0.5968917,-8.342824 -4.445814 0.8592691,-8.260699 -3.80317 1.055,-8.788253 -6.639707 0.5139415,-8.866925 -5.768386 0.7990699,-8.878674 -5.167703 1.029086,-8.861863 -4.574927 1.189811,3.810,
-1.454053 -8.403509 -0.8555399,-2.119616 -8.053936 -0.5732397,-2.652663 -7.274255 -0.4784771,-2.950886 -6.455396 -0.3568268,-3.244719 -5.789715 -0.208751,-2.359452 -5.663856 -0.8107771,-2.617498 -4.539365 -0.655368,-2.755301 -3.837745 -0.5355172,-2.843246 -3.201662 -0.413817,-1.977856 -5.440471 -0.7929066,-2.143387 -4.194224 -0.655965,-2.23275 -3.420915 -0.5068225,-2.27693 -2.738989 -0.3851841,-1.607772 -5.439605 -0.695846,-1.710375 -4.272653 -0.5528148,-1.794717 -3.533117 -0.3834636,-1.847081 -2.869638 -0.2389501,-1.218392 -5.635234 -0.5715775,-1.208776 -4.69741 -0.4225785,-1.231975 -4.105917 -0.2454495,-1.247371 -3.543931 -0.117406,-8.507935 -9.015774 -0.1403729,-7.896256 -8.725996 0.03649281,-7.434927 -7.931935 0.1914696,-7.158422 -7.199646 0.3875632,-6.890806 -6.702688 0.5837743,-7.832762 -6.394918 0.0278374,-7.702277 -5.309612 0.2460287,-7.612129 -4.658979 0.4389729,-7.541276 -4.070227 0.5704565,-8.162103 -6.2403 0.1544723,-8.053356 -5.041305 0.3441329,-7.949769 -4.272501 0.5807689,-7.864889 -3.617432 0.7405622,-8.487043 -6.344282 0.3187051,-8.440796 -5.212289 0.5290127,-8.361789 -4.469751 0.7588019,-8.274887 -3.841451 0.9321485,-8.815418 -6.661836 0.4879149,-8.892334 -5.770712 0.7383139,-8.895151 -5.162263 0.9426023,-8.86845 -4.571807 1.086278,3.910,
-1.462188 -8.407755 -0.8886386,-2.125548 -8.062445 -0.5787455,-2.667617 -7.278538 -0.4728306,-2.976764 -6.460762 -0.3414811,-3.271313 -5.803174 -0.1858798,-2.359313 -5.677927 -0.8153871,-2.621648 -4.54961 -0.6541309,-2.762682 -3.8532 -0.53628,-2.854372 -3.22229 -0.4162118,-1.977746 -5.453333 -0.8069022,-2.147025 -4.198186 -0.6616865,-2.238557 -3.427902 -0.5028417,-2.286656 -2.74246 -0.3793678,-1.609747 -5.448689 -0.7170229,-1.715196 -4.277534 -0.5703183,-1.802938 -3.546173 -0.3993421,-1.862655 -2.883461 -0.2546097,-1.227542 -5.639099 -0.5974383,-1.215381 -4.69738 -0.4483938,-1.241253 -4.115596 -0.2739625,-1.26321 -3.565012 -0.1481528,-8.510634 -9.042681 -0.05683722,-7.903502 -8.755123 0.1523922,-7.439659 -7.959961 0.333567,-7.159323 -7.219814 0.5517245,-6.882831 -6.723079 0.7834229,-7.836517 -6.406234 0.1526845,-7.70871 -5.317871 0.3794345,-7.623156 -4.658467 0.5792235,-7.556684 -4.063947 0.7098874,-8.167478 -6.245921 0.26723,-8.062768 -5.031302 0.4593895,-7.962443 -4.245416 0.6985459,-7.87878 -3.569969 0.860527,-8.494942 -6.349109 0.4198974,-8.452915 -5.210191 0.626305,-8.375457 -4.455089 0.8494329,-8.287865 -3.812099 1.021859,-8.828734 -6.667081 0.5832431,-8.908965 -5.769311 0.8284016,-8.916023 -5.151762 1.0293,-8.892407 -4.548782 1.171601,4.010,
-1.489563 -8.432371 -0.8221172,-2.152576 -8.072969 -0.5268188,-2.687609 -7.283674 -0.4229756,-2.993823 -6.467965 -0.2879102,-3.292061 -5.804836 -0.1270354,-2.369165 -5.677158 -0.7665097,-2.626768 -4.551877 -0.6174521,-2.768931 -3.860518 -0.5087171,-2.862906 -3.229991 -0.391082,-1.987444 -5.455282 -0.7538427,-2.145585 -4.205205 -0.6253167,-2.238248 -3.434524 -0.4808753,-2.28845 -2.747249 -0.3609701,-1.620791 -5.460252 -0.6605332,-1.712742 -4.294078 -0.5269377,-1.796676 -3.565077 -0.3595268,-1.854134 -2.907985 -0.2159551,-1.240973 -5.661788 -0.5368087,-1.22093 -4.726429 -0.3964556,-1.245858 -4.13949 -0.2198539,-1.270877 -3.584369 -0.09039962,-8.544212 -9.062424 -0.01310484,-7.921545 -8.7836 0.1712259,-7.445751 -7.993521 0.3344388,-7.16315 -7.245912 0.5412706,-6.898662 -6.744094 0.7538025,-7.849794 -6.418962 0.1290514,-7.723459 -5.317104 0.3257155,-7.640469 -4.645315 0.5096484,-7.575134 -4.049572 0.6297711,-8.186991 -6.247729 0.2429107,-8.08358 -5.009584 0.3943693,-7.989122 -4.215507 0.6151904,-7.913532 -3.543287 0.774699,-8.518902 -6.338485 0.3932115,-8.472553 -5.184007 0.56542,-8.397479 -4.433623 0.7664182,-8.313374 -3.800382 0.9270725,-8.855901 -6.647068 0.5552125,-8.942074 -5.748199 0.7736895,-8.953628 -5.135896 0.958868,-8.930971 -4.542285 1.09698,4.110,
-1.541501 -8.475159 -0.8046014,-2.220749 -8.095222 -0.5310667,-2.765264 -7.304635 -0.4302699,-3.085527 -6.499822 -0.2890503,-3.387732 -5.8593 -0.1192667,-2.437869 -5.700775 -0.8199688,-2.68364 -4.599485 -0.649039,-2.813351 -3.917631 -0.5100846,-2.897392 -3.287765 -0.3809462,-2.057275 -5.495305 -0.7890544,-2.212614 -4.256299 -0.6409996,-2.306539 -3.491611 -0.4809432,-2.357994 -2.811976 -0.3586114,-1.685595 -5.510398 -0.669632,-1.768271 -4.34292 -0.5245562,-1.848755 -3.618873 -0.3489777,-1.905744 -2.971753 -0.2037842,-1.296388 -5.728712 -0.5197895,-1.274986 -4.800621 -0.3706677,-1.30654 -4.219482 -0.1827388,-1.336401 -3.672262 -0.05007768,-8.5783 -9.163715 0.2665159,-7.951103 -8.844908 0.4888211,-7.4722 -8.064665 0.6786512,-7.193847 -7.323627 0.9163855,-6.939921 -6.807077 1.154571,-7.888288 -6.435788 0.4424834,-7.760639 -5.31602 0.6502115,-7.69581 -4.618516 0.8434891,-7.653223 -4.007768 0.9741675,-8.235581 -6.268485 0.544839,-8.135543 -5.013408 0.7000779,-8.065909 -4.208135 0.9381711,-8.019582 -3.516881 1.116213,-8.578272 -6.369831 0.6884273,-8.529105 -5.196874 0.8574933,-8.474481 -4.42733 1.072469,-8.417757 -3.771842 1.243848,-8.9308 -6.696887 0.8458287,-9.01872 -5.777124 1.044921,-9.042396 -5.164846 1.227674,-9.039751 -4.57943 1.370153,4.210,
-1.500131 -8.450157 -0.8378392,-2.165187 -8.092043 -0.5709147,-2.727223 -7.30927 -0.4739277,-3.064666 -6.50651 -0.345755,-3.378335 -5.893806 -0.1903335,-2.397114 -5.696825 -0.7983201,-2.658525 -4.582695 -0.665558,-2.798404 -3.895157 -0.564136,-2.889399 -3.251326 -0.4515204,-2.022955 -5.481832 -0.7710336,-2.194493 -4.245538 -0.6469007,-2.290255 -3.477791 -0.5013976,-2.336344 -2.790498 -0.3796299,-1.655917 -5.48487 -0.66791,-1.75349 -4.331277 -0.5422665,-1.846037 -3.615938 -0.3955109,-1.90868 -2.963061 -0.2611394,-1.270522 -5.683919 -0.5332077,-1.250701 -4.755109 -0.3985455,-1.275289 -4.178637 -0.2355451,-1.29952 -3.625391 -0.1129892,-8.574712 -9.192711 0.4790791,-7.933659 -8.838327 0.7214155,-7.445547 -8.048666 0.9194506,-7.159741 -7.274549 1.157722,-6.883928 -6.742378 1.391727,-7.865466 -6.417196 0.6835101,-7.731703 -5.299939 0.8809031,-7.662428 -4.621754 1.066122,-7.616657 -4.027881 1.190288,-8.218278 -6.239012 0.7713028,-8.120758 -4.966657 0.9145106,-8.049321 -4.164074 1.147931,-7.996799 -3.472045 1.320585,-8.560776 -6.337819 0.8962407,-8.51938 -5.147592 1.058919,-8.465215 -4.381185 1.26943,-8.403477 -3.719449 1.441768,-8.912822 -6.654806 1.039491,-8.995543 -5.740093 1.226774,-9.016938 -5.130353 1.397872,-9.008673 -4.540039 1.532507,4.310,
-1.483799 -8.430998 -0.8511751,-2.143582 -8.076159 -0.5885404,-2.704754 -7.302911 -0.4909477,-3.041733 -6.496699 -0.3611358,-3.358 -5.875787 -0.2000735,-2.364265 -5.679319 -0.8068885,-2.626063 -4.552046 -0.6902643,-2.764868 -3.858428 -0.6007417,-2.854931 -3.213703 -0.4927063,-1.987646 -5.46327 -0.7850738,-2.159507 -4.21837 -0.6776067,-2.256623 -3.453522 -0.5480229,-2.305975 -2.771865 -0.4311124,-1.620209 -5.461856 -0.6881946,-1.718568 -4.305179 -0.5817797,-1.814617 -3.595118 -0.4422093,-1.881137 -2.958046 -0.3126823,-1.23865 -5.652443 -0.5609467,-1.219961 -4.71936 -0.4412711,-1.243118 -4.142972 -0.285074,-1.270555 -3.597119 -0.1608967,-8.540753 -9.186762 0.490391,-7.902605 -8.827787 0.7304376,-7.417833 -8.031672 0.9244679,-7.142755 -7.255371 1.15806,-6.874722 -6.736239 1.388336,-7.837272 -6.397455 0.7154474,-7.710266 -5.271745 0.9216948,-7.645271 -4.600425 1.111405,-7.603865 -4.003122 1.239488,-8.189502 -6.231908 0.8091661,-8.099575 -4.949619 0.9676012,-8.031613 -4.152941 1.208347,-7.984131 -3.456977 1.385223,-8.529779 -6.339262 0.9395294,-8.500817 -5.148721 1.119408,-8.454831 -4.388326 1.340352,-8.402398 -3.72357 1.518826,-8.876569 -6.662475 1.08654,-8.964163 -5.747732 1.285206,-8.993943 -5.142484 1.457667,-8.997318 -4.5482 1.592839,4.410,
-1.45127 -8.46603 -0.8266989,-2.119331 -8.131887 -0.5348889,-2.672449 -7.344982 -0.4319493,-2.996719 -6.517587 -0.3034716,-3.30481 -5.861232 -0.161136,-2.336514 -5.707435 -0.7734908,-2.598546 -4.575643 -0.6551161,-2.737202 -3.873052 -0.5684578,-2.825965 -3.229008 -0.4657601,-1.950952 -5.490352 -0.7685053,-2.125009 -4.240982 -0.6680253,-2.221299 -3.465766 -0.5423164,-2.268858 -2.787282 -0.4346257,-1.577947 -5.500263 -0.6853697,-1.676756 -4.330965 -0.5813063,-1.77525 -3.595414 -0.4352863,-1.844375 -2.938698 -0.299903,-1.187808 -5.708759 -0.5696321,-1.172103 -4.774743 -0.4520517,-1.198243 -4.191368 -0.2864439,-1.223606 -3.636682 -0.1534377,-8.504227 -9.196795 0.5127392,-7.878828 -8.82333 0.7438594,-7.39259 -8.051126 0.9470277,-7.106312 -7.289333 1.192346,-6.829294 -6.775207 1.436097,-7.805478 -6.402605 0.7173931,-7.673645 -5.271101 0.9053901,-7.604316 -4.593791 1.082051,-7.554785 -3.994134 1.201879,-8.155385 -6.23291 0.8094423,-8.057314 -4.957609 0.9536455,-7.98609 -4.172497 1.181422,-7.934207 -3.489553 1.344613,-8.493024 -6.329637 0.9377342,-8.451267 -5.143653 1.104751,-8.397605 -4.391791 1.310516,-8.336254 -3.738608 1.468411,-8.836559 -6.640796 1.081246,-8.918427 -5.726057 1.272804,-8.940908 -5.126573 1.436193,-8.93495 -4.537214 1.556885,4.510,
-1.460079 -8.529167 -0.7128345,-2.126575 -8.177244 -0.4642649,-2.674808 -7.35083 -0.3761949,-2.999942 -6.514976 -0.2491645,-3.318767 -5.86186 -0.09810835,-2.335981 -5.733366 -0.7165852,-2.589022 -4.595396 -0.6016324,-2.728033 -3.899989 -0.5320176,-2.820107 -3.275354 -0.4449241,-1.95022 -5.518495 -0.6844161,-2.107358 -4.246593 -0.5867227,-2.208655 -3.458067 -0.472464,-2.266708 -2.770618 -0.3697811,-1.577963 -5.53652 -0.5726365,-1.663227 -4.339572 -0.4683658,-1.761214 -3.591814 -0.3336748,-1.834139 -2.92827 -0.2016587,-1.192365 -5.758029 -0.4314904,-1.168214 -4.800716 -0.3160121,-1.193515 -4.200264 -0.1528621,-1.221488 -3.63166 -0.02270591,-8.540809 -9.194998 0.4452905,-7.910376 -8.827374 0.6547359,-7.415873 -8.059492 0.8624243,-7.115459 -7.321977 1.119172,-6.835403 -6.797697 1.383196,-7.822689 -6.422895 0.6344025,-7.691333 -5.294054 0.8298187,-7.625407 -4.608458 1.011741,-7.580013 -4.005565 1.129851,-8.166759 -6.254547 0.7499895,-8.071951 -4.99613 0.9029982,-8.001842 -4.204469 1.136287,-7.951781 -3.525029 1.303037,-8.501685 -6.350332 0.9032832,-8.466853 -5.184428 1.075129,-8.411158 -4.431999 1.285293,-8.344951 -3.785341 1.443372,-8.844167 -6.662296 1.069152,-8.935061 -5.750513 1.278073,-8.958424 -5.151797 1.445831,-8.947252 -4.566504 1.568423,4.610,
-1.429592 -8.55407 -0.6776811,-2.104298 -8.20402 -0.4272782,-2.662588 -7.376581 -0.3368183,-2.997341 -6.53671 -0.211758,-3.315216 -5.88131 -0.0617063,-2.325546 -5.760824 -0.6517794,-2.588401 -4.61667 -0.5348831,-2.731693 -3.913734 -0.4619284,-2.827262 -3.278622 -0.3723369,-1.940895 -5.537067 -0.6255841,-2.106917 -4.260902 -0.5238556,-2.209949 -3.47046 -0.4040104,-2.26901 -2.783398 -0.2973419,-1.568513 -5.546051 -0.5195274,-1.662867 -4.34637 -0.4099192,-1.763377 -3.597921 -0.2677342,-1.837724 -2.933359 -0.129611,-1.182583 -5.761625 -0.3868054,-1.162965 -4.802021 -0.2634381,-1.190975 -4.207508 -0.09694308,-1.223096 -3.647637 0.03513676,-8.536282 -9.186876 0.3827739,-7.911233 -8.824903 0.6097701,-7.423273 -8.059963 0.8235832,-7.128568 -7.333396 1.081927,-6.860624 -6.828205 1.350624,-7.831646 -6.425334 0.609234,-7.705531 -5.295461 0.8162709,-7.647464 -4.612436 1.00516,-7.613079 -4.015563 1.1292,-8.178984 -6.264917 0.7105419,-8.089018 -5.001047 0.8760275,-8.02364 -4.215715 1.112824,-7.982588 -3.536571 1.28263,-8.516134 -6.365041 0.8480092,-8.485543 -5.202383 1.029608,-8.433558 -4.455226 1.242657,-8.378356 -3.813203 1.400902,-8.85952 -6.681222 0.9977816,-8.951427 -5.780443 1.20569,-8.982928 -5.18662 1.370457,-8.985851 -4.610809 1.492132,4.710,
-1.423855 -8.561699 -0.6088523,-2.096038 -8.20956 -0.3022391,-2.665783 -7.404264 -0.1849429,-2.997023 -6.567062 -0.04270744,-3.310153 -5.907155 0.1234044,-2.32865 -5.753614 -0.5125269,-2.583729 -4.61252 -0.3701119,-2.726513 -3.907528 -0.266753,-2.824768 -3.258464 -0.1520452,-1.939247 -5.526868 -0.5026336,-2.106369 -4.260913 -0.3772946,-2.211954 -3.481128 -0.2350399,-2.273293 -2.793488 -0.1094911,-1.562877 -5.536787 -0.4135085,-1.65674 -4.353809 -0.2806731,-1.759279 -3.62107 -0.1230173,-1.835801 -2.960931 0.02550113,-1.171998 -5.751529 -0.2930873,-1.154342 -4.805986 -0.1525438,-1.183058 -4.214367 0.02226901,-1.215952 -3.64849 0.1626812,-8.536305 -9.200016 0.4052634,-7.91566 -8.836905 0.6323439,-7.427299 -8.057941 0.8421297,-7.134809 -7.319374 1.096334,-6.863954 -6.805425 1.354019,-7.847631 -6.428123 0.6395815,-7.724145 -5.308509 0.8514968,-7.65852 -4.630372 1.038609,-7.612522 -4.029452 1.157071,-8.194294 -6.270898 0.7434474,-8.110244 -5.016258 0.9170083,-8.04445 -4.235833 1.155373,-7.999868 -3.55649 1.324244,-8.529511 -6.378145 0.8855916,-8.50061 -5.219005 1.073358,-8.450615 -4.478548 1.291089,-8.392808 -3.835967 1.453087,-8.869924 -6.701517 1.036103,-8.964098 -5.799257 1.249382,-8.996299 -5.203681 1.422776,-8.996924 -4.618408 1.552337,4.810,
-1.351809 -8.536497 -0.6204895,-2.035139 -8.180613 -0.3596329,-2.611361 -7.37981 -0.2793658,-2.95832 -6.550439 -0.1664312,-3.272526 -5.914499 -0.02820992,-2.290524 -5.728071 -0.65324,-2.529258 -4.570987 -0.5717781,-2.658793 -3.859848 -0.4952554,-2.748407 -3.212127 -0.3931475,-1.90067 -5.509071 -0.6371145,-2.06216 -4.231557 -0.5977454,-2.168525 -3.445627 -0.49366,-2.228999 -2.780564 -0.3932297,-1.516988 -5.508636 -0.5456572,-1.606953 -4.321587 -0.490037,-1.706479 -3.579185 -0.3666068,-1.781244 -2.936845 -0.245793,-1.111324 -5.697778 -0.4150732,-1.09726 -4.738431 -0.3326364,-1.124913 -4.145977 -0.1875482,-1.157985 -3.593902 -0.06251115,-8.543517 -9.141565 0.2808104,-7.913233 -8.769814 0.5056325,-7.423433 -8.021286 0.7269121,-7.118425 -7.299858 0.9868416,-6.842477 -6.773393 1.250537,-7.848901 -6.408159 0.5356817,-7.725526 -5.300077 0.7561049,-7.656714 -4.63984 0.951277,-7.606371 -4.049642 1.078751,-8.19226 -6.253232 0.6488764,-8.107635 -5.012208 0.8372728,-8.039352 -4.246554 1.088763,-7.989424 -3.575801 1.26599,-8.524605 -6.363971 0.7968612,-8.497321 -5.212467 0.9971098,-8.446217 -4.480496 1.224619,-8.383931 -3.835294 1.396368,-8.860176 -6.688412 0.9558215,-8.956978 -5.801681 1.170627,-8.982022 -5.209427 1.341537,-8.975126 -4.616992 1.473842,4.910,
-1.349462 -8.540937 -0.5358489,-2.033843 -8.187967 -0.2912181,-2.596455 -7.379894 -0.2255898,-2.935003 -6.540597 -0.1236942,-3.253418 -5.907903 -0.00644362,-2.258921 -5.699753 -0.5965197,-2.507513 -4.555328 -0.5208966,-2.640769 -3.849705 -0.4479609,-2.729442 -3.213315 -0.3537061,-1.868803 -5.48406 -0.5789958,-2.040444 -4.218371 -0.5402511,-2.14177 -3.446476 -0.447215,-2.19354 -2.787491 -0.3576708,-1.489347 -5.486741 -0.4826431,-1.587902 -4.303442 -0.4251935,-1.690963 -3.572808 -0.3097304,-1.764965 -2.930236 -0.2007158,-1.090902 -5.683546 -0.3487924,-1.077743 -4.734387 -0.2712796,-1.104022 -4.14476 -0.1348923,-1.128972 -3.587434 -0.0203042,-8.52053 -9.137854 0.2502195,-7.905253 -8.781757 0.4804842,-7.424429 -8.023888 0.6958902,-7.127468 -7.306501 0.9535983,-6.851727 -6.784563 1.221716,-7.84905 -6.412575 0.4745111,-7.723157 -5.307434 0.6839349,-7.656685 -4.632425 0.8759097,-7.60972 -4.033782 1.001224,-8.189297 -6.251026 0.5767412,-8.101379 -5.014516 0.7453545,-8.035364 -4.246804 0.9810794,-7.988484 -3.577367 1.149244,-8.517871 -6.354085 0.7172709,-8.487598 -5.204969 0.8965427,-8.436893 -4.47236 1.107341,-8.377781 -3.831208 1.267382,-8.851839 -6.674964 0.871534,-8.947441 -5.785331 1.074741,-8.972582 -5.19502 1.241933,-8.967155 -4.610322 1.368488,5.010,
-1.323733 -8.557745 -0.4240136,-2.014374 -8.202719 -0.1930525,-2.576826 -7.381924 -0.1301388,-2.908351 -6.525811 -0.03210062,-3.233431 -5.882082 0.08351809,-2.241355 -5.690336 -0.4842271,-2.496133 -4.544164 -0.4115912,-2.631888 -3.840015 -0.354967,-2.718884 -3.205143 -0.2755644,-1.847487 -5.469184 -0.4654041,-2.013081 -4.195087 -0.4347282,-2.105191 -3.415038 -0.3552921,-2.143648 -2.736784 -0.2738454,-1.466126 -5.476144 -0.3699942,-1.558338 -4.285758 -0.3246715,-1.657006 -3.550939 -0.2266053,-1.722911 -2.90533 -0.1282243,-1.066799 -5.684502 -0.2391764,-1.048946 -4.726854 -0.1734229,-1.077364 -4.130667 -0.04563278,-1.101035 -3.568716 0.05967325,-8.503523 -9.143421 0.2734897,-7.892719 -8.780876 0.5132209,-7.416502 -8.02441 0.7420676,-7.12184 -7.299625 1.014106,-6.846684 -6.761809 1.295314,-7.841771 -6.410093 0.5013104,-7.720119 -5.320383 0.7185985,-7.655204 -4.653708 0.9137457,-7.607997 -4.063824 1.041161,-8.181917 -6.249506 0.6062824,-8.097103 -5.02159 0.7823705,-8.034409 -4.249322 1.019442,-7.987195 -3.57775 1.187999,-8.510808 -6.356077 0.7534302,-8.487135 -5.214653 0.9367791,-8.441258 -4.475414 1.151266,-8.383392 -3.82843 1.318162,-8.846127 -6.682127 0.9162168,-8.944798 -5.782527 1.124625,-8.971655 -5.180406 1.298089,-8.965308 -4.58547 1.431281,5.110,
-1.280779 -8.59837 -0.3745465,-1.98561 -8.207109 -0.1753503,-2.54884 -7.384166 -0.1316937,-2.878439 -6.51735 -0.04972807,-3.205629 -5.882253 0.04419389,-2.203729 -5.708614 -0.4977228,-2.43795 -4.557624 -0.4394365,-2.566004 -3.851423 -0.3789264,-2.652858 -3.212784 -0.2886072,-1.811456 -5.497724 -0.465566,-1.972751 -4.228586 -0.4475006,-2.065487 -3.447296 -0.3620135,-2.110821 -2.765528 -0.2693924,-1.428609 -5.506906 -0.359125,-1.516554 -4.313522 -0.319039,-1.610261 -3.575302 -0.2185139,-1.67783 -2.923986 -0.1164848,-1.029799 -5.717376 -0.2163934,-1.008112 -4.755121 -0.1457413,-1.032693 -4.154953 -0.01841184,-1.056458 -3.586855 0.08798695,-8.507206 -9.141773 0.2792783,-7.890594 -8.769272 0.5021434,-7.413165 -8.016308 0.7190838,-7.116996 -7.289486 0.9808714,-6.839788 -6.747436 1.249652,-7.847483 -6.406943 0.4848125,-7.720909 -5.321212 0.6885829,-7.649808 -4.655357 0.8780093,-7.596654 -4.064181 1.001259,-8.188763 -6.243644 0.5924307,-8.103868 -5.02016 0.7534206,-8.038226 -4.251475 0.9900298,-7.98686 -3.583772 1.158396,-8.51925 -6.347067 0.7403713,-8.492611 -5.206821 0.9068343,-8.444808 -4.470331 1.114321,-8.384221 -3.827711 1.276553,-8.854187 -6.665285 0.9018548,-8.954992 -5.765895 1.0975,-8.978916 -5.164667 1.264713,-8.969353 -4.574327 1.391658,5.210,
-1.264394 -8.589882 -0.4320122,-1.967775 -8.197067 -0.230781,-2.530747 -7.382122 -0.1791751,-2.866789 -6.527867 -0.09243143,-3.19499 -5.898838 0.006216854,-2.185647 -5.716194 -0.5077205,-2.418866 -4.553298 -0.4386705,-2.546459 -3.839645 -0.3726471,-2.630586 -3.192134 -0.2838041,-1.793085 -5.504554 -0.4771008,-1.953222 -4.222408 -0.4341175,-2.042672 -3.43491 -0.3391631,-2.08313 -2.75082 -0.2443105,-1.410058 -5.506628 -0.3751548,-1.499238 -4.30545 -0.3195155,-1.593597 -3.562023 -0.2132444,-1.658008 -2.904659 -0.1067712,-1.009029 -5.706672 -0.2406645,-0.988183 -4.736558 -0.1670392,-1.010546 -4.136627 -0.03487661,-1.028591 -3.565079 0.07572281,-8.521576 -9.139444 0.2505457,-7.903121 -8.783916 0.4873597,-7.420922 -8.032919 0.7098777,-7.125761 -7.308396 0.9768544,-6.854395 -6.769519 1.2467,-7.850254 -6.418917 0.4709979,-7.724691 -5.327379 0.6858013,-7.652569 -4.660942 0.8780475,-7.5995 -4.072509 1.003618,-8.192771 -6.252605 0.580068,-8.105867 -5.021453 0.7554531,-8.039177 -4.251884 0.998958,-7.988606 -3.583454 1.174095,-8.524909 -6.353715 0.7306176,-8.495252 -5.210557 0.9129558,-8.445678 -4.473 1.131158,-8.383154 -3.827771 1.300868,-8.862914 -6.671863 0.8957756,-8.965901 -5.77647 1.104772,-8.993287 -5.178204 1.278085,-8.986061 -4.586334 1.412082,5.310,
-1.256714 -8.610756 -0.3495287,-1.964513 -8.23399 -0.1527977,-2.521717 -7.410024 -0.1000839,-2.846953 -6.547173 -0.0176408,-3.181498 -5.913568 0.06999531,-2.179121 -5.712741 -0.3852702,-2.415294 -4.541965 -0.3148729,-2.545973 -3.835348 -0.268523,-2.634161 -3.195936 -0.1971009,-1.775064 -5.499512 -0.3647885,-1.933467 -4.205425 -0.3247219,-2.02788 -3.430158 -0.2549101,-2.075562 -2.754554 -0.1765383,-1.385112 -5.522205 -0.2757751,-1.469164 -4.309103 -0.217704,-1.566846 -3.578283 -0.1234352,-1.63467 -2.936631 -0.02796751,-0.9835415 -5.753043 -0.1592728,-0.9575377 -4.787599 -0.0782654,-0.9824066 -4.189844 0.05700874,-1.007548 -3.617725 0.1631554,-8.515812 -9.165302 0.2952789,-7.902594 -8.806381 0.535652,-7.428511 -8.048763 0.7561076,-7.138158 -7.32295 1.017001,-6.873994 -6.786958 1.279431,-7.856051 -6.424123 0.5247145,-7.736265 -5.335561 0.7363828,-7.672642 -4.671829 0.924199,-7.626027 -4.084477 1.048761,-8.198034 -6.264355 0.6254857,-8.115017 -5.039846 0.8020833,-8.056377 -4.273559 1.042286,-8.011457 -3.601564 1.218578,-8.529372 -6.3752 0.7684939,-8.506159 -5.237958 0.9516512,-8.46347 -4.500108 1.173037,-8.406608 -3.851927 1.34629,-8.865785 -6.707269 0.9237489,-8.970595 -5.821226 1.133029,-9.00156 -5.22402 1.311563,-8.996623 -4.629857 1.451153,5.410,
-1.236059 -8.656796 -0.358871,-1.945025 -8.260649 -0.1488733,-2.506408 -7.428358 -0.08771074,-2.837122 -6.55903 0.005182803,-3.16671 -5.909847 0.1107643,-2.166924 -5.762998 -0.3997143,-2.401427 -4.587665 -0.3022614,-2.532348 -3.868596 -0.226064,-2.62233 -3.217679 -0.134758,-1.766696 -5.550268 -0.3668173,-1.919483 -4.247245 -0.3008259,-2.015477 -3.452245 -0.2038539,-2.069164 -2.758081 -0.1056076,-1.378167 -5.562978 -0.2605146,-1.46201 -4.337181 -0.1832824,-1.558787 -3.590098 -0.06976765,-1.631297 -2.934986 0.04100293,-0.9782848 -5.779384 -0.122318,-0.9598169 -4.797397 -0.02699038,-0.9888263 -4.192034 0.1150697,-1.020546 -3.611288 0.2248146,-8.527662 -9.179392 0.3000712,-7.9097 -8.805119 0.5336162,-7.433469 -8.056046 0.7574073,-7.133623 -7.330679 1.023214,-6.857757 -6.787149 1.292316,-7.86659 -6.438205 0.5204623,-7.743694 -5.346061 0.7263603,-7.673912 -4.681687 0.9148058,-7.621412 -4.096826 1.039835,-8.208212 -6.276651 0.6249802,-8.119381 -5.05337 0.7987308,-8.051261 -4.283594 1.038131,-7.998315 -3.619744 1.209414,-8.540007 -6.383214 0.7709194,-8.511558 -5.244888 0.9497849,-8.458101 -4.507669 1.166953,-8.390218 -3.865528 1.3353,-8.875548 -6.704391 0.9311929,-8.979862 -5.817028 1.139762,-9.004052 -5.217526 1.315092,-8.990644 -4.624095 1.447514,5.510,
-1.234829 -8.660196 -0.2768532,-1.945691 -8.270796 -0.09174994,-2.505993 -7.43608 -0.04918909,-2.838408 -6.565409 0.03312272,-3.170462 -5.927492 0.1233388,-2.151737 -5.744915 -0.3647698,-2.389406 -4.576267 -0.2968568,-2.520595 -3.864753 -0.2432055,-2.609015 -3.225301 -0.1652847,-1.757072 -5.528957 -0.3309633,-1.914127 -4.232551 -0.3002592,-2.00909 -3.444149 -0.222323,-2.057963 -2.759368 -0.1390043,-1.37367 -5.544172 -0.2255707,-1.454364 -4.328875 -0.1785251,-1.550296 -3.594434 -0.08915342,-1.619192 -2.954938 0.001903564,-0.9767761 -5.7661 -0.08975811,-0.9437332 -4.797346 -0.0149793,-0.9634228 -4.197569 0.1102304,-0.9860158 -3.628623 0.209155,-8.54435 -9.168886 0.2646141,-7.926894 -8.80401 0.503717,-7.446163 -8.049446 0.7236477,-7.142104 -7.325372 0.9865578,-6.857347 -6.801104 1.260164,-7.865333 -6.444767 0.4935222,-7.742525 -5.349275 0.7070086,-7.678901 -4.681459 0.9028941,-7.636195 -4.093471 1.032832,-8.206605 -6.27939 0.5977068,-8.116332 -5.050327 0.7747235,-8.051497 -4.282916 1.016347,-8.004683 -3.612212 1.191932,-8.539354 -6.382289 0.7411333,-8.509454 -5.23738 0.9257444,-8.461867 -4.501287 1.143054,-8.404866 -3.852901 1.308848,-8.878447 -6.706319 0.8996888,-8.980717 -5.818994 1.109537,-9.009059 -5.221279 1.280189,-9.004362 -4.622173 1.412099,5.610,
-1.226091 -8.672468 -0.2629785,-1.93924 -8.259008 -0.1208966,-2.49589 -7.419191 -0.09732717,-2.828319 -6.54487 -0.03480795,-3.164318 -5.927749 0.02980775,-2.134123 -5.747386 -0.3430421,-2.374656 -4.56196 -0.2855251,-2.503942 -3.844154 -0.2479795,-2.588387 -3.203657 -0.1906147,-1.738993 -5.535462 -0.304271,-1.902224 -4.224222 -0.2733439,-1.995193 -3.429895 -0.2133229,-2.043544 -2.740697 -0.1413218,-1.354855 -5.5454 -0.2014885,-1.444965 -4.318367 -0.1540614,-1.536334 -3.581981 -0.07377088,-1.602292 -2.935943 0.009843796,-0.958591 -5.761034 -0.07573611,-0.9361629 -4.78449 -0.006623298,-0.955431 -4.186472 0.1132877,-0.9792676 -3.612259 0.207412,-8.525241 -9.169968 0.2663748,-7.916669 -8.796244 0.5018732,-7.442486 -8.043293 0.7241586,-7.148832 -7.315803 0.9887253,-6.874749 -6.784124 1.26588,-7.870664 -6.432553 0.4888282,-7.749561 -5.337778 0.6923132,-7.682897 -4.674934 0.8810972,-7.634992 -4.090027 1.005076,-8.212057 -6.276384 0.5924214,-8.127062 -5.047001 0.7582192,-8.06115 -4.280392 0.9948472,-8.010809 -3.617058 1.160506,-8.543128 -6.386467 0.7362392,-8.514366 -5.238675 0.915099,-8.466057 -4.499889 1.13532,-8.40605 -3.853225 1.302582,-8.87977 -6.710312 0.8940668,-8.981203 -5.818434 1.09703,-9.007612 -5.218673 1.270253,-9.000383 -4.627238 1.400707,5.710,
-1.207102 -8.684872 -0.2664524,-1.922137 -8.268059 -0.08154918,-2.489029 -7.431449 -0.03495906,-2.822466 -6.550762 0.04884839,-3.155048 -5.909753 0.1432489,-2.134979 -5.767314 -0.3274432,-2.363375 -4.574564 -0.2407525,-2.491757 -3.841957 -0.1697748,-2.576682 -3.180887 -0.08044882,-1.737633 -5.551589 -0.2882545,-1.897351 -4.239196 -0.2328365,-1.993606 -3.438573 -0.1412485,-2.046938 -2.74175 -0.04878047,-1.349827 -5.558925 -0.1753182,-1.438455 -4.33063 -0.1055874,-1.534809 -3.578786 -0.005852282,-1.609816 -2.918842 0.09295124,-0.9454079 -5.768827 -0.0355521,-0.9257407 -4.782778 0.04882732,-0.9493866 -4.181273 0.175742,-0.9778919 -3.610748 0.2745265,-8.549812 -9.146526 0.2262965,-7.927226 -8.779715 0.4739695,-7.445879 -8.041632 0.6959232,-7.144968 -7.315802 0.9510376,-6.871126 -6.783895 1.207183,-7.873011 -6.431655 0.4745546,-7.748216 -5.335891 0.6860459,-7.677026 -4.678216 0.8771617,-7.625734 -4.097414 1.00495,-8.218123 -6.268681 0.5700628,-8.127572 -5.036808 0.7480052,-8.059288 -4.274003 0.9910277,-8.007712 -3.61337 1.165781,-8.551585 -6.376022 0.7046553,-8.518963 -5.230685 0.8891788,-8.465179 -4.499078 1.10973,-8.400253 -3.858602 1.279188,-8.887797 -6.698223 0.8544787,-8.988312 -5.825243 1.062711,-9.013638 -5.232574 1.23625,-9.004143 -4.641748 1.371025,5.810,
-1.204316 -8.683952 -0.2838399,-1.925646 -8.266548 -0.1000888,-2.489968 -7.432902 -0.0597921,-2.825283 -6.559187 0.01790959,-3.156578 -5.92764 0.09865364,-2.141845 -5.772491 -0.3535849,-2.370249 -4.575246 -0.2721468,-2.494452 -3.844718 -0.2062856,-2.575511 -3.190317 -0.1252551,-1.742216 -5.557146 -0.3233759,-1.90454 -4.236637 -0.2704944,-2.002223 -3.439143 -0.183607,-2.059059 -2.74444 -0.09617814,-1.352227 -5.558714 -0.2213356,-1.446046 -4.32783 -0.1568283,-1.541044 -3.583282 -0.05753127,-1.613716 -2.925784 0.03842458,-0.9489136 -5.758344 -0.09227388,-0.9336271 -4.773134 -0.01391432,-0.9584126 -4.179517 0.1098668,-0.9856353 -3.610284 0.2046848,-8.542269 -9.17902 0.2564849,-7.924881 -8.804781 0.4838669,-7.449178 -8.046696 0.696182,-7.15484 -7.316658 0.9527061,-6.880842 -6.788498 1.213613,-7.876892 -6.44539 0.4779322,-7.756018 -5.352267 0.6807321,-7.691212 -4.683412 0.8633028,-7.644088 -4.099803 0.9847627,-8.2194 -6.289146 0.5802909,-8.133446 -5.059159 0.747303,-8.071909 -4.287826 0.9828922,-8.027394 -3.620842 1.156219,-8.550512 -6.402854 0.7206932,-8.524058 -5.2576 0.8971676,-8.480578 -4.516008 1.109748,-8.42497 -3.868692 1.2731,-8.885624 -6.736637 0.8735316,-8.991814 -5.853385 1.079167,-9.023689 -5.260297 1.251617,-9.018666 -4.674341 1.38177,5.910,
-1.210124 -8.697756 -0.2368473,-1.939919 -8.264278 -0.06787589,-2.499784 -7.432099 -0.02797545,-2.827579 -6.553976 0.04402652,-3.159093 -5.935133 0.1135892,-2.146834 -5.77285 -0.2807353,-2.378873 -4.572679 -0.2219495,-2.505326 -3.850694 -0.1875351,-2.593058 -3.211292 -0.1283111,-1.740569 -5.555909 -0.2592198,-1.898407 -4.233985 -0.2296813,-1.992788 -3.442336 -0.165196,-2.049623 -2.757366 -0.08668064,-1.35067 -5.564132 -0.1727287,-1.438883 -4.326231 -0.126443,-1.533051 -3.584672 -0.03885274,-1.609972 -2.937299 0.05129871,-0.9523616 -5.77177 -0.06318209,-0.9303894 -4.776586 -0.0009465218,-0.952939 -4.177043 0.1154528,-0.9839115 -3.606207 0.2116633,-8.546604 -9.185331 0.2432832,-7.930697 -8.822336 0.4828414,-7.457756 -8.071146 0.7018441,-7.167034 -7.340694 0.9590304,-6.900433 -6.807094 1.217003,-7.886472 -6.457946 0.4728474,-7.763628 -5.364013 0.6806376,-7.697044 -4.705075 0.8662999,-7.648458 -4.125684 0.989108,-8.227689 -6.299398 0.5723126,-8.142611 -5.069713 0.7456646,-8.081568 -4.303429 0.9827275,-8.035902 -3.638022 1.155674,-8.557491 -6.412413 0.7137641,-8.531123 -5.268009 0.8935778,-8.485553 -4.531448 1.11075,-8.427571 -3.884553 1.282344,-8.89125 -6.743986 0.8680863,-8.996356 -5.861595 1.075453,-9.025746 -5.262662 1.255324,-9.019598 -4.668106 1.395122,6.010,
-1.212961 -8.700422 -0.2042133,-1.936996 -8.27906 -0.09243695,-2.495362 -7.441322 -0.09243219,-2.826289 -6.555822 -0.05097622,-3.160248 -5.949828 -0.009260565,-2.129694 -5.76846 -0.3358827,-2.362799 -4.572814 -0.3073736,-2.48745 -3.852079 -0.2870223,-2.568505 -3.21993 -0.240037,-1.73245 -5.548642 -0.2990429,-1.892147 -4.225611 -0.3028857,-1.989698 -3.42983 -0.2601845,-2.044801 -2.746667 -0.2011599,-1.346288 -5.549057 -0.2024284,-1.431143 -4.31512 -0.1828137,-1.525791 -3.584404 -0.1262309,-1.598133 -2.950279 -0.06351601,-0.9496336 -5.750299 -0.08395419,-0.9280252 -4.766496 -0.03504299,-0.9501243 -4.177206 0.06286892,-0.979516 -3.616386 0.1374591,-8.559269 -9.177624 0.2444854,-7.935554 -8.807367 0.4802851,-7.459031 -8.076635 0.6988763,-7.1659 -7.353454 0.9543658,-6.907926 -6.819984 1.212209,-7.886461 -6.449326 0.4639929,-7.761137 -5.358368 0.6684654,-7.69055 -4.710863 0.8555449,-7.638447 -4.140593 0.9774308,-8.231784 -6.291482 0.5662211,-8.146507 -5.058532 0.7388327,-8.081891 -4.296278 0.9787323,-8.032961 -3.639322 1.152336,-8.56459 -6.406837 0.7104844,-8.537829 -5.26719 0.8918766,-8.488309 -4.535875 1.112729,-8.425782 -3.894631 1.281725,-8.899793 -6.737994 0.8691908,-9.001517 -5.860519 1.077064,-9.025918 -5.267984 1.254776,-9.013046 -4.677146 1.389972,6.110,
-1.195074 -8.699509 -0.1911849,-1.920058 -8.2642 -0.006528199,-2.485153 -7.435827 0.03024735,-2.816238 -6.554721 0.1028309,-3.151343 -5.931591 0.1768928,-2.130599 -5.761268 -0.2838469,-2.351962 -4.579321 -0.2210678,-2.476392 -3.859656 -0.1641424,-2.562506 -3.212956 -0.08575231,-1.732827 -5.546229 -0.2549457,-1.887142 -4.248045 -0.2231456,-1.981638 -3.455469 -0.1376805,-2.036115 -2.759029 -0.04635024,-1.345875 -5.551277 -0.1546093,-1.424543 -4.338389 -0.1055383,-1.514291 -3.606691 -0.008505985,-1.584534 -2.9568 0.08685467,-0.9455667 -5.754853 -0.02419317,-0.9187732 -4.783882 0.04810472,-0.9391403 -4.18996 0.1742753,-0.9662237 -3.617239 0.2736696,-8.546668 -9.198782 0.2800999,-7.931085 -8.833727 0.5173724,-7.458186 -8.072161 0.7342165,-7.166047 -7.343044 0.9887065,-6.889277 -6.822145 1.246794,-7.883062 -6.460693 0.5161979,-7.762252 -5.365423 0.7241187,-7.693105 -4.708122 0.9093485,-7.639569 -4.124547 1.032155,-8.226095 -6.30333 0.6173882,-8.141316 -5.07162 0.7956417,-8.075871 -4.307378 1.03694,-8.024444 -3.637736 1.211797,-8.557447 -6.417736 0.7604117,-8.531724 -5.271267 0.9461217,-8.48343 -4.532577 1.169182,-8.421556 -3.880571 1.340731,-8.892929 -6.750387 0.9138699,-8.996996 -5.866731 1.127594,-9.025767 -5.268812 1.306842,-9.019197 -4.673633 1.445507,6.210,
-1.191245 -8.678879 -0.2598747,-1.899368 -8.238455 -0.09728745,-2.45536 -7.390083 -0.06181695,-2.784944 -6.513601 0.01762432,-3.117982 -5.893667 0.1040212,-2.106843 -5.747938 -0.3484976,-2.331366 -4.575092 -0.2666767,-2.445601 -3.848059 -0.190968,-2.515089 -3.183895 -0.1024313,-1.71845 -5.543281 -0.2961098,-1.875102 -4.254396 -0.2395894,-1.961719 -3.466896 -0.1367424,-2.001741 -2.777389 -0.03763905,-1.336703 -5.558929 -0.1724445,-1.4193 -4.353591 -0.1005135,-1.505975 -3.617121 0.01571819,-1.569808 -2.957412 0.1272671,-0.9354992 -5.788161 -0.02116843,-0.906033 -4.830425 0.07026413,-0.9232807 -4.237697 0.2053148,-0.9448752 -3.660178 0.3132947,-8.532752 -9.208946 0.2944906,-7.919709 -8.834454 0.5292664,-7.448213 -8.075712 0.7450329,-7.154796 -7.348725 1.000729,-6.876251 -6.824905 1.262202,-7.876186 -6.46211 0.5081974,-7.752063 -5.370727 0.7075483,-7.679534 -4.712924 0.8933746,-7.624416 -4.132671 1.017137,-8.220014 -6.305828 0.6083629,-8.132062 -5.082139 0.7755172,-8.059465 -4.317365 1.012198,-8.003682 -3.65889 1.182099,-8.551981 -6.414777 0.7513345,-8.521412 -5.277551 0.925519,-8.462305 -4.545516 1.143482,-8.393098 -3.911045 1.31126,-8.887946 -6.736371 0.9091885,-8.987494 -5.856289 1.11211,-9.009428 -5.260223 1.285027,-8.997962 -4.670934 1.419455,6.310,
-1.175789 -8.634872 -0.2127062,-1.880073 -8.180019 -0.06754361,-2.435019 -7.303001 -0.04953353,-2.753675 -6.420285 0.01078036,-3.066693 -5.808097 0.07608944,-2.09213 -5.688969 -0.3109045,-2.304715 -4.525226 -0.2603582,-2.404587 -3.803131 -0.206273,-2.455753 -3.154113 -0.1305428,-1.697159 -5.48487 -0.2651517,-1.837053 -4.205619 -0.2499947,-1.923835 -3.428725 -0.1784553,-1.962711 -2.77542 -0.09793259,-1.309934 -5.50326 -0.1518316,-1.377937 -4.31269 -0.1215413,-1.45448 -3.602246 -0.03198713,-1.510952 -2.982343 0.05825141,-0.9058456 -5.730986 -0.009000108,-0.8733091 -4.7719 0.05689096,-0.8843765 -4.195181 0.1658483,-0.9069548 -3.632197 0.2603177,-8.55421 -9.186121 0.2609053,-7.930971 -8.81669 0.4889455,-7.451651 -8.064171 0.7078302,-7.150074 -7.334727 0.9638195,-6.870902 -6.79187 1.227457,-7.877817 -6.455475 0.4812018,-7.7461 -5.363282 0.6832941,-7.672911 -4.706686 0.8659523,-7.61861 -4.124387 0.9854571,-8.22064 -6.296571 0.58838,-8.130976 -5.069173 0.7567341,-8.057918 -4.301075 0.9938076,-7.999471 -3.642564 1.160561,-8.552237 -6.409173 0.7358778,-8.524687 -5.265832 0.9139721,-8.468406 -4.52906 1.132197,-8.399175 -3.889431 1.300564,-8.886287 -6.734779 0.8977156,-8.985743 -5.846931 1.108527,-9.005992 -5.247775 1.286962,-8.99077 -4.65447 1.420245,6.410,
-1.140331 -8.560717 -0.2756343,-1.833782 -8.088514 -0.06087589,-2.362618 -7.171786 -0.03684998,-2.640731 -6.229349 0.02199078,-2.929904 -5.548292 0.08700621,-2.025893 -5.601449 -0.3853962,-2.229483 -4.426282 -0.3116932,-2.316457 -3.687201 -0.2053868,-2.35795 -3.021932 -0.08620338,-1.621791 -5.423698 -0.3750553,-1.75499 -4.152034 -0.361854,-1.826358 -3.395496 -0.2579351,-1.852577 -2.750609 -0.1550167,-1.233251 -5.450151 -0.2882562,-1.298938 -4.272806 -0.2489629,-1.374125 -3.569125 -0.1144457,-1.430066 -2.936594 0.002289534,-0.8315296 -5.668907 -0.1651962,-0.8106337 -4.731935 -0.1010717,-0.8362131 -4.167043 0.02245557,-0.8635764 -3.596525 0.1260902,-8.559188 -9.149088 0.2321645,-7.938794 -8.779398 0.4715269,-7.459797 -8.018642 0.6905558,-7.166128 -7.28761 0.9493402,-6.895571 -6.741261 1.21344,-7.880431 -6.423365 0.4630305,-7.757727 -5.324021 0.68296,-7.688708 -4.662183 0.8781577,-7.63746 -4.075328 1.004488,-8.220601 -6.269056 0.565302,-8.129846 -5.049163 0.7509312,-8.058254 -4.287464 0.9955615,-8.00407 -3.626703 1.165668,-8.551405 -6.380542 0.7108696,-8.516618 -5.2397 0.9032978,-8.459593 -4.511927 1.132776,-8.391207 -3.87685 1.309084,-8.887703 -6.700901 0.8695976,-8.976067 -5.817276 1.084239,-8.993043 -5.220096 1.268285,-8.978123 -4.627258 1.410232,6.510,
-1.161003 -8.515261 -0.3669223,-1.85523 -8.028584 -0.1056099,-2.381869 -7.086429 -0.07795593,-2.628614 -6.146369 -0.009838104,-2.897884 -5.433031 0.07309344,-2.041027 -5.543906 -0.5102994,-2.231397 -4.405929 -0.3790918,-2.320299 -3.692341 -0.1944992,-2.376033 -3.004854 -0.01535118,-1.622433 -5.402406 -0.489208,-1.735107 -4.204975 -0.3879081,-1.802381 -3.526637 -0.1626509,-1.852119 -2.952666 0.01850903,-1.227711 -5.445329 -0.3832974,-1.278955 -4.361761 -0.2506416,-1.348546 -3.712641 0.009110004,-1.423315 -3.153139 0.2046989,-0.8287673 -5.656406 -0.2383508,-0.8117161 -4.789758 -0.09233326,-0.8437071 -4.263969 0.09496319,-0.894948 -3.741735 0.2391044,-8.56319 -9.035168 0.108073,-8.001467 -8.681314 0.4486337,-7.581622 -7.901626 0.6820636,-7.375552 -7.153459 0.9297205,-7.273474 -6.540207 1.127346,-7.846122 -6.322735 0.1239638,-7.699626 -5.302102 0.2611136,-7.61768 -4.647623 0.4352034,-7.566018 -4.074718 0.5980653,-8.183765 -6.177909 0.1881421,-8.103409 -4.972531 0.5271994,-8.007047 -5.413061 0.9099808,-7.993591 -6.007128 1.076198,-8.511072 -6.206823 0.2975624,-8.466692 -5.115701 0.5849345,-8.366674 -5.53686 0.8837071,-8.356337 -6.155581 1.016548,-8.869243 -6.402322 0.4391327,-8.883258 -5.48384 0.7385381,-8.777471 -5.537944 0.9451116,-8.714887 -5.952366 1.053159,6.610,
-1.149472 -8.384583 -0.7196684,-1.868052 -7.896577 -0.270454,-2.343065 -6.999073 -0.1159234,-2.590387 -6.113903 0.03039038,-2.854192 -5.351335 0.1647034,-2.039617 -5.469528 -0.8135306,-2.222784 -4.344466 -0.6630495,-2.305332 -3.577209 -0.3933948,-2.323511 -2.986722 -0.1349772,-1.608546 -5.372947 -0.8315365,-1.679894 -4.104591 -0.4539805,-1.663385 -3.995043 0.03367001,-1.579503 -4.381104 0.3162948,-1.209241 -5.42608 -0.7722027,-1.253572 -4.291601 -0.4047421,-1.288265 -4.195648 0.126982,-1.284661 -4.606653 0.4298774,-0.7956219 -5.602691 -0.6608268,-0.7866831 -4.709846 -0.3568164,-0.8747978 -4.487661 0.01910824,-0.9184675 -4.701108 0.2734969,-8.638254 -8.822433 -1.112615,-8.070713 -8.356779 -0.7410302,-7.629453 -7.636453 -0.413325,-7.502523 -6.795881 -0.08533502,-7.694169 -6.203556 0.2016108,-7.872778 -6.429667 -0.9744322,-7.734345 -5.361789 -0.6316336,-7.666475 -4.837412 -0.4027725,-7.615737 -4.389059 -0.2888536,-8.2296 -6.330458 -0.8936834,-8.113362 -5.653373 -0.202442,-8.123592 -6.665079 0.02457988,-8.167731 -7.383335 -0.04931486,-8.590255 -6.367606 -0.7135012,-8.491878 -5.700963 -0.08196878,-8.472341 -6.643026 0.1004647,-8.485562 -7.27676 0.001255631,-8.979414 -6.522453 -0.5197064,-8.950559 -5.688413 -0.05691075,-8.863855 -6.193148 0.1093159,-8.818968 -6.717762 0.08629048,6.710,
-1.130584 -8.387571 -0.73809,-1.832758 -7.948929 -0.3278571,-2.304228 -7.03545 -0.1901137,-2.546024 -6.118151 -0.06502014,-2.783008 -5.357814 0.0331164,-2.021358 -5.506265 -0.8988169,-2.190031 -4.424869 -0.7995934,-2.275871 -3.657787 -0.5598105,-2.298605 -3.023435 -0.3146217,-1.600033 -5.38558 -0.9085789,-1.655123 -4.144781 -0.5908836,-1.617222 -4.196468 -0.1954269,-1.50871 -4.680519 -0.003969133,-1.209682 -5.416168 -0.8502908,-1.236723 -4.292719 -0.5580776,-1.258591 -4.339031 -0.1529028,-1.237732 -4.831924 0.05725378,-0.7953753 -5.587082 -0.7321033,-0.7876711 -4.658315 -0.4660722,-0.8790455 -4.584499 -0.1694387,-0.9117622 -4.97151 0.01637882,-8.631025 -8.691654 -1.412715,-8.087915 -8.299995 -1.008899,-7.653982 -7.586748 -0.6852738,-7.539586 -6.745371 -0.3684707,-7.734174 -6.15716 -0.1060053,-7.885241 -6.385187 -1.252424,-7.760318 -5.404161 -0.8553981,-7.718556 -4.916013 -0.5926824,-7.674575 -4.472415 -0.470182,-8.241906 -6.284173 -1.188894,-8.141875 -5.722457 -0.4550999,-8.164363 -6.72174 -0.2365423,-8.194704 -7.365016 -0.3418511,-8.608739 -6.332054 -1.017315,-8.519109 -5.802166 -0.3506849,-8.516317 -6.726327 -0.20679,-8.52569 -7.287007 -0.3494138,-9.000047 -6.484088 -0.8235248,-8.966618 -5.714452 -0.3666625,-8.885956 -6.247383 -0.230788,-8.839448 -6.755136 -0.2760838,6.810,
-1.063547 -8.352156 -1.0844,-1.758601 -7.933504 -0.5937195,-2.212879 -7.017263 -0.4019148,-2.4389 -6.104598 -0.230809,-2.665537 -5.290914 -0.07966518,-1.924471 -5.534244 -1.202941,-2.079486 -4.462391 -1.071094,-2.184143 -3.672104 -0.7887192,-2.22526 -3.026481 -0.5025177,-1.507854 -5.444725 -1.220178,-1.548547 -4.235979 -0.8171331,-1.569719 -4.214133 -0.3032305,-1.502259 -4.637363 -0.03350174,-1.123943 -5.481379 -1.162235,-1.144316 -4.363323 -0.7897156,-1.214652 -4.363811 -0.2513813,-1.220992 -4.84473 0.04093504,-0.7219915 -5.615829 -1.037413,-0.7149372 -4.711935 -0.7276554,-0.8286963 -4.613607 -0.3608778,-0.8706818 -4.975566 -0.1165321,-8.587583 -8.469053 -1.815812,-8.093467 -8.249878 -1.287647,-7.643023 -7.567892 -0.9171709,-7.521319 -6.771484 -0.5914723,-7.706976 -6.177009 -0.3215841,-7.884208 -6.278451 -1.493019,-7.778306 -5.298139 -1.046601,-7.749263 -4.747226 -0.7295181,-7.710168 -4.233013 -0.5581211,-8.246893 -6.184112 -1.485177,-8.184337 -5.720251 -0.6951783,-8.193185 -6.674766 -0.4740413,-8.197632 -7.350666 -0.5828582,-8.61988 -6.248456 -1.365293,-8.548963 -5.824586 -0.6592389,-8.537999 -6.710861 -0.5185956,-8.52492 -7.285247 -0.6620389,-9.01038 -6.402636 -1.212791,-8.969257 -5.754024 -0.7236414,-8.89389 -6.304815 -0.5975286,-8.857057 -6.798357 -0.660458,6.910,
-1.049273 -8.348032 -1.219073,-1.742893 -7.921182 -0.692252,-2.174169 -7.041726 -0.4771637,-2.392785 -6.157262 -0.2892768,-2.600033 -5.306865 -0.1372594,-1.905946 -5.570873 -1.336681,-2.071951 -4.496929 -1.233565,-2.181158 -3.709266 -0.9819795,-2.230088 -3.079097 -0.7215294,-1.483743 -5.47954 -1.382845,-1.52802 -4.246643 -0.9931508,-1.544713 -4.242851 -0.4762166,-1.473265 -4.677211 -0.2146144,-1.097232 -5.494726 -1.35452,-1.128329 -4.357577 -0.9942661,-1.198135 -4.389134 -0.437772,-1.197047 -4.900442 -0.1402185,-0.6972108 -5.593854 -1.263223,-0.7114005 -4.693762 -0.9628498,-0.8220181 -4.624004 -0.5799526,-0.8480563 -5.017007 -0.3208898,-8.549065 -8.402647 -1.662438,-8.073586 -8.236242 -1.120482,-7.603123 -7.569011 -0.7566965,-7.489887 -6.777273 -0.4463865,-7.693573 -6.182411 -0.168986,-7.835512 -6.216695 -1.281348,-7.736246 -5.265253 -0.8312321,-7.713723 -4.721599 -0.4999243,-7.676071 -4.218475 -0.3081343,-8.201463 -6.080517 -1.288803,-8.14919 -5.784391 -0.5269555,-8.184288 -6.742869 -0.3262328,-8.202102 -7.394527 -0.4276135,-8.583773 -6.13941 -1.188174,-8.524249 -5.903396 -0.5092477,-8.536572 -6.812226 -0.3807882,-8.528815 -7.373744 -0.509932,-8.982903 -6.284235 -1.049391,-8.935947 -5.819755 -0.5687151,-8.875751 -6.454662 -0.4395485,-8.848442 -6.948366 -0.4858574,7.010,
-1.058928 -8.31411 -1.319909,-1.740776 -7.938251 -0.7859337,-2.174669 -7.062843 -0.5526872,-2.38758 -6.173021 -0.3535199,-2.539152 -5.314397 -0.2000834,-1.888384 -5.574643 -1.427125,-2.051353 -4.497571 -1.341918,-2.16264 -3.722835 -1.111628,-2.22427 -3.083577 -0.8700051,-1.47088 -5.471348 -1.481312,-1.511894 -4.231776 -1.102333,-1.538037 -4.302985 -0.6185751,-1.478987 -4.775271 -0.4004284,-1.088004 -5.489604 -1.465139,-1.119597 -4.350234 -1.104358,-1.19732 -4.467178 -0.5969505,-1.203999 -5.016019 -0.3485202,-0.6892705 -5.602752 -1.385183,-0.7128587 -4.699718 -1.088902,-0.8303237 -4.670366 -0.7326258,-0.8620892 -5.097093 -0.5052207,-8.459623 -8.386753 -1.803932,-8.010324 -8.251041 -1.263239,-7.527552 -7.595512 -0.9039936,-7.420111 -6.812173 -0.6047481,-7.660342 -6.260217 -0.3642775,-7.786279 -6.223262 -1.389875,-7.679366 -5.290238 -0.9000302,-7.635371 -4.756357 -0.5638752,-7.57825 -4.228755 -0.3723904,-8.161344 -6.104501 -1.398105,-8.071698 -5.794799 -0.6069508,-8.113072 -6.802358 -0.4803263,-8.151318 -7.426848 -0.6598494,-8.546895 -6.186355 -1.281001,-8.45291 -5.923416 -0.5629762,-8.457525 -6.88174 -0.4849428,-8.463916 -7.415325 -0.6697905,-8.952264 -6.364464 -1.131363,-8.887488 -5.906908 -0.649757,-8.812054 -6.56553 -0.5539995,-8.792185 -7.025581 -0.6370131,7.110,
-1.061935 -8.358351 -1.472593,-1.703429 -8.013319 -0.9314892,-2.152833 -7.124212 -0.6626766,-2.386884 -6.193672 -0.411157,-2.484614 -5.309455 -0.2096447,-1.872069 -5.668972 -1.547575,-2.039012 -4.561939 -1.449938,-2.161006 -3.764356 -1.237663,-2.233184 -3.091156 -1.019942,-1.471539 -5.556772 -1.577878,-1.515763 -4.263013 -1.138664,-1.563588 -4.562666 -0.6873674,-1.521205 -5.194513 -0.5137997,-1.097329 -5.563737 -1.538296,-1.124918 -4.367542 -1.138156,-1.223405 -4.728532 -0.7232782,-1.237841 -5.412267 -0.5734205,-0.7019234 -5.665924 -1.431946,-0.7121549 -4.711875 -1.130734,-0.8465304 -4.803407 -0.8443078,-0.8849502 -5.342688 -0.6952786,-8.363694 -8.489672 -1.686614,-7.941559 -8.315351 -1.215466,-7.466639 -7.641195 -0.8924282,-7.355991 -6.909225 -0.6106737,-7.585248 -6.398866 -0.3561012,-7.724392 -6.30233 -1.303123,-7.577372 -5.39458 -0.8954308,-7.499703 -4.858626 -0.5831277,-7.399382 -4.386182 -0.3627561,-8.097312 -6.169439 -1.279624,-7.931846 -5.885255 -0.5775272,-7.965693 -6.804688 -0.4022624,-8.026622 -7.471782 -0.5061055,-8.481398 -6.249664 -1.145516,-8.332159 -6.075086 -0.5058929,-8.326735 -6.961896 -0.3901953,-8.343998 -7.524567 -0.5010467,-8.88411 -6.435277 -0.9767788,-8.757487 -6.085976 -0.5150937,-8.673399 -6.711484 -0.390615,-8.6552 -7.165653 -0.4231339,7.210,
-1.069453 -8.443136 -1.425163,-1.695229 -8.07468 -0.8718928,-2.147254 -7.182716 -0.592872,-2.376382 -6.235286 -0.3330566,-2.456735 -5.313877 -0.1277599,-1.884862 -5.748868 -1.476983,-2.055176 -4.635501 -1.381806,-2.178377 -3.825044 -1.181973,-2.252957 -3.142152 -0.9623849,-1.483614 -5.62763 -1.503559,-1.531018 -4.348228 -1.039805,-1.591848 -4.690252 -0.5713937,-1.566096 -5.367595 -0.3811854,-1.104517 -5.625249 -1.461758,-1.128484 -4.442129 -1.049052,-1.236155 -4.786175 -0.6195968,-1.263671 -5.462234 -0.4553636,-0.707963 -5.72067 -1.355616,-0.7014236 -4.770457 -1.049175,-0.8327456 -4.830474 -0.7541485,-0.8800735 -5.346164 -0.5997787,-8.296885 -8.594265 -1.577306,-7.881265 -8.424904 -1.161065,-7.389161 -7.753963 -0.874942,-7.266277 -7.03625 -0.6105515,-7.522715 -6.549106 -0.3850714,-7.662837 -6.387228 -1.284571,-7.48093 -5.494944 -0.9006176,-7.374662 -4.988307 -0.6198174,-7.248251 -4.554859 -0.4125522,-8.03832 -6.229774 -1.243736,-7.831192 -6.087533 -0.5686823,-7.879996 -6.996019 -0.4265212,-7.963993 -7.632972 -0.5533737,-8.421942 -6.31709 -1.079865,-8.231382 -6.228729 -0.4449629,-8.240132 -7.124133 -0.3306098,-8.281307 -7.708005 -0.438778,-8.825146 -6.528436 -0.8807189,-8.674969 -6.210804 -0.4298955,-8.590828 -6.824989 -0.2912781,-8.580612 -7.287246 -0.2988678,7.310,
-1.12049 -8.55603 -1.28001,-1.727742 -8.063221 -0.7910531,-2.158527 -7.191053 -0.5152423,-2.360868 -6.268121 -0.2465247,-2.441583 -5.320281 -0.01982427,-1.906563 -5.795667 -1.414884,-2.080932 -4.733428 -1.339983,-2.198629 -3.933681 -1.148687,-2.258676 -3.220379 -0.9400821,-1.517426 -5.697677 -1.400641,-1.608146 -4.449673 -0.8880374,-1.684534 -4.887368 -0.3975136,-1.646708 -5.594591 -0.2029068,-1.138196 -5.682685 -1.32408,-1.195878 -4.492597 -0.8939002,-1.316181 -4.899798 -0.457702,-1.324302 -5.597704 -0.3042852,-0.7351298 -5.752142 -1.183991,-0.7480421 -4.767108 -0.8836911,-0.8967543 -4.833002 -0.6164852,-0.9379039 -5.37395 -0.4940818,-8.213701 -8.739626 -1.283754,-7.789286 -8.623812 -0.8600776,-7.254442 -8.013947 -0.5558959,-7.073705 -7.332681 -0.2644758,-7.278728 -6.82343 -0.00493741,-7.488676 -6.519341 -0.9681475,-7.276262 -5.698831 -0.5672204,-7.15521 -5.214186 -0.2645193,-7.005136 -4.795981 -0.0597105,-7.858335 -6.305814 -0.9249815,-7.649261 -6.274127 -0.231553,-7.721485 -7.208511 -0.07605851,-7.81813 -7.827023 -0.2066857,-8.246931 -6.364189 -0.7687914,-8.063305 -6.4227 -0.1321341,-8.097 -7.329414 -0.01746547,-8.152613 -7.87969 -0.1324689,-8.656623 -6.557476 -0.5741264,-8.495 -6.366043 -0.1222777,-8.425085 -7.01482 -0.0007773638,-8.427438 -7.457565 -0.03171611,7.410,
-1.073496 -8.575134 -1.223554,-1.695632 -8.052597 -0.6632361,-2.133215 -7.184353 -0.3650774,-2.351157 -6.267707 -0.07273817,-2.40174 -5.290093 0.1660846,-1.891959 -5.79219 -1.345002,-2.068978 -4.719944 -1.282977,-2.17867 -3.922487 -1.092556,-2.220992 -3.235969 -0.8814848,-1.493325 -5.704453 -1.360191,-1.570295 -4.480746 -0.831809,-1.623931 -4.911111 -0.2842804,-1.571263 -5.634023 -0.0638907,-1.108943 -5.692932 -1.316106,-1.1514 -4.524822 -0.9037743,-1.25534 -4.90434 -0.4312903,-1.258252 -5.599981 -0.2532285,-0.7049503 -5.755833 -1.198682,-0.7017193 -4.794412 -0.9238188,-0.8308372 -4.848089 -0.6515099,-0.8637104 -5.389201 -0.5308793,-8.216964 -8.744928 -1.119667,-7.795395 -8.657784 -0.6407631,-7.244242 -8.018778 -0.3140622,-7.046969 -7.280638 -0.01573253,-7.253185 -6.724292 0.2474496,-7.467545 -6.486195 -0.7606919,-7.246426 -5.6654 -0.2938919,-7.135534 -5.132883 0.0605799,-6.993159 -4.659017 0.3053789,-7.835541 -6.271309 -0.732694,-7.632613 -6.157226 0.001082301,-7.707324 -7.143166 0.2018176,-7.794315 -7.825521 0.08109546,-8.22873 -6.317247 -0.586697,-8.048776 -6.315675 0.07417357,-8.09397 -7.256176 0.1898519,-8.141233 -7.834266 0.04396272,-8.64309 -6.492321 -0.4086818,-8.474215 -6.296377 0.07345653,-8.415161 -6.984079 0.1767455,-8.422634 -7.448478 0.09249568,7.510,
-0.9930124 -8.62738 -1.175127,-1.573873 -8.137596 -0.6107479,-1.995224 -7.260448 -0.2977159,-2.198916 -6.305028 0.01632893,-2.282508 -5.369028 0.2966714,-1.778239 -5.829917 -1.259851,-1.931585 -4.75057 -1.128332,-2.023579 -4.001737 -0.8835653,-2.071707 -3.311001 -0.6344824,-1.398746 -5.739221 -1.276809,-1.474291 -4.57567 -0.6935585,-1.500437 -5.186187 -0.1943054,-1.450491 -5.905269 -0.02657855,-1.026748 -5.755935 -1.231019,-1.066044 -4.616496 -0.7476376,-1.149718 -5.171125 -0.338233,-1.153602 -5.871093 -0.238851,-0.6272659 -5.863977 -1.112233,-0.6222305 -4.897195 -0.7715907,-0.7491574 -5.058942 -0.5232336,-0.787993 -5.604667 -0.4605445,-8.278039 -8.718388 -1.228055,-7.831541 -8.601629 -0.7621602,-7.315877 -7.935381 -0.4225686,-7.151858 -7.227853 -0.1259333,-7.380631 -6.75285 0.159816,-7.53129 -6.458522 -0.8219595,-7.358903 -5.616415 -0.4022194,-7.272926 -5.065967 -0.09582877,-7.175579 -4.602776 0.1220047,-7.900978 -6.285202 -0.7857036,-7.779023 -6.176214 -0.0935781,-7.827156 -7.114784 0.1209139,-7.891323 -7.775579 0.0633409,-8.295545 -6.362043 -0.6523365,-8.180868 -6.37659 -0.03285766,-8.190184 -7.24316 0.09596121,-8.204088 -7.775769 0.008901834,-8.711288 -6.555755 -0.4857638,-8.605188 -6.386977 -0.02638018,-8.533781 -7.040237 0.0997926,-8.507113 -7.464676 0.07367182,7.610,
-0.9321547 -8.761473 -1.203178,-1.518459 -8.223133 -0.6245745,-1.927239 -7.32662 -0.2994606,-2.121604 -6.377307 0.03095627,-2.174019 -5.471483 0.3214705,-1.765575 -5.951879 -1.247982,-1.895331 -4.864436 -1.022152,-1.935009 -4.164872 -0.7421797,-1.95452 -3.495438 -0.5203801,-1.353578 -5.882693 -1.273122,-1.369009 -4.727401 -0.6039962,-1.361351 -5.545722 -0.1884636,-1.343584 -6.252195 -0.124319,-0.9625502 -5.935074 -1.220759,-0.9517298 -4.782115 -0.6574235,-1.017738 -5.594834 -0.3824158,-1.035825 -6.311179 -0.4336632,-0.5595269 -6.092347 -1.098892,-0.538763 -5.136357 -0.7407814,-0.6489339 -5.540254 -0.5871174,-0.6961269 -6.114687 -0.6316423,-8.337629 -8.677011 -1.393901,-7.888947 -8.577749 -0.8646928,-7.385371 -7.915057 -0.4954519,-7.220963 -7.212256 -0.1801552,-7.446612 -6.718055 0.1184944,-7.636901 -6.413721 -0.9175802,-7.49161 -5.501705 -0.5075228,-7.417018 -4.915056 -0.2201571,-7.336548 -4.431487 -0.003592014,-8.01665 -6.296348 -0.8908535,-7.917078 -6.080055 -0.1725254,-7.929056 -7.039358 0.03573775,-7.976831 -7.739896 -0.02734482,-8.408087 -6.413589 -0.7656574,-8.312527 -6.316535 -0.09314656,-8.287823 -7.199663 0.06356108,-8.285554 -7.764939 -0.02752447,-8.813507 -6.634679 -0.6130043,-8.740982 -6.310315 -0.1143669,-8.656591 -6.956377 0.007105112,-8.617233 -7.412495 -0.03572965,7.710,
-0.8260555 -9.062309 -1.297756,-1.369817 -8.508566 -0.6850452,-1.756807 -7.67453 -0.365481,-1.884396 -6.717198 -0.06272435,-1.886177 -5.796786 0.197983,-1.621603 -6.314281 -1.089315,-1.733496 -5.264324 -0.6996807,-1.775576 -4.650227 -0.428685,-1.819582 -4.038713 -0.2593906,-1.216762 -6.209407 -1.151897,-1.204978 -5.389476 -0.3646044,-1.183008 -6.468637 -0.1412449,-1.204717 -7.134523 -0.2588267,-0.8275094 -6.241394 -1.111595,-0.8000832 -5.403213 -0.3679382,-0.8297501 -6.414043 -0.243983,-0.8675957 -7.077006 -0.4028766,-0.4475594 -6.388741 -1.020893,-0.377079 -5.460805 -0.5689852,-0.4499636 -5.862991 -0.4370563,-0.5250854 -6.328965 -0.5005429,-8.459192 -8.661484 -1.44774,-7.966316 -8.525042 -0.8977848,-7.48896 -7.828354 -0.5171319,-7.313122 -7.131506 -0.1865988,-7.439795 -6.59242 0.100403,-7.821356 -6.344459 -0.9472164,-7.675127 -5.260849 -0.543415,-7.607985 -4.554416 -0.2453715,-7.572743 -3.95293 -0.01553345,-8.179946 -6.295245 -0.9266248,-8.071337 -5.494548 -0.1095408,-7.991862 -6.339057 0.222682,-7.976889 -7.053212 0.2288686,-8.561953 -6.422098 -0.8266813,-8.492838 -5.729314 -0.1184555,-8.379806 -6.517682 0.1367621,-8.321845 -7.146587 0.07548714,-8.954849 -6.667394 -0.698746,-8.92259 -6.005037 -0.152521,-8.800238 -6.468004 0.04068077,-8.726023 -6.949798 0.02962828,7.810,
-0.7782836 -9.130257 -1.588947,-1.322803 -8.573349 -1.083479,-1.725641 -7.757421 -0.7961255,-1.835997 -6.828272 -0.5056005,-1.733113 -6.01673 -0.2252271,-1.605549 -6.515968 -1.339106,-1.786035 -5.457099 -0.8964797,-1.849704 -4.856791 -0.6461463,-1.876257 -4.295341 -0.5146871,-1.199864 -6.372346 -1.352303,-1.22858 -5.772943 -0.6244361,-1.228308 -6.859555 -0.4781519,-1.240562 -7.537727 -0.6188737,-0.8027787 -6.383802 -1.276109,-0.8255424 -5.739179 -0.5768768,-0.8791413 -6.736986 -0.5310553,-0.9071016 -7.4024 -0.705258,-0.4154949 -6.508021 -1.152364,-0.3708229 -5.640341 -0.7125405,-0.4770856 -6.119216 -0.6153347,-0.5620151 -6.644229 -0.6753054,-8.50468 -8.616631 -1.081367,-7.995875 -8.503122 -0.5420234,-7.519671 -7.77379 -0.1960988,-7.327237 -7.083841 0.1224977,-7.423431 -6.528512 0.3795805,-7.874149 -6.198911 -0.693175,-7.721146 -5.171165 -0.3578216,-7.643416 -4.416292 -0.06822288,-7.603966 -3.765823 0.1787771,-8.227797 -6.121812 -0.669821,-8.15213 -5.008966 -0.02223551,-8.033335 -5.618082 0.3688204,-7.990958 -6.301838 0.4744487,-8.595613 -6.220325 -0.5595388,-8.561997 -5.19354 0.02436006,-8.420247 -5.792002 0.3683695,-8.351206 -6.47042 0.4365002,-8.981742 -6.465715 -0.4310253,-9.007522 -5.611961 0.06729972,-8.865462 -5.838584 0.3083079,-8.765016 -6.344472 0.3727396,7.910,
-0.7581434 -9.29158 -1.222505,-1.298111 -8.805479 -0.7133632,-1.740448 -8.051384 -0.3768221,-1.851895 -7.258464 -0.01555717,-1.755098 -6.4766 0.3995459,-1.662236 -6.625712 -0.8439292,-1.882007 -5.856706 -0.3440869,-1.978781 -5.353808 0.01097739,-2.054027 -4.912866 0.2337198,-1.222065 -6.453659 -0.8124651,-1.334612 -6.253687 -0.03809166,-1.311768 -7.331459 0.249534,-1.288141 -8.138445 0.2518939,-0.787199 -6.516863 -0.7110767,-0.900156 -6.432279 0.01817739,-0.9199553 -7.460576 0.1332883,-0.9227295 -8.173235 0.04725945,-0.3534184 -6.73199 -0.555547,-0.4171929 -6.276988 -0.03850496,-0.5300899 -6.955715 0.05567563,-0.615901 -7.519322 0.01310313,-8.566354 -8.597988 -0.2149921,-8.036039 -8.40645 0.2718346,-7.562851 -7.691301 0.5258588,-7.380332 -6.987354 0.7570701,-7.428244 -6.397455 0.9466397,-7.922668 -5.940776 -0.1052431,-7.764426 -4.992401 0.03598395,-7.737041 -4.302204 0.2711757,-7.715498 -3.736086 0.4985343,-8.293053 -5.822349 -0.1071488,-8.224144 -4.871504 0.1589761,-8.206656 -4.482975 0.6098282,-8.185663 -4.466714 0.9353328,-8.651413 -5.938854 -0.04876582,-8.63173 -5.082199 0.2281922,-8.620625 -4.838218 0.6535033,-8.585193 -4.957336 0.9566399,-9.031051 -6.255674 0.07317045,-9.09221 -5.527584 0.3868453,-9.078868 -5.306812 0.7299861,-9.003908 -5.398031 0.9908094,8.010,
